{"type":"map","version":"1.10","tiledversion":"1.10.2","orientation":"orthogonal","renderorder":"right-down","width":256,"height":192,"tilewidth":8,"tileheight":8,"infinite":false,"nextlayerid":3,"nextobjectid":1,"layers":[{"id":1,"name":"Terrain et falaises","type":"tilelayer","x":0,"y":0,"width":256,"height":192,"opacity":1,"visible":true,"data":[2,2,2,2,2,2,2,2,2,2,2,2,2,2,2,2,2,2,2,2,2,2,2,2,2,2,2,2,2,2,2,2,2,2,2,2,2,2,2,2,2,2,2,2,2,2,2,2,2,2,2,2,2,2,2,2,2,2,2,2,2,2,2,2,2,2,2,2,2,2,2,2,2,2,2,2,2,2,2,2,2,2,2,2,2,2,2,2,2,2,2,2,2,2,2,2,2,2,2,2,2,2,2,2,2,2,2,2,2,2,2,2,2,2,2,2,2,2,2,2,2,2,2,2,2,2,2,2,2,2,2,2,2,2,2,2,2,2,2,2,2,2,2,2,2,2,2,2,2,2,2,2,2,2,2,2,2,2,2,2,2,2,2,2,2,2,2,2,2,2,2,2,2,2,2,2,2,2,2,2,2,2,2,2,2,2,2,2,2,2,2,2,2,2,2,2,2,2,2,2,2,2,2,2,2,2,2,2,2,2,2,2,2,2,2,2,2,2,2,2,2,2,2,2,2,2,2,2,2,2,2,2,2,2,2,2,2,2,2,2,2,2,2,2,2,2,2,2,2,2,2,2,2,2,2,2,2,2,2,2,2,2,2,2,2,2,2,2,2,2,2,2,2,2,2,2,2,2,2,2,2,2,2,2,2,2,2,2,2,2,2,2,2,2,2,2,2,2,2,2,2,2,2,2,2,2,2,2,2,2,2,2,2,2,2,2,2,2,2,2,2,2,2,2,2,2,2,2,2,2,2,2,2,2,2,2,2,2,2,2,2,2,2,2,2,2,2,2,2,2,2,2,2,2,2,2,2,2,2,2,2,2,2,2,2,2,2,2,2,2,2,2,2,2,2,2,2,2,2,2,2,2,2,2,2,2,2,2,2,2,2,2,2,2,2,2,2,2,2,2,2,2,2,2,2,2,2,2,2,2,2,2,2,2,2,2,2,2,2,2,2,2,2,2,2,2,2,2,2,2,2,2,2,2,2,2,2,2,2,2,2,2,2,2,2,2,2,2,2,2,2,2,2,2,2,2,2,2,2,2,2,2,2,2,2,2,2,2,2,2,2,2,2,2,2,2,2,2,2,2,2,2,2,2,2,2,2,2,2,2,2,2,2,2,2,2,2,2,2,2,2,2,2,2,2,2,2,2,2,2,2,2,3,2,3,2,3,2,3,2,3,3,2,3,2,3,2,3,3,2,3,2,3,2,3,2,3,3,2,3,2,3,2,3,3,2,3,2,3,2,3,2,3,3,2,3,2,3,2,3,3,2,3,2,3,2,3,2,3,3,2,3,2,3,2,3,3,2,3,2,3,2,3,2,3,3,2,3,2,3,2,3,3,2,3,2,3,2,3,2,3,3,2,3,2,3,2,3,3,2,3,2,3,2,3,2,3,3,2,3,2,3,2,3,3,2,3,2,3,2,3,2,3,3,2,3,2,3,2,3,3,2,3,2,3,2,3,2,3,3,2,3,2,3,2,3,3,2,3,2,3,2,3,2,3,3,2,3,2,3,2,3,3,2,3,2,3,2,3,2,3,3,2,3,2,3,2,3,3,2,3,2,3,2,3,2,3,3,2,3,2,3,2,3,3,2,3,2,3,2,3,2,3,3,2,3,2,3,2,3,3,2,3,2,3,2,3,2,3,3,2,3,2,3,2,3,3,2,3,2,3,2,3,2,3,3,2,3,2,3,2,3,3,2,3,2,3,2,3,2,3,3,2,3,2,3,2,3,2,2,2,2,2,2,2,2,2,2,2,2,2,2,2,2,2,2,2,2,2,2,2,2,2,2,2,2,2,2,2,2,2,2,2,2,2,2,2,2,2,2,2,2,2,2,2,2,2,2,2,2,2,2,2,2,2,2,2,2,2,2,2,2,2,2,2,2,2,2,2,2,2,2,2,2,2,2,2,2,2,2,2,2,2,2,2,2,2,2,2,2,2,2,2,2,2,2,2,2,2,2,2,2,2,2,2,2,2,2,2,2,2,2,2,2,2,2,2,2,2,2,2,2,2,2,2,2,2,2,2,2,2,2,2,2,2,2,2,2,2,2,2,2,2,2,2,2,2,2,2,2,2,2,2,2,2,2,2,2,2,2,2,2,2,2,2,2,2,2,2,2,2,2,2,2,2,2,2,2,2,2,2,2,2,2,2,2,2,2,2,2,2,2,2,2,2,2,2,2,2,2,2,2,2,2,2,2,2,2,2,2,2,2,2,2,2,2,2,2,2,2,2,2,2,2,2,2,2,2,2,2,2,2,2,2,2,2,2,2,2,2,2,2,2,2,2,2,2,2,2,2,2,2,2,2,3,2,3,2,3,2,3,2,3,3,2,3,2,3,2,3,3,2,3,2,3,2,3,2,3,3,2,3,2,3,2,3,3,2,3,2,3,2,3,2,3,3,2,3,2,3,2,3,3,2,3,2,3,2,3,2,3,3,2,3,2,3,2,3,3,2,3,2,3,2,3,2,3,3,2,3,2,3,2,3,3,2,3,2,3,2,3,2,3,3,2,3,2,3,2,3,3,2,3,2,3,2,3,2,3,3,2,3,2,3,2,3,3,2,3,2,3,2,3,2,3,3,2,3,2,3,2,3,3,2,3,2,3,2,3,2,3,3,2,3,2,3,2,3,3,2,3,2,3,2,3,2,3,3,2,3,2,3,2,3,3,2,3,2,3,2,3,2,3,3,2,3,2,3,2,3,3,2,3,2,3,2,3,2,3,3,2,3,2,3,2,3,3,2,3,2,3,2,3,2,3,3,2,3,2,3,2,3,3,2,3,2,3,2,3,2,3,3,2,3,2,3,2,3,3,2,3,2,3,2,3,2,3,3,2,3,2,3,2,3,3,2,3,2,3,2,3,2,3,3,2,3,2,3,2,3,2,2,2,2,2,2,2,2,2,2,2,2,2,2,2,2,2,2,2,2,2,2,2,2,2,2,2,2,2,2,2,2,2,2,2,2,2,2,2,2,2,2,2,2,2,2,2,2,2,2,2,2,2,2,2,2,2,2,2,2,2,2,2,2,2,2,2,2,2,2,2,2,2,2,2,2,2,2,2,2,2,2,2,2,2,2,2,2,2,2,2,2,2,2,2,2,2,2,2,2,2,2,2,2,2,2,2,2,2,2,2,2,2,2,2,2,2,2,2,2,2,2,2,2,2,2,2,2,2,2,2,2,2,2,2,2,2,2,2,2,2,2,2,2,2,2,2,2,2,2,2,2,2,2,2,2,2,2,2,2,2,2,2,2,2,2,2,2,2,2,2,2,2,2,2,2,2,2,2,2,2,2,2,2,2,2,2,2,2,2,2,2,2,2,2,2,2,2,2,2,2,2,2,2,2,2,2,2,2,2,2,2,2,2,2,2,2,2,2,2,2,2,2,2,2,2,2,2,2,2,2,2,2,2,2,2,2,2,2,2,2,2,2,2,2,2,2,2,2,2,2,2,2,2,2,2,3,2,3,2,3,2,3,2,3,3,2,3,2,3,2,3,3,2,3,2,3,2,3,2,3,3,2,3,2,3,2,3,3,2,3,2,3,2,3,2,3,3,2,3,2,3,2,3,3,2,3,2,3,2,3,2,3,3,2,3,2,3,2,3,3,2,3,2,3,2,3,2,3,3,2,3,2,3,2,3,3,2,3,2,3,2,3,2,3,3,2,3,2,3,2,3,3,2,3,2,3,2,3,2,3,3,2,3,2,3,2,3,3,2,3,2,3,2,3,2,3,3,2,3,2,3,2,3,3,2,3,2,3,2,3,2,3,3,2,3,2,3,2,3,3,2,3,2,3,2,3,2,3,3,2,3,2,3,2,3,3,2,3,2,3,2,3,2,3,3,2,3,2,3,2,3,3,2,3,2,3,2,3,2,3,3,2,3,2,3,2,3,3,2,3,2,3,2,3,2,3,3,2,3,2,3,2,3,3,2,3,2,3,2,3,2,3,3,2,3,2,3,2,3,3,2,3,2,3,2,3,2,3,3,2,3,2,3,2,3,3,2,3,2,3,2,3,2,3,3,2,3,2,3,2,3,2,2,2,2,2,2,2,2,2,2,2,2,2,2,2,2,2,2,2,2,2,2,2,2,2,2,2,2,2,2,2,2,2,2,2,2,2,2,2,2,2,2,2,2,2,2,2,2,2,2,2,2,2,2,2,2,2,2,2,2,2,2,2,2,2,2,2,2,2,2,2,2,2,2,2,2,2,2,2,2,2,2,2,2,2,2,2,2,2,2,2,2,2,2,2,2,2,2,2,2,2,2,2,2,2,2,2,2,2,2,2,2,2,2,2,2,2,2,2,2,2,2,2,2,2,2,2,2,2,2,2,2,2,2,2,2,2,2,2,2,2,2,2,2,2,2,2,2,2,2,2,2,2,2,2,2,2,2,2,2,2,2,2,2,2,2,2,2,2,2,2,2,2,2,2,2,2,2,2,2,2,2,2,2,2,2,2,2,2,2,2,2,2,2,2,2,2,2,2,2,2,2,2,2,2,2,2,2,2,2,2,2,2,2,2,2,2,2,2,2,2,2,2,2,2,2,2,2,2,2,2,2,2,2,2,2,2,2,2,2,2,2,2,2,2,2,2,2,2,2,2,2,2,2,2,2,3,2,3,2,3,2,3,2,3,3,2,3,2,3,2,3,3,2,3,2,3,2,3,2,3,3,2,3,2,3,2,3,3,2,3,2,3,2,3,2,3,3,2,3,2,3,2,3,3,2,3,2,3,2,3,2,3,3,2,3,2,3,2,3,3,2,3,2,3,2,3,2,3,3,2,3,2,3,2,3,3,2,3,2,3,2,3,2,3,3,2,3,2,3,2,3,3,2,3,2,3,2,3,2,3,3,2,3,2,3,2,3,3,2,3,2,3,2,3,2,3,3,2,3,2,3,2,3,3,2,3,2,3,2,3,2,3,3,2,3,2,3,2,3,3,2,3,2,3,2,3,2,3,3,2,3,2,3,2,3,3,2,3,2,3,2,3,2,3,3,2,3,2,3,2,3,3,2,3,2,3,2,3,2,3,3,2,3,2,3,2,3,3,2,3,2,3,2,3,2,3,3,2,3,2,3,2,3,3,2,3,2,3,2,3,2,3,3,2,3,2,3,2,3,3,2,3,2,3,2,3,2,3,3,2,3,2,3,2,3,3,2,3,2,3,2,3,2,3,3,2,3,2,3,2,3,2,2,2,2,2,2,2,2,2,2,2,2,2,2,2,2,2,2,2,2,2,2,2,2,2,2,2,2,2,2,2,2,2,2,2,2,2,2,2,2,2,2,2,2,2,2,2,2,2,2,2,2,2,2,2,2,2,2,2,2,2,2,2,2,2,2,2,2,2,2,2,2,2,2,2,2,2,2,2,2,2,2,2,2,2,2,2,2,2,2,2,2,2,2,2,2,2,2,2,2,2,2,2,2,2,2,2,2,2,2,2,2,2,2,2,2,2,2,2,2,2,2,2,2,2,2,2,2,2,2,2,2,2,2,2,2,2,2,2,2,2,2,2,2,2,2,2,2,2,2,2,2,2,2,2,2,2,2,2,2,2,2,2,2,2,2,2,2,2,2,2,2,2,2,2,2,2,2,2,2,2,2,2,2,2,2,2,2,2,2,2,2,2,2,2,2,2,2,2,2,2,2,2,2,2,2,2,2,2,2,2,2,2,2,2,2,2,2,2,2,2,2,2,2,2,2,2,2,2,2,2,2,2,2,2,2,2,2,2,2,2,2,2,2,2,2,2,2,2,2,2,2,2,2,2,2,2,2,2,2,2,2,2,2,2,2,2,2,2,2,2,2,2,2,2,2,2,2,2,2,2,2,2,2,2,2,2,2,2,2,2,2,2,2,2,2,2,2,2,2,2,2,2,2,2,2,2,2,2,2,2,2,2,2,2,2,2,2,2,2,2,2,2,2,2,2,2,2,2,2,2,2,2,2,2,2,2,2,2,2,2,2,2,2,2,2,2,2,2,2,2,2,2,2,2,2,2,2,2,2,2,2,2,2,2,2,2,2,2,2,2,2,2,2,2,2,2,2,2,2,2,2,2,2,2,2,2,2,2,2,2,2,2,2,2,2,2,2,2,2,2,2,2,2,2,2,2,2,2,2,2,2,2,2,2,2,2,2,2,2,2,2,2,2,2,2,2,2,2,2,2,2,2,2,2,2,2,2,2,2,2,2,2,2,2,2,2,2,2,2,2,2,2,2,2,2,2,2,2,2,2,2,2,2,2,2,2,2,2,2,2,2,2,2,2,2,2,2,2,2,2,2,2,2,2,2,2,2,2,2,2,2,2,2,2,2,2,2,2,2,2,2,2,2,2,2,2,2,2,2,2,2,3,2,3,2,3,2,3,2,3,3,2,3,2,3,2,3,3,2,3,2,3,2,3,2,3,3,2,3,2,3,2,3,3,2,3,2,3,2,3,2,3,3,2,3,2,3,2,3,3,2,3,2,3,2,3,2,3,3,2,3,2,3,2,3,3,2,3,2,3,2,3,2,3,3,2,3,2,3,2,3,3,2,3,2,3,2,3,2,3,3,2,3,2,3,2,3,3,2,3,2,3,2,3,2,3,3,2,3,2,3,2,3,3,2,3,2,3,2,3,2,3,3,2,3,2,3,2,3,3,2,3,2,3,2,3,2,3,3,2,3,2,3,2,3,3,2,3,2,3,2,3,2,3,3,2,3,2,3,2,3,3,2,3,2,3,2,3,2,3,3,2,3,2,3,2,3,3,2,3,2,3,2,3,2,3,3,2,3,2,3,2,3,3,2,3,2,3,2,3,2,3,3,2,3,2,3,2,3,3,2,3,2,3,2,3,2,3,3,2,3,2,3,2,3,3,2,3,2,3,2,3,2,3,3,2,3,2,3,2,3,3,2,3,2,3,2,3,2,3,3,2,3,2,3,2,3,2,2,2,2,2,2,2,2,2,2,2,2,2,2,2,2,2,2,2,2,2,2,2,2,2,2,2,2,2,2,2,2,2,2,2,2,2,2,2,2,2,2,2,2,2,2,2,2,2,2,2,2,2,2,2,2,2,2,2,2,2,2,2,2,2,2,2,2,2,2,2,2,2,2,2,2,2,2,2,2,2,2,2,2,2,2,2,2,2,2,2,2,2,2,2,2,2,2,2,2,2,2,2,2,2,2,2,2,2,2,2,2,2,2,2,2,2,2,2,2,2,2,2,2,2,2,2,2,2,2,2,2,2,2,2,2,2,2,2,2,2,2,2,2,2,2,2,2,2,2,2,2,2,2,2,2,2,2,2,2,2,2,2,2,2,2,2,2,2,2,2,2,2,2,2,2,2,2,2,2,2,2,2,2,2,2,2,2,2,2,2,2,2,2,2,2,2,2,2,2,2,2,2,2,2,2,2,2,2,2,2,2,2,2,2,2,2,2,2,2,2,2,2,2,2,2,2,2,2,2,2,2,2,2,2,2,2,2,2,2,2,2,2,2,2,2,2,2,2,2,2,2,2,2,2,2,3,2,3,2,3,2,3,2,3,3,2,3,2,3,2,3,3,2,3,2,3,2,3,2,3,3,2,3,2,3,2,3,3,2,3,2,3,2,3,2,3,3,2,3,2,3,2,3,3,2,3,2,3,2,3,2,3,3,2,3,2,3,2,3,3,2,3,2,3,2,3,2,3,3,2,3,2,3,2,3,3,2,3,2,3,2,3,2,3,3,2,3,2,3,2,3,3,2,3,2,3,2,3,2,3,3,2,3,2,3,2,3,3,2,3,2,3,2,3,2,3,3,2,3,2,3,2,3,3,2,3,2,3,2,3,2,3,3,2,3,2,3,2,3,3,2,3,2,3,2,3,2,3,3,2,3,2,3,2,3,3,2,3,2,3,2,3,2,3,3,2,3,2,3,2,3,3,2,3,2,3,2,3,2,3,3,2,3,2,3,2,3,3,2,3,2,3,2,3,2,3,3,2,3,2,3,2,3,3,2,3,2,3,2,3,2,3,3,2,3,2,3,2,3,3,2,3,2,3,2,3,2,3,3,2,3,2,3,2,3,3,2,3,2,3,2,3,2,3,3,2,3,2,3,2,3,2,2,2,2,2,2,2,2,2,2,2,2,2,2,2,2,2,2,2,2,2,2,2,2,2,2,2,2,2,2,2,2,2,2,2,2,2,2,2,2,2,2,2,2,2,2,2,2,2,2,2,2,2,2,2,2,2,2,2,2,2,2,2,2,2,2,2,2,2,2,2,2,2,2,2,2,2,2,2,2,2,2,2,2,2,2,2,2,2,2,2,2,2,2,2,2,2,2,2,2,2,2,2,2,2,2,2,2,2,2,2,2,2,2,2,2,2,2,2,2,2,2,2,2,2,2,2,2,2,2,2,2,2,2,2,2,2,2,2,2,2,2,2,2,2,2,2,2,2,2,2,2,2,2,2,2,2,2,2,2,2,2,2,2,2,2,2,2,2,2,2,2,2,2,2,2,2,2,2,2,2,2,2,2,2,2,2,2,2,2,2,2,2,2,2,2,2,2,2,2,2,2,2,2,2,2,2,2,2,2,2,2,2,2,2,2,2,2,2,2,2,2,2,2,2,2,2,2,2,2,2,2,2,2,2,2,2,2,2,2,2,2,2,2,2,2,2,2,2,2,2,2,2,2,2,2,3,2,3,2,3,2,3,2,3,3,2,3,2,3,2,3,3,2,3,2,3,2,3,2,3,3,2,3,2,3,2,3,3,2,3,2,3,2,3,2,3,3,2,3,2,3,2,3,3,2,3,2,3,2,3,2,3,3,2,3,2,3,2,3,3,2,3,2,3,2,3,2,3,3,2,3,2,3,2,3,3,2,3,2,3,2,3,2,3,3,2,3,2,3,2,3,3,2,3,2,3,2,3,2,3,3,2,3,2,3,2,3,3,2,3,2,3,2,3,2,3,3,2,3,2,3,2,3,3,2,3,2,3,2,3,2,3,3,2,3,2,3,2,3,3,2,3,2,3,2,3,2,3,3,2,3,2,3,2,3,3,2,3,2,3,2,3,2,3,3,2,3,2,3,2,3,3,2,3,2,3,2,3,2,3,3,2,3,2,3,2,3,3,2,3,2,3,2,3,2,3,3,2,3,2,3,2,3,3,2,3,2,3,2,3,2,3,3,2,3,2,3,2,3,3,2,3,2,3,2,3,2,3,3,2,3,2,3,2,3,3,2,3,2,3,2,3,2,3,3,2,3,2,3,2,3,2,2,2,2,2,2,2,2,2,2,2,2,2,2,2,2,2,2,2,2,2,2,2,2,2,2,2,2,2,2,2,2,2,2,2,2,2,2,2,2,2,2,2,2,2,2,2,2,2,2,2,2,2,2,2,2,2,2,2,2,2,2,2,2,2,2,2,2,2,2,2,2,2,2,2,2,2,2,2,2,2,2,2,2,2,2,2,2,2,2,2,2,2,2,2,2,2,2,2,2,2,2,2,2,2,2,2,2,2,2,2,2,2,2,2,2,2,2,2,2,2,2,2,2,2,2,2,2,2,2,2,2,2,2,2,2,2,2,2,2,2,2,2,2,2,2,2,2,2,2,2,2,2,2,2,2,2,2,2,2,2,2,2,2,2,2,2,2,2,2,2,2,2,2,2,2,2,2,2,2,2,2,2,2,2,2,2,2,2,2,2,2,2,2,2,2,2,2,2,2,2,2,2,2,2,2,2,2,2,2,2,2,2,2,2,2,2,2,2,2,2,2,2,2,2,2,2,2,2,2,2,2,2,2,2,2,2,2,2,2,2,2,2,2,2,2,2,2,2,2,2,2,2,2,2,2,2,2,2,2,2,2,2,2,2,2,2,2,2,2,2,2,2,2,2,2,2,2,2,2,2,2,2,2,2,2,2,2,2,2,2,2,2,2,2,2,2,2,2,2,2,2,2,2,2,2,2,2,2,2,2,2,2,2,2,2,2,2,2,2,2,2,2,2,2,2,2,2,2,2,2,2,2,2,2,2,2,2,2,2,2,2,2,2,2,2,2,2,2,2,2,2,2,2,2,2,2,2,2,2,2,2,2,2,2,2,2,2,2,2,2,2,2,2,2,2,2,2,2,2,2,2,2,2,2,2,2,2,2,2,2,2,2,2,2,2,2,2,2,2,2,2,2,2,2,2,2,2,2,2,2,2,2,2,2,2,2,2,2,2,2,2,2,2,2,2,2,2,2,2,2,2,2,2,2,2,2,2,2,2,2,2,2,2,2,2,2,2,2,2,2,2,2,2,2,2,2,2,2,2,2,2,2,2,2,2,2,2,2,2,2,2,2,2,2,2,2,2,2,2,2,2,2,2,2,2,2,2,2,2,2,2,2,2,2,2,2,2,2,2,2,2,2,2,2,2,2,2,2,2,2,2,3,2,3,2,3,2,3,2,3,3,2,3,2,3,2,3,3,2,3,2,3,2,3,2,3,3,2,3,2,3,2,3,3,2,3,2,3,2,3,2,3,3,2,3,2,3,2,3,3,2,3,2,3,2,3,2,3,3,2,3,2,3,2,3,3,2,3,2,3,2,3,2,3,3,2,3,2,3,2,3,3,2,3,2,3,2,3,2,3,3,2,3,2,3,2,3,3,2,3,2,3,2,3,2,3,3,2,3,2,3,2,3,3,2,3,2,3,2,3,2,3,3,2,3,2,3,2,3,3,2,3,2,3,2,3,2,3,3,2,3,2,3,2,3,3,2,3,2,3,2,3,2,3,3,2,3,2,3,2,3,3,2,3,2,3,2,3,2,3,3,2,3,2,3,2,3,3,2,3,2,3,2,3,2,3,3,2,3,2,3,2,3,3,2,3,2,3,2,3,2,3,3,2,3,2,3,2,3,3,2,3,2,3,2,3,2,3,3,2,3,2,3,2,3,3,2,3,2,3,2,3,2,3,3,2,3,2,3,2,3,3,2,3,2,3,2,3,2,3,3,2,3,2,3,2,3,2,2,2,2,2,2,2,2,2,2,2,2,2,2,2,2,2,2,2,2,2,2,2,2,2,2,2,2,2,2,2,2,2,2,2,2,2,2,2,2,2,2,2,2,2,2,2,2,2,2,2,2,2,2,2,2,2,2,2,2,2,2,2,2,2,2,2,2,2,2,2,2,2,2,2,2,2,2,2260,2261,2262,2263,2264,2265,2266,2267,2264,2265,2262,2263,2264,2265,2266,2267,2264,2265,2262,2263,2264,2265,2266,2267,2264,2265,2262,2263,2264,2265,2266,2267,2264,2265,2262,2263,2264,2265,2266,2267,2264,2265,2262,2263,2264,2265,2266,2267,2264,2265,2262,2263,2264,2265,2266,2267,2264,2265,2262,2263,2264,2265,2266,2267,2264,2265,2262,2263,2264,2265,2266,2267,2264,2265,2262,2263,2264,2265,2266,2267,2264,2265,2262,2263,2264,2265,2266,2267,2264,2265,2268,2269,2,2,2,2,2,2,2,2,2,2,2,2,2,2,2,2,2,2,2,2,2,2,2,2,2,2,2,2,2,2,2,2,2,2,2,2,2,2,2,2,2,2,2,2,2,2,2,2,2,2,2,2,2,2,2,2,2,2,2,2,2,2,2,2,2,2,2,2,2,2,2,2,2,2,2,2,2,2,2,2,2,2,2,2,2,2,3,2,3,2,3,2,3,2,3,3,2,3,2,3,2,3,3,2,3,2,3,2,3,2,3,3,2,3,2,3,2,3,3,2,3,2,3,2,3,2,3,3,2,3,2,3,2,3,3,2,3,2,3,2,3,2,3,3,2,3,2,3,2,3,3,2,3,2,3,2,3,2,3,3,2,3,2270,2271,2272,2273,3,2,3,2,3,2,3,2,3,3,2,3,2,3,2,3,3,2,3,2,3,2,3,2,3,3,2,3,2,3,2,3,3,2,3,2,3,2,3,2,3,3,2,3,2,3,2,3,3,2,3,2,3,2,3,2,3,3,2,3,2,3,2,3,3,2,3,2,3,2,3,2,3,3,2,3,2,3,2,3,3,2,3,2,3,2,3,2,2274,2275,2276,2277,2,3,2,3,3,2,3,2,3,2,3,2,3,3,2,3,2,3,2,3,3,2,3,2,3,2,3,2,3,3,2,3,2,3,2,3,3,2,3,2,3,2,3,2,3,3,2,3,2,3,2,3,3,2,3,2,3,2,3,2,3,3,2,3,2,3,2,3,3,2,3,2,3,2,3,2,3,3,2,3,2,3,2,3,2,2,2,2,2,2,2,2,2,2,2,2,2,2,2,2,2,2,2,2,2,2,2,2,2,2,2,2,2,2,2,2,2,2,2,2,2,2,2,2,2,2,2,2,2,2,2,2,2,2,2,2,2,2,2,2,2,2,2,2,2,2,2,2,2,2,2,2,2,2,2,2,2,2,2278,2279,2280,2281,2,2,2,2,2,2,2,2,2,2,2,2,2,2,2,2,2,2,2,2,2,2,2,2,2,2,2,2,2,2,2,2,2,2,2,2,2,2,2,2,2,2,2,2,2,2,2,2,2,2,2,2,2,2,2,2,2,2,2,2,2,2,2,2,2,2,2,2,2,2,2,2,2,2,2,2,2,2,2,2,2,2,2,2,2,2,2,2,2,2,2,2,2282,2283,2284,2285,2286,2,2,2,2,2,2,2,2,2,2,2,2,2,2,2,2,2,2,2,2,2,2,2,2,2,2,2,2,2,2,2,2,2,2,2,2,2,2,2,2,2,2,2,2,2,2,2,2,2,2,2,2,2,2,2,2,2,2,2,2,2,2,2,2,2,2,2,2,2,2,2,2,2,2,2,2,2,2,2,2,2,3,2,3,2,3,2,3,2,3,3,2,3,2,3,2,3,3,2,3,2,3,2,3,2,3,3,2,3,2,3,2,3,3,2,3,2,3,2,3,2,3,3,2,3,2,3,2,3,3,2,3,2,3,2,3,2,3,3,2,3,2,3,2,3,3,2,3,2,3,2,3,2,2287,2288,2289,2290,2,3,2,3,3,2,3,2,3,2,3,2,3,3,2,3,2,3,2,3,3,2,3,2,3,2,3,2,3,3,2,3,2,3,2,3,3,2,3,2,3,2,3,2,3,3,2,3,2,3,2,3,3,2,3,2,3,2,3,2,3,3,2,3,2,3,2,3,3,2,3,2,3,2,3,2,3,3,2,3,2,3,2,3,3,2,3,2,3,2,3,2,3,3,2,3,2291,2292,2293,2294,2295,2,3,2,3,2,3,2,3,3,2,3,2,3,2,3,3,2,3,2,3,2,3,2,3,3,2,3,2,3,2,3,3,2,3,2,3,2,3,2,3,3,2,3,2,3,2,3,3,2,3,2,3,2,3,2,3,3,2,3,2,3,2,3,3,2,3,2,3,2,3,2,3,3,2,3,2,3,2,3,2,2,2,2,2,2,2,2,2,2,2,2,2,2,2,2,2,2,2,2,2,2,2,2,2,2,2,2,2,2,2,2,2,2,2,2,2,2,2,2,2,2,2,2,2,2,2,2,2,2,2,2,2,2,2,2,2,2,2,2,2,2,2,2,2,2,2,2,2,2296,2297,2298,2299,2300,2,2,2,2,2,2,2,2,2,2,2,2,2,2,2,2,2,2,2,2,2,2,2,2,2,2,2,2,2,2,2,2,2,2,2,2,2,2,2,2,2,2,2,2,2,2,2,2,2,2,2,2,2,2,2,2,2,2,2,2,2,2,2,2,2,2,2,2,2,2,2,2,2,2,2,2,2,2,2,2,2,2,2,2,2,2,2,2,2,2,2,2,2,2,2,2,2,2,2,2,2,2301,2302,2303,2304,2305,2,2,2,2,2,2,2,2,2,2,2,2,2,2,2,2,2,2,2,2,2,2,2,2,2,2,2,2,2,2,2,2,2,2,2,2,2,2,2,2,2,2,2,2,2,2,2,2,2,2,2,2,2,2,2,2,2,2,2,2,2,2,2,2,2,2,2,2,2,2,2,2,2,2,2,2,3,2,3,2,3,2,3,2,3,3,2,3,2,3,2,3,3,2,3,2,3,2,3,2,3,3,2,3,2,3,2,3,3,2,3,2,3,2,3,2,3,3,2,3,2,3,2,3,3,2,3,2,3,2,3,2,3,3,2,3,2,3,2,3,3,2,3,2306,2307,2308,2309,2310,3,3,2,3,2,3,2,3,3,2,3,2,3,2,3,2,3,3,2,3,2,3,2,3,3,2,3,2,3,2,3,2,3,3,2,3,2,3,2,3,3,2,3,2,3,2,3,2,3,3,2,3,2,3,2,3,3,2,3,2,3,2,3,2,3,3,2,3,2,3,2,3,3,2,3,2,3,2,3,2,3,3,2,3,2,3,2,3,3,2,3,2,3,2,3,2,3,3,2,3,2,3,2,3,3,2311,2312,2313,2314,2315,3,2,3,3,2,3,2,3,2,3,3,2,3,2,3,2,3,2,3,3,2,3,2,3,2,3,3,2,3,2,3,2,3,2,3,3,2,3,2,3,2,3,3,2,3,2,3,2,3,2,3,3,2,3,2,3,2,3,3,2,3,2,3,2,3,2,3,3,2,3,2,3,2,3,2,2,2,2,2,2,2,2,2,2,2,2,2,2,2,2,2,2,2,2,2,2,2,2,2,2,2,2,2,2,2,2,2,2,2,2,2,2,2,2,2,2,2,2,2,2,2,2,2,2,2,2,2,2,2,2,2,2,2,2,2,2,2,2,2,2316,2317,2318,2319,2,2,2,2,2,2,2,2,2,2,2,2,2,2,2,2,2,2,2,2,2,2,2,2,2,2,2,2,2,2,2,2,2,2,2,2,2,2,2,2,2,2,2,2,2,2,2,2,2,2,2,2,2,2,2,2,2,2,2,2,2,2,2,2,2,2,2,2,2,2,2,2,2,2,2,2,2,2,2,2,2,2,2,2,2,2,2,2,2,2,2,2,2,2,2,2,2,2,2,2,2,2,2,2,2,2,2,2,2,2,2,2320,2321,2322,2323,2,2,2,2,2,2,2,2,2,2,2,2,2,2,2,2,2,2,2,2,2,2,2,2,2,2,2,2,2,2,2,2,2,2,2,2,2,2,2,2,2,2,2,2,2,2,2,2,2,2,2,2,2,2,2,2,2,2,2,2,2,2,2,2,2,2,2,2,2,2,2,2,2,2,2,2,2,2,2,2,2,2,2,2,2,2,2,2,2,2,2,2,2,2,2,2,2,2,2,2,2,2,2,2,2,2,2,2,2,2,2,2,2,2,2,2,2,2,2,2,2,2,2,2,2,2,2,2,2,2,2,2,2,2,2,2324,2325,2326,2327,2,2,2,2,2,2,2,2,2,2,2,2,2,2,2,2,2,2,2,2,2,2,2,2,2,2,2,2,2,2,2,2,2,2,2,2,2,2,2,2,2,2,2,2,2,2,2,2,2,2,2,2,2,2,2,2,2,2,2,2,2,2,2,2,2,2,2,2,2,2,2,2,2,2,2,2,2,2,2,2,2,2,2,2,2,2,2,2,2,2,2,2,2,2,2,2,2,2,2,2,2,2,2,2,2,2,2,2,2,2,2,2,2,2,2,2328,2329,2330,2331,2332,2,2,2,2,2,2,2,2,2,2,2,2,2,2,2,2,2,2,2,2,2,2,2,2,2,2,2,2,2,2,2,2,2,2,2,2,2,2,2,2,2,2,2,2,2,2,2,2,2,2,2,2,2,2,2,2,2,2,2,2,2,2,2,2,2,2,2,2,2,3,2,3,2,3,2,3,2,3,3,2,3,2,3,2,3,3,2,3,2,3,2,3,2,3,3,2,3,2,3,2,3,3,2,3,2,3,2,3,2,3,3,2,3,2,3,2,3,3,2,3,2,3,2,3,2,3,3,2,3,2,2333,2334,2335,2336,2,3,2,3,2,3,2,3,3,2,3,2,3,2,3,3,2,3,2,3,2,3,2,3,3,2,3,2,3,2,3,3,2,3,2,3,2,3,2,3,3,2,3,2,3,2,3,3,2,3,2,3,2,3,2,3,3,2,3,2,3,2,3,3,2,3,2,3,2,3,2,3,3,2,3,2,3,2,3,3,2,3,2,3,2,3,2,3,3,2,3,2,3,2,3,3,2,3,2,3,2,3,2,3,3,2,3,2,3,2,3,3,2,3,2,3,2,3,2,2343,2344,2345,2346,2347,3,2,3,3,2,3,2,3,2,3,2,3,3,2,3,2,3,2,3,3,2,3,2,3,2,3,2,3,3,2,3,2,3,2,3,3,2,3,2,3,2,3,2,3,3,2,3,2,3,2,3,3,2,3,2,3,2,3,2,3,3,2,3,2,3,2,3,2,2,2,2,2,2,2,2,2,2,2,2,2,2,2,2,2,2,2,2,2,2,2,2,2,2,2,2,2,2,2,2,2,2,2,2,2,2,2,2,2,2,2,2,2,2,2,2,2,2,2,2,2,2,2,2,2,2,2348,2349,2350,2351,2352,2,2,2,2,2,2,2,2,2,2,2,2,2,2,2,2,2,2,2,2,2,2,2,2,2,2,2,2,2,2,2,2,2,2,2,2,2,2,2,2,2,2,2,2,2,2,2,2,2,2,2,2,2,2,2,2,2,2,2,2,2,2,2,2,2,2,2,2,2,2,2,2,2,2,2,2,2,2,2,2,2,2,2,2,2,2,2,2,2,2,2,2,2,2,2,2,2,2,2,2,2,2,2,2,2,2,2,2,2,2,2,2,2,2,2,2,2,2,2,2,2,2,2,2,2367,2368,2369,2370,2371,2,2,2,2,2,2,2,2,2,2,2,2,2,2,2,2,2,2,2,2,2,2,2,2,2,2,2,2,2,2,2,2,2,2,2,2,2,2,2,2,2,2,2,2,2,2,2,2,2,2,2,2,2,2,2,2,2,2,2,2,2,2,2,2,3,2,3,2,3,2,3,2,3,3,2,3,2,3,2,3,3,2,3,2,3,2,3,2,3,3,2,3,2,3,2,3,3,2,3,2,3,2,3,2,3,3,2,3,2,3,2,3,3,2,3,2,3,2,3,2,3,2372,2373,2374,2375,3,2,3,3,2,3,2,3,2,3,2,3,3,2,3,2,3,2,3,3,2,3,2,3,2,3,2,3,3,2,3,2,3,2,3,3,2,3,2,3,2,3,2,3,3,2,3,2,3,2,3,3,2,3,2,3,2,3,2,3,3,2,3,2,3,2,3,3,2,3,2,3,2,3,2,3,3,2,3,2,3,2,3,3,2,3,2,3,2,3,2,3,3,2,3,2,3,2,3,3,2,3,2,3,2,3,2,3,3,2,3,2,3,2,3,3,2,3,2,3,2,3,2,3,3,2,3,2,2383,2384,2385,2386,2387,3,2,3,2,3,2,3,3,2,3,2,3,2,3,3,2,3,2,3,2,3,2,3,3,2,3,2,3,2,3,3,2,3,2,3,2,3,2,3,3,2,3,2,3,2,3,3,2,3,2,3,2,3,2,3,3,2,3,2,3,2,3,2,2,2,2,2,2,2,2,2,2,2,2,2,2,2,2,2,2,2,2,2,2,2,2,2,2,2,2,2,2,2,2,2,2,2,2,2,2,2,2,2,2,2,2,2,2,2,2,2,2,2,2,2,2,2,2388,2389,2390,2,2,2,2,2,2,2,2,2,2,2,2,2,2,2,2,2,2,2,2,2,2,2,2,2,2,2,2,2,2,2,2,2,2,2,2,2,2,2,2,2,2,2,2,2,2,2,2,2,2,2,2,2,2,2,2,2,2,2,2,2,2,2,2,2,2,2,2,2,2,2,2,2,2,2,2,2,2,2,2,2,2,2,2,2,2,2,2,2,2,2,2,2,2,2,2,2,2,2,2,2,2,2,2,2,2,2,2,2,2,2,2,2,2,2,2,2,2,2,2,2,2,2,2,2,2,2,2,2,2,2,2,2,2,2394,2395,2396,2,2,2,2,2,2,2,2,2,2,2,2,2,2,2,2,2,2,2,2,2,2,2,2,2,2,2,2,2,2,2,2,2,2,2,2,2,2,2,2,2,2,2,2,2,2,2,2,2,2,2,2,2,2,2,2,2,2,2,2,2,3,2,3,2,3,2,3,2,3,3,2,3,2,3,2,3,3,2,3,2,3,2,3,2,3,3,2,3,2,3,2,3,3,2,3,2,3,2,3,2,3,3,2,3,2,3,2,3,3,2,3,2,3,2,2397,2398,2399,3,2,3,2,3,2,3,3,2,3,2,3,2,3,2,3,3,2,3,2,3,2,3,3,2,3,2,3,2,3,2,3,3,2,3,2,3,2,3,3,2,3,2,3,2,3,2,3,3,2,3,2,3,2,3,3,2,3,2,3,2,3,2,3,3,2,3,2,3,2,3,3,2,3,2,3,2,3,2,3,3,2,3,2,3,2,3,3,2,3,2,3,2,3,2,3,3,2,3,2,3,2,3,3,2,3,2,3,2,3,2,3,3,2,3,2,3,2,3,3,2,3,2,3,2,3,2,3,3,2,3,2,3,2,3,3,2406,2407,2408,2409,2,3,2,3,3,2,3,2,3,2,3,3,2,3,2,3,2,3,2,3,3,2,3,2,3,2,3,3,2,3,2,3,2,3,2,3,3,2,3,2,3,2,3,3,2,3,2,3,2,3,2,3,3,2,3,2,3,2,3,2,2,2,2,2,2,2,2,2,2,2,2,2,2,2,2,2,2,2,2,2,2,2,2,2,2,2,2,2,2,2,2,2,2,2,2,2,2,2,2,2,2,2,2,2,2,2,2,2,2,2,2,2,2410,2411,2412,2,2,2,2,2,2,2,2,2,2,2,2,2,2,2,2,2,2,2,2,2,2,2,2,2,2,2,2,2,2,2,2,2,2,2,2,2,2,2,2,2,2,2,2,2,2,2,2,2,2,2,2,2,2,2,2,2,2,2,2,2,2,2,2,2,2,2,2,2,2,2,2,2,2,2,2,2,2,2,2,2,2,2,2,2,2,2,2,2,2,2,2,2,2,2,2,2,2,2,2,2,2,2,2,2,2,2,2,2,2,2,2,2,2,2,2,2,2,2,2,2,2,2,2,2,2,2,2,2,2,2,2,2,2,2,2,2,2,2,2417,2418,2419,2,2,2,2,2,2,2,2,2,2,2,2,2,2,2,2,2,2,2,2,2,2,2,2,2,2,2,2,2,2,2,2,2,2,2,2,2,2,2,2,2,2,2,2,2,2,2,2,2,2,2,2,2,2,2,2,2,2,2,2,2,2,2,2,2,2,2,2,2,2,2,2,2,2,2,2,2,2,2,2,2,2,2,2,2,2,2,2,2,2,2,2,2,2,2,2,2,2,2,2,2,2,2,2,2,2,2,2,2,2420,2421,2422,2,2,2,2,2,2,2,2,2,2,2,2,2,2,2,2,2,2,2,2,2,2,2,2,2,2,2,2,2,2,2,2,2,2,2,2,2,2,2,2,2,2,2,2,2,2,2,2,2,2,2,2,2,2,2,2,2,2,2,2,2,2,2,2,2,2,2,2,2,2,2,2,2,2,2,2,2,2,2,2,2,2,2,2,2,2,2,2,2,2,2,2,2,2,2,2,2,2,2,2,2,2,2,2,2,2,2,2,2,2,2,2,2,2,2,2,2,2,2,2,2,2,2,2,2,2,2,2,2,2,2,2,2,2,2,2,2,2,2,2,2,2,2426,2427,2428,2429,2,2,2,2,2,2,2,2,2,2,2,2,2,2,2,2,2,2,2,2,2,2,2,2,2,2,2,2,2,2,2,2,2,2,2,2,2,2,2,2,2,2,2,2,2,2,2,2,2,2,2,2,2,2,2,2,3,2,3,2,3,2,3,2,3,3,2,3,2,3,2,3,3,2,3,2,3,2,3,2,3,3,2,3,2,3,2,3,3,2,3,2,3,2,3,2,3,3,2,3,2,3,2,3,3,2,2430,2431,2432,2,3,2,3,3,2,3,2,3,2,3,3,2,3,2,3,2,3,2,3,3,2,3,2,3,2,3,3,2,3,2,3,2,3,2,3,3,2,3,2,3,2,3,3,2,3,2,3,2,3,2,3,3,2,3,2,3,2,3,3,2,3,2,3,2,3,2,3,3,2,3,2,3,2,3,3,2,3,2,3,2,3,2,3,3,2,3,2,3,2,3,3,2,3,2,3,2,3,2,3,3,2,3,2,3,2,3,3,2,3,2,3,2,3,2,3,3,2,3,2,3,2,3,3,2,3,2,3,2,3,2,3,3,2,3,2,3,2,3,3,2,3,2,3,2,2441,2442,2443,3,2,3,2,3,2,3,3,2,3,2,3,2,3,2,3,3,2,3,2,3,2,3,3,2,3,2,3,2,3,2,3,3,2,3,2,3,2,3,3,2,3,2,3,2,3,2,3,3,2,3,2,3,2,3,2,2,2,2,2,2,2,2,2,2,2,2,2,2,2,2,2,2,2,2,2,2,2,2,2,2,2,2,2,2,2,2,2,2,2,2,2,2,2,2,2,2,2,2,2,2,2,2,2,2444,2445,2446,2,2,2,2,2,2,2,2,2,2,2,2,2,2,2,2,2,2,2,2,2,2,2,2,2,2,2,2,2,2,2,2,2,2,2,2,2,2,2,2,2,2,2,2,2,2,2,2,2,2,2,2,2,2,2,2,2,2,2,2,2,2,2,2,2,2,2,2,2,2,2,2,2,2,2,2,2,2,2,2,2,2,2,2,2,2,2,2,2,2,2,2,2,2,2,2,2,2,2,2,2,2,2,2,2,2,2,2,2,2,2,2,2,2,2,2,2,2,2,2,2,2,2,2,2,2,2,2,2,2,2,2,2,2,2,2,2,2,2,2,2,2,2,2,2,2,2,2450,2451,2452,2371,2,2,2,2,2,2,2,2,2,2,2,2,2,2,2,2,2,2,2,2,2,2,2,2,2,2,2,2,2,2,2,2,2,2,2,2,2,2,2,2,2,2,2,2,2,2,2,2,2,2,2,2,2,3,2,3,2,3,2,3,2,3,3,2,3,2,3,2,3,3,2,3,2,3,2,3,2,3,3,2,3,2,3,2,3,3,2,3,2,3,2,3,2,3,3,2,3,2,3,2,2453,2454,2390,3,2,3,2,3,2,3,3,2,3,2,3,2,3,3,2,3,2,3,2,3,2,3,3,2,3,2,3,2,3,3,2,3,2,3,2,3,2,3,3,2,3,2,3,2,3,3,2,3,2,3,2,3,2,3,3,2,3,2,3,2,3,3,2,3,2,3,2,3,2,3,3,2,3,2,3,2,3,3,2,3,2,3,2,3,2,3,3,2,3,2,3,2,3,3,2,3,2,3,2,3,2,3,3,2,3,2,3,2,3,3,2,3,2,3,2,3,2,3,3,2,3,2,3,2,3,3,2,3,570,2456,599,632,2457,2458,3,2,3,2,3,2,3,3,2,3,2,3,2,3,2,3,2459,2460,2461,2,3,2,3,3,2,3,2,3,2,3,2,3,3,2,3,2,3,2,3,3,2,3,2,3,2,3,2,3,3,2,3,2,3,2,3,3,2,3,2,3,2,3,2,3,3,2,3,2,3,2,3,2,2,2,2,2,2,2,2,2,2,2,2,2,2,2,2,2,2,2,2,2,2,2,2,2,2,2,2,2,2,2,2,2,2,2,2,2,2,2,2,2,2,2,2,2,2,2462,2398,2463,2,2,2,2,2,2,2,2,2,2,2,2,2,2,2,2,2,2,2,2,2,2,2,2,2,2,2,2,2,2,2,2,2,2,2,2,2,2,2,2,2,2,2,2,2,2,2,2,2,2,2,2,2,2,2,2,2,2,2,2,2,2,2,2,2,2,2,2,2,2,2,2,2,2,2,2,2,2,2,2,2,2,2,2,2,2,2,2,2,2,2,2,2,2,2,2,2,2,2,2,2,2,2,2,2,2,2,2,2,2,2,2,2,2,2,2,2,2,2,2,2,2,2,2,2,2,2,2,2,2,748,600,600,600,600,826,2,2,2,2,2,2,2,2,2,2,2,2,2,2,2,2,2,2465,2466,2467,2371,2,2,2,2,2,2,2,2,2,2,2,2,2,2,2,2,2,2,2,2,2,2,2,2,2,2,2,2,2,2,2,2,2,2,2,2,2,2,2,2,2,2,2,2,2,2,2,2,2,2,3,2,3,2,3,2,3,2,3,3,2,3,2,3,2,3,3,2,3,2,3,2,3,2,3,3,2,3,2,3,2,3,3,2,3,2,3,2,3,2,3,3,2,3,2,2468,2411,2469,3,2,3,2,3,2,3,2,3,3,2,3,2,3,2,3,3,2,3,2,3,2,3,2,3,3,2,3,2,3,2,3,3,2,3,2,3,2,3,2,3,3,2,3,2,3,2,3,3,2,3,2,3,2,3,2,3,3,2,3,2,3,2,3,3,2,3,2,3,2,3,2,3,3,2,3,2,3,2,3,3,2,3,2,3,2,3,2,3,3,2,3,2,3,2,3,3,2,3,2,3,2,3,2,3,3,2,3,2,3,2,3,3,2,3,2,3,2,3,2,3,3,2,3,2,3,2,3,3,2,2473,2474,600,600,600,600,600,2475,2,3,2,3,2,3,3,2,3,2,3,2,3,2,3,3,2,3,2476,2477,2478,3,3,2,3,2,3,2,3,2,3,3,2,3,2,3,2,3,3,2,3,2,3,2,3,2,3,3,2,3,2,3,2,3,3,2,3,2,3,2,3,2,3,3,2,3,2,3,2,3,2,2,2,2,2,2,2,2,2,2,2,2,2,2,2,2,2,2,2,2,2,2,2,2,2,2,2,2,2,2,2,2,2,2,2,2,2,2,2,2,2,2,2,2420,2421,2422,2,2,2,2,2,2,2,2,2,2,2,2,2,2,2,2,2,2,2,2,2,2,2,2,2,2,2,2,2,2,2,2,2,2,2,2,2,2,2,2,2,2,2,2,2,2,2,2,2,2,2,2,2,2,2,2,2,2,2,2,2,2,2,2,2,2,2,2,2,2,2,2,2,2,2,2,2,2,2,2,2,2,2,2,2,2,2,2,2,2,2,2,2,2,2,2,2,2,2,2,2,2,2,2,2,2,2,2,2,2,2,2,2,2,2,2,2,2,2,2,2,2,2,2,2,2,2,2,2,2,2,2,2482,600,600,600,600,600,600,2483,2,2,2,2,2,2,2,2,2,2,2,2,2,2,2,2,2,2,2,2484,2485,2486,2487,2,2,2,2,2,2,2,2,2,2,2,2,2,2,2,2,2,2,2,2,2,2,2,2,2,2,2,2,2,2,2,2,2,2,2,2,2,2,2,2,2,2,2,2,2,2,2,3,2,3,2,3,2,3,2,3,3,2,3,2,3,2,3,3,2,3,2,3,2,3,2,3,3,2,3,2,3,2,3,3,2,3,2,3,2,3,2,3,3,2488,2489,2490,3,2,3,3,2,3,2,3,2,3,2,3,3,2,3,2,3,2,3,3,2,3,2,3,2,3,2,3,3,2,3,2,3,2,3,3,2,3,2,3,2,3,2,3,3,2,3,2,3,2,3,3,2,3,2,3,2,3,2,3,3,2,3,2,3,2,3,3,2,3,2,3,2,3,2,3,3,2,3,2,3,2,3,3,2,3,2,3,2,3,2,3,3,2,3,2,3,2,3,3,2,3,2,3,2,3,2,3,3,2,3,2,3,2,3,3,2,3,2,3,2,3,2,3,3,2,3,2,3,2,3,3,2,2494,600,600,600,600,600,2495,3,2,3,2,3,2,3,3,2,3,2,3,2,3,2,3,3,2,3,2,3,2,2496,2497,2498,3,2,3,2,3,2,3,3,2,3,2,3,2,3,3,2,3,2,3,2,3,2,3,3,2,3,2,3,2,3,3,2,3,2,3,2,3,2,3,3,2,3,2,3,2,3,2,2,2,2,2,2,2,2,2,2,2,2,2,2,2,2,2,2,2,2,2,2,2,2,2,2,2,2,2,2,2,2,2,2,2,2,2,2,2,2,2,2499,2445,2446,2,2,2,2,2,2,2,2,2,2,2,2,2,2,2,2,2,2,2,2,2,2,2,2,2,2,2,2,2,2,2,2,2,2,2,2,2,2,2,2,2,2,2,2,2,2,2,2,2,2,2,2,2,2,2,2,2,2,2,2,2,2,2,2,2,2,2,2,2,2,2,2,2,2,2,2,2,2,2,2,2,2,2,2,2,2,2,2,2,2,2,2,2,2,2,2,2,2,2,2,2,2,2,2,2,2,2,2,2,2,2,2,2,2,2,2,2,2,2,2,2,2,2,2,2,2,2,2,2,2,2,2,2,2,2502,600,600,600,600,600,2503,2,2,2,2,2,2,2,2,2,2,2,2,2,2,2,2,2,2,2,2,2,2,2,2504,2505,2506,2305,2,2,2,2,2,2,2,2,2,2,2,2,2,2,2,2,2,2,2,2,2,2,2,2,2,2,2,2,2,2,2,2,2,2,2,2,2,2,2,2,2,2,2,2,2,2,2,2,2,2,2,2,2,2,2,2,2,2,2,2,2,2,2,2,2,2,2,2,2,2,2,2,2,2,2,2,2,2,2,2,2,2,2,2,2507,2508,2,2,2,2,2,2,2,2,2,2,2,2,2,2,2,2,2,2,2,2,2,2,2,2,2,2,2,2,2,2,2,2,2,2,2,2,2,2,2,2,2,2,2,2,2,2,2,2,2,2,2,2,2,2,2,2,2,2,2,2,2,2,2,2,2,2,2,2,2,2,2,2,2,2,2,2,2,2,2,2,2,2,2,2,2,2,2,2,2,2,2,2,2,2,2,2,2,2,2,2,2,2,2,2,2,2,2,2,2,2,2,2,2,2,2,2,2,2,2,2,2,2,2,2,2,2,2,2,2,2,2,2,2,2,2,2510,600,600,600,600,600,600,2511,2,2,2,2,2,2,2,2,2,2,2,2,2,2,2,2,2,2,2,2,2,2,2,2,2,2512,2442,2513,2,2,2,2,2,2,2,2,2,2,2,2,2,2,2,2,2,2,2,2,2,2,2,2,2,2,2,2,2,2,2,2,2,2,2,2,2,2,2,2,2,2,2,3,2,3,2,3,2,3,2,3,3,2,3,2,3,2,3,3,2,3,2,3,2,3,2,3,3,2,3,2,3,2,3,3,2,3,2,3,2,3,2,2514,2515,2,3,2,3,2,3,3,2,3,2,3,2,3,2,3,3,2,3,2,3,2,3,3,2,3,2,3,2,3,2,3,3,2,3,2,3,2,3,3,2,3,2,3,2,3,2,3,3,2,3,2,3,2,3,3,2,3,2,3,2,3,2,3,3,2,3,2,3,2,3,3,2,3,2,3,2,3,2,3,3,2,3,2,3,2,3,3,2,3,2,3,2,3,2,3,3,2,3,2,3,2,3,3,2,3,2,3,2,3,2,3,3,2,3,2,3,2,3,3,2,3,2,3,2,3,2,3,3,2,3,2,3,2,3,3,2518,600,600,600,600,600,2519,3,3,2,3,2,3,2,3,3,2,3,2,3,2,3,2,3,3,2,3,2,3,2,3,3,2,3,2450,2520,2521,2522,2,3,3,2,3,2,3,2,3,3,2,3,2,3,2,3,2,3,3,2,3,2,3,2,3,3,2,3,2,3,2,3,2,3,3,2,3,2,3,2,3,2,2,2,2,2,2,2,2,2,2,2,2,2,2,2,2,2,2,2,2,2,2,2,2,2,2,2,2,2,2,2,2,2,2,2,2,2,2,2,2523,2524,2,2,2,2,2,2,2,2,2,2,2,2,2,2,2,2,2,2,2,2,2,2,2,2,2,2,2,2,2,2,2,2,2,2,2,2,2,2,2,2,2,2,2,2,2,2,2,2,2,2,2,2,2,2,2,2,2,2,2,2,2,2,2,2,2,2,2,2,2,2,2,2,2,2,2,2,2,2,2,2,2,2,2,2,2,2,2,2,2,2,2,2,2,2,2,2,2,2,2,2,2,2,2,2,2,2,2,2,2,2,2,2,2,2,2,2,2,2,2,2,2,2,2,2,2,2,2,2,2,2,2,2,2,2,2,2,2527,600,600,600,600,600,2528,2,2,2,2,2,2,2,2,2,2,2,2,2,2,2,2,2,2,2,2,2,2,2,2,2,2,2,2,2,2529,2530,2531,2,2,2,2,2,2,2,2,2,2,2,2,2,2,2,2,2,2,2,2,2,2,2,2,2,2,2,2,2,2,2,2,2,2,2,2,2,2,2,2,3,2,3,2,3,2,3,2,3,3,2,3,2,3,2,3,3,2,3,2,3,2,3,2,3,3,2,3,2,3,2,3,3,2,3,2,3,2,3,2532,2533,3,2,3,2,3,2,3,3,2,3,2,3,2,3,2,3,3,2,3,2,3,2,3,3,2,3,2,3,2,3,2,3,3,2,3,2,3,2,3,3,2,3,2,3,2,3,2,3,3,2,3,2,3,2,3,3,2,3,2,3,2,3,2,3,3,2,3,2,3,2,3,3,2,3,2,3,2,3,2,3,3,2,3,2,3,2,3,3,2,3,2,3,2,3,2,3,3,2,3,2,3,2,3,3,2,3,2,3,2,3,2,3,3,2,3,2,3,2,3,3,2,3,2,3,2,3,2,3,3,2,3,2,3,2,3,2537,1474,600,600,600,600,600,2538,3,3,2,3,2,3,2,3,3,2,3,2,3,2,3,2,3,3,2,3,2,3,2,3,3,2,3,2,3,2,2539,2540,2541,3,2,3,2,3,2,3,3,2,3,2,3,2,3,2,3,3,2,3,2,3,2,3,3,2,3,2,3,2,3,2,3,3,2,3,2,3,2,3,2,2,2,2,2,2,2,2,2,2,2,2,2,2,2,2,2,2,2,2,2,2,2,2,2,2,2,2,2,2,2,2,2,2,2,2,2,2,2542,2543,2,2,2,2,2,2,2,2,2,2,2,2,2,2,2,2,2,2,2,2,2,2,2,2,2,2,2,2,2,2,2,2,2,2,2,2,2,2,2,2,2,2,2,2,2,2,2,2,2,2,2,2,2,2,2,2,2,2,2,2,2,2,2,2,2,2,2,2,2,2,2,2,2,2,2,2,2,2,2,2,2,2,2,2,2,2,2,2,2,2,2,2,2,2,2,2,2,2,2,2,2,2,2,2,2,2,2,2,2,2,2,2,2,2,2,2,2,2,2,2,2,2,2,2,2,2,2,2,2,2,2,2,2,2,2,2,2555,600,600,600,600,600,2556,2,2,2,2,2,2,2,2,2,2,2,2,2,2,2,2,2,2,2,2,2,2,2,2,2,2,2,2,2,2,2,2,2,2557,2558,2,2,2,2,2,2,2,2,2,2,2,2,2,2,2,2,2,2,2,2,2,2,2,2,2,2,2,2,2,2,2,2,2,2,2,2,2,2,3,2,3,2,3,2,3,2,3,3,2,3,2,3,2,3,3,2,3,2,3,2,3,2,3,3,2,3,2,3,2,3,3,2,3,2,3,2,2559,2560,3,3,2,3,2,3,2,3,3,2,3,2,3,2,3,2,3,3,2,3,2,3,2,3,3,2,3,2,3,2,3,2,3,3,2,3,2,3,2,3,3,2,3,2,3,2,3,2,3,3,2,3,2,3,2,3,3,2,3,2,3,2,3,2,3,3,2,3,2,3,2,3,3,2,3,2,3,2,3,2,3,3,2,3,2,3,2,3,3,2,3,2,3,2,3,2,3,3,2,3,2,3,2,3,3,2,3,2,3,2,3,2,3,3,2,3,2,3,2,3,3,2,3,2,3,2,3,2,3,3,2,3,2,3,2,3,2570,600,600,600,600,600,2571,2,3,3,2,3,2,3,2,3,3,2,3,2,3,2,3,2,3,3,2,3,2,3,2,3,3,2,3,2,3,2,3,2,2576,2577,2,3,2,3,2,3,3,2,3,2,3,2,3,2,3,3,2,3,2,3,2,3,3,2,3,2,3,2,3,2,3,3,2,3,2,3,2,3,2,2,2,2,2,2,2,2,2,2,2,2,2,2,2,2,2,2,2,2,2,2,2,2,2,2,2,2,2,2,2,2,2,2,2,2,2,2578,2579,2,2,2,2,2,2,2,2,2,2,2,2,2,2,2,2,2,2,2,2,2,2,2,2,2,2,2,2,2,2,2,2,2,2,2,2,2,2,2,2,2,2,2,2,2,2,2,2,2,2,2,2,2,2,2,2,2,2,2,2,2,2,2,2,2,2,2,2,2,2,2,2,2,2,2,2,2,2,2,2,2,2,2,2,2,2,2,2,2,2,2,2,2,2,2,2,2,2,2,2,2,2,2,2,2,2,2,2,2,2,2,2,2,2,2,2,2,2,2,2,2,2,2,2,2,2,2,2,2,2,2,2,2,2,2,2,2,2585,600,600,600,600,600,2586,2,2,2,2,2,2,2,2,2,2,2,2,2,2,2,2,2,2,2,2,2,2,2,2,2,2,2,2,2,2,2,2,2,2,2593,2594,2,2,2,2,2,2,2,2,2,2,2,2,2,2,2,2,2,2,2,2,2,2,2,2,2,2,2,2,2,2,2,2,2,2,2,2,2,2,2,2,2,2,2,2,2,2,2,2,2,2,2,2,2,2,2,2,2,2,2,2,2,2,2,2,2,2,2,2,2,2,2,2,2,2348,2595,2596,2,2,2,2,2,2,2,2,2,2,2,2,2,2,2,2,2,2,2,2,2,2,2,2,2,2,2,2,2,2,2,2,2,2,2,2,2,2,2,2,2,2,2,2,2,2,2,2,2,2,2,2,2,2,2,2,2,2,2,2,2,2,2,2,2,2,2,2,2,2,2,2,2,2,2,2,2,2,2,2,2,2,2,2,2,2,2,2,2,2,2,2,2,2,2,2,2,2,2,2,2,2,2,2,2,2,2,2,2,2,2,2,2,2,2,2,2,2,2,2,2,2,2,2,2,2,2,2,2,2,2,2,2,2,2,2,2601,600,600,600,600,600,1604,2602,2,2,2,2,2,2,2,2,2,2,2,2,2,2,2,2,2,2,2,2,2,2,2,2,2,2,2,2,2,2,2,2,2,2,2607,2608,2,2,2,2,2,2,2,2,2,2,2,2,2,2,2,2,2,2,2,2,2,2,2,2,2,2,2,2,2,2,2,2,2,2,2,2,2,3,2,3,2,3,2,3,2,3,3,2,3,2,3,2,3,3,2,3,2,3,2,3,2,3,3,2,3,2,3,2,3,3,2,3,2,2609,2610,3,2,3,3,2,3,2,3,2,3,3,2,3,2,3,2,3,2,3,3,2,3,2,3,2,3,3,2,3,2,3,2,3,2,3,3,2,3,2,3,2,3,3,2,3,2,3,2,3,2,3,3,2,3,2,3,2,3,3,2,3,2,3,2,3,2,3,3,2,3,2,3,2,3,3,2,3,2,3,2,3,2,3,3,2,3,2,3,2,3,3,2,3,2,3,2,3,2,3,3,2,3,2,3,2,3,3,2,3,2,3,2,3,2,3,3,2,3,2,3,2,3,3,2,3,2,3,2,3,2,3,3,2,3,2,3,2,2617,600,600,600,600,600,2618,3,2,3,3,2,3,2,3,2,3,3,2,3,2,3,2,3,2,3,3,2,3,2,3,2,3,3,2,3,2,3,2,3,2,3,3,2624,2625,2,3,2,3,3,2,3,2,3,2,3,2,3,3,2,3,2,3,2,3,3,2,3,2,3,2,3,2,3,3,2,3,2,3,2,3,2,2,2,2,2,2,2,2,2,2,2,2,2,2,2,2,2,2,2,2,2,2,2,2,2,2,2,2,2,2,2,2,2,2,2,2626,2627,2628,2,2,2,2,2,2,2,2,2,2,2,2,2,2,2,2,2,2,2,2,2,2,2,2,2,2,2,2,2,2,2,2,2,2,2,2,2,2,2,2,2,2,2,2,2,2,2,2,2,2,2,2,2,2,2,2,2,2,2,2,2,2,2,2,2,570,733,599,632,2457,812,2,2,2,2,2,2,2,2,2,2,2,2,2,2,2,2,2,2,2,2,2,2,2,2,2,2,2,2,2,2,2,2,2,2,2,2,2,2,2,2,2,2,2,2,2,2,2,2,2,2,2,2,2,2,2,2,2,2,2,2,2,2,2,2,2,2,2633,600,600,600,600,600,2634,2,2,2,2,2,2,2,2,2,2,2,2,2,2,2,2,2,2,2,2,2,2,2,2,2,2,2,2,2,2,2,2,2,2,2,2,2639,2640,2,2,2,2,2,2,2,2,2,2,2,2,2,2,2,2,2,2,2,2,2,2,2,2,2,2,2,2,2,2,2,2,2,2,2,2,3,2,3,2,3,2,3,2,3,3,2,3,2,3,2,3,3,2,3,2,3,2,3,2,3,3,2,3,2,3,2,3,3,2,3,2641,2642,2,3,2,3,3,2,3,2,3,2,3,3,2,3,2,3,2,3,2,3,3,2,3,2,3,2,3,3,2,3,2,3,2,3,2,3,3,2,3,2,3,2,3,3,2,3,2,3,2,3,2,3,3,2,3,2,3,2,3,3,2,3,2,3,2,3,2646,600,600,600,600,826,3,2,3,3,2,3,2,3,2,3,2,3,3,2,3,2,3,2,3,3,2,3,2,3,2,3,2,3,3,2,3,2,3,2,3,3,2,3,2,3,2,3,2,3,3,2,3,2,3,2,3,3,2,3,2,3,2,3,2,3,3,2,3,2,3,2647,600,600,600,600,600,600,2648,3,2,3,3,2,3,2,3,2,3,3,2,3,2,3,2,3,2,3,3,2,3,2,3,2,3,3,2,3,2,3,2,3,2,3,3,2654,2655,2,3,2,3,3,2,3,2,3,2,3,2,3,3,2,3,2,3,2,3,3,2,3,2,3,2,3,2,3,3,2,3,2,3,2,3,2,2,2,2,2,2,2,2,2,2,2,2,2,2,2,2,2,2,2,2,2,2,2,2,2,2,2,2,2,2,2,2,2,2,2656,2657,2,2,2,2,2,2,2,2,2,2,2,2,2,2,2,2,2,2,2,2,2,2,2,2,2,2,2,2,2,2,2,2,2,2,2,2,2,2,2,2,2,2,2,2,2,2,2,2,2,2,2,2,2,2,2,2,2,2,2,2,2,2,2,2,2,2,2659,600,600,600,600,600,600,1477,2,2,2,2,2,2,2,2,2,2,2,2,2,2,2,2,2,2,2,2,2,2,2,2,2,2,2,2,2,2,2,2,2,2,2,2,2,2,2,2,2,2,2,2,2,2,2,2,2,2,2,2,2,2,2,2,2,2,2,2,2,2,2,2,2662,600,600,600,600,600,2663,2,2,2,2,2,2,2,2,2,2,2,2,2,2,2,2,2,2,2,2,2,2,2,2,2,2,2,2,2,2,2,2,2,2,2,2,2,2,2666,2667,2,2,2,2,2,2,2,2,2,2,2,2,2,2,2,2,2,2,2,2,2,2,2,2,2,2,2,2,2,2,2,2,2,2,2,3,2,3,2,3,2,3,2,3,3,2,3,2,3,2,3,3,2,3,2,3,2,3,2,3,3,2,3,2,3,2,3,3,2,2668,2669,3,2,3,2,3,3,2,3,2,3,2,3,3,2,3,2,3,2,3,2,3,3,2,3,2,3,2,3,3,2,3,2,3,2,3,2,3,3,2,3,2,3,2,3,3,2,3,2,3,2,3,2,3,3,2,3,2,3,2,3,3,2,3,2,3,2659,600,600,600,600,600,600,600,1611,2,3,3,2,3,2,3,2,3,2,3,3,2,3,2,3,2,3,3,2,3,2,3,2,3,2,3,3,2,3,2,3,2,3,3,2,3,2,3,2,3,2,3,3,2,3,2,3,2,3,3,2,3,2,3,2,3,2,3,3,2,3,2,3,2676,600,600,600,600,600,2677,2,3,2,3,3,2,3,2,3,2,3,3,2,3,2,3,2,3,2,3,3,2,3,2,3,2,3,3,2,3,2,3,2,3,2,3,3,2,2681,2682,3,2,3,3,2,3,2,3,2,3,2,3,3,2,3,2,3,2,3,3,2,3,2,3,2,3,2,3,3,2,3,2,3,2,3,2,2,2,2,2,2,2,2,2,2,2,2,2,2,2,2,2,2,2,2,2,2,2,2,2,2,2,2,2,2,2,2,2,2683,2684,2,2,2,2,2,2,2,2,2,2,2,2,2,2,2,2,2,2,2,2,2,2,2,2,2,2,2,2,2,2,2,2,2,2,2,2,2,2,2,2,2,2,2,2,2,2,2,2,2,2,2,2,2,2,2,2,2,2,2,2,2,2,2,2,2,2659,600,600,600,600,600,600,600,1627,2,2,2,2,2,2,2,2,2,2,2,2,2,2,2,2,2,2,2,2,2,2,2,2,2,2,2,2,2,2,2,2,2,2,2,2,2,2,2,2,2,2,2,2,2,2,2,2,2,2,2,2,2,2,2,2,2,2,2,2,2,2,2,2,2689,2690,600,600,600,600,600,2691,2,2,2,2,2,2,2,2,2,2,2,2,2,2,2,2,2,2,2,2,2,2,2,2,2,2,2,2,2,2,2,2,2,2,2,2,2,2,2,2694,2695,2,2,2,2,2,2,2,2,2,2,2,2,2,2,2,2,2,2,2,2,2,2,2,2,2,2,2,2,2,2,2,2,2,2,3,2,3,2,3,2,3,2,3,3,2,3,2,3,2,3,3,2,3,2,3,2,3,2,3,3,2,3,2,3,2,3,3,2696,2697,2,3,2,3,2,3,3,2,3,2,3,2,3,3,2,3,2,3,2,3,2,3,3,2,3,2,3,2,3,3,2,3,2,3,2,3,2,3,3,2,3,2,3,2,3,3,2,3,2,3,2,3,2,3,3,2,3,2,3,2,3,3,2,3,2659,600,600,600,600,600,600,600,2701,1648,3,2,3,3,2,3,2,3,2,3,2,3,3,2,3,2,3,2,3,3,2,3,2,3,2,3,2,3,3,2,3,2,3,2,3,3,2,3,2,3,2,3,2,3,3,2,3,2,3,2,3,3,2,3,2,3,2,3,2,3,3,2,3,2,2704,600,600,600,600,600,2705,1608,2,3,2,3,3,2,3,2,3,2,3,3,2,3,2,3,2,3,2,3,3,2,3,2,3,2,3,3,2,3,2,3,2,3,2,3,3,2,3,2709,2710,2,3,3,2,3,2,3,2,3,2,3,3,2,3,2,3,2,3,3,2,3,2,3,2,3,2,3,3,2,3,2,3,2,3,2,2,2,2,2,2,2,2,2,2,2,2,2,2,2,2,2,2,2,2,2,2,2,2,2,2,2,2,2,2,2,2,2711,2712,2,2,2,2,2,2,2,2,2,2,2,2,2,2,2,2,2,2,2,2,2,2,2,2,2,2,2,2,2,2,2,2,2,2,2,2,2,2,2,2,2,2,2,2,2,2,2,2,2,2,2,2,2,2,2,2,2,2,2,2,2,2,2,2,2659,600,600,600,600,600,600,600,2715,2716,2,2,2,2,2,2,2,2,2,2,2,2,2,2,2,2,2,2,2,2,2,2,2,2,2,2,2,2,2,2,2,2,2,2,2,2,2,2,2,2,2,2,2,2,2,2,2,2,2,2,2,2,2,2,2,2,2,2,2,2,2,2,2,2,2,2720,600,600,600,600,600,2721,2,2,2,2,2,2,2,2,2,2,2,2,2,2,2,2,2,2,2,2,2,2,2,2,2,2,2,2,2,2,2,2,2,2,2,2,2,2,2,2,2,2724,2725,2,2,2,2,2,2,2,2,2,2,2,2,2,2,2,2,2,2,2,2,2,2,2,2,2,2,2,2,2,2,2,2,2,2,2,2,2,2,2,2,2,2,2,2,2,2,2,2,2,2,2,2,2,2,2,2,2,2,2,2,2,2,2,2,2,2726,2727,2,2,2,2,2,2,2,2,2,2,2,2,2,2,2,2,2,2,2,2,2,2,2,2,2,2,2,2,2,2,2,2,2,2,2,2,2,2,2,2,2,2,2,2,2,2,2,2,2,2,2,2,2,2,2,2,2,2,2,2,2,2,2,2659,600,600,600,600,600,600,600,2715,2716,2,2,2,2,2,2,2,2,2,2,2,2,2,2,2,2,2,2,2,2,2,2,2,2,2,2,2,2,2,2,2,2,2,2,2,2,2,2,2,2,2,2,2,2,2,2,2,2,2,2,2,2,2,2,2,2,2,2,2,2,2,2,2,2,2,2,2733,600,600,600,600,600,2734,2,2,2,2,2,2,2,2,2,2,2,2,2,2,2,2,2,2,2,2,2,2,2,2,2,2,2,2,2,2,2,2,2,2,2,2,2,2,2,2,2,2736,2737,2,2,2,2,2,2,2,2,2,2,2,2,2,2,2,2,2,2,2,2,2,2,2,2,2,2,2,2,2,2,2,2,2,3,2,3,2,3,2,3,2,3,3,2,3,2,3,2,3,3,2,3,2,3,2,3,2,3,3,2,3,2,3,2,2738,2739,2,3,2,3,2,3,2,3,3,2,3,2,3,2,3,3,2,3,2,3,2,3,2,3,3,2,3,2,3,2,3,3,2,3,2,3,2,3,2,3,3,2,3,2,3,2,3,3,2,3,2,3,2,3,2,3,3,2,3,2,3,2,3,2742,600,600,600,600,600,600,600,2743,2744,2,3,2,3,2,3,3,2,3,2,3,2,3,2,3,3,2,3,2,3,2,3,3,2,3,2,3,2,3,2,3,3,2,3,2,3,2,3,3,2,3,2,3,2,3,2,3,3,2,3,2,3,2,3,3,2,3,2,3,2,3,2,3,3,2,3,2749,600,600,600,600,600,600,2750,3,2,3,2,3,3,2,3,2,3,2,3,3,2,3,2,3,2,3,2,3,3,2,3,2,3,2,3,3,2,3,2,3,2,3,2,3,3,2,3,2,3,2752,2753,3,2,3,2,3,2,3,2,3,3,2,3,2,3,2,3,3,2,3,2,3,2,3,2,3,3,2,3,2,3,2,3,2,2,2,2,2,2,2,2,2,2,2,2,2,2,2,2,2,2,2,2,2,2,2,2,2,2,2,2,2,2,2348,2754,2755,2,2,2,2,2,2,2,2,2,2,2,2,2,2,2,2,2,2,2,2,2,2,2,2,2,2,2,2,2,2,2,2,2,2,2,2,2,2,2,2,2,2,2,2,2,2,2,2,2,2,2,2,2,2,2,2,2,2,2,2,2,2,2659,600,600,600,600,600,600,600,2715,2716,2,2,2,2,2,2,2,2,2,2,2,2,2,2,2,2,2,2,2,2,2,2,2,2,2,2,2,2,2,2,2,2,2,2,2,2,2,2,2,2,2,2,2,2,2,2,2,2,2,2,2,2,2,2,2,2,2,2,2,2,2,2,2,2,2,2,2,2761,600,600,600,600,600,2762,2,2,2,2,2,2,2,2,2,2,2,2,2,2,2,2,2,2,2,2,2,2,2,2,2,2,2,2,2,2,2,2,2,2,2,2,2,2,2,2,2,2,2,2766,2767,2,2,2,2,2,2,2,2,2,2,2,2,2,2,2,2,2,2,2,2,2,2,2,2,2,2,2,2,2,2,2,2,3,2,3,2,3,2,3,2,3,3,2,3,2,3,2,3,3,2,3,2,3,2,3,2,3,3,2,3,2,3,2768,2769,3,2,3,2,3,2,3,2,3,3,2,3,2,3,2,3,3,2,3,2,3,2,3,2,3,3,2,3,2,3,2,3,3,2,3,2,3,2,3,2,3,3,2,3,2,3,2,3,3,2,3,2,3,2,3,2,3,3,2,3,2,3,2659,600,600,600,600,600,600,600,2743,2716,3,3,2,3,2,3,2,3,3,2,3,2,3,2,3,2,3,3,2,3,2,3,2,3,3,2,3,2,3,2,3,2,3,3,2,3,2,3,2,3,3,2,3,2,3,2,3,2,3,3,2,3,2,3,2,3,3,2,3,2,3,2,3,2,3,3,2,3,2771,600,600,600,600,600,2772,2,3,2,3,2,3,3,2,3,2,3,2,3,3,2,3,2,3,2,3,2,3,3,2,3,2,3,2,3,3,2,3,2,3,2,3,2,3,3,2,3,2,3,2,2775,2776,2,3,2,3,2,3,2,3,3,2,3,2,3,2,3,3,2,3,2,3,2,3,2,3,3,2,3,2,3,2,3,2,2,2,2,2,2,2,2,2,2,2,2,2,2,2,2,2,2,2,2,2,2,2,2,2,2,2,2,2,2777,2778,2779,2,2,2,2,2,2,2,2,2,2,2,2,2,2,2,2,2,2,2,2,2,2,2,2,2,2,2,2,2,2,2,2,2,2,2,2,2,2,2,2,2,2,2,2,2,2,2,2,2,2,2,2,2,2,2,2,2,2,2,2,2,2659,600,600,600,600,600,600,600,2715,2716,2,2,2,2,2,2,2,2,2,2,2,2,2,2,2,2,2,2,2,2,2,2,2,2,2,2,2,2,2,2,2,2,2,2,2,2,2,2,2,2,2,2,2,2,2,2,2,2,2,2,2,2,2,2,2,2,2,2,2,2,2,2,2,2,2,2,2,2,2784,600,600,600,600,600,600,2785,2,2,2,2,2,2,2,2,2,2,2,2,2,2,2,2,2,2,2,2,2,2,2,2,2,2,2,2,2,2,2,2,2,2,2,2,2,2,2,2,2,2,2,2,2788,2789,2,2,2,2,2,2,2,2,2,2,2,2,2,2,2,2,2,2,2,2,2,2,2,2,2,2,2,2,2,2,2,3,2,3,2,3,2,3,2,3,3,2,3,2,3,2,3,3,2,3,2,3,2,3,2,3,3,2,3,2,2790,2791,3,3,2,3,2,3,2,3,2,3,3,2,3,2,3,2,3,3,2,3,2,3,2,3,2,3,3,2,3,2,3,2,3,3,2,3,2,3,2,3,2,3,3,2,3,2,3,2,3,3,2,3,2,3,2,3,2,3,3,2,3,2659,600,600,600,600,600,600,600,2743,2716,3,2,3,3,2,3,2,3,2,3,3,2,3,2,3,2,3,2,3,3,2,3,2,3,2,3,3,2,3,2,3,2,3,2,3,3,2,3,2,3,2,3,3,2,3,2,3,2,3,2,3,3,2,3,2,3,2,3,3,2,3,2,3,2,3,2,3,3,2,2798,600,600,600,600,600,2799,3,2,3,2,3,2,3,3,2,3,2,3,2,3,3,2,3,2,3,2,3,2,3,3,2,3,2,3,2,3,3,2,3,2,3,2,3,2,3,3,2,3,2,3,2,2803,2804,2,3,2,3,2,3,2,3,3,2,3,2,3,2,3,3,2,3,2,3,2,3,2,3,3,2,3,2,3,2,3,2,2,2,2,2,2,2,2,2,2,2,2,2,2,2,2,2,2,2,2,2,2,2,2,2,2,2,2,2,2805,2,2,2,2,2,2,2,2,2,2,2,2,2,2,2,2,2,2,2,2,2,2,2,2,2,2,2,2,2,2,2,2,2,2,2,2,2,2,2,2,2,2,2,2,2,2,2,2,2,2,2,2,2,2,2,2,2,2,2,2,2,2659,600,600,600,600,600,600,600,2715,2716,2,2,2,2,2,2,2,2,2,2,2,2,2,2,2,2,2,2,2,2,2,2,2,2,2,2,2,2,2,2,2,2,2,2,2,2,2,2,2,2,2,2,2,2,2,2,2,2,2,2,2,2,2,2,2,2,2,2,2,2,2,2,2,2,2,2,2,2,2,2,2816,600,600,600,600,600,2817,2,2,2,2,2,2,2,2,2,2,2,2,2,2,2,2,2,2,2,2,2,2,2,2,2,2,2,2,2,2,2,2,2,2,2,2,2,2,2,2,2,2,2,2,2,2,2819,2820,2,2,2,2,2,2,2,2,2,2,2,2,2,2,2,2,2,2,2,2,2,2,2,2,2,2,2,2,2,2,2,2,2,2,2,2,2,2,2,2,2,2,2,2,2,2,2,2,2,2,2,2,2,2,2,2,2,2,2,2821,2,2,2,2,2,2,2,2,2,2,2,2,2,2,2,2,2,2,2,2,2,2,2,2,2,2,2,2,2,2,2,2,2,2,2,2,2,2,2,2,2,2,2,2,2,2,2,2,2,2,2,2,2,2,2,2,2,2,2,2,2659,600,600,600,600,600,600,600,2715,2716,2,2,2,2,2,2,2,2,2,2,2,2,2,2,2,2,2,2,2,2,2,2,2,2,2,2,2,2,2,2,2,2,2,2,2,2,2,2,2,2,2,2,2,2,2,2,2,2,2,2,2,2,2,2,2,2,2,2,2,2,2,2,2,2,2,2,2,2,2,2,2,775,600,600,600,600,600,2826,2,2,2,2,2,2,2,2,2,2,2,2,2,2,2,2,2,2,2,2,2,2,2,2,2,2,2,2,2,2,2,2,2,2,2,2,2,2,2,2,2,2,2,2,2,2,2829,2830,2,2,2,2,2,2,2,2,2,2,2,2,2,2,2,2,2,2,2,2,2,2,2,2,2,2,2,2,2,2,3,2,3,2,3,2,3,2,3,3,2,3,2,3,2,3,3,2,3,2,3,2,3,2,3,3,2,3,2,2831,2,3,3,2,3,2,3,2,3,2,3,3,2,3,2,3,2,3,3,2,3,2,3,2,3,2,3,3,2,3,2,3,2,3,3,2,3,2,3,2,3,2,3,3,2,3,2,3,2,3,3,2,3,2,3,2,3,2,3,2742,600,600,600,600,600,600,600,2715,2744,2,3,2,3,2,3,3,2,3,2,3,2,3,3,2,3,2,3,2,3,2,3,3,2,3,2,3,2,3,3,2,3,2,3,2,3,2,3,3,2,3,2,3,2,3,3,2,3,2,3,2,3,2,3,3,2,3,2,3,2,3,3,2,3,2,3,2,3,2,3,3,2,600,600,600,600,600,600,2843,3,2,3,2,3,2,3,3,2,3,2,3,2,3,3,2,3,2,3,2,3,2,3,3,2,3,2,3,2,3,3,2,3,2,3,2,3,2,3,3,2,3,2,3,2,3,3,2847,2848,2,3,2,3,2,3,3,2,3,2,3,2,3,3,2,3,2,3,2,3,2,3,3,2,3,2,3,2,3,2,2,2,2,2,2,2,2,2,2,2,2,2,2,2,2,2,2,2,2,2,2,2,2,2,2,2,2,2,2821,2,2,2,2,2,2,2,2,2,2,2,2,2,2,2,2,2,2,2,2,2,2,2,2,2,2,2,2,2,2,2,2,2,2,2,2,2,2,2,2,2,2,2,2,2,2,2,2,2,2,2,2,2,2,2,2,2,570,2851,600,600,600,600,600,600,600,2715,2716,2,2,2,2,2,2,2,2,2,2,2,2,2,2,2,2,2,2,2,2,2,2,2,2,2,2,2,2,2,2,2,2,2,2,2,2,2,2,2,2,2,2,2,2,2,2,2,2,2,2,2,2,2,2,2,2,2,2,2,2,2,2,2,2,2,2,2,2,2,2,2,2,2,2865,600,600,600,600,600,2866,2,2,2,2,2,2,2,2,2,2,2,2,2,2,2,2,2,2,2,2,2,2,2,2,2,2,2,2,2,2,2,2,2,2,2,2,2,2,2,2,2,2,2,2,2,2,2,2868,2869,2,2,2,2,2,2,2,2,2,2,2,2,2,2,2,2,2,2,2,2,2,2,2,2,2,2,2,2,2,3,2,3,2,3,2,3,2,3,3,2,3,2,3,2,3,3,2,3,2,3,2,3,2,3,3,2,3,2,2870,2,3,3,2,3,2,3,2,3,2,3,3,2,3,2,3,2,3,3,2,3,2,3,2,3,2,3,3,2,3,2,3,2,3,3,2,3,2,3,2,3,2,3,3,2,3,2,3,2,3,3,2,3,2,3,2,3,748,600,600,600,600,600,600,600,2743,2744,2,3,2,3,2,3,2,3,3,2,3,2,3,2,3,3,2,3,2,3,2,3,2,3,3,2,3,2,3,2,3,3,2,3,2,3,2,3,2,3,3,2,3,2,3,2,3,3,2,3,2,3,2,3,2,3,3,2,3,2,3,2,3,3,2,3,2,3,2,3,2,3,3,2,2875,600,600,600,600,600,2876,3,2,3,2,3,2,3,3,2,3,2,3,2,3,3,2,3,2,3,2,3,2,3,3,2,3,2,3,2,3,3,2,3,2,3,2,3,2,3,3,2,3,2,3,2,3,3,2,2880,2,3,2,3,2,3,3,2,3,2,3,2,3,3,2,3,2,3,2,3,2,3,3,2,3,2,3,2,3,2,2,2,2,2,2,2,2,2,2,2,2,2,2,2,2,2,2,2,2,2,2,2,2,2,2,2,2,2,2881,2,2,2,2,2,2,2,2,2,2,2,2,2,2,2,2,2,2,2,2,2,2,2,2,2,2,2,2,2,2,2,2,2,2,2,2,2,2,2,2,2,2,2,2,2,2,2,2,2,2,2,2,2,2,2,2,2,775,600,600,600,600,600,600,2715,2716,2,2,2,2,2,2,2,2,2,2,2,2,2,2,2,2,2,2,2,2,2,2,2,2,2,2,2,2,2,2,2,2,2,2,2,2,2,2,2,2,2,2,2,2,2,2,2,2,2,2,2,2,2,2,2,2,2,2,2,2,2,2,2,2,2,2,2,2,2,2,2,2,2,2,2,2886,600,600,600,600,600,2887,2,2,2,2,2,2,2,2,2,2,2,2,2,2,2,2,2,2,2,2,2,2,2,2,2,2,2,2,2,2,2,2,2,2,2,2,2,2,2,2,2,2,2,2,2,2,2,2,2893,2,2,2,2,2,2,2,2,2,2,2,2,2,2,2,2,2,2,2,2,2,2,2,2,2,2,2,2,2,3,2,3,2,3,2,3,2,3,3,2,3,2,3,2,3,3,2,3,2,3,2,3,2,3,3,2,3,2,2831,2,3,3,2,3,2,3,2,3,2,3,3,2,3,2,3,2,3,3,2,3,2,3,2,3,2,3,3,2,3,2,3,2,3,3,2,3,2,3,2,3,2,3,3,2,3,2,3,2,3,3,2,3,2,3,2,3,894,600,600,600,600,600,2743,2716,3,3,2,3,2,3,2,3,2,3,3,2,3,2,3,2,3,3,2,3,2,3,2,3,2,3,3,2,3,2,3,2,3,3,2,3,2,3,2,3,2,3,3,2,3,2,3,2,3,3,2,3,2,3,2,3,2,3,3,2,3,2,3,2,3,3,2,3,2,3,2,3,2,3,3,2,2902,600,600,600,600,600,2903,3,2,3,2,3,2,3,3,2,3,2,3,2,3,3,2,3,2,3,2,3,2,3,3,2,3,2,3,2,3,3,2,3,2,3,2,3,2,3,3,2,3,2,3,2,3,3,2,2910,2,3,2,3,2,3,3,2,3,2,3,2,3,3,2,3,2,3,2,3,2,3,3,2,3,2,3,2,3,2,2,2,2,2,2,2,2,2,2,2,2,2,2,2,2,2,2,2,2,2,2,2,2,2,2,2,2,2,2821,2,2,2,2,2,2,2,2,2,2,2,2,2,2,2,2,2,2,2,2,2,2,2,2,2,2,2,2,2,2,2,2,2,2,2,2,2,2,2,2,2,2,2,2,2,2,2,2,2,2,2,2,2,2,2,2,2,2914,600,600,600,600,600,2915,2,2,2,2,2,2,2,2,2,2,2,2,2,2,2,2,2,2,2,2,2,2,2,2,2,2,2,2,2,2,2,2,2,2,2,2,2,2,2,2,2,2,2,2,2,2,2,2,2,2,2,2,2,2,2,2,2,2,2,2,2,2,2,2,2,2,2,2,2,2,2,2,2,2,2,2,2,2918,600,600,600,600,600,2919,2,2,2,2,2,2,2,2,2,2,2,2,2,2,2,2,2,2,2,2,2,2,2,2,2,2,2,2,2,2,2,2,2,2,2,2,2,2,2,2,2,2,2,2,2,2,2,2,2921,2,2,2,2,2,2,2,2,2,2,2,2,2,2,2,2,2,2,2,2,2,2,2,2,2,2,2,2,2,3,2,3,2,3,2,3,2,3,3,2,3,2,3,2,3,3,2,3,2,3,2,3,2,3,3,2,3,2,2831,2,3,3,2,3,2,3,2,3,2,3,3,2,3,2,3,2,3,3,2,3,2,3,2,3,2,3,3,2,3,2,3,2,3,3,2,3,2,3,2,3,2,3,3,2,3,2,3,2,3,3,2,3,2,3,2,3,1653,600,600,600,600,600,2925,2,3,3,2,3,2,3,2,3,2,3,3,2,3,2,3,2,3,3,2,3,2,3,2,3,2,3,3,2,3,2,3,2,3,3,2,3,2,3,2,3,2,3,3,2,3,2,3,2,3,3,2,3,2,3,2,3,2,3,3,2,3,2,3,2,3,3,2,3,2,3,2,3,2,3,3,2,2927,600,600,600,600,600,2928,3,2,3,2,3,2,3,3,2,3,2,3,2,3,3,2,3,2,3,2,3,2,3,3,2,3,2,3,2,3,3,2,3,2,3,2,3,2,3,3,2,3,2,3,2,3,3,2,2910,2,3,2,3,2,3,3,2,3,2,3,2,3,3,2,3,2,3,2,3,2,3,3,2,3,2,3,2,3,2,2,2,2,2,2,2,2,2,2,2,2,2,2,2,2,2,2,2,2,2,2,2,2,2,2,2,2,2,2821,2,2,2,2,2,2,2,2,2,2,2,2,2,2,2,2,2,2,2,2,2,2,2,2,2,2,2,2,2,2,2,2,2,2,2,2,2,2,2,2,2,2,2,2,2,2,2,2,2,2,2,2,2,2,2,2,2,2933,600,600,600,600,600,2934,2,2,2,2,2,2,2,2,2,2,2,2,2,2,2,2,2,2,2,2,2,2,2,2,2,2,2,2,2,2,2,2,2,2,2,2,2,2,2,2,2,2,2,2,2,2,2,2,2,2,2,2,2,2,2,2,2,2,2,2,2,2,2,2,2,2,2,2,2,2,2,2,2,2,2,2,2,2939,600,600,600,600,600,2940,2,2,2,2,2,2,2,2,2,2,2,2,2,2,2,2,2,2,2,2,2,2,2,2,2,2,2,2,2,2,2,2,2,2,2,2,2,2,2,2,2,2,2,2,2,2,2,2,2921,2,2,2,2,2,2,2,2,2,2,2,2,2,2,2,2,2,2,2,2,2,2,2,2,2,2,2,2,2,2,2,2,2,2,2,2,2,2,2,2,2,2,2,2,2,2,2,2,2,2,2,2,2,2,2,2,2,2,2942,2,2,2,2,2,2,2,2,2,2,2,2,2,2,2,2,2,2,2,2,2,2,2,2,2,2,2,2,2,2,2,2,2,2,2,2,2,2,2,2,2,2,2,2,2,2,2,2,2,2,2,2,2,2,2,2,2,2947,600,600,600,600,600,2948,2,2,2,2,2,2,2,2,2,2,2,2,2,2,2,2,2,2,2,2,2,2,2,2,2,2,2,2,2,2,2,2,2,2,2,2,2,2,2,2,2,2,2,2,2,2,2,2,2,2,2,2,2,2,2,2,2,2,2,2,2,2,2,2,2,2,2,2,2,2,2,2,2,2,2,2,2,2951,600,600,600,600,600,2952,2,2,2,2,2,2,2,2,2,2,2,2,2,2,2,2,2,2,2,2,2,2,2,2,2,2,2,2,2,2,2,2,2,2,2,2,2,2,2,2,2,2,2,2,2,2,2,2,2957,2,2,2,2,2,2,2,2,2,2,2,2,2,2,2,2,2,2,2,2,2,2,2,2,2,2,2,2,2,3,2,3,2,3,2,3,2,3,3,2,3,2,3,2,3,3,2,3,2,3,2,3,2,3,3,2,3,2,2958,2,3,3,2,3,2,3,2,3,2,3,3,2,3,2,3,2,3,3,2,3,2,3,2,3,2,3,3,2,3,2,3,2,3,3,2,3,2,3,2,3,2,3,3,2,3,2,3,2,3,3,2,3,2,3,2,3,2963,600,600,600,600,600,2964,2,3,3,2,3,2,3,2,3,2,3,3,2,3,2,3,2,3,3,2,3,2,3,2,3,2,3,3,2,3,2,3,2,3,3,2,3,2,3,2,3,2,3,3,2,3,2,3,2,3,3,2,3,2,3,2,3,2,3,3,2,3,2,3,2,3,3,2,3,2,3,2,3,2,3,3,2,2966,600,600,600,600,600,2967,3,2,3,2,3,2,3,3,2,3,2,3,2,3,3,2,3,2,3,2,3,2,3,3,2,3,2,3,2,3,3,2,3,2,3,2,3,2,3,3,2,3,2,3,2,3,3,2,2969,2,3,2,3,2,3,3,2,3,2,3,2,3,3,2,3,2,3,2,3,2,3,3,2,3,2,3,2,3,2,2,2,2,2,2,2,2,2,2,2,2,2,2,2,2,2,2,2,2,2,2,2,2,2,2,2,2,2,2805,2,2,2,2,2,2,2,2,2,2,2,2,2,2,2,2,2,2,2,2,2,2,2,2,2,2,2,2,2,2,2,2,2,2,2,2,2,2,2,2,2,2,2,2,2,2,2,2,2,2,2,2,2,2,2,2,2,2986,600,600,600,600,600,600,1477,2,2,2,2,2,2,2,2,2,2,2,2,2,2,2,2,2,2,2,2,2,2,2,2,2,2,2,2,2,2,2,2,2,2,2,2,2,2,2,2,2,2,2,2,2,2,2,2,2,2,2,2,2,2,2,2,2,2,2,2,2,2,2,2,2,2,2,2,2,2,2,2,2,2,2,2,2988,600,600,600,600,600,873,2,2,2,2,2,2,2,2,2,2,2,2,2,2,2,2,2,2,2,2,2,2,2,2,2,2,2,2,2,2,2,2,2,2,2,2,2,2,2,2,2,2,2,2,2,2,2,2,2991,2,2,2,2,2,2,2,2,2,2,2,2,2,2,2,2,2,2,2,2,2,2,2,2,2,2,2,2,2,3,2,3,2,3,2,3,2,3,3,2,3,2,3,2,3,3,2,3,2,3,2,3,2,3,3,2,3,2,2992,2,3,3,2,3,2,3,2,3,2,3,3,2,3,2,3,2,3,3,2,3,2,3,2,3,2,3,3,2,3,2,3,2,3,3,2,3,2,3,2,3,2,3,3,2,3,2,3,2,3,3,2,3,2,3,2,3,2,3003,600,600,600,600,600,3004,3,3,2,3,2,3,2,3,2,3,3,2,3,2,3,2,3,3,2,3,2,3,2,3,2,3,3,2,3,2,3,2,3,3,2,3,2,3,2,3,2,3,3,2,3,2,3,2,3,3,2,3,2,3,2,3,2,3,3,2,3,2,3,2,3,3,2,3,2,3,2,3,2,3,3,2,3,600,600,600,600,600,600,2475,2,3,2,3,2,3,3,2,3,2,3,2,3,3,2,3,2,3,2,3,2,3,3,2,3,2,3,2,3,3,2,3,2,3,2,3,2,3,3,2,3,2,3,2,3,3,2,3011,2,3,2,3,2,3,3,2,3,2,3,2,3,3,2,3,2,3,2,3,2,3,3,2,3,2,3,2,3,2,2,2,2,2,2,2,2,2,2,2,2,2,2,2,2,2,2,2,2,2,2,2,2,2,2,2,2,2,2805,2,2,2,2,2,2,2,2,2,2,2,2,2,2,2,2,2,2,2,2,2,2,2,2,2,2,2,2,2,2,2,2,2,2,2,2,2,2,2,2,2,2,2,2,2,2,2,2,2,2,2,2,2,2,2,2,2,2,3013,600,600,600,600,600,3014,2,2,2,2,2,2,2,2,2,2,2,2,2,2,2,2,2,2,2,2,2,2,2,2,2,2,2,2,2,2,2,2,2,2,2,2,2,2,2,2,2,2,2,2,2,2,2,2,2,2,2,2,2,2,2,2,2,2,2,2,2,2,2,2,2,2,2,2,2,2,2,2,2,2,2,2,2,2865,600,600,600,600,600,2866,2,2,2,2,2,2,2,2,2,2,2,2,2,2,2,2,2,2,2,2,2,2,2,2,2,2,2,2,2,2,2,2,2,2,2,2,2,2,2,2,2,2,2,2,2,2,2,2991,2,2,2,2,2,2,2,2,2,2,2,2,2,2,2,2,2,2,2,2,2,2,2,2,2,2,2,2,2,3,2,3,2,3,2,3,2,3,3,2,3,2,3,2,3,3,2,3,2,3,2,3,2,3,3,2,3,2,2992,2,3,3,2,3,2,3,2,3,2,3,3,2,3,2,3,2,3,3,2,3,2,3,2,3,2,3,3,2,3,2,3,2,3,3,2,3,2,3,2,3,2,3,3,2,3,2,3,2,3,3,2,3,2,3,2,3,2,3023,600,600,600,600,600,3024,3,3,2,3,2,3,2,3,2,3,3,2,3,2,3,2,3,3,2,3,2,3,2,3,2,3,3,2,3,2,3,2,3,3,2,3,2,3,2,3,2,3,3,2,3,2,3,2,3,3,2,3,2,3,2,3,2,3,3,2,3,2,3,2,3,3,2,3,2,3,2,3,2,3,3,2,3,3027,600,600,600,600,600,3028,2,3,2,3,2,3,3,2,3,2,3,2,3,3,2,3,2,3,2,3,2,3,3,2,3,2,3,2,3,3,2,3,2,3,2,3,2,3,3,2,3,2,3,2,3,3,2,3011,2,3,2,3,2,3,3,2,3,2,3,2,3,3,2,3,2,3,2,3,2,3,3,2,3,2,3,2,3,2,2,2,2,2,2,2,2,2,2,2,2,2,2,2,2,2,2,2,2,2,2,2,2,2,2,2,2,2,2942,2,2,2,2,2,2,2,2,2,2,2,2,2,2,2,2,2,2,2,2,2,2,2,2,2,2,2,2,2,2,2,2,2,2,2,2,2,2,2,2,2,2,2,2,2,2,2,2,2,2,2,2,2,2,2,2,2,2,3036,600,600,600,600,600,3037,2,2,2,2,2,2,2,2,2,2,2,2,2,2,2,2,2,2,2,2,2,2,2,2,2,2,2,2,2,2,2,2,2,2,2,2,2,2,2,2,2,2,2,2,2,2,2,2,2,2,2,2,2,2,2,2,2,2,2,2,2,2,2,2,2,2,2,2,2,2,2,2,2,2,2,2,2,2886,600,600,600,600,600,2887,2,2,2,2,2,2,2,2,2,2,2,2,2,2,2,2,2,2,2,2,2,2,2,2,2,2,2,2,2,2,2,2,2,2,2,2,2,2,2,2,2,2,2,2,2,2,2,2957,2,2,2,2,2,2,2,2,2,2,2,2,2,2,2,2,2,2,2,2,2,2,2,2,2,2,2,2,2,2,2,2,2,2,2,2,2,2,2,2,2,2,2,2,2,2,2,2,2,2,2,2,2,2,2,2,2,2,2881,2,2,2,2,2,2,2,2,2,2,2,2,2,2,2,2,2,2,2,2,2,2,2,2,2,2,2,2,2,2,2,2,2,2,2,2,2,2,2,2,2,2,2,2,2,2,2,2,2,2,2,2,2,2,2,2,2,2,3049,600,600,600,600,600,3050,2,2,2,2,2,2,2,2,2,2,2,2,2,2,2,2,2,2,2,2,2,2,2,2,2,2,2,2,2,2,2,2,2,2,2,2,2,2,2,2,2,2,2,2,2,2,2,2,2,2,2,2,2,2,2,2,2,2,2,2,2,2,2,2,2,2,2,2,2,2,2,2,2,2,2,2,2,3052,600,600,600,600,600,2903,2,2,2,2,2,2,2,2,2,2,2,2,2,2,2,2,2,2,2,2,2,2,2,2,2,2,2,2,2,2,2,2,2,2,2,2,2,2,2,2,2,2,2,2,2,2,2,2893,2,2,2,2,2,2,2,2,2,2,2,2,2,2,2,2,2,2,2,2,2,2,2,2,2,2,2,2,2,3,2,3,2,3,2,3,2,3,3,2,3,2,3,2,3,3,2,3,2,3,2,3,2,3,3,2,3,2,2831,2,3,3,2,3,2,3,2,3,2,3,3,2,3,2,3,2,3,3,2,3,2,3,2,3,2,3,3,2,3,2,3,2,3,3,2,3,2,3,2,3,2,3,3,2,3,2,3,2,3,3,2,3,2,3,2,3,2,2966,600,600,600,600,600,873,3,3,2,3,2,3,2,3,2,3,3,2,3,2,3,2,3,3,2,3,2,3,2,3,2,3,3,2,3,2,3,2,3,3,2,3,2,3,2,3,2,3,3,2,3,2,3,2,3,3,2,3,2,3,2,3,2,3,3,2,3,2,3,2,3,3,2,3,2,3,2,3,2,3,3,2,3,2918,600,600,600,600,600,3060,2,3,2,3,2,3,3,2,3,2,3,2,3,3,2,3,2,3,2,3,2,3,3,2,3,2,3,2,3,3,2,3,2,3,2,3,2,3,3,2,3,2,3,2,3,3,2,2910,2,3,2,3,2,3,3,2,3,2,3,2,3,3,2,3,2,3,2,3,2,3,3,2,3,2,3,2,3,2,2,2,2,2,2,2,2,2,2,2,2,2,2,2,2,2,2,2,2,2,2,2,2,2,2,2,2,2,2821,2,2,2,2,2,2,2,2,2,2,2,2,2,2,2,2,2,2,2,2,2,2,2,2,2,2,2,2,2,2,2,2,2,2,2,2,2,2,2,2,2,2,2,2,2,2,2,2,2,2,2,2,2,2,2,2,2,2,2,894,600,600,600,600,600,3070,2,2,2,2,2,2,2,2,2,2,2,2,2,2,2,2,2,2,2,2,2,2,2,2,2,2,2,2,2,2,2,2,2,2,2,2,2,2,2,2,2,2,2,2,2,2,2,2,2,2,2,2,2,2,2,2,2,2,2,2,2,2,2,2,2,2,2,2,2,2,2,2,2,2,2,2,1671,600,600,600,600,600,2928,2,2,2,2,2,2,2,2,2,2,2,2,2,2,2,2,2,2,2,2,2,2,2,2,2,2,2,2,2,2,2,2,2,2,2,2,2,2,2,2,2,2,2,2,2,2,2,2921,2,2,2,2,2,2,2,2,2,2,2,2,2,2,2,2,2,2,2,2,2,2,2,2,2,2,2,2,2,3,2,3,2,3,2,3,2,3,3,2,3,2,3,2,3,3,2,3,2,3,2,3,2,3,3,2,3,2,2831,2,3,3,2,3,2,3,2,3,2,3,3,2,3,2,3,2,3,3,2,3,2,3,2,3,2,3,3,2,3,2,3,2,3,3,2,3,2,3,2,3,2,3,3,2,3,2,3,2,3,3,2,3,2,3,2,3,2,3,3077,600,600,600,600,600,3078,3,2,3,2,3,2,3,2,3,3,2,3,2,3,2,3,3,2,3,2,3,2,3,2,3,3,2,3,2,3,2,3,3,2,3,2,3,2,3,2,3,3,2,3,2,3,2,3,3,2,3,2,3,2,3,2,3,3,2,3,2,3,2,3,3,2,3,2,3,2,3,2,3,3,2,3,2939,600,600,600,600,600,3079,2,3,2,3,2,3,3,2,3,2,3,2,3,3,2,3,2,3,2,3,2,3,3,2,3,2,3,2,3,3,2,3,2,3,2,3,2,3,3,2,3,2,3,2,3,3,2,2910,2,3,2,3,2,3,3,2,3,2,3,2,3,3,2,3,2,3,2,3,2,3,3,2,3,2,3,2,3,2,2,2,2,2,2,2,2,2,2,2,2,2,2,2,2,2,2,2,2,2,2,2,2,2,2,2,2,2,2821,2,2,2,2,2,2,2,2,2,2,2,2,2,2,2,2,2,2,2,2,2,2,2,2,2,2,2,2,2,2,2,2,2,2,2,2,2,2,2,2,2,2,2,2,2,2,2,2,2,2,2,2,2,2,2,2,2,2,2,1653,600,600,600,600,600,3084,2,2,2,2,2,2,2,2,2,2,2,2,2,2,2,2,2,2,2,2,2,2,2,2,2,2,2,2,2,2,2,2,2,2,2,2,2,2,2,2,2,2,2,2,2,2,2,2,2,2,2,2,2,2,2,2,2,2,2,2,2,2,2,2,2,2,2,2,2,2,2,2,2,2,2,2,2951,600,600,600,600,600,2952,2,2,2,2,2,2,2,2,2,2,2,2,2,2,2,2,2,2,2,2,2,2,2,2,2,2,2,2,2,2,2,2,2,2,2,2,2,2,2,2,2,2,2,2,2,2,2,2921,2,2,2,2,2,2,2,2,2,2,2,2,2,2,2,2,2,2,2,2,2,2,2,2,2,2,2,2,2,3,2,3,2,3,2,3,2,3,3,2,3,2,3,2,3,3,2,3,2,3,2,3,2,3,3,2,3,2,2870,2,3,3,2,3,2,3,2,3,2,3,3,2,3,2,3,2,3,3,2,3,2,3,2,3,2,3,3,2,3,2,3,2,3,3,2,3,2,3,2,3,2,3,3,2,3,2,3,2,3,3,2,3,2,3,2,3,2,3,3090,600,600,600,600,600,3091,3,2,3,2,3,2,3,2,3,3,2,3,2,3,2,3,3,2,3,2,3,2,3,2,3,3,2,3,2,3,2,3,3,2,3,2,3,2,3,2,3,3,2,3,2,3,2,3,3,2,3,2,3,2,3,2,3,3,2,3,2,3,2,3,3,2,3,2,3,2,3,2,3,3,2,3,3093,600,600,600,600,600,3094,2,3,2,3,2,3,3,2,3,2,3,2,3,3,2,3,2,3,2,3,2,3,3,2,3,2,3,2,3,3,2,3,2,3,2,3,2,3,3,2,3,2,3,2,3,3,2,2880,2,3,2,3,2,3,3,2,3,2,3,2,3,3,2,3,2,3,2,3,2,3,3,2,3,2,3,2,3,2,2,2,2,2,2,2,2,2,2,2,2,2,2,2,2,2,2,2,2,2,2,2,2,2,2,2,2,2,2881,866,867,870,865,866,867,868,869,866,867,870,865,2,2,2,2,2,2,2,2,2,2,2,2,2,2,2,2,2,2,2,2,2,2,2,2,2,2,2,2,2,2,2,2,2,2,2,2,2,2,2,2,2,2,2,2,2,2,2,2947,600,600,600,600,600,2948,2,2,2,2,2,2,2,2,2,2,2,2,2,2,2,2,2,2,2,2,2,2,2,2,2,2,2,2,2,2,2,2,2,2,2,2,2,2,2,2,2,2,2,2,2,2,2,2,2,2,2,2,2,2,2,2,2,2,2,2,2,2,2,2,2,2,2,2,2,2,2,2,2,2,2,2,2988,600,600,600,600,600,600,1477,2,2,2,2,2,2,2,2,2,2,2,2,2,2,2,2,2,2,2,2,2,2,2,2,2,2,2,2,2,2,2,2,2,2,2,867,870,865,866,867,868,869,866,867,870,865,866,2,2,2,2,2,2,2,2,2,2,2,2,2,2,2,2,2,2,2,2,2,2,2,2,2,2,2,2,2,3,2,3,2,3,2,3,2,3,3,2,3,2,3,2,3,3,2,3,2,3,2,3,2,3,3,2,3,2,3102,884,885,888,883,884,885,886,887,884,885,888,883,2,3,2,3,2,3,3,2,3,2,3,2,3,2,3,3,2,3,2,3,2,3,3,2,3,2,3,2,3,2,3,3,2,3,2,3,2,3,3,2,3,2,3,2,3,2,3,3104,600,600,600,600,600,2964,3,2,3,2,3,2,3,2,3,3,2,3,2,3,2,3,3,2,3,2,3,2,3,2,3,3,2,3,2,3,2,3,3,2,3,2,3,2,3,2,3,3,2,3,2,3,2,3,3,2,3,2,3,2,3,2,3,3,2,3,2,3,2,3,3,2,3,2,3,2,3,2,3,3,2,3,2,3107,600,600,600,600,600,3108,3,2,3,2,3,3,2,3,2,3,2,3,3,2,3,2,3,2,3,2,3,3,2,3,2,3,2,3,3,2,3,2,3,2,3111,885,888,883,884,885,886,887,884,885,888,883,884,2,3,2,3,2,3,3,2,3,2,3,2,3,3,2,3,2,3,2,3,2,3,3,2,3,2,3,2,3,2,2,2,2,2,2,2,2,2,2,2,2,2,2,2,2,2,2,2,2,2,2,2,2,2,2,2,2,2,2,903,904,907,902,903,904,905,906,903,904,907,902,2,2,2,2,2,2,2,2,2,2,2,2,2,2,2,2,2,2,2,2,2,2,2,2,2,2,2,2,2,2,2,2,2,2,2,2,2,2,2,2,2,2,2,2,2,2,2,2986,600,600,600,600,600,600,1477,2,2,2,2,2,2,2,2,2,2,2,2,2,2,2,2,2,2,2,2,2,2,2,2,2,2,2,2,2,2,2,2,2,2,2,2,2,2,2,2,2,2,2,2,2,2,2,2,2,2,2,2,2,2,2,2,2,2,2,2,2,2,2,2,2,2,2,2,2,2,2,2,2,2,2,2,3114,600,600,600,600,600,3115,2,2,2,2,2,2,2,2,2,2,2,2,2,2,2,2,2,2,2,2,2,2,2,2,2,2,2,2,2,2,2,2,2,2,2921,904,907,902,903,904,905,906,903,904,907,902,903,2,2,2,2,2,2,2,2,2,2,2,2,2,2,2,2,2,2,2,2,2,2,2,2,2,2,2,2,2,2,2,2,2,2,2,2,2,2,2,2,2,2,2,2,2,2,2,2,2,2,2,2,2,2,2,2,2,2,2,923,924,927,922,923,924,925,926,923,924,927,922,2,2,2,2,2,2,2,2,2,2,2,2,2,2,2,2,2,2,2,2,2,2,2,2,2,2,2,2,2,2,2,2,2,2,2,2,2,2,2,2,2,2,2,2,2,2,2,2,3121,600,600,600,600,600,3004,2,2,2,2,2,2,2,2,2,2,2,2,2,2,2,2,2,2,2,2,2,2,2,2,2,2,2,2,2,2,2,2,2,2,2,2,2,2,2,2,2,2,2,2,2,2,2,2,2,2,2,2,2,2,2,2,2,2,2,2,2,2,2,2,2,2,2,2,2,2,2,2,2,2,2,2,1671,600,600,600,600,600,3123,2,2,2,2,2,2,2,2,2,2,2,2,2,2,2,2,2,2,2,2,2,2,2,2,2,2,2,2,2,2,2,2,2,2,2991,924,927,922,923,924,925,926,923,924,927,922,923,2,2,2,2,2,2,2,2,2,2,2,2,2,2,2,2,2,2,2,2,2,2,2,2,2,2,2,2,2,3,2,3,2,3,2,3,2,3,3,2,3,2,3,2,3,3,2,3,2,3,2,3,2,3,3,2,3,2,3,941,942,945,940,941,942,943,944,941,942,945,940,2,3,2,3,2,3,3,2,3,2,3,2,3,2,3,3,2,3,2,3,2,3,3,2,3,2,3,2,3,2,3,3,2,3,2,3,2,3,3,2,3,2,3,2,3,2,3,3,3013,600,600,600,600,600,3130,2,3,2,3,2,3,2,3,3,2,3,2,3,2,3,3,2,3,2,3,2,3,2,3,3,2,3,2,3,2,3,3,2,3,2,3,2,3,2,3,3,2,3,2,3,2,3,3,2,3,2,3,2,3,2,3,3,2,3,2,3,2,3,3,2,3,2,3,2,3,2,3,3,2,3,2,3132,600,600,600,600,600,3133,3,2,3,2,3,3,2,3,2,3,2,3,3,2,3,2,3,2,3,2,3,3,2,3,2,3,2,3,3,2,3,2,3,2,3011,942,945,940,941,942,943,944,941,942,945,940,941,2,3,2,3,2,3,3,2,3,2,3,2,3,3,2,3,2,3,2,3,2,3,3,2,3,2,3,2,3,2,2,2,2,2,2,2,2,2,2,2,2,2,2,2,2,2,2,2,2,2,2,2,2,2,2,2,2,2,2,903,904,960,902,903,904,905,906,903,904,960,902,2,2,2,2,2,2,2,2,2,2,2,2,2,2,2,2,2,2,2,2,2,2,2,2,2,2,2,2,2,2,2,2,2,2,2,2,2,2,2,2,2,2,2,2,2,2,2,2,3140,600,600,600,600,600,3024,2,2,2,2,2,2,2,2,2,2,2,2,2,2,2,2,2,2,2,2,2,2,2,2,2,2,2,2,2,2,2,2,2,2,2,2,2,2,2,2,2,2,2,2,2,2,2,2,2,2,2,2,2,2,2,2,2,2,2,2,2,2,2,2,2,2,2,2,2,2,2,2,2,2,2,2,1155,1494,600,600,600,600,600,1633,2,2,2,2,2,2,2,2,2,2,2,2,2,2,2,2,2,2,2,2,2,2,2,2,2,2,2,2,2,2,2,2,2,2957,904,960,902,903,904,905,906,903,904,960,902,903,2,2,2,2,2,2,2,2,2,2,2,2,2,2,2,2,2,2,2,2,2,2,2,2,2,2,2,2,2,3,2,3,2,3,2,3,2,3,3,2,3,2,3,2,3,3,2,3,2,3,2,3,2,3,3,2,3,2,3,977,978,981,976,977,978,979,980,977,978,981,976,2,3,2,3,2,3,3,2,3,2,3,2,3,2,3,3,2,3,2,3,2,3,3,2,3,2,3,2,3,2,3,3,2,3,2,3,2,3,3,2,3,2,3,2,3,2,3,3,3036,600,600,600,600,600,3145,2,3,2,3,2,3,2,3,3,2,3,2,3,2,3,3,2,3,2,3,2,3,2,3,3,2,3,2,3,2,3,3,2,3,2,3,2,3,2,3,3,2,3,2,3,2,3,3,2,3,2,3,2,3,2,3,3,2,3,2,3,2,3,3,2,3,2,3,2,3,2,3,3,2,3,2,3,3148,600,600,600,600,600,3149,2,3,2,3,3,2,3,2,3,2,3,3,2,3,2,3,2,3,2,3,3,2,3,2,3,2,3,3,2,3,2,3,2,2969,978,981,976,977,978,979,980,977,978,981,976,977,2,3,2,3,2,3,3,2,3,2,3,2,3,3,2,3,2,3,2,3,2,3,3,2,3,2,3,2,3,2,2,2,2,2,2,2,2,2,2,2,2,2,2,2,2,2,2,2,2,2,2,2,2,2,2,2,2,2,2,923,924,927,922,923,924,925,926,923,924,927,922,2,2,2,2,2,2,2,2,2,2,2,2,2,2,2,2,2,2,2,2,2,2,2,2,2,2,2,2,2,2,2,2,2,2,2,2,2,2,2,2,2,2,2,2,2,2,2,2,3049,600,600,600,600,600,3050,2,2,2,2,2,2,2,2,2,2,2,2,2,2,2,2,2,2,2,2,2,2,2,2,2,2,2,2,2,2,2,2,2,2,2,2,2,2,2,2,2,2,2,2,2,2,2,2,2,2,2,2,2,2,2,2,2,2,2,2,2,2,2,2,2,2,2,2,2,2,2,2,2,2,2,2,2,3156,600,600,600,600,600,1672,2,2,2,2,2,2,2,2,2,2,2,2,2,2,2,2,2,2,2,2,2,2,2,2,2,2,2,2,2,2,2,2,2,2991,924,927,922,923,924,925,926,923,924,927,922,923,2,2,2,2,2,2,2,2,2,2,2,2,2,2,2,2,2,2,2,2,2,2,2,2,2,2,2,2,2,3,2,3,2,3,2,3,2,3,3,2,3,2,3,2,3,3,2,3,2,3,2,3,2,3,3,2,3,2,3,977,978,981,976,977,978,979,980,977,978,981,976,2,3,2,3,2,3,3,2,3,2,3,2,3,2,3,3,2,3,2,3,2,3,3,2,3,2,3,2,3,2,3,3,2,3,2,3,2,3,3,2,3,2,3,2,3,2,3,3,3093,600,600,600,600,600,600,1477,3,2,3,2,3,2,3,3,2,3,2,3,2,3,3,2,3,2,3,2,3,2,3,3,2,3,2,3,2,3,3,2,3,2,3,2,3,2,3,3,2,3,2,3,2,3,3,2,3,2,3,2,3,2,3,3,2,3,2,3,2,3,3,2,3,2,3,2,3,2,3,3,2,3,2,3,3161,600,600,600,600,600,1687,2,3,2,3,3,2,3,2,3,2,3,3,2,3,2,3,2,3,2,3,3,2,3,2,3,2,3,3,2,3,2,3,2,3011,978,981,976,977,978,979,980,977,978,981,976,977,2,3,2,3,2,3,3,2,3,2,3,2,3,3,2,3,2,3,2,3,2,3,3,2,3,2,3,2,3,2,2,2,2,2,2,2,2,2,2,2,2,2,2,2,2,2,2,2,2,2,2,2,2,2,2,2,2,2,2,923,924,927,922,923,924,925,926,923,924,927,922,2,2,2,2,2,2,2,2,2,2,2,2,2,2,2,2,2,2,2,2,2,2,2,2,2,2,2,2,2,2,2,2,2,2,2,2,2,2,2,2,2,2,2,2,2,2,2,2,2,1494,600,600,600,600,600,3169,2,2,2,2,2,2,2,2,2,2,2,2,2,2,2,2,2,2,2,2,2,2,2,2,2,2,2,2,2,2,2,2,2,2,2,2,2,2,2,2,2,2,2,2,2,2,2,2,2,2,2,2,2,2,2,2,2,2,2,2,2,2,2,2,2,2,2,2,2,2,2,2,2,2,2,2,3172,3173,600,600,600,600,600,3174,2,2,2,2,2,2,2,2,2,2,2,2,2,2,2,2,2,2,2,2,2,2,2,2,2,2,2,2,2,2,2,2,2991,924,927,922,923,924,925,926,923,924,927,922,923,2,2,2,2,2,2,2,2,2,2,2,2,2,2,2,2,2,2,2,2,2,2,2,2,2,2,2,2,2,2,2,2,2,2,2,2,2,2,2,2,2,2,2,2,2,2,2,2,2,2,2,2,2,2,2,2,2,2,2,941,942,945,940,941,942,943,944,941,942,945,940,2,2,2,2,2,2,2,2,2,2,2,2,2,2,2,2,2,2,2,2,2,2,2,2,2,2,2,2,2,2,2,2,2,2,2,2,2,2,2,2,2,2,2,2,2,2,2,2,2,3180,600,600,600,600,600,3181,2,2,2,2,2,2,2,2,2,2,2,2,2,2,2,2,2,2,2,2,2,2,2,2,2,2,2,2,2,2,2,2,2,2,2,2,2,2,2,2,2,2,2,2,2,2,2,2,2,2,2,2,2,2,2,2,2,2,2,2,2,2,2,2,2,2,2,2,2,2,2,2,2,2,2,2,2,3185,600,600,600,600,600,1721,2,2,2,2,2,2,2,2,2,2,2,2,2,2,2,2,2,2,2,2,2,2,2,2,2,2,2,2,2,2,2,2,2921,942,945,940,941,942,943,944,941,942,945,940,941,2,2,2,2,2,2,2,2,2,2,2,2,2,2,2,2,2,2,2,2,2,2,2,2,2,2,2,2,2,3,2,3,2,3,2,3,2,3,3,2,3,2,3,2,3,3,2,3,2,3,2,3,2,3,3,2,3,2,3,903,904,960,902,903,904,905,906,903,904,960,902,2,3,2,3,2,3,3,2,3,2,3,2,3,2,3,3,2,3,2,3,2,3,3,2,3,2,3,2,3,2,3,3,2,3,2,3,2,3,3,2,3,2,3,2,3,2,3,3,2,3190,600,600,600,600,600,913,3191,2,3,2,3,2,3,3,2,3,2,3,2,3,3,2,3,2,3,2,3,2,3,3,2,3,2,3,2,3,3,2,3,2,3,2,3,2,3,3,2,3,2,3,2,3,3,2,3,2,3,2,3,2,3,3,2,3,2,3,2,3,3,2,3,2,3,2,3,2,3,3,2,3,2,3,2,3192,600,600,600,600,600,3193,3,2,3,3,2,3,2,3,2,3,3,2,3,2,3,2,3,2,3,3,2,3,2,3,2,3,3,2,3,2,3,2,2880,904,960,902,903,904,905,906,903,904,960,902,903,2,3,2,3,2,3,3,2,3,2,3,2,3,3,2,3,2,3,2,3,2,3,3,2,3,2,3,2,3,2,2,2,2,2,2,2,2,2,2,2,2,2,2,2,2,2,2,2,2,2,2,2,2,2,2,2,2,2,2,977,978,981,976,977,978,979,980,977,978,981,976,2,2,2,2,2,2,2,2,2,2,2,2,2,2,2,2,2,2,2,2,2,2,2,2,2,2,2,2,2,2,2,2,2,2,2,2,2,2,2,2,2,2,2,2,2,2,2,2,2,3199,3173,600,600,600,600,600,3169,2,2,2,2,2,2,2,2,2,2,2,2,2,2,2,2,2,2,2,2,2,2,2,2,2,2,2,2,2,2,2,2,2,2,2,2,2,2,2,2,2,2,2,2,2,2,2,2,2,2,2,2,2,2,2,2,2,2,2,2,2,2,2,2,2,2,2,2,2,2,2,2,2,2,2,2,3201,600,600,600,600,600,3202,2,2,2,2,2,2,2,2,2,2,2,2,2,2,2,2,2,2,2,2,2,2,2,2,2,2,2,2,2,2,2,2,2893,978,981,976,977,978,979,980,977,978,981,976,977,2,2,2,2,2,2,2,2,2,2,2,2,2,2,2,2,2,2,2,2,2,2,2,2,2,2,2,2,2,3,2,3,2,3,2,3,2,3,3,2,3,2,3,2,3,3,2,3,2,3,2,3,2,3,3,2,3,2,3,923,924,927,922,923,924,925,926,923,924,927,922,2,3,2,3,2,3,3,2,3,2,3,2,3,2,3,3,2,3,2,3,2,3,3,2,3,2,3,2,3,2,3,3,2,3,2,3,2,3,3,2,3,2,3,2,3,2,3,3,2,3,3180,600,600,600,600,600,3207,2,3,2,3,2,3,3,2,3,2,3,2,3,3,2,3,2,3,2,3,2,3,3,2,3,2,3,2,3,3,2,3,2,3,2,3,2,3,3,2,3,2,3,2,3,3,2,3,2,3,2,3,2,3,3,2,3,2,3,2,3,3,2,3,2,3,2,3,2,3,3,2,3,2,3,2,1805,894,600,600,600,600,873,3191,2,3,3,2,3,2,3,2,3,3,2,3,2,3,2,3,2,3,3,2,3,2,3,2,3,3,2,3,2,3,2,2910,924,927,922,923,924,925,926,923,924,927,922,923,2,3,2,3,2,3,3,2,3,2,3,2,3,3,2,3,2,3,2,3,2,3,3,2,3,2,3,2,3,2,2,2,2,2,2,2,2,2,2,2,2,2,2,2,2,2,2,2,2,2,2,2,2,2,2,2,2,2,2,977,978,981,976,977,978,979,980,977,978,981,976,866,867,868,869,866,867,870,865,866,867,868,869,866,867,870,865,866,867,868,869,866,867,870,865,866,867,2,2,2,2,2,2,2,2,2,2,2,2,2,2,2,2,2,2,2,2,2,2,2,2,3210,600,600,600,600,600,913,3211,2,2,2,2,2,2,2,2,2,2,2,2,2,2,2,2,2,2,2,2,2,2,2,2,2,2,2,2,2,2,2,2,2,2,2,2,2,2,2,2,2,2,2,2,2,2,2,2,2,2,2,2,2,2,2,2,2,2,2,2,2,2,2,2,2,2,2,2,2,2,2,2,2,2,2,2,3214,600,600,600,600,600,3215,2,2,2,2,2,2,869,866,867,870,865,866,867,868,869,866,867,870,865,866,867,868,869,866,867,870,865,866,867,868,869,866,978,981,976,977,978,979,980,977,978,981,976,977,2,2,2,2,2,2,2,2,2,2,2,2,2,2,2,2,2,2,2,2,2,2,2,2,2,2,2,2,2,3,2,3,2,3,2,3,2,3,3,2,3,2,3,2,3,3,2,3,2,3,2,3,2,3,3,2,3,2,3,923,924,927,922,923,924,925,926,923,924,927,922,884,885,886,887,884,885,888,883,884,885,886,887,884,885,888,883,884,885,886,887,884,885,888,883,884,885,3,2,3,2,3,3,2,3,2,3,2,3,3,2,3,2,3,2,3,2,3,3,2,3,3199,3216,600,600,600,600,600,3169,3,2,3,2,3,3,2,3,2,3,2,3,3,2,3,2,3,2,3,2,3,3,2,3,2,3,2,3,3,2,3,2,3,2,3,2,3,3,2,3,2,3,2,3,3,2,3,2,3,2,3,2,3,3,2,3,2,3,2,3,3,2,3,2,3,2,3,2,3,3,2,3,2,3,2,3,3219,600,600,600,600,600,3220,2,3,3,2,3,3221,887,884,885,888,883,884,885,886,887,884,885,888,883,884,885,886,887,884,885,888,883,884,885,886,887,884,924,927,922,923,924,925,926,923,924,927,922,923,2,3,2,3,2,3,3,2,3,2,3,2,3,3,2,3,2,3,2,3,2,3,3,2,3,2,3,2,3,2,2,2,2,2,2,2,2,2,2,2,2,2,2,2,2,2,2,2,2,2,2,2,2,2,2,2,2,2,2,941,942,945,940,941,942,943,944,941,942,945,940,903,904,905,906,903,904,907,902,903,904,905,906,903,904,907,902,903,904,905,906,903,904,907,902,903,904,2,2,2,2,2,2,2,2,2,2,2,2,2,2,2,2,2,2,2,2,2,2,2,2,2,3180,600,600,600,600,600,3181,2,2,2,2,2,2,2,2,2,2,2,2,2,2,2,2,2,2,2,2,2,2,2,2,2,2,2,2,2,2,2,2,2,2,2,2,2,2,2,2,2,2,2,2,2,2,2,2,2,2,2,2,2,2,2,2,2,2,2,2,2,2,2,2,2,2,2,2,2,2,2,2,2,2,2,2,1522,600,600,600,600,600,3223,2,2,2,2,2,1168,906,903,904,907,902,903,904,905,906,903,904,907,902,903,904,905,906,903,904,907,902,903,904,905,906,903,942,945,940,941,942,943,944,941,942,945,940,941,2,2,2,2,2,2,2,2,2,2,2,2,2,2,2,2,2,2,2,2,2,2,2,2,2,2,2,2,2,3,2,3,2,3,2,3,2,3,3,2,3,2,3,2,3,3,2,3,2,3,2,3,2,3,3,2,3,2,3,903,904,960,902,903,904,905,906,903,904,960,902,923,924,925,926,923,924,927,922,923,924,925,926,923,924,927,922,923,924,925,926,923,924,927,922,923,924,3,2,3,2,3,3,2,3,2,3,2,3,3,2,3,2,3,2,3,2,3,3,2,3,2,3190,600,600,600,600,600,913,3191,2,3,2,3,3,2,3,2,3,2,3,3,2,3,2,3,2,3,2,3,3,2,3,2,3,2,3,3,2,3,2,3,2,3,2,3,3,2,3,2,3,2,3,3,2,3,2,3,2,3,2,3,3,2,3,2,3,2,3,3,2,3,2,3,2,3,2,3,3,2,3,2,3,2,3,3226,600,600,600,600,600,913,987,3,3,2,3,1050,926,923,924,927,922,923,924,925,926,923,924,927,922,923,924,925,926,923,924,927,922,923,924,925,926,923,904,960,902,903,904,905,906,903,904,960,902,903,2,3,2,3,2,3,3,2,3,2,3,2,3,3,2,3,2,3,2,3,2,3,3,2,3,2,3,2,3,2,2,2,2,2,2,2,2,2,2,2,2,2,2,2,2,2,2,2,2,2,2,2,2,2,2,2,2,2,2,977,978,981,976,977,978,979,980,977,978,981,976,941,942,943,944,941,942,945,940,941,942,943,944,941,942,945,940,941,942,943,944,941,942,945,940,941,942,2,2,2,2,2,2,2,2,2,2,2,2,2,2,2,2,2,2,2,2,2,2,2,2,2,3199,3173,600,600,600,600,600,3169,2,2,2,2,2,2,2,2,2,2,2,2,2,2,2,2,2,2,2,2,2,2,2,2,2,2,2,2,2,2,2,2,2,2,2,2,2,2,2,2,2,2,2,2,2,2,2,2,2,2,2,2,2,2,2,2,2,2,2,2,2,2,2,2,2,2,2,2,2,2,2,2,2,2,2,2,3230,600,600,600,600,600,3231,2,2,2,2,1091,944,941,942,945,940,941,942,943,944,941,942,945,940,941,942,943,944,941,942,945,940,941,942,943,944,941,978,981,976,977,978,979,980,977,978,981,976,977,2,2,2,2,2,2,2,2,2,2,2,2,2,2,2,2,2,2,2,2,2,2,2,2,2,2,2,2,2,2,2,2,2,2,2,2,2,2,2,2,2,2,2,2,2,2,2,2,2,2,2,2,2,2,2,2,2,2,2,923,924,927,922,923,924,925,926,923,924,927,922,903,904,905,906,903,904,960,902,903,904,905,906,903,904,960,902,903,904,905,906,903,904,960,902,903,904,2,2,2,2,2,2,2,2,2,2,2,2,2,2,2,2,2,2,2,2,2,2,2,2,2,2,3180,600,600,600,600,600,3181,2,2,2,2,2,2,2,2,2,2,2,2,2,2,2,2,2,2,2,2,2,2,2,2,2,2,2,2,2,2,2,2,2,2,2,2,2,2,2,2,2,2,2,2,2,2,2,2,2,2,2,2,2,2,2,2,2,2,2,2,2,2,2,2,2,2,2,2,2,2,2,2,2,2,2,2,3233,600,600,600,600,600,3234,2,2,2,2,1124,906,903,904,960,902,903,904,905,906,903,904,960,902,903,904,905,906,903,904,960,902,903,904,905,906,903,924,927,922,923,924,925,926,923,924,927,922,923,2,2,2,2,2,2,2,2,2,2,2,2,2,2,2,2,2,2,2,2,2,2,2,2,2,2,2,2,2,3,2,3,2,3,2,3,2,3,3,2,3,2,3,2,3,3,2,3,2,3,2,3,2,3,3,2,3,2,3,977,978,981,976,977,978,979,980,977,978,981,976,977,978,979,980,977,978,981,976,977,978,979,980,977,978,981,976,977,978,979,980,977,978,981,976,977,978,3,2,3,2,3,3,2,3,2,3,2,3,3,2,3,2,3,2,3,2,3,3,2,3,2,3,3210,600,600,600,600,600,913,3211,3,2,3,3,2,3,2,3,2,3,3,2,3,2,3,2,3,2,3,3,2,3,2,3,2,3,3,2,3,2,3,2,3,2,3,3,2,3,2,3,2,3,3,2,3,2,3,2,3,2,3,3,2,3,2,3,2,3,3,2,3,2,3,2,3,2,3,3,2,3,2,3,2,3,3,3237,600,600,600,600,600,3238,3,3,2,3,1168,980,977,978,981,976,977,978,979,980,977,978,981,976,977,978,979,980,977,978,981,976,977,978,979,980,977,978,981,976,977,978,979,980,977,978,981,976,977,2,3,2,3,2,3,3,2,3,2,3,2,3,3,2,3,2,3,2,3,2,3,3,2,3,2,3,2,3,2,2,2,2,2,2,2,2,2,2,2,2,2,2,2,2,2,2,2,2,2,2,2,2,2,2,2,2,2,2,923,924,927,922,923,924,925,926,923,924,927,922,923,924,925,926,923,924,927,922,923,924,925,926,923,924,927,922,923,924,925,926,923,924,927,922,923,924,2,2,2,2,2,2,2,2,2,2,2,2,2,2,2,2,2,2,2,2,2,2,2,2,2,2,3199,3173,600,600,600,600,600,3169,2,2,2,2,2,2,2,2,2,2,2,2,2,2,2,2,2,2,2,2,2,2,2,2,2,2,2,2,2,2,2,2,2,2,2,2,2,2,2,2,2,2,2,2,2,2,2,2,2,2,2,2,2,2,2,2,2,2,2,2,2,2,2,2,2,2,2,2,2,2,2,2,2,2,2,3240,600,600,600,600,600,949,639,2,2,2,1124,926,923,924,927,922,923,924,925,926,923,924,927,922,923,924,925,926,923,924,927,922,923,924,925,926,923,924,927,922,923,924,925,926,923,924,927,922,923,2,2,2,2,2,2,2,2,2,2,2,2,2,2,2,2,2,2,2,2,2,2,2,2,2,2,2,2,2,3,2,3,2,3,2,3,2,3,3,2,3,2,3,2,3,3,2,3,2,3,2,3,2,3,3,2,3,2,3,941,942,945,940,941,942,943,944,941,942,945,940,977,978,979,980,977,978,981,976,977,978,979,980,977,978,981,976,977,978,979,980,977,978,981,976,977,978,3,2,3,2,3,3,2,3,2,3,2,3,3,2,3,2,3,2,3,2,3,3,2,3,2,3,2,3241,600,600,600,600,600,3181,3,2,3,3,2,3,2,3,2,3,3,2,3,2,3,2,3,2,3,3,2,3,2,3,2,3,3,2,3,2,3,2,3,2,3,3,2,3,2,3,2,3,3,2,3,2,3,2,3,2,3,3,2,3,2,3,2,3,3,2,3,2,3,2,3,2,3,3,2,3,2,3,2,3,3,2,3243,600,600,600,600,600,3244,3,2,3,1168,980,977,978,981,976,977,978,979,980,977,978,981,976,977,978,979,980,977,978,981,976,977,978,979,980,977,942,945,940,941,942,943,944,941,942,945,940,941,2,3,2,3,2,3,3,2,3,2,3,2,3,3,2,3,2,3,2,3,2,3,3,2,3,2,3,2,3,2,2,2,2,2,2,2,2,2,2,2,2,2,2,2,2,2,2,2,2,2,2,2,2,2,2,2,2,2,2,903,904,960,902,903,904,905,906,903,904,960,902,923,924,925,926,923,924,927,922,923,924,925,926,923,924,927,922,923,924,925,926,923,924,927,922,923,924,2,2,2,2,2,2,2,2,2,2,2,2,2,2,2,2,2,2,2,2,2,2,2,2,2,2,2,3210,600,600,600,600,600,913,3211,2,2,2,2,2,2,2,2,2,2,2,2,2,2,2,2,2,2,2,2,2,2,2,2,2,2,2,2,2,2,2,2,2,2,2,2,2,2,2,2,2,2,2,2,2,2,2,2,2,2,2,2,2,2,2,2,2,2,2,2,2,2,2,2,2,2,2,2,2,2,2,2,2,2,2,3247,600,600,600,600,600,1578,2,2,2,1050,926,923,924,927,922,923,924,925,926,923,924,927,922,923,924,925,926,923,924,927,922,923,924,925,926,923,904,960,902,903,904,905,906,903,904,960,902,903,2,2,2,2,2,2,2,2,2,2,2,2,2,2,2,2,2,2,2,2,2,2,2,2,2,2,2,2,2,3,2,3,2,3,2,3,2,3,3,2,3,2,3,2,3,3,2,3,2,3,2,3,2,3,3,2,3,2,3,977,978,981,976,977,978,979,980,977,978,981,976,941,942,943,944,941,942,945,940,941,942,943,944,941,942,945,940,941,942,943,944,941,942,945,940,941,942,3,2,3,2,3,3,2,3,2,3,2,3,3,2,3,2,3,2,3,2,3,3,2,3,2,3,2,1805,3216,600,600,600,600,600,3248,2,3,3,2,3,2,3,2,3,3,2,3,2,3,2,3,2,3,3,2,3,2,3,2,3,3,2,3,2,3,2,3,2,3,3,2,3,2,3,2,3,3,2,3,2,3,2,3,2,3,3,2,3,2,3,2,3,3,2,3,2,3,2,3,2,3,3,2,3,2,3,2,3,3,2,1160,1161,1162,1163,1164,1165,1166,1167,2,3,1091,944,941,942,945,940,941,942,943,944,941,942,945,940,941,942,943,944,941,942,945,940,941,942,943,944,941,978,981,976,977,978,979,980,977,978,981,976,977,2,3,2,3,2,3,3,2,3,2,3,2,3,3,2,3,2,3,2,3,2,3,3,2,3,2,3,2,3,2,2,2,2,2,2,2,2,2,2,2,2,2,2,2,2,2,2,2,2,2,2,2,2,2,2,2,2,2,2,923,924,927,922,923,924,925,926,923,924,927,922,903,904,905,906,903,904,960,902,903,904,905,906,903,904,960,902,903,904,905,906,903,904,960,902,903,904,2,2,2,2,2,2,2,2,2,2,2,2,2,2,2,2,2,2,2,2,2,2,2,2,2,2,2,2,3180,600,600,600,600,600,3181,2,2,2,2,2,2,2,2,2,2,2,2,2,2,2,2,2,2,2,2,2,2,2,2,2,2,2,2,2,2,2,2,2,2,2,2,2,2,2,2,2,2,2,2,2,2,2,2,2,2,2,2,2,2,2,2,2,2,2,2,2,2,2,2,2,2,2,2,2,2,2,2,2,2,2,1202,1203,1204,1205,1206,1207,1208,1209,2,2,1124,906,903,904,960,902,903,904,905,906,903,904,960,902,903,904,905,906,903,904,960,902,903,904,905,906,903,924,927,922,923,924,925,926,923,924,927,922,923,2,2,2,2,2,2,2,2,2,2,2,2,2,2,2,2,2,2,2,2,2,2,2,2,2,2,2,2,2,2,2,2,2,2,2,2,2,2,2,2,2,2,2,2,2,2,2,2,2,2,2,2,2,2,2,2,2,2,2,977,978,981,976,977,978,979,980,977,978,981,976,977,978,979,980,977,978,981,976,977,978,979,980,977,978,981,976,977,978,979,980,977,978,981,976,977,978,868,869,866,867,870,865,866,867,868,869,866,867,870,865,866,867,868,869,866,867,870,865,866,867,868,869,866,867,3210,600,600,600,600,600,913,3211,2,2,2,2,2,2,2,2,2,2,2,2,2,2,2,2,2,2,2,2,2,2,2,2,2,2,2,2,2,2,2,2,2,2,2,2,2,2,2,2,2,2,2,2,2,2,2,2,2,2,2,2,2,2,2,2,2,865,866,867,868,869,866,867,870,865,866,867,868,869,866,867,870,865,1242,1243,1244,1245,1246,1247,1248,1249,866,867,868,980,977,978,981,976,977,978,979,980,977,978,981,976,977,978,979,980,977,978,981,976,977,978,979,980,977,978,981,976,977,978,979,980,977,978,981,976,977,2,2,2,2,2,2,2,2,2,2,2,2,2,2,2,2,2,2,2,2,2,2,2,2,2,2,2,2,2,3,2,3,2,3,2,3,2,3,3,2,3,2,3,2,3,3,2,3,2,3,2,3,2,3,3,2,3,2,3,923,924,927,922,923,924,925,926,923,924,927,922,923,924,925,926,923,924,927,922,923,924,925,926,923,924,927,922,923,924,925,926,923,924,927,922,923,924,886,887,884,885,888,883,884,885,886,887,884,885,888,883,884,885,886,887,884,885,888,883,884,885,886,887,884,885,1805,3173,600,600,600,600,600,3169,3,3,2,3,2,3,2,3,3,2,3,2,3,2,3,2,3,3,2,3,2,3,2,3,3,2,3,2,3,2,3,2,3,3,2,3,2,3,2,3,3,2,3,2,3,2,3,2,3,3,2,3,2,3,2,3,3254,883,884,885,886,887,884,885,888,883,884,885,886,887,884,885,888,883,1202,1203,1204,1205,1206,1207,1208,1281,884,885,886,926,923,924,927,922,923,924,925,926,923,924,927,922,923,924,925,926,923,924,927,922,923,924,925,926,923,924,927,922,923,924,925,926,923,924,927,922,923,2,3,2,3,2,3,3,2,3,2,3,2,3,3,2,3,2,3,2,3,2,3,3,2,3,2,3,2,3,2,2,2,2,2,2,2,2,2,2,2,2,2,2,2,2,2,2,2,2,2,2,2,2,2,2,2,2,2,2,941,942,945,940,941,942,943,944,941,942,945,940,977,978,979,980,977,978,981,976,977,978,979,980,977,978,981,976,977,978,979,980,977,978,981,976,977,978,905,906,903,904,907,902,903,904,905,906,903,904,907,902,903,904,905,906,903,904,907,902,903,904,905,906,903,904,2,3180,600,600,600,600,600,3181,2,2,2,2,2,2,2,2,2,2,2,2,2,2,2,2,2,2,2,2,2,2,2,2,2,2,2,2,2,2,2,2,2,2,2,2,2,2,2,2,2,2,2,2,2,2,2,2,2,2,2,2,2,2,2,2,921,902,903,904,905,906,903,904,907,902,903,904,905,906,903,904,907,902,1242,1243,1244,1245,1246,1247,1248,1249,903,904,905,980,977,978,981,976,977,978,979,980,977,978,981,976,977,978,979,980,977,978,981,976,977,978,979,980,977,942,945,940,941,942,943,944,941,942,945,940,941,2,2,2,2,2,2,2,2,2,2,2,2,2,2,2,2,2,2,2,2,2,2,2,2,2,2,2,2,2,3,2,3,2,3,2,3,2,3,3,2,3,2,3,2,3,3,2,3,2,3,2,3,2,3,3,2,3,2,3,903,904,960,902,903,904,905,906,903,904,960,902,923,924,925,926,923,924,927,922,923,924,925,926,923,924,927,922,923,924,925,926,923,924,927,922,923,924,925,926,923,924,927,922,923,924,925,926,923,924,927,922,923,924,925,926,923,924,927,922,923,924,925,926,923,924,3,3210,600,600,600,600,600,913,3191,3,2,3,2,3,2,3,3,2,3,2,3,2,3,2,3,3,2,3,2,3,2,3,3,2,3,2,3,2,3,2,3,3,2,3,2,3,2,3,3,2,3,2,3,2,3,2,3,3,2,3,2,3,2,3,939,922,923,924,925,926,923,924,927,922,923,924,925,926,923,924,927,922,1202,1203,1204,1205,1206,1207,1208,1281,923,924,925,926,923,924,927,922,923,924,925,926,923,924,927,922,923,924,925,926,923,924,927,922,923,924,925,926,923,904,960,902,903,904,905,906,903,904,960,902,903,2,3,2,3,2,3,3,2,3,2,3,2,3,3,2,3,2,3,2,3,2,3,3,2,3,2,3,2,3,2,2,2,2,2,2,2,2,2,2,2,2,2,2,2,2,2,2,2,2,2,2,2,2,2,2,2,2,2,2,977,978,981,976,977,978,979,980,977,978,981,976,941,942,943,944,941,942,945,940,941,942,943,944,941,942,945,940,941,942,943,944,941,942,945,940,941,942,943,944,941,942,945,940,941,942,943,944,941,942,945,940,941,942,943,944,941,942,945,940,941,942,943,944,941,942,2,3199,3173,600,600,600,600,600,3169,2,2,2,2,2,2,2,2,2,2,2,2,2,2,2,2,2,2,2,2,2,2,2,2,2,2,2,2,2,2,2,2,2,2,2,2,2,2,2,2,2,2,2,2,2,2,2,2,2,2,2,2,2,2,2,959,940,941,942,943,944,941,942,945,940,941,942,943,944,941,942,945,940,1242,1243,1244,1245,1246,1247,1248,1249,941,942,943,944,941,942,945,940,941,942,943,944,941,942,945,940,941,942,943,944,941,942,945,940,941,942,943,944,941,978,981,976,977,978,979,980,977,978,981,976,977,2,2,2,2,2,2,2,2,2,2,2,2,2,2,2,2,2,2,2,2,2,2,2,2,2,2,2,2,2,3,2,3,2,3,2,3,2,3,3,2,3,2,3,2,3,3,2,3,2,3,2,3,2,3,3,2,3,2,3,903,904,1342,902,903,904,905,906,903,904,1342,902,903,904,905,906,903,904,960,902,903,904,905,906,903,904,960,902,903,904,905,906,903,904,960,902,903,904,905,906,903,904,960,902,903,904,905,906,903,904,960,902,903,904,905,906,903,904,960,902,903,904,905,906,903,904,3,2,3241,600,600,600,600,600,3263,3,2,3,2,3,2,3,3,2,3,2,3,2,3,2,3,3,2,3,2,3,2,3,3,2,3,2,3,2,3,2,3,3,2,3,2,3,2,3,3,2,3,2,3,2,3,2,3,3,2,3,2,3,2,3,901,902,903,904,905,906,903,904,960,902,903,904,905,906,903,904,960,902,1202,1203,1204,1205,1206,1207,1208,1281,903,904,905,906,903,904,960,902,903,904,905,906,903,904,960,902,903,904,905,906,903,904,960,902,903,904,905,906,903,904,1342,902,903,904,905,906,903,904,1342,902,903,2,3,2,3,2,3,3,2,3,2,3,2,3,3,2,3,2,3,2,3,2,3,3,2,3,2,3,2,3,2,2,2,2,2,2,2,2,2,2,2,2,2,2,2,2,2,2,2,2,2,2,2,2,2,2,2,2,2,2,1344,1345,1347,1343,1344,1345,1346,980,1344,1345,1347,1343,977,978,979,980,977,978,981,976,977,978,979,980,977,978,981,976,977,978,979,980,977,978,981,976,977,978,979,980,977,978,981,976,977,978,979,980,977,978,981,976,977,978,979,980,977,978,981,976,977,978,979,980,977,978,2,2,1160,1161,1162,1163,1164,1165,1166,1167,2,2,2,2,2,2,2,2,2,2,2,2,2,2,2,2,2,2,2,2,2,2,2,2,2,2,2,2,2,2,2,2,2,2,2,2,2,2,2,2,2,2,2,2,2,2,2,2,2,2,2,2,2,2,921,976,977,978,979,980,977,978,981,976,977,978,979,980,977,978,981,976,1242,1243,1244,1245,1246,1247,1248,1249,977,978,979,980,977,978,981,976,977,978,979,980,977,978,981,976,977,978,979,980,977,978,981,976,977,978,979,980,977,1345,1347,1343,1344,1345,1346,980,1344,1345,1347,1343,1344,2,2,2,2,2,2,2,2,2,2,2,2,2,2,2,2,2,2,2,2,2,2,2,2,2,2,2,2,2,3,2,3,2,3,2,3,2,3,3,2,3,2,3,2,3,3,2,3,2,3,2,3,2,3,3,2,3,2,3,2,3,3,2,3,2,3,2,3,2,3,3,923,924,925,926,923,924,927,922,923,924,925,926,923,924,927,922,923,924,925,926,923,924,927,922,923,924,925,926,923,924,927,922,923,924,925,926,923,924,927,922,923,924,925,926,923,924,927,922,923,924,925,926,923,924,3,2,1202,1203,1204,1205,1206,1207,1208,1209,2,3,2,3,2,3,3,2,3,2,3,2,3,2,3,3,2,3,2,3,2,3,3,2,3,2,3,2,3,2,3,3,2,3,2,3,2,3,3,2,3,2,3,2,3,2,3,3,2,3,2,3,2,3,901,922,923,924,925,926,923,924,927,922,923,924,925,926,923,924,927,922,1202,1203,1204,1205,1206,1207,1208,1281,923,924,925,926,923,924,927,922,923,924,925,926,923,924,927,922,923,924,925,926,923,924,927,922,923,924,925,926,923,2,3,3,2,3,2,3,2,3,3,2,3,2,3,2,3,2,3,3,2,3,2,3,2,3,3,2,3,2,3,2,3,2,3,3,2,3,2,3,2,3,2,2,2,2,2,2,2,2,2,2,2,2,2,2,2,2,2,2,2,2,2,2,2,2,2,2,2,2,2,2,2,2,2,2,2,2,2,2,2,2,2,2,977,978,979,980,977,978,981,976,977,978,979,980,977,978,981,976,977,978,979,980,977,978,981,976,977,978,979,980,977,978,981,976,977,978,979,980,977,978,981,976,977,978,979,980,977,978,981,976,977,978,979,980,977,978,870,865,1242,1243,1244,1245,1246,1247,1248,1249,866,867,868,869,866,867,870,865,866,867,868,869,866,867,870,865,866,867,868,869,866,867,870,865,866,867,868,869,866,867,870,865,866,867,868,869,866,867,870,865,866,867,868,869,866,867,870,865,866,867,868,869,866,867,870,976,977,978,979,980,977,978,981,976,977,978,979,980,977,978,981,976,1242,1243,1244,1245,1246,1247,1248,1249,977,978,979,980,977,978,981,976,977,978,979,980,977,978,981,976,977,978,979,980,977,978,981,976,977,978,979,980,977,2,2,2,2,2,2,2,2,2,2,2,2,2,2,2,2,2,2,2,2,2,2,2,2,2,2,2,2,2,2,2,2,2,2,2,2,2,2,2,2,2,2,2,2,2,2,2,2,2,2,2,2,2,2,2,2,2,2,2,2,2,2,2,2,2,2,2,2,2,2,2,2,2,2,2,2,2,2,2,2,2,2,2,923,924,925,926,923,924,927,922,923,924,925,926,923,924,927,922,923,924,925,926,923,924,927,922,923,924,925,926,923,924,927,922,923,924,925,926,923,924,927,922,923,924,925,926,923,924,927,922,923,924,925,926,923,924,888,883,1202,1203,1204,1205,1206,1207,1208,1281,884,885,886,887,884,885,888,883,884,885,886,887,884,885,888,883,884,885,886,887,884,885,888,883,884,885,886,887,884,885,888,883,884,885,886,887,884,885,888,883,884,885,886,887,884,885,888,883,884,885,886,887,884,885,888,922,923,924,925,926,923,924,927,922,923,924,925,926,923,924,927,922,1202,1203,1204,1205,1206,1207,1208,1281,923,924,925,926,923,924,927,922,923,924,925,926,923,924,927,922,923,924,925,926,923,924,927,922,923,924,925,926,923,2,2,2,2,2,2,2,2,2,2,2,2,2,2,2,2,2,2,2,2,2,2,2,2,2,2,2,2,2,2,2,2,2,2,2,2,2,2,2,2,2,3,2,3,2,3,2,3,2,3,3,2,3,2,3,2,3,3,2,3,2,3,2,3,2,3,3,2,3,2,3,2,3,3,2,3,2,3,2,3,2,3,3,941,942,943,944,941,942,945,940,941,942,943,944,941,942,945,940,941,942,943,944,941,942,945,940,941,942,943,944,941,942,945,940,941,942,943,944,941,942,945,940,941,942,943,944,941,942,945,940,941,942,943,944,941,942,907,902,1242,1243,1244,1245,1246,1247,1248,1249,903,904,905,906,903,904,907,902,903,904,905,906,903,904,907,902,903,904,905,906,903,904,907,902,903,904,905,906,903,904,907,902,903,904,905,906,903,904,907,902,903,904,905,906,903,904,907,902,903,904,905,906,903,904,907,940,941,942,943,944,941,942,945,940,941,942,943,944,941,942,945,940,1242,1243,1244,1245,1246,1247,1248,1249,941,942,943,944,941,942,945,940,941,942,943,944,941,942,945,940,941,942,943,944,941,942,945,940,941,942,943,944,941,2,3,3,2,3,2,3,2,3,3,2,3,2,3,2,3,2,3,3,2,3,2,3,2,3,3,2,3,2,3,2,3,2,3,3,2,3,2,3,2,3,2,2,2,2,2,2,2,2,2,2,2,2,2,2,2,2,2,2,2,2,2,2,2,2,2,2,2,2,2,2,2,2,2,2,2,2,2,2,2,2,2,2,903,904,905,906,903,904,960,902,903,904,905,906,903,904,960,902,903,904,905,906,903,904,960,902,903,904,905,906,903,904,960,902,903,904,905,906,903,904,960,902,903,904,905,906,903,904,960,902,903,904,905,906,903,904,927,922,1202,1203,1204,1205,1206,1207,1208,1281,923,924,925,926,923,924,927,922,923,924,925,926,923,924,927,922,923,924,925,926,923,924,927,922,923,924,925,926,923,924,927,922,923,924,925,926,923,924,927,922,923,924,925,926,923,924,927,922,923,924,925,926,923,924,927,902,903,904,905,906,903,904,960,902,903,904,905,906,903,904,960,902,1202,1203,1204,1205,1206,1207,1208,1281,903,904,905,906,903,904,960,902,903,904,905,906,903,904,960,902,903,904,905,906,903,904,960,902,903,904,905,906,903,2,2,2,2,2,2,2,2,2,2,2,2,2,2,2,2,2,2,2,2,2,2,2,2,2,2,2,2,2,2,2,2,2,2,2,2,2,2,2,2,2,3,2,3,2,3,2,3,2,3,3,2,3,2,3,2,3,3,2,3,2,3,2,3,2,3,3,2,3,2,3,2,3,3,2,3,2,3,2,3,2,3,3,977,978,979,980,977,978,981,976,977,978,979,980,977,978,981,976,977,978,979,980,977,978,981,976,977,978,979,980,977,978,981,976,977,978,979,980,977,978,981,976,977,978,979,980,977,978,981,976,977,978,979,980,977,978,945,940,1242,1243,1244,1245,1246,1247,1248,1249,941,942,943,944,941,942,945,940,941,942,943,944,941,942,945,940,941,942,943,944,941,942,945,940,941,942,943,944,941,942,945,940,941,942,943,944,941,942,945,940,941,942,943,944,941,942,945,940,941,942,943,944,941,942,945,976,977,978,979,980,977,978,981,976,977,978,979,980,977,978,981,976,1242,1243,1244,1245,1246,1247,1248,1249,977,978,979,980,977,978,981,976,977,978,979,980,977,978,981,976,977,978,979,980,977,978,981,976,977,978,979,980,977,2,3,3,2,3,2,3,2,3,3,2,3,2,3,2,3,2,3,3,2,3,2,3,2,3,3,2,3,2,3,2,3,2,3,3,2,3,2,3,2,3,2,2,2,2,2,2,2,2,2,2,2,2,2,2,2,2,2,2,2,2,2,2,2,2,2,2,2,2,2,2,2,2,2,2,2,2,2,2,2,2,2,2,923,924,925,926,923,924,927,922,923,924,925,926,923,924,927,922,923,924,925,926,923,924,927,922,923,924,925,926,923,924,927,922,923,924,925,926,923,924,927,922,923,924,925,926,923,924,927,922,923,924,925,926,923,924,960,902,1202,1203,1204,1205,1206,1207,1208,1281,903,904,905,906,903,904,960,902,903,904,905,906,903,904,960,902,903,904,905,906,903,904,960,902,903,904,905,906,903,904,960,902,903,904,905,906,903,904,960,902,903,904,905,906,903,904,960,902,903,904,905,906,903,904,960,922,923,924,925,926,923,924,927,922,923,924,925,926,923,924,927,922,1202,1203,1204,1205,1206,1207,1208,1281,923,924,925,926,923,924,927,922,923,924,925,926,923,924,927,922,923,924,925,926,923,924,927,922,923,924,925,926,923,2,2,2,2,2,2,2,2,2,2,2,2,2,2,2,2,2,2,2,2,2,2,2,2,2,2,2,2,2,2,2,2,2,2,2,2,2,2,2,2,2,3,2,3,2,3,2,3,2,3,3,2,3,2,3,2,3,3,2,3,2,3,2,3,2,3,3,2,3,2,3,2,3,3,2,3,2,3,2,3,2,3,3,977,978,979,980,977,978,981,976,977,978,979,980,977,978,981,976,977,978,979,980,977,978,981,976,977,978,979,980,977,978,981,976,977,978,979,980,977,978,981,976,977,978,979,980,977,978,981,976,977,978,979,980,977,978,981,976,1242,1243,1244,1245,1246,1247,1248,1249,977,978,979,980,977,978,981,976,977,978,979,980,977,978,981,976,977,978,979,980,977,978,981,976,977,978,979,980,977,978,981,976,977,978,979,980,977,978,981,976,977,978,979,980,977,978,981,976,977,978,979,980,977,978,981,976,977,978,979,980,977,978,981,976,977,978,979,980,977,978,981,976,1242,1243,1244,1245,1246,1247,1248,1249,977,978,979,980,977,978,981,976,977,978,979,980,977,978,981,976,977,978,979,980,977,978,981,976,977,978,979,980,977,2,3,3,2,3,2,3,2,3,3,2,3,2,3,2,3,2,3,3,2,3,2,3,2,3,3,2,3,2,3,2,3,2,3,3,2,3,2,3,2,3,2,2,2,2,2,2,2,2,2,2,2,2,2,2,2,2,2,2,2,2,2,2,2,2,2,2,2,2,2,2,2,2,2,2,2,2,2,2,2,2,2,2,923,924,925,926,923,924,927,922,923,924,925,926,923,924,927,922,923,924,925,926,923,924,927,922,923,924,925,926,923,924,927,922,923,924,925,926,923,924,927,922,923,924,925,926,923,924,927,922,923,924,925,926,923,924,927,922,1202,1203,1204,1205,1206,1207,1208,1281,923,924,925,926,923,924,927,922,923,924,925,926,923,924,927,922,923,924,925,926,923,924,927,922,923,924,925,926,923,924,927,922,923,924,925,926,923,924,927,922,923,924,925,926,923,924,927,922,923,924,925,926,923,924,927,922,923,924,925,926,923,924,927,922,923,924,925,926,923,924,927,922,1202,1203,1204,1205,1206,1207,1208,1281,923,924,925,926,923,924,927,922,923,924,925,926,923,924,927,922,923,924,925,926,923,924,927,922,923,924,925,926,923,2,2,2,2,2,2,2,2,2,2,2,2,2,2,2,2,2,2,2,2,2,2,2,2,2,2,2,2,2,2,2,2,2,2,2,2,2,2,2,2,2,2,2,2,2,2,2,2,2,2,2,2,2,2,2,2,2,2,2,2,2,2,2,2,2,2,2,2,2,2,2,2,2,2,2,2,2,2,2,2,2,2,2,941,942,943,944,941,942,945,940,941,942,943,944,941,942,945,940,941,942,943,944,941,942,945,940,941,942,943,944,941,942,945,940,941,942,943,944,941,942,945,940,941,942,943,944,941,942,945,940,941,942,943,944,941,942,981,976,1242,1243,1244,1245,1246,1247,1248,1249,977,978,979,980,977,978,981,976,977,978,979,980,977,978,981,976,977,978,979,980,977,978,981,976,977,978,979,980,977,978,981,976,977,978,979,980,977,978,981,976,977,978,979,980,977,978,981,976,977,978,979,980,977,978,981,940,941,942,943,944,941,942,945,940,941,942,943,944,941,942,945,940,1242,1243,1244,1245,1246,1247,1248,1249,941,942,943,944,941,942,945,940,941,942,943,944,941,942,945,940,941,942,943,944,941,942,945,940,941,942,943,944,941,2,2,2,2,2,2,2,2,2,2,2,2,2,2,2,2,2,2,2,2,2,2,2,2,2,2,2,2,2,2,2,2,2,2,2,2,2,2,2,2,2,3,2,3,2,3,2,3,2,3,3,2,3,2,3,2,3,3,2,3,2,3,2,3,2,3,3,2,3,2,3,2,3,3,2,3,2,3,2,3,2,3,3,903,904,905,906,903,904,960,902,903,904,905,906,903,904,960,902,903,904,905,906,903,904,960,902,903,904,905,906,903,904,960,902,903,904,905,906,903,904,960,902,903,904,905,906,903,904,960,902,903,904,905,906,903,904,927,922,1202,1203,1204,1205,1206,1207,1208,1281,923,924,925,926,923,924,927,922,923,924,925,926,923,924,927,922,923,924,925,926,923,924,927,922,923,924,925,926,923,924,927,922,923,924,925,926,923,924,927,922,923,924,925,926,923,924,927,922,923,924,925,926,923,924,927,902,903,904,905,906,903,904,960,902,903,904,905,906,903,904,960,902,1202,1203,1204,1205,1206,1207,1208,1281,903,904,905,906,903,904,960,902,903,904,905,906,903,904,960,902,903,904,905,906,903,904,960,902,903,904,905,906,903,2,3,3,2,3,2,3,2,3,3,2,3,2,3,2,3,2,3,3,2,3,2,3,2,3,3,2,3,2,3,2,3,2,3,3,2,3,2,3,2,3,2,2,2,2,2,2,2,2,2,2,2,2,2,2,2,2,2,2,2,2,2,2,2,2,2,2,2,2,2,2,2,2,2,2,2,2,2,2,2,2,2,2,977,978,979,980,977,978,981,976,977,978,979,980,977,978,981,976,977,978,979,980,977,978,981,976,977,978,979,980,977,978,981,976,977,978,979,980,977,978,981,976,977,978,979,980,977,978,981,976,977,978,979,980,977,978,945,940,1242,1243,1244,1245,1246,1247,1248,1249,941,942,943,944,941,942,945,940,941,942,943,944,941,942,945,940,941,942,943,944,941,942,945,940,941,942,943,944,941,942,945,940,941,942,943,944,941,942,945,940,941,942,943,944,941,942,945,940,941,942,943,944,941,942,945,976,977,978,979,980,977,978,981,976,977,978,979,980,977,978,981,976,1242,1243,1244,1245,1246,1247,1248,1249,977,978,979,980,977,978,981,976,977,978,979,980,977,978,981,976,977,978,979,980,977,978,981,976,977,978,979,980,977,2,2,2,2,2,2,2,2,2,2,2,2,2,2,2,2,2,2,2,2,2,2,2,2,2,2,2,2,2,2,2,2,2,2,2,2,2,2,2,2,2,3,2,3,2,3,2,3,2,3,3,2,3,2,3,2,3,3,2,3,2,3,2,3,2,3,3,2,3,2,3,2,3,3,2,3,2,3,2,3,2,3,3,903,904,905,906,903,904,1342,902,903,904,905,906,903,904,1342,902,903,904,905,906,903,904,1342,902,903,904,925,926,923,924,927,922,923,924,925,926,923,924,927,922,923,924,925,926,923,924,927,922,923,924,925,926,923,924,960,902,1202,1203,1204,1205,1206,1207,1208,1281,903,904,905,906,903,904,960,902,903,904,905,906,903,904,960,902,903,904,905,906,903,904,960,902,903,904,905,906,903,904,960,902,903,904,905,906,903,904,960,902,903,904,905,906,903,904,960,902,903,904,905,906,903,904,960,922,923,924,925,926,923,924,927,922,923,924,925,926,923,924,927,922,1202,1203,1204,1205,1206,1207,1208,1281,923,924,925,906,903,904,1342,902,903,904,905,906,903,904,1342,902,903,904,905,906,903,904,1342,902,903,904,905,906,903,2,3,3,2,3,2,3,2,3,3,2,3,2,3,2,3,2,3,3,2,3,2,3,2,3,3,2,3,2,3,2,3,2,3,3,2,3,2,3,2,3,2,2,2,2,2,2,2,2,2,2,2,2,2,2,2,2,2,2,2,2,2,2,2,2,2,2,2,2,2,2,2,2,2,2,2,2,2,2,2,2,2,2,1344,1345,1346,980,1344,1345,1347,1343,1344,1345,1346,980,1344,1345,1347,1343,1344,1345,1346,980,1344,1345,1347,1343,1344,1345,979,980,977,978,981,976,977,978,979,980,977,978,981,976,977,978,979,980,977,978,981,976,977,978,979,980,977,978,981,976,1242,1243,1244,1245,1246,1247,1248,1249,977,978,979,980,977,978,981,976,977,978,979,980,977,978,981,976,977,978,979,980,977,978,981,976,977,978,979,980,977,978,981,976,977,978,979,980,977,978,981,976,977,978,979,980,977,978,981,976,977,978,979,980,977,978,981,976,977,978,979,980,977,978,981,976,977,978,979,980,977,978,981,976,1242,1243,1244,1245,1246,1247,1248,1249,977,978,979,980,1344,1345,1347,1343,1344,1345,1346,980,1344,1345,1347,1343,1344,1345,1346,980,1344,1345,1347,1343,1344,1345,1346,980,1344,2,2,2,2,2,2,2,2,2,2,2,2,2,2,2,2,2,2,2,2,2,2,2,2,2,2,2,2,2,2,2,2,2,2,2,2,2,2,2,2,2,3,2,3,2,3,2,3,2,3,3,2,3,2,3,2,3,3,2,3,2,3,2,3,2,3,3,2,3,2,3,2,3,3,2,3,2,3,2,3,2,3,3,2,3,2,3,2,3,3,2,3,2,3,2,3,2,3,3,2,3,2,3,2,3,3,2,3,2,925,926,923,924,927,922,923,924,925,926,923,924,927,922,923,924,925,926,923,924,927,922,923,924,925,926,923,924,927,922,1202,1203,1204,1205,1206,1207,1208,1281,923,924,925,926,923,924,927,922,923,924,925,926,923,924,927,922,923,924,925,926,923,924,927,922,923,924,925,926,923,924,927,922,923,924,925,926,923,924,927,922,923,924,925,926,923,924,927,922,923,924,925,926,923,924,927,922,923,924,925,926,923,924,927,922,923,924,925,926,923,924,927,922,1202,1203,1204,1205,1206,1207,1208,1281,923,924,925,3,2,3,3,2,3,2,3,2,3,2,3,3,2,3,2,3,2,3,3,2,3,2,3,2,3,2,3,3,2,3,2,3,2,3,3,2,3,2,3,2,3,2,3,3,2,3,2,3,2,3,3,2,3,2,3,2,3,2,3,3,2,3,2,3,2,3,2,2,2,2,2,2,2,2,2,2,2,2,2,2,2,2,2,2,2,2,2,2,2,2,2,2,2,2,2,2,2,2,2,2,2,2,2,2,2,2,2,2,2,2,2,2,2,2,2,2,2,2,2,2,2,2,2,2,2,2,2,2,2,2,2,2,2,2,943,944,941,942,945,940,941,942,943,944,941,942,945,940,941,942,943,944,941,942,945,940,941,942,943,944,941,942,981,976,1242,1243,1244,1245,1246,1247,1248,1249,977,978,979,980,977,978,981,976,977,978,979,980,977,978,981,976,977,978,979,980,977,978,981,976,977,978,979,980,977,978,981,976,977,978,979,980,977,978,981,976,977,978,979,980,977,978,981,976,977,978,979,980,977,978,981,940,941,942,943,944,941,942,945,940,941,942,943,944,941,942,945,940,1242,1243,1244,1245,1246,1247,1248,1249,941,942,943,2,2,2,2,2,2,2,2,2,2,2,2,2,2,2,2,2,2,2,2,2,2,2,2,2,2,2,2,2,2,2,2,2,2,2,2,2,2,2,2,2,2,2,2,2,2,2,2,2,2,2,2,2,2,2,2,2,2,2,2,2,2,2,2,2,2,2,3,2,3,2,3,2,3,2,3,3,2,3,2,3,2,3,3,2,3,2,3,2,3,2,3,3,2,3,2,3,2,3,3,2,3,2,3,2,3,2,3,3,2,3,2,3,2,3,3,2,3,2,3,2,3,2,3,3,2,3,2,3,2,3,3,2,3,2,905,906,903,904,960,902,903,904,905,906,903,904,960,902,903,904,905,906,903,904,960,902,903,904,905,906,903,904,927,922,1202,1203,1204,1205,1206,1207,1208,1281,923,924,925,926,923,924,927,922,923,924,925,926,923,924,927,922,923,924,925,926,923,924,927,922,923,924,925,926,923,924,927,922,923,924,925,926,923,924,927,922,923,924,925,926,923,924,927,922,923,924,925,926,923,924,927,902,903,904,905,906,903,904,960,902,903,904,905,906,903,904,960,902,1202,1203,1204,1205,1206,1207,1208,1281,903,904,905,3,2,3,3,2,3,2,3,2,3,2,3,3,2,3,2,3,2,3,3,2,3,2,3,2,3,2,3,3,2,3,2,3,2,3,3,2,3,2,3,2,3,2,3,3,2,3,2,3,2,3,3,2,3,2,3,2,3,2,3,3,2,3,2,3,2,3,2,2,2,2,2,2,2,2,2,2,2,2,2,2,2,2,2,2,2,2,2,2,2,2,2,2,2,2,2,2,2,2,2,2,2,2,2,2,2,2,2,2,2,2,2,2,2,2,2,2,2,2,2,2,2,2,2,2,2,2,2,2,2,2,2,2,2,2,979,980,977,978,981,976,977,978,979,980,977,978,981,976,977,978,979,980,977,978,981,976,977,978,979,980,977,978,945,940,1242,1243,1244,1245,1246,1247,1248,1249,941,942,943,944,941,942,945,940,941,942,943,944,941,942,945,940,941,942,943,944,941,942,945,940,941,942,943,944,941,942,945,940,941,942,943,944,941,942,945,940,941,942,943,944,941,942,945,940,941,942,943,944,941,942,945,976,977,978,979,980,977,978,981,976,977,978,979,980,977,978,981,976,1242,1243,1244,1245,1246,1247,1248,1249,977,978,979,2,2,2,2,2,2,2,2,2,2,2,2,2,2,2,2,2,2,2,2,2,2,2,2,2,2,2,2,2,2,2,2,2,2,2,2,2,2,2,2,2,2,2,2,2,2,2,2,2,2,2,2,2,2,2,2,2,2,2,2,2,2,2,2,2,2,2,2,2,2,2,2,2,2,2,2,2,2,2,2,2,2,2,2,2,2,2,2,2,2,2,2,2,2,2,2,2,2,2,2,2,2,2,2,2,2,2,2,2,2,2,2,2,2,2,2,2,2,2,2,2,2,2,2,2,2,2,2,2,2,2,2,2,2,2,925,926,923,924,927,922,923,924,925,926,923,924,927,922,923,924,925,926,923,924,927,922,923,924,925,926,923,924,960,902,1202,1203,1204,1205,1206,1207,1208,1281,903,904,905,906,903,904,960,902,903,904,905,906,903,904,960,902,903,904,905,906,903,904,960,902,903,904,905,906,903,904,960,902,903,904,905,906,903,904,960,902,903,904,905,906,903,904,960,902,903,904,905,906,903,904,960,922,923,924,925,926,923,924,927,922,923,924,925,926,923,924,927,922,1202,1203,1204,1205,1206,1207,1208,1281,923,924,925,2,2,2,2,2,2,2,2,2,2,2,2,2,2,2,2,2,2,2,2,2,2,2,2,2,2,2,2,2,2,2,2,2,2,2,2,2,2,2,2,2,2,2,2,2,2,2,2,2,2,2,2,2,2,2,2,2,2,2,2,2,2,2,2,2,2,2,3,2,3,2,3,2,3,2,3,3,2,3,2,3,2,3,3,2,3,2,3,2,3,2,3,3,2,3,2,3,2,3,3,2,3,2,3,2,3,2,3,3,2,3,2,3,2,3,3,2,3,2,3,2,3,2,3,3,2,3,2,3,2,3,3,2,3,2,979,980,977,978,981,976,977,978,979,980,977,978,981,976,977,978,979,980,977,978,981,976,977,978,979,980,977,978,981,976,1242,1243,1244,1245,1246,1247,1248,1249,977,978,979,980,977,978,981,976,977,978,979,980,977,978,981,976,977,978,979,980,977,978,981,976,977,978,979,980,977,978,981,976,977,978,979,980,977,978,981,976,977,978,979,980,977,978,981,976,977,978,979,980,977,978,981,976,977,978,979,980,977,978,981,976,977,978,979,980,977,978,981,976,1242,1243,1244,1245,1246,1247,1248,1249,977,978,979,3,2,3,3,2,3,2,3,2,3,2,3,3,2,3,2,3,2,3,3,2,3,2,3,2,3,2,3,3,2,3,2,3,2,3,3,2,3,2,3,2,3,2,3,3,2,3,2,3,2,3,3,2,3,2,3,2,3,2,3,3,2,3,2,3323,733,573,2,2,2,2,2,2,2,2,2,2,2,2,2,2,2,2,2,2,2,2,2,2,2,2,2,2,2,2,2,2,2,2,2,2,2,2,2,2,2,2,2,2,2,2,2,2,2,2,2,2,2,2,2,2,2,2,2,2,2,2,2,2,2,2,2,2,2,2,925,926,923,924,927,922,923,924,925,926,923,924,927,922,923,924,925,926,923,924,927,922,923,924,925,926,923,924,927,922,1202,1203,1204,1205,1206,1207,1208,1281,923,924,925,926,923,924,927,922,923,924,925,926,923,924,927,922,923,924,925,926,923,924,927,922,923,924,925,926,923,924,927,922,923,924,925,926,923,924,927,922,923,924,925,926,923,924,927,922,923,924,925,926,923,924,927,922,923,924,925,926,923,924,927,922,923,924,925,926,923,924,927,922,1202,1203,1204,1205,1206,1207,1208,1281,923,924,925,2,2,2,2,2,2,2,2,2,2,2,2,2,2,2,2,2,2,2,2,2,2,2,2,2,2,2,2,2,2,2,2,2,2,2,2,2,2,2,2,2,2,2,2,2,2,2,2,2,2,2,2,2,2,2,2,2,2,2,2,2,2,3332,3333,3334,600,600,3,2,3,2,3,2,3,2,3,3,2,3,2,3,2,3,3,2,3,2,3,2,3,2,3,3,2,3,2,3,2,3,3,2,3,2,3,2,3,2,3,3,2,3,2,3,2,3,3,2,3,2,3,2,3,2,3,3,2,3,2,3,2,3,3,2,3,2,943,944,941,942,945,940,941,942,943,944,941,942,945,940,941,942,943,944,941,942,945,940,941,942,943,944,941,942,981,976,1242,1243,1244,1245,1246,1247,1248,1249,977,978,979,980,977,978,981,976,977,978,979,980,977,978,981,976,977,978,979,980,977,978,981,976,977,978,979,980,977,978,981,976,977,978,979,980,977,978,981,976,977,978,979,980,977,978,981,976,977,978,979,980,977,978,981,940,941,942,943,944,941,942,945,940,941,942,943,944,941,942,945,940,1242,1243,1244,1245,1246,1247,1248,1249,941,942,943,3,2,3,3,2,3,2,3,2,3,2,3,3,2,3,2,3,2,3,3,2,3,2,3,2,3,2,3,3,2,3,2,3,2,3,3,2,3,2,3,2,3,2,3,3,2,3,2,3,2,3,3,2,3,2,3,2,3,2,3,3323,3333,3341,600,600,600,600,2,2,2,2,2,2,2,2,2,2,2,2,2,2,2,2,2,2,2,2,2,2,2,2,2,2,2,2,2,2,2,2,2,2,2,2,2,2,2,2,2,2,2,2,2,2,2,2,2,2,2,2,2,2,2,2,2,2,2,2,2,2,2,2,2,2,2,2,905,906,903,904,960,902,903,904,905,906,903,904,960,902,903,904,905,906,903,904,960,902,903,904,905,906,903,904,927,922,1202,1203,1204,1205,1206,1207,1208,1281,923,924,925,926,923,924,927,922,923,924,925,926,923,924,927,922,923,924,925,926,923,924,927,922,923,924,925,926,923,924,927,922,923,924,925,926,923,924,927,922,923,924,925,926,923,924,927,922,923,924,925,926,923,924,927,902,903,904,905,906,903,904,960,902,903,904,905,906,903,904,960,902,1202,1203,1204,1205,1206,1207,1208,1281,903,904,905,2,2,2,2,2,2,2,2,2,2,2,2,2,2,2,2,2,2,2,2,2,2,2,2,2,2,2,2,2,2,2,2,2,2,2,2,2,2,2,2,2,2,2,2,2,2,2,2,2,2,2,2,2,2,2,2,2,2,3332,3333,3334,600,600,600,600,600,600,3,2,3,2,3,2,3,2,3,3,2,3,2,3,2,3,3,2,3,2,3,2,3,2,3,3,2,3,2,3,2,3,3,2,3,2,3,2,3,2,3,3,2,3,2,3,2,3,3,2,3,2,3,2,3,2,3,3,2,3,2,3,2,3,3,2,3,2,979,980,977,978,981,976,977,978,979,980,977,978,981,976,977,978,979,980,977,978,981,976,977,978,979,980,977,978,945,940,1242,1243,1244,1245,1246,1247,1248,1249,941,942,943,944,941,942,945,940,941,942,943,944,941,942,945,940,941,942,943,944,941,942,945,940,941,942,943,944,941,942,945,940,941,942,943,944,941,942,945,940,941,942,943,944,941,942,945,940,941,942,943,944,941,942,945,976,977,978,979,980,977,978,981,976,977,978,979,980,977,978,981,976,1242,1243,1244,1245,1246,1247,1248,1249,977,978,979,3,2,3,3,2,3,2,3,2,3,2,3,3,2,3,2,3,2,3,3,2,3,2,3,2,3,2,3,3,2,3,2,3,2,3,3,2,3,2,3,2,3,2,3,3,2,3,2,3,2,3,3,2,3,2,3,3332,3356,3334,600,600,600,600,600,600,600,600,2,2,2,2,2,2,2,2,2,2,2,2,2,2,2,2,2,2,2,2,2,2,2,2,2,2,2,2,2,2,2,2,2,2,2,2,2,2,2,2,2,2,2,2,2,2,2,2,2,2,2,2,2,2,2,2,2,2,2,2,2,2,2,2,2,2,2,2,905,906,903,904,1342,902,903,904,905,906,903,904,1342,902,903,904,905,906,903,904,1342,902,903,904,905,906,903,904,960,902,1202,1203,1204,1205,1206,1207,1208,1281,903,904,905,906,903,904,960,902,903,904,905,906,903,904,960,902,903,904,905,906,903,904,960,902,903,904,905,906,903,904,960,902,903,904,905,906,903,904,960,902,903,904,905,906,903,904,960,902,903,904,905,906,903,904,960,902,903,904,905,906,903,904,1342,902,903,904,905,906,903,904,1342,902,1202,1203,1204,1205,1206,1207,1208,1281,903,904,905,2,2,2,2,2,2,2,2,2,2,2,2,2,2,2,2,2,2,2,2,2,2,2,2,2,2,2,2,2,2,2,2,2,2,2,2,2,2,2,2,2,2,2,2,2,2,2,2,2,2,2,2,2,2,3332,3333,3334,600,600,600,600,600,600,600,600,600,600,2,2,2,2,2,2,2,2,2,2,2,2,2,2,2,2,2,2,2,2,2,2,2,2,2,2,2,2,2,2,2,2,2,2,2,2,2,2,2,2,2,2,2,2,2,2,2,2,2,2,2,2,2,2,2,2,2,2,2,2,2,2,2,2,2,2,2,2,1346,980,1344,1345,1347,1343,1344,1345,1346,980,1344,1345,1347,1343,1344,1345,1346,980,1344,1345,1347,1343,1344,1345,1346,980,1344,1345,981,976,1242,1243,1244,1245,1246,1247,1248,1249,977,978,979,980,977,978,981,976,977,978,979,980,977,978,981,976,977,978,979,980,977,978,981,976,977,978,979,980,977,978,981,976,977,978,979,980,977,978,981,976,977,978,979,980,977,978,981,976,977,978,979,980,977,978,981,1343,1344,1345,1346,980,1344,1345,1347,1343,1344,1345,1346,980,1344,1345,1347,1343,1242,1243,1244,1245,1246,1247,1248,1440,1344,1345,1346,2,2,2,2,2,2,2,2,2,2,2,2,2,2,2,2,2,2,2,2,2,2,2,2,2,2,2,2,2,2,2,2,2,2,2,2,2,2,2,2,2,2,2,2,2,2,2,2,570,3372,3373,3374,3375,1543,686,600,600,600,600,600,600,600,600,600,600,1604,3376,3,2,3,2,3,2,3,2,3,3,2,3,2,3,2,3,3,2,3,2,3,2,3,2,3,3,2,3,2,3,2,3,3,2,3,2,3,2,3,2,3,3,2,3,2,3,2,3,3,2,3,2,3,2,3,2,3,3,2,3,2,3,2,3,3,2,3,2,3,2,3,2,3,3,2,3,2,3,2,3,3,2,3,2,3,2,3,2,3,3,2,3,2,3,2,3,927,922,1202,1203,1204,1205,1206,1207,1208,1281,923,924,925,926,923,924,927,922,923,924,925,926,923,924,927,922,923,924,925,926,923,924,927,922,923,924,925,926,923,924,927,922,923,924,925,926,923,924,927,922,923,924,925,926,923,924,927,922,923,924,925,926,923,924,927,2,3,2,3,2,3,2,3,3,2,3,2,3,2,3,3,2,1449,1450,1451,1452,1453,1454,1455,1456,3380,3381,2,3,2,3,3,2,3,2,3,2,3,2,3,3,2,3,2,3,2,3,3,2,3,2,3,2,3,2,3,3,2,3,2,3,2,3,3,2,3,2,3,2,3384,3385,3386,3387,3388,3389,3390,600,600,600,600,600,600,600,600,600,600,600,600,600,600,600,1604,3391,3392,3,2,2,2,2,2,2,2,2,2,2,2,2,2,2,2,2,2,2,2,2,2,2,2,2,2,2,2,2,2,2,2,2,2,2,2,2,2,2,2,2,2,2,2,2,2,2,2,2,2,2,2,2,2,2,2,2,2,2,2,2,2,2,2,2,2,2,2,2,2,2,2,2,2,2,2,2,2,2,2,2,2,2,2,2,2,2,2,2,2,2,2,2,2,2,2,2,981,976,1242,1243,1244,1245,1246,1247,1248,1249,977,978,979,980,977,978,981,976,977,978,979,980,977,978,981,976,977,978,979,980,977,978,981,976,977,978,979,980,977,978,981,976,977,978,979,980,977,978,981,976,977,978,979,980,977,978,981,976,977,978,979,980,977,978,981,2,2,2,2,2,2,2,2,2,2,2,2,2,2,2,2,2,2,775,600,600,600,600,600,600,600,1504,3394,3395,639,2,2,2,2,2,2,2,2,2,2,2,2,2,2,2,2,2,2,2,2,2,2,2,2,2,2,2,2,2,2,2,628,1470,1708,3397,1816,3398,3402,1487,600,600,600,600,600,600,600,600,600,600,600,600,600,600,600,600,600,600,600,600,1604,3376,3392,2,2,2,3,2,3,2,3,2,3,2,3,3,2,3,2,3,2,3,3,2,3,2,3,2,3,2,3,3,2,3,2,3,2,3,3,2,3,2,3,2,3,2,3,3,2,3,2,3,2,3,3,2,3,2,3,2,3,2,3,3,2,3,2,3,2,3,3,2,3,2,3,2,3,2,3,3,2,3,2,3,2,3,3,2,3,2,3,2,3,2,3,3,2,3,2,3,2,3,927,922,1202,1203,1204,1205,1206,1207,1208,1281,923,924,925,926,923,924,927,922,923,924,925,926,923,924,927,922,923,924,925,926,923,924,927,922,923,924,925,926,923,924,927,922,923,924,925,926,923,924,927,922,923,924,925,926,923,924,927,922,923,924,925,926,923,924,927,2,3,2,3,2,3,2,3,3,2,3,2,3,2,3,3,2,3,1494,600,600,600,600,600,600,600,600,600,600,3405,3406,3407,2,3,2,3,2,3,2,3,3,2,3,2,3,2,3,3,2,3,2,3,2,2473,3372,3408,3409,3375,3411,1486,3412,600,600,600,600,600,600,600,600,600,600,600,600,600,600,600,600,600,600,600,600,600,600,600,600,600,600,1604,3391,3392,3,2,3,2,3,2,2,2,2,2,2,2,2,2,2,2,2,2,2,2,2,2,2,2,2,2,2,2,2,2,2,2,2,2,2,2,2,2,2,2,2,2,2,2,2,2,2,2,2,2,2,2,2,2,2,2,2,2,2,2,2,2,2,2,2,2,2,2,2,2,2,2,2,2,2,2,2,2,2,2,2,2,2,2,2,2,2,2,2,2,2,2,2,2,2,2,2,2,2,2,2,945,940,1242,1243,1244,1245,1246,1247,1248,1249,941,942,943,944,941,942,945,940,941,942,943,944,941,942,945,940,941,942,943,944,941,942,945,940,941,942,943,944,941,942,945,940,941,942,943,944,941,942,945,940,941,942,943,944,941,942,945,940,941,942,943,944,941,942,945,2,2,2,2,2,2,2,2,2,2,2,2,2,2,2,2,2,2,1866,600,600,600,600,600,600,600,600,600,600,600,600,600,3419,3380,3420,2,2,2,2,2,2,2,2,2,2,2,3421,3385,3422,3423,3388,3424,3390,600,600,600,600,600,600,600,600,600,600,600,600,600,600,600,600,600,600,600,600,600,600,600,600,600,600,600,600,600,600,600,600,1604,3376,3392,2,2,2,2,2,2,2,3,2,3,2,3,2,3,2,3,3,2,3,2,3,2,3,3,2,3,2,3,2,3,2,3,3,2,3,2,3,2,3,3,2,3,2,3,2,3,2,3,3,2,3,2,3,2,3,3,2,3,2,3,2,3,2,3,3,2,3,2,3,2,3,3,2,3,2,3,2,3,2,3,3,2,3,2,3,2,3,3,2,3,2,3,2,3,2,3,3,2,3,2,3,2,3,960,902,1202,1203,1204,1205,1206,1207,1208,1281,903,904,905,906,903,904,960,902,903,904,905,906,903,904,960,902,903,904,905,906,903,904,960,902,903,904,905,906,903,904,960,902,903,904,905,906,903,904,960,902,903,904,905,906,903,904,960,902,903,904,905,906,903,904,960,2,3,2,3,2,3,2,3,3,2,3,2,3,2,3,3,2,3,1891,2117,600,600,600,600,600,600,600,600,600,600,600,600,600,600,1504,3431,3395,2072,628,3432,1516,3397,3433,3398,3434,1487,600,600,600,600,600,600,600,600,600,600,600,600,600,600,600,600,600,600,600,600,600,600,600,600,600,600,600,600,600,600,600,600,600,600,600,600,600,600,3437,3438,2,3,3,2,3,2,3,2,3,2,2,2,2,2,2,2,2,2,2,2,2,2,2,2,2,2,2,2,2,2,2,2,2,2,2,2,2,2,2,2,2,2,2,2,2,2,2,2,2,2,2,2,2,2,2,2,2,2,2,2,2,2,2,2,2,2,2,2,2,2,2,2,2,2,2,2,2,2,2,2,2,2,2,2,2,2,2,2,2,2,2,2,2,2,2,2,2,2,2,2,2,2,2,2,2,981,976,1242,1243,1244,1245,1246,1247,1248,1249,977,978,979,980,977,978,981,976,977,978,979,980,977,978,981,976,977,978,979,980,977,978,981,976,977,978,979,980,977,978,981,976,977,978,979,980,977,978,981,976,977,978,979,980,977,978,981,976,977,978,979,980,977,978,981,2,2,2,2,2,2,2,2,2,2,2,2,2,2,2,2,2,2,2,2,1666,3440,3441,600,600,600,600,600,600,600,600,600,600,600,600,600,600,600,600,600,600,600,600,600,600,600,600,600,600,600,600,600,600,600,600,600,600,600,600,600,600,600,600,600,600,600,600,600,600,600,600,600,600,600,600,600,754,3443,3444,1587,3445,3446,757,1665,2,2,2,2,2,2,2,2,2,2,2,3,2,3,2,3,2,3,2,3,3,2,3,2,3,2,3,3,2,3,2,3,2,3,2,3,3,2,3,2,3,2,3,3,2,3,2,3,2,3,2,3,3,2,3,2,3,2,3,3,2,3,2,3,2,3,2,3,3,2,3,2,3,2,3,3,2,3,2,3,2,3,2,3,3,2,3,2,3,2,3,3,2,3,2,3,2,3,2,3,3,2,3,2,3,2,3,1342,902,1202,1203,1204,1205,1206,1207,1208,1281,903,904,905,906,903,904,1342,902,903,904,905,906,903,904,1342,902,903,904,905,906,903,904,1342,902,903,904,905,906,903,904,1342,902,903,904,905,906,903,904,1342,902,903,904,905,906,903,904,1342,902,903,904,905,906,903,904,1342,2,3,2,3,2,3,2,3,3,2,3,2,3,2,3,3,2,3,2,3,2,3,2,3447,3448,3449,600,600,600,600,600,600,600,600,600,600,600,600,600,600,600,600,600,600,600,600,600,600,600,600,600,600,600,600,600,600,600,600,600,600,600,600,600,600,600,600,600,600,600,3452,3453,3454,3455,3456,3457,3458,3,2,3,3,2,3,2,3,2,3,2,3,3,2,3,2,3,2,3,632,633,633,633,633,633,633,633,633,633,633,633,633,633,633,633,633,633,633,633,633,633,633,633,633,633,633,633,633,633,633,633,633,633,633,599,632,3459,3424,3424,3424,3388,3388,3388,3388,3462,3463,3463,3463,3463,3464,3465,3465,3465,3465,637,3466,3466,3466,3466,3467,3467,3467,3467,3468,2,2,2,2,2,2,2,2,2,2,2,2,2,2,2,570,3467,3467,3467,1561,3466,3466,3469,3465,3465,3465,3397,3463,3463,3470,3388,3471,3472,1242,1243,1244,1245,1246,1247,1248,1440,1344,1345,1346,980,1344,1345,1347,1343,1344,1345,1346,980,1344,1345,1347,1343,1344,1345,1346,980,1344,1345,1347,1343,1344,1345,1346,980,1344,1345,1347,1343,1344,1345,1346,980,1344,1345,1347,1343,1344,1345,1346,980,1344,1345,1347,1343,1344,1345,1346,980,1344,1345,1347,2,2,2,2,2,2,2,2,2,2,2,2,2,2,2,2,2,2,2,2,2,2,2,2,2,2,3473,3474,3475,600,600,600,600,600,600,600,600,600,600,600,600,600,600,600,600,600,600,600,600,600,600,600,600,600,600,600,600,600,600,600,600,1545,1586,1641,3477,3478,3479,3480,833,2,2,2,2,2,2,2,2,2,2,2,2,2,2,2,2,2,2,2,2,2,2,2,2,2,2,600,600,600,600,600,600,600,600,600,600,600,600,600,600,600,600,600,600,600,600,600,600,600,600,600,600,600,600,600,600,600,600,600,600,600,600,600,600,600,600,600,600,600,600,600,600,600,600,600,600,600,600,600,600,600,600,600,600,600,600,600,600,600,600,600,600,600,600,600,687,633,633,633,599,632,633,633,686,600,600,600,600,600,600,600,600,600,600,600,600,600,600,600,600,600,600,600,600,1449,1450,1451,1452,1453,1454,1455,1456,2,2,2,2,2,2,2,2,2,2,2,2,2,2,2,2,2,2,2,2,2,2,2,2,2,2,2,2,2,2,2,2,2,2,2,2,2,2,2,2,2,2,2,2,2,2,2,2,2,2,2,2,2,2,2,2,2,2,2,2,2,2,2,2,2,2,2,2,2,2,2,2,2,2,2,2,2,2,2,2,2,2,2,802,3440,3441,600,600,600,600,600,600,600,600,600,600,600,600,600,600,600,600,600,600,600,600,600,600,754,3443,3444,1587,3445,3446,757,1644,2,2,2,2,2,2,2,2,2,2,2,2,2,2,2,2,2,2,2,2,2,2,2,2,2,2,2,2,2,2,2,2,2,2,600,600,600,600,600,600,600,600,600,600,600,600,600,600,600,600,600,600,600,600,600,600,600,600,600,600,600,600,600,600,600,600,600,600,600,600,600,600,600,600,600,600,600,600,600,600,600,600,600,600,600,600,600,600,600,600,600,600,600,600,600,600,600,600,600,600,600,600,600,600,600,600,600,600,600,600,600,600,600,600,600,600,600,600,600,600,600,600,600,600,600,600,600,600,600,600,600,600,600,600,600,600,600,600,600,2475,2,3,2,3,2,3,3,2,3,2,3,2,3,2,3,3,2,3,2,3,2,3,3,2,3,2,3,2,3,2,3,3,2,3,2,3,2,3,3,2,3,2,3,2,3,2,3,3,2,3,2,3,2,3,3,2,3,2,3,2,3,2,3,3,2,3,2,3,2,3,3,2,3,2,3,2,3,2,3,3,2,3,2,3,2,3,3447,3490,3491,600,600,600,600,600,600,600,600,600,600,600,600,3452,3492,3493,3455,3456,3457,3458,3,2,3,3,2,3,2,3,2,3,3,2,3,2,3,2,3,2,3,3,2,3,2,3,2,3,3,2,3,2,3,2,3,2,3,3,2,3,2,3,2,3,600,600,600,600,600,600,600,600,600,600,600,600,600,600,600,600,600,600,600,600,600,600,600,600,600,600,600,600,600,600,600,600,600,600,600,600,600,600,600,600,600,600,600,600,600,600,600,600,600,600,600,600,600,600,600,600,600,600,600,600,600,600,600,600,600,600,600,600,600,600,600,600,600,600,600,600,600,600,600,600,600,600,600,600,600,600,600,600,600,600,600,600,600,600,600,600,600,600,600,600,600,600,600,600,600,2483,2,2,2,2,2,2,2,2,2,2,2,2,2,2,2,2,2,2,2,2,2,2,2,2,2,2,2,2,2,2,2,2,2,2,2,2,2,2,2,2,2,2,2,2,2,2,2,2,2,2,2,2,2,2,2,2,2,2,2,2,2,2,2,2,2,2,2,2,2,2,2,2,2,2,2,2,2,2,2,2,2,2,2,2,2,2,2,2,2,3473,3501,600,600,1545,1586,1641,3477,3478,3479,3480,833,2,2,2,2,2,2,2,2,2,2,2,2,2,2,2,2,2,2,2,2,2,2,2,2,2,2,2,2,2,2,2,2,2,2,2,2,2,2,2,2,2,2,2,2,2,2,2,2,2,600,600,600,600,600,600,600,600,600,600,600,600,600,600,600,600,600,600,600,600,600,600,600,600,600,600,600,600,600,600,600,600,600,600,600,600,600,600,600,600,600,600,600,600,600,600,600,600,600,600,600,600,600,600,600,600,600,600,600,600,600,600,600,600,600,600,600,600,600,600,600,600,600,600,600,600,600,600,600,600,600,600,600,600,600,600,600,600,600,600,600,600,600,600,600,600,600,600,600,600,600,600,600,600,3504,3,2,3,2,3,2,3,3,2,3,2,3,2,3,2,3,3,2,3,2,3,2,3,3,2,3,2,3,2,3,2,3,3,2,3,2,3,2,3,3,2,3,2,3,2,3,2,3,3,2,3,2,3,2,3,3,2,3,2,3,2,3,2,3,3,2,3,2,3,2,3,3,2,3,2,3,2,3,2,3,3,2,3,2,3,2,3,3,2,3,2,3,1666,849,2,3,3,2,3,2,3,2,3,3,2,3,2,3,2,3,2,3,3,2,3,2,3,2,3,3,2,3,2,3,2,3,2,3,3,2,3,2,3,2,3,3,2,3,2,3,2,3,2,3,3,2,3,2,3,2,3,600,600,600,600,600,600,600,600,600,600,600,600,600,600,600,600,600,600,600,600,600,600,600,600,600,600,600,600,600,600,600,600,600,600,600,600,600,600,600,600,600,600,600,600,600,600,600,600,600,600,600,600,600,600,600,600,600,600,600,600,600,600,600,600,600,600,600,600,600,600,600,600,600,600,600,600,600,600,600,600,600,600,600,600,600,600,600,600,600,600,600,600,600,600,600,600,600,600,600,600,600,600,600,3437,1648,2,2,2,2,2,2,2,2,2,2,2,2,2,2,2,2,2,2,2,2,2,2,2,2,2,2,2,2,2,2,2,2,2,2,2,2,2,2,2,2,2,2,2,2,2,2,2,2,2,2,2,2,2,2,2,2,2,2,2,2,2,2,2,2,2,2,2,2,2,2,2,2,2,2,2,2,2,2,2,2,2,2,2,2,2,2,2,2,2,2,2,2,2,2,2,2,2,2,2,2,2,2,2,2,2,2,2,2,2,2,2,2,2,2,2,2,2,2,2,2,2,2,2,2,2,2,2,2,2,2,2,2,2,2,2,2,2,2,2,2,2,2,2,2,2,2,2,2,2,2,2,758,759,758,759,758,759,758,759,758,758,759,758,759,758,759,758,758,759,758,759,758,759,758,759,758,758,759,758,759,758,759,758,758,759,758,759,758,759,758,759,803,3514,3515,3514,3515,3516,785,892,892,785,3517,3518,3455,3518,3521,3493,3454,3454,3493,3523,3524,3525,3524,3525,3526,3527,3527,3527,3527,894,600,600,600,600,600,600,600,754,3527,3527,3527,3528,3525,3524,3529,3493,3454,3493,3530,3455,3518,3531,785,892,785,3532,3514,3515,3533,759,758,759,849,2,3,3,2,3,2,3,2,3,3,2,3,2,3,2,3,2,3,3,2,3,2,3,2,3,3,2,3,2,3,2,3,2,3,3,2,3,2,3,2,3,3,2,3,2,3,2,3,2,3,3,2,3,2,3,2,3,3,2,3,2,3,2,3,2,3,3,2,3,2,3,2,3,3,2,3,2,3,2,3,2,3,3,2,3,2,3,2,3,3,2,3,2,3,2,3,2,3,3,2,3,2,3,2,3,3,2,3,2,3,2,3,2,3,3,2,3,2,3,2,3,3,2,3,2,3,2,3,2,3,3,2,3,2,3,2,3,3,2,3,2,3,2,3,2,3,3,2,3,2,3,2,3,2,2,2,2,2,2,2,2,2,2,2,2,2,2,2,2,2,2,2,2,2,2,2,2,2,2,2,2,2,2,2,2,2,2,2,2,2,2,2,2,2,2,2,2,2,2,2,2,2,2,2,2,2,2,2,2,2,2,2,2,2,2,2,2,2,2,2,2,2,2,2,2,2,1666,1665,2,2,2,2,2,2,2,2,2,2,2,2,2,2,2,2,2,2,2,2,2,2,2,2,2,2,2,2,2,2,2,2,2,2,2,2,2,2,2,2,2,2,2,2,2,2,2,2,2,2,2,2,2,2,2,2,2,2,2,2,2,2,2,2,2,2,2,2,2,2,2,2,2,2,2,2,2,2,2,2,2,2,2,2,2,2,2,2,2,2,2,2,2,2,2,2,2,2,2,2,2,2,2,2,2,2,2,2,2,2,2,2,2,2,2,2,2,2,2,2,2,2,2,2,2,2,2,2,2,2,2,2,2,2,2,2,2,2,2,2,2,2,2,2,2,2,2,2,2,2,2,2,2,2,2,2,2,2,2,2,2,2,2,2,2,2,2,2,2,2,2,2,2,2,2,2,2,2,2,2,2,2,2,2,2,2,2,2,2,2,2,2,2,2,2,2,2,2,2,2,2,2,2,2,2,2,2,2,2,2,2,2,2,2,2,2,2,2,2,2,2,2,2,2,2,2,2,2,2,2,2,2,2,2,2,2,2,2,2,2,2,2,2,2,2,2,2,2,2,2,2,2,2,2,2,2,2,2,2,2,2,2,2,2,2,2,2,2,2,2,2,2,2,2,2,2,2,2,2,2,2,2,2,2,2,2,2,2,2,2,2,2,2,2,2,2,2,2,2,2,2,2,2,2,2,2,2,2,2,2,2,2,2,2,2,2,2,2,2,2,2,2,2,2,2,2,2,2,2,2,2,2,2,2,2,2,2,2,2,2,2,2,2,2,2,2,2,2,2,2,2,2,2,2,2,2,2,2,2,2,2,2,2,2,2,2,2,2,2,2,2,2,2,2,2,2,2,2,2,2,2,2,2,2,2,2,2,2,2,2,2,2,2,2,2,2,2,2,2,2,2,2,2,2,2,2,2,2,2,2,2,2,2,2,2,2,2,2,2,2,2,2,2,2,2,2,2,2,2,2,2,2,2,2,2,2,2,3,2,3,2,3,2,3,2,3,3,2,3,2,3,2,3,3,2,3,2,3,2,3,2,3,3,2,3,2,3,2,3,3,2,3,2,3,2,3,2,3,3,2,3,2,3,2,3,3,2,3,2,3,2,3,2,3,3,2,3,2,3,2,3,3,2,3,2,3,2,3,2,3,3,2,3,2,3,2,3,3,2,3,2,3,2,3,2,3,3,2,3,2,3,2,3,3,2,3,2,3,2,3,2,3,3,2,3,2,3,2,3,3,2,3,2,3,2,3,2,3,3,2,3,2,3,2,3,3,2,3,2,3,2,3,2,3,3,2,3,2,3,2,3,3,2,3,2,3,2,3,2,3,3,2,3,2,3,2,3,3,2,3,2,3,2,3,2,3,3,2,3,2,3,2,3,3,2,3,2,3,2,3,2,3,3,2,3,2,3,2,3,3,2,3,2,3,2,3,2,3,3,2,3,2,3,2,3,3,2,3,2,3,2,3,2,3,3,2,3,2,3,2,3,3,2,3,2,3,2,3,2,3,3,2,3,2,3,2,3,3,2,3,2,3,2,3,2,3,3,2,3,2,3,2,3,2,2,2,2,2,2,2,2,2,2,2,2,2,2,2,2,2,2,2,2,2,2,2,2,2,2,2,2,2,2,2,2,2,2,2,2,2,2,2,2,2,2,2,2,2,2,2,2,2,2,2,2,2,2,2,2,2,2,2,2,2,2,2,2,2,2,2,2,2,2,2,2,2,2,2,2,2,2,2,2,2,2,2,2,2,2,2,2,2,2,2,2,2,2,2,2,2,2,2,2,2,2,2,2,2,2,2,2,2,2,2,2,2,2,2,2,2,2,2,2,2,2,2,2,2,2,2,2,2,2,2,2,2,2,2,2,2,2,2,2,2,2,2,2,2,2,2,2,2,2,2,2,2,2,2,2,2,2,2,2,2,2,2,2,2,2,2,2,2,2,2,2,2,2,2,2,2,2,2,2,2,2,2,2,2,2,2,2,2,2,2,2,2,2,2,2,2,2,2,2,2,2,2,2,2,2,2,2,2,2,2,2,2,2,2,2,2,2,2,2,2,2,2,2,2,2,2,2,2,2,2,2,2,2,2,2,2,2,2,2,2,2,2,2,2,2,2,2,2,2,2,2,2,2,2,2,3,2,3,2,3,2,3,2,3,3,2,3,2,3,2,3,3,2,3,2,3,2,3,2,3,3,2,3,2,3,2,3,3,2,3,2,3,2,3,2,3,3,2,3,2,3,2,3,3,2,3,2,3,2,3,2,3,3,2,3,2,3,2,3,3,2,3,2,3,2,3,2,3,3,2,3,2,3,2,3,3,2,3,2,3,2,3,2,3,3,2,3,2,3,2,3,3,2,3,2,3,2,3,2,3,3,2,3,2,3,2,3,3,2,3,2,3,2,3,2,3,3,2,3,2,3,2,3,3,2,3,2,3,2,3,2,3,3,2,3,2,3,2,3,3,2,3,2,3,2,3,2,3,3,2,3,2,3,2,3,3,2,3,2,3,2,3,2,3,3,2,3,2,3,2,3,3,2,3,2,3,2,3,2,3,3,2,3,2,3,2,3,3,2,3,2,3,2,3,2,3,3,2,3,2,3,2,3,3,2,3,2,3,2,3,2,3,3,2,3,2,3,2,3,3,2,3,2,3,2,3,2,3,3,2,3,2,3,2,3,3,2,3,2,3,2,3,2,3,3,2,3,2,3,2,3,2,2,2,2,2,2,2,2,2,2,2,2,2,2,2,2,2,2,2,2,2,2,2,2,2,2,2,2,2,2,2,2,2,2,2,2,2,2,2,2,2,2,2,2,2,2,2,2,2,2,2,2,2,2,2,2,2,2,2,2,2,2,2,2,2,2,2,2,2,2,2,2,2,2,2,2,2,2,2,2,2,2,2,2,2,2,2,2,2,2,2,2,2,2,2,2,2,2,2,2,2,2,2,2,2,2,2,2,2,2,2,2,2,2,2,2,2,2,2,2,2,2,2,2,2,2,2,2,2,2,2,2,2,2,2,2,2,2,2,2,2,2,2,2,2,2,2,2,2,2,2,2,2,2,2,2,2,2,2,2,2,2,2,2,2,2,2,2,2,2,2,2,2,2,2,2,2,2,2,2,2,2,2,2,2,2,2,2,2,2,2,2,2,2,2,2,2,2,2,2,2,2,2,2,2,2,2,2,2,2,2,2,2,2,2,2,2,2,2,2,2,2,2,2,2,2,2,2,2,2,2,2,2,2,2,2,2,2,2,2,2,2,2,2,2,2,2,2,2,2,2,2,2,2,2,2,3,2,3,2,3,2,3,2,3,3,2,3,2,3,2,3,3,2,3,2,3,2,3,2,3,3,2,3,2,3,2,3,3,2,3,2,3,2,3,2,3,3,2,3,2,3,2,3,3,2,3,2,3,2,3,2,3,3,2,3,2,3,2,3,3,2,3,2,3,2,3,2,3,3,2,3,2,3,2,3,3,2,3,2,3,2,3,2,3,3,2,3,2,3,2,3,3,2,3,2,3,2,3,2,3,3,2,3,2,3,2,3,3,2,3,2,3,2,3,2,3,3,2,3,2,3,2,3,3,2,3,2,3,2,3,2,3,3,2,3,2,3,2,3,3,2,3,2,3,2,3,2,3,3,2,3,2,3,2,3,3,2,3,2,3,2,3,2,3,3,2,3,2,3,2,3,3,2,3,2,3,2,3,2,3,3,2,3,2,3,2,3,3,2,3,2,3,2,3,2,3,3,2,3,2,3,2,3,3,2,3,2,3,2,3,2,3,3,2,3,2,3,2,3,3,2,3,2,3,2,3,2,3,3,2,3,2,3,2,3,3,2,3,2,3,2,3,2,3,3,2,3,2,3,2,3,2,2,2,2,2,2,2,2,2,2,2,2,2,2,2,2,2,2,2,2,2,2,2,2,2,2,2,2,2,2,2,2,2,2,2,2,2,2,2,2,2,2,2,2,2,2,2,2,2,2,2,2,2,2,2,2,2,2,2,2,2,2,2,2,2,2,2,2,2,2,2,2,2,2,2,2,2,2,2,2,2,2,2,2,2,2,2,2,2,2,2,2,2,2,2,2,2,2,2,2,2,2,2,2,2,2,2,2,2,2,2,2,2,2,2,2,2,2,2,2,2,2,2,2,2,2,2,2,2,2,2,2,2,2,2,2,2,2,2,2,2,2,2,2,2,2,2,2,2,2,2,2,2,2,2,2,2,2,2,2,2,2,2,2,2,2,2,2,2,2,2,2,2,2,2,2,2,2,2,2,2,2,2,2,2,2,2,2,2,2,2,2,2,2,2,2,2,2,2,2,2,2,2,2,2,2,2,2,2,2,2,2,2,2,2,2,2,2,2,2,2,2,2,2,2,2,2,2,2,2,2,2,2,2,2,2,2,2,2,2,2,2,2,2,2,2,2,2,2,2,2,2,2,2,2,2,3,2,3,2,3,2,3,2,3,3,2,3,2,3,2,3,3,2,3,2,3,2,3,2,3,3,2,3,2,3,2,3,3,2,3,2,3,2,3,2,3,3,2,3,2,3,2,3,3,2,3,2,3,2,3,2,3,3,2,3,2,3,2,3,3,2,3,2,3,2,3,2,3,3,2,3,2,3,2,3,3,2,3,2,3,2,3,2,3,3,2,3,2,3,2,3,3,2,3,2,3,2,3,2,3,3,2,3,2,3,2,3,3,2,3,2,3,2,3,2,3,3,2,3,2,3,2,3,3,2,3,2,3,2,3,2,3,3,2,3,2,3,2,3,3,2,3,2,3,2,3,2,3,3,2,3,2,3,2,3,3,2,3,2,3,2,3,2,3,3,2,3,2,3,2,3,3,2,3,2,3,2,3,2,3,3,2,3,2,3,2,3,3,2,3,2,3,2,3,2,3,3,2,3,2,3,2,3,3,2,3,2,3,2,3,2,3,3,2,3,2,3,2,3,3,2,3,2,3,2,3,2,3,3,2,3,2,3,2,3,3,2,3,2,3,2,3,2,3,3,2,3,2,3,2,3,2,2,2,2,2,2,2,2,2,2,2,2,2,2,2,2,2,2,2,2,2,2,2,2,2,2,2,2,2,2,2,2,2,2,2,2,2,2,2,2,2,2,2,2,2,2,2,2,2,2,2,2,2,2,2,2,2,2,2,2,2,2,2,2,2,2,2,2,2,2,2,2,2,2,2,2,2,2,2,2,2,2,2,2,2,2,2,2,2,2,2,2,2,2,2,2,2,2,2,2,2,2,2,2,2,2,2,2,2,2,2,2,2,2,2,2,2,2,2,2,2,2,2,2,2,2,2,2,2,2,2,2,2,2,2,2,2,2,2,2,2,2,2,2,2,2,2,2,2,2,2,2,2,2,2,2,2,2,2,2,2,2,2,2,2,2,2,2,2,2,2,2,2,2,2,2,2,2,2,2,2,2,2,2,2,2,2,2,2,2,2,2,2,2,2,2,2,2,2,2,2,2,2,2,2,2,2,2,2,2,2,2,2,2,2,2,2,2,2,2,2,2,2,2,2,2,2,2,2,2,2,2,2,2,2,2,2,2,2,2,2,2,2,2,2,2,2,2,2,2,2,2,2,2,2,2,2,2,2,2,2,2,2,2,2,2,2,2,2,2,2,2,2,2,2,2,2,2,2,2,2,2,2,2,2,2,2,2,2,2,2,2,2,2,2,2,2,2,2,2,2,2,2,2,2,2,2,2,2,2,2,2,2,2,2,2,2,2,2,2,2,2,2,2,2,2,2,2,2,2,2,2,2,2,2,2,2,2,2,2,2,2,2,2,2,2,2,2,2,2,2,2,2,2,2,2,2,2,2,2,2,2,2,2,2,2,2,2,2,2,2,2,2,2,2,2,2,2,2,2,2,2,2,2,2,2,2,2,2,2,2,2,2,2,2,2,2,2,2,2,2,2,2,2,2,2,2,2,2,2,2,2,2,2,2,2,2,2,2,2,2,2,2,2,2,2,2,2,2,2,2,2,2,2,2,2,2,2,2,2,2,2,2,2,2,2,2,2,2,2,2,2,2,2,2,2,2,2,2,2,2,2,2,2,2,2,2,2,2,2,2,2,2,2,2,2,2,2,2,2,2,2,2,2,2,2,2,2,2,2,2,2,2,2,2,2,2,2,2,2,2,2,2,2,2,2,2,2,2,2,2,2,3,2,3,2,3,2,3,2,3,3,2,3,2,3,2,3,3,2,3,2,3,2,3,2,3,3,2,3,2,3,2,3,3,2,3,2,3,2,3,2,3,3,2,3,2,3,2,3,3,2,3,2,3,2,3,2,3,3,2,3,2,3,2,3,3,2,3,2,3,2,3,2,3,3,2,3,2,3,2,3,3,2,3,2,3,2,3,2,3,3,2,3,2,3,2,3,3,2,3,2,3,2,3,2,3,3,2,3,2,3,2,3,3,2,3,2,3,2,3,2,3,3,2,3,2,3,2,3,3,2,3,2,3,2,3,2,3,3,2,3,2,3,2,3,3,2,3,2,3,2,3,2,3,3,2,3,2,3,2,3,3,2,3,2,3,2,3,2,3,3,2,3,2,3,2,3,3,2,3,2,3,2,3,2,3,3,2,3,2,3,2,3,3,2,3,2,3,2,3,2,3,3,2,3,2,3,2,3,3,2,3,2,3,2,3,2,3,3,2,3,2,3,2,3,3,2,3,2,3,2,3,2,3,3,2,3,2,3,2,3,3,2,3,2,3,2,3,2,3,3,2,3,2,3,2,3,2,2,2,2,2,2,2,2,2,2,2,2,2,2,2,2,2,2,2,2,2,2,2,2,2,2,2,2,2,2,2,2,2,2,2,2,2,2,2,2,2,2,2,2,2,2,2,2,2,2,2,2,2,2,2,2,2,2,2,2,2,2,2,2,2,2,2,2,2,2,2,2,2,2,2,2,2,2,2,2,2,2,2,2,2,2,2,2,2,2,2,2,2,2,2,2,2,2,2,2,2,2,2,2,2,2,2,2,2,2,2,2,2,2,2,2,2,2,2,2,2,2,2,2,2,2,2,2,2,2,2,2,2,2,2,2,2,2,2,2,2,2,2,2,2,2,2,2,2,2,2,2,2,2,2,2,2,2,2,2,2,2,2,2,2,2,2,2,2,2,2,2,2,2,2,2,2,2,2,2,2,2,2,2,2,2,2,2,2,2,2,2,2,2,2,2,2,2,2,2,2,2,2,2,2,2,2,2,2,2,2,2,2,2,2,2,2,2,2,2,2,2,2,2,2,2,2,2,2,2,2,2,2,2,2,2,2,2,2,2,2,2,2,2,2,2,2,2,2,2,2,2,2,2,2,2,3,2,3,2,3,2,3,2,3,3,2,3,2,3,2,3,3,2,3,2,3,2,3,2,3,3,2,3,2,3,2,3,3,2,3,2,3,2,3,2,3,3,2,3,2,3,2,3,3,2,3,2,3,2,3,2,3,3,2,3,2,3,2,3,3,2,3,2,3,2,3,2,3,3,2,3,2,3,2,3,3,2,3,2,3,2,3,2,3,3,2,3,2,3,2,3,3,2,3,2,3,2,3,2,3,3,2,3,2,3,2,3,3,2,3,2,3,2,3,2,3,3,2,3,2,3,2,3,3,2,3,2,3,2,3,2,3,3,2,3,2,3,2,3,3,2,3,2,3,2,3,2,3,3,2,3,2,3,2,3,3,2,3,2,3,2,3,2,3,3,2,3,2,3,2,3,3,2,3,2,3,2,3,2,3,3,2,3,2,3,2,3,3,2,3,2,3,2,3,2,3,3,2,3,2,3,2,3,3,2,3,2,3,2,3,2,3,3,2,3,2,3,2,3,3,2,3,2,3,2,3,2,3,3,2,3,2,3,2,3,3,2,3,2,3,2,3,2,3,3,2,3,2,3,2,3,2,2,2,2,2,2,2,2,2,2,2,2,2,2,2,2,2,2,2,2,2,2,2,2,2,2,2,2,2,2,2,2,2,2,2,2,2,2,2,2,2,2,2,2,2,2,2,2,2,2,2,2,2,2,2,2,2,2,2,2,2,2,2,2,2,2,2,2,2,2,2,2,2,2,2,2,2,2,2,2,2,2,2,2,2,2,2,2,2,2,2,2,2,2,2,2,2,2,2,2,2,2,2,2,2,2,2,2,2,2,2,2,2,2,2,2,2,2,2,2,2,2,2,2,2,2,2,2,2,2,2,2,2,2,2,2,2,2,2,2,2,2,2,2,2,2,2,2,2,2,2,2,2,2,2,2,2,2,2,2,2,2,2,2,2,2,2,2,2,2,2,2,2,2,2,2,2,2,2,2,2,2,2,2,2,2,2,2,2,2,2,2,2,2,2,2,2,2,2,2,2,2,2,2,2,2,2,2,2,2,2,2,2,2,2,2,2,2,2,2,2,2,2,2,2,2,2,2,2,2,2,2,2,2,2,2,2,2,2,2,2,2,2,2,2,2,2,2,2,2,2,2,2,2,2,2,3,2,3,2,3,2,3,2,3,3,2,3,2,3,2,3,3,2,3,2,3,2,3,2,3,3,2,3,2,3,2,3,3,2,3,2,3,2,3,2,3,3,2,3,2,3,2,3,3,2,3,2,3,2,3,2,3,3,2,3,2,3,2,3,3,2,3,2,3,2,3,2,3,3,2,3,2,3,2,3,3,2,3,2,3,2,3,2,3,3,2,3,2,3,2,3,3,2,3,2,3,2,3,2,3,3,2,3,2,3,2,3,3,2,3,2,3,2,3,2,3,3,2,3,2,3,2,3,3,2,3,2,3,2,3,2,3,3,2,3,2,3,2,3,3,2,3,2,3,2,3,2,3,3,2,3,2,3,2,3,3,2,3,2,3,2,3,2,3,3,2,3,2,3,2,3,3,2,3,2,3,2,3,2,3,3,2,3,2,3,2,3,3,2,3,2,3,2,3,2,3,3,2,3,2,3,2,3,3,2,3,2,3,2,3,2,3,3,2,3,2,3,2,3,3,2,3,2,3,2,3,2,3,3,2,3,2,3,2,3,3,2,3,2,3,2,3,2,3,3,2,3,2,3,2,3,2,2,2,2,2,2,2,2,2,2,2,2,2,2,2,2,2,2,2,2,2,2,2,2,2,2,2,2,2,2,2,2,2,2,2,2,2,2,2,2,2,2,2,2,2,2,2,2,2,2,2,2,2,2,2,2,2,2,2,2,2,2,2,2,2,2,2,2,2,2,2,2,2,2,2,2,2,2,2,2,2,2,2,2,2,2,2,2,2,2,2,2,2,2,2,2,2,2,2,2,2,2,2,2,2,2,2,2,2,2,2,2,2,2,2,2,2,2,2,2,2,2,2,2,2,2,2,2,2,2,2,2,2,2,2,2,2,2,2,2,2,2,2,2,2,2,2,2,2,2,2,2,2,2,2,2,2,2,2,2,2,2,2,2,2,2,2,2,2,2,2,2,2,2,2,2,2,2,2,2,2,2,2,2,2,2,2,2,2,2,2,2,2,2,2,2,2,2,2,2,2,2,2,2,2,2,2,2,2,2,2,2,2,2,2,2,2,2,2,2,2,2,2,2,2,2,2,2,2,2,2,2,2,2,2,2,2,2,2,2,2,2,2,2,2,2,2,2,2,2,2,2,2,2,2,2,2,2,2,2,2,2,2,2,2,2,2,2,2,2,2,2,2,2,2,2,2,2,2,2,2,2,2,2,2,2,2,2,2,2,2,2,2,2,2,2,2,2,2,2,2,2,2,2,2,2,2,2,2,2,2,2,2,2,2,2,2,2,2,2,2,2,2,2,2,2,2,2,2,2,2,2,2,2,2,2,2,2,2,2,2,2,2,2,2,2,2,2,2,2,2,2,2,2,2,2,2,2,2,2,2,2,2,2,2,2,2,2,2,2,2,2,2,2,2,2,2,2,2,2,2,2,2,2,2,2,2,2,2,2,2,2,2,2,2,2,2,2,2,2,2,2,2,2,2,2,2,2,2,2,2,2,2,2,2,2,2,2,2,2,2,2,2,2,2,2,2,2,2,2,2,2,2,2,2,2,2,2,2,2,2,2,2,2,2,2,2,2,2,2,2,2,2,2,2,2,2,2,2,2,2,2,2,2,2,2,2,2,2,2,2,2,2,2,2,2,2,2,2,2,2,2,2,2,2,2,2,2,2,2,2,2,2,2,2,2,2,2,2,2,2,2,2,2,2,2,2,2,2,2,2,2,3,2,3,2,3,2,3,2,3,3,2,3,2,3,2,3,3,2,3,2,3,2,3,2,3,3,2,3,2,3,2,3,3,2,3,2,3,2,3,2,3,3,2,3,2,3,2,3,3,2,3,2,3,2,3,2,3,3,2,3,2,3,2,3,3,2,3,2,3,2,3,2,3,3,2,3,2,3,2,3,3,2,3,2,3,2,3,2,3,3,2,3,2,3,2,3,3,2,3,2,3,2,3,2,3,3,2,3,2,3,2,3,3,2,3,2,3,2,3,2,3,3,2,3,2,3,2,3,3,2,3,2,3,2,3,2,3,3,2,3,2,3,2,3,3,2,3,2,3,2,3,2,3,3,2,3,2,3,2,3,3,2,3,2,3,2,3,2,3,3,2,3,2,3,2,3,3,2,3,2,3,2,3,2,3,3,2,3,2,3,2,3,3,2,3,2,3,2,3,2,3,3,2,3,2,3,2,3,3,2,3,2,3,2,3,2,3,3,2,3,2,3,2,3,3,2,3,2,3,2,3,2,3,3,2,3,2,3,2,3,3,2,3,2,3,2,3,2,3,3,2,3,2,3,2,3,2,2,2,2,2,2,2,2,2,2,2,2,2,2,2,2,2,2,2,2,2,2,2,2,2,2,2,2,2,2,2,2,2,2,2,2,2,2,2,2,2,2,2,2,2,2,2,2,2,2,2,2,2,2,2,2,2,2,2,2,2,2,2,2,2,2,2,2,2,2,2,2,2,2,2,2,2,2,2,2,2,2,2,2,2,2,2,2,2,2,2,2,2,2,2,2,2,2,2,2,2,2,2,2,2,2,2,2,2,2,2,2,2,2,2,2,2,2,2,2,2,2,2,2,2,2,2,2,2,2,2,2,2,2,2,2,2,2,2,2,2,2,2,2,2,2,2,2,2,2,2,2,2,2,2,2,2,2,2,2,2,2,2,2,2,2,2,2,2,2,2,2,2,2,2,2,2,2,2,2,2,2,2,2,2,2,2,2,2,2,2,2,2,2,2,2,2,2,2,2,2,2,2,2,2,2,2,2,2,2,2,2,2,2,2,2,2,2,2,2,2,2,2,2,2,2,2,2,2,2,2,2,2,2,2,2,2,2,2,2,2,2,2,2,2,2,2,2,2,2,2,2,2,2,2,2,3,2,3,2,3,2,3,2,3,3,2,3,2,3,2,3,3,2,3,2,3,2,3,2,3,3,2,3,2,3,2,3,3,2,3,2,3,2,3,2,3,3,2,3,2,3,2,3,3,2,3,2,3,2,3,2,3,3,2,3,2,3,2,3,3,2,3,2,3,2,3,2,3,3,2,3,2,3,2,3,3,2,3,2,3,2,3,2,3,3,2,3,2,3,2,3,3,2,3,2,3,2,3,2,3,3,2,3,2,3,2,3,3,2,3,2,3,2,3,2,3,3,2,3,2,3,2,3,3,2,3,2,3,2,3,2,3,3,2,3,2,3,2,3,3,2,3,2,3,2,3,2,3,3,2,3,2,3,2,3,3,2,3,2,3,2,3,2,3,3,2,3,2,3,2,3,3,2,3,2,3,2,3,2,3,3,2,3,2,3,2,3,3,2,3,2,3,2,3,2,3,3,2,3,2,3,2,3,3,2,3,2,3,2,3,2,3,3,2,3,2,3,2,3,3,2,3,2,3,2,3,2,3,3,2,3,2,3,2,3,3,2,3,2,3,2,3,2,3,3,2,3,2,3,2,3,2,2,2,2,2,2,2,2,2,2,2,2,2,2,2,2,2,2,2,2,2,2,2,2,2,2,2,2,2,2,2,2,2,2,2,2,2,2,2,2,2,2,2,2,2,2,2,2,2,2,2,2,2,2,2,2,2,2,2,2,2,2,2,2,2,2,2,2,2,2,2,2,2,2,2,2,2,2,2,2,2,2,2,2,2,2,2,2,2,2,2,2,2,2,2,2,2,2,2,2,2,2,2,2,2,2,2,2,2,2,2,2,2,2,2,2,2,2,2,2,2,2,2,2,2,2,2,2,2,2,2,2,2,2,2,2,2,2,2,2,2,2,2,2,2,2,2,2,2,2,2,2,2,2,2,2,2,2,2,2,2,2,2,2,2,2,2,2,2,2,2,2,2,2,2,2,2,2,2,2,2,2,2,2,2,2,2,2,2,2,2,2,2,2,2,2,2,2,2,2,2,2,2,2,2,2,2,2,2,2,2,2,2,2,2,2,2,2,2,2,2,2,2,2,2,2,2,2,2,2,2,2,2,2,2,2,2,2,2,2,2,2,2,2,2,2,2,2,2,2,2,2,2,2,2,2,3,2,3,2,3,2,3,2,3,3,2,3,2,3,2,3,3,2,3,2,3,2,3,2,3,3,2,3,2,3,2,3,3,2,3,2,3,2,3,2,3,3,2,3,2,3,2,3,3,2,3,2,3,2,3,2,3,3,2,3,2,3,2,3,3,2,3,2,3,2,3,2,3,3,2,3,2,3,2,3,3,2,3,2,3,2,3,2,3,3,2,3,2,3,2,3,3,2,3,2,3,2,3,2,3,3,2,3,2,3,2,3,3,2,3,2,3,2,3,2,3,3,2,3,2,3,2,3,3,2,3,2,3,2,3,2,3,3,2,3,2,3,2,3,3,2,3,2,3,2,3,2,3,3,2,3,2,3,2,3,3,2,3,2,3,2,3,2,3,3,2,3,2,3,2,3,3,2,3,2,3,2,3,2,3,3,2,3,2,3,2,3,3,2,3,2,3,2,3,2,3,3,2,3,2,3,2,3,3,2,3,2,3,2,3,2,3,3,2,3,2,3,2,3,3,2,3,2,3,2,3,2,3,3,2,3,2,3,2,3,3,2,3,2,3,2,3,2,3,3,2,3,2,3,2,3,2,2,2,2,2,2,2,2,2,2,2,2,2,2,2,2,2,2,2,2,2,2,2,2,2,2,2,2,2,2,2,2,2,2,2,2,2,2,2,2,2,2,2,2,2,2,2,2,2,2,2,2,2,2,2,2,2,2,2,2,2,2,2,2,2,2,2,2,2,2,2,2,2,2,2,2,2,2,2,2,2,2,2,2,2,2,2,2,2,2,2,2,2,2,2,2,2,2,2,2,2,2,2,2,2,2,2,2,2,2,2,2,2,2,2,2,2,2,2,2,2,2,2,2,2,2,2,2,2,2,2,2,2,2,2,2,2,2,2,2,2,2,2,2,2,2,2,2,2,2,2,2,2,2,2,2,2,2,2,2,2,2,2,2,2,2,2,2,2,2,2,2,2,2,2,2,2,2,2,2,2,2,2,2,2,2,2,2,2,2,2,2,2,2,2,2,2,2,2,2,2,2,2,2,2,2,2,2,2,2,2,2,2,2,2,2,2,2,2,2,2,2,2,2,2,2,2,2,2,2,2,2,2,2,2,2,2,2,2,2,2,2,2,2,2,2,2,2,2,2,2,2,2,2,2,2,3,2,3,2,3,2,3,2,3,3,2,3,2,3,2,3,3,2,3,2,3,2,3,2,3,3,2,3,2,3,2,3,3,2,3,2,3,2,3,2,3,3,2,3,2,3,2,3,3,2,3,2,3,2,3,2,3,3,2,3,2,3,2,3,3,2,3,2,3,2,3,2,3,3,2,3,2,3,2,3,3,2,3,2,3,2,3,2,3,3,2,3,2,3,2,3,3,2,3,2,3,2,3,2,3,3,2,3,2,3,2,3,3,2,3,2,3,2,3,2,3,3,2,3,2,3,2,3,3,2,3,2,3,2,3,2,3,3,2,3,2,3,2,3,3,2,3,2,3,2,3,2,3,3,2,3,2,3,2,3,3,2,3,2,3,2,3,2,3,3,2,3,2,3,2,3,3,2,3,2,3,2,3,2,3,3,2,3,2,3,2,3,3,2,3,2,3,2,3,2,3,3,2,3,2,3,2,3,3,2,3,2,3,2,3,2,3,3,2,3,2,3,2,3,3,2,3,2,3,2,3,2,3,3,2,3,2,3,2,3,3,2,3,2,3,2,3,2,3,3,2,3,2,3,2,3,2,2,2,2,2,2,2,2,2,2,2,2,2,2,2,2,2,2,2,2,2,2,2,2,2,2,2,2,2,2,2,2,2,2,2,2,2,2,2,2,2,2,2,2,2,2,2,2,2,2,2,2,2,2,2,2,2,2,2,2,2,2,2,2,2,2,2,2,2,2,2,2,2,2,2,2,2,2,2,2,2,2,2,2,2,2,2,2,2,2,2,2,2,2,2,2,2,2,2,2,2,2,2,2,2,2,2,2,2,2,2,2,2,2,2,2,2,2,2,2,2,2,2,2,2,2,2,2,2,2,2,2,2,2,2,2,2,2,2,2,2,2,2,2,2,2,2,2,2,2,2,2,2,2,2,2,2,2,2,2,2,2,2,2,2,2,2,2,2,2,2,2,2,2,2,2,2,2,2,2,2,2,2,2,2,2,2,2,2,2,2,2,2,2,2,2,2,2,2,2,2,2,2,2,2,2,2,2,2,2,2,2,2,2,2,2,2,2,2,2,2,2,2,2,2,2,2,2,2,2,2,2,2,2,2,2,2,2,2,2,2,2,2,2,2,2,2,2,2,2,2,2,2,2,2,2,2,2,2,2,2,2,2,2,2,2,2,2,2,2,2,2,2,2,2,2,2,2,2,2,2,2,2,2,2,2,2,2,2,2,2,2,2,2,2,2,2,2,2,2,2,2,2,2,2,2,2,2,2,2,2,2,2,2,2,2,2,2,2,2,2,2,2,2,2,2,2,2,2,2,2,2,2,2,2,2,2,2,2,2,2,2,2,2,2,2,2,2,2,2,2,2,2,2,2,2,2,2,2,2,2,2,2,2,2,2,2,2,2,2,2,2,2,2,2,2,2,2,2,2,2,2,2,2,2,2,2,2,2,2,2,2,2,2,2,2,2,2,2,2,2,2,2,2,2,2,2,2,2,2,2,2,2,2,2,2,2,2,2,2,2,2,2,2,2,2,2,2,2,2,2,2,2,2,2,2,2,2,2,2,2,2,2,2,2,2,2,2,2,2,2,2,2,2,2,2,2,2,2,2,2,2,2,2,2,2,2,2,2,2,2,2,2,2,2,2,2,2,2,2,2,2,2,2,2,2,2,2,2,2,2,2,2,2,2,2,2,2,2,2,2,2,2,2,2,2,2,2,2,2,2,2,3,2,3,2,3,2,3,2,3,3,2,3,2,3,2,3,3,2,3,2,3,2,3,2,3,3,2,3,2,3,2,3,3,2,3,2,3,2,3,2,3,3,2,3,2,3,2,3,3,2,3,2,3,2,3,2,3,3,2,3,2,3,2,3,3,2,3,2,3,2,3,2,3,3,2,3,2,3,2,3,3,2,3,2,3,2,3,2,3,3,2,3,2,3,2,3,3,2,3,2,3,2,3,2,3,3,2,3,2,3,2,3,3,2,3,2,3,2,3,2,3,3,2,3,2,3,2,3,3,2,3,2,3,2,3,2,3,3,2,3,2,3,2,3,3,2,3,2,3,2,3,2,3,3,2,3,2,3,2,3,3,2,3,2,3,2,3,2,3,3,2,3,2,3,2,3,3,2,3,2,3,2,3,2,3,3,2,3,2,3,2,3,3,2,3,2,3,2,3,2,3,3,2,3,2,3,2,3,3,2,3,2,3,2,3,2,3,3,2,3,2,3,2,3,3,2,3,2,3,2,3,2,3,3,2,3,2,3,2,3,3,2,3,2,3,2,3,2,3,3,2,3,2,3,2,3,2,2,2,2,2,2,2,2,2,2,2,2,2,2,2,2,2,2,2,2,2,2,2,2,2,2,2,2,2,2,2,2,2,2,2,2,2,2,2,2,2,2,2,2,2,2,2,2,2,2,2,2,2,2,2,2,2,2,2,2,2,2,2,2,2,2,2,2,2,2,2,2,2,2,2,2,2,2,2,2,2,2,2,2,2,2,2,2,2,2,2,2,2,2,2,2,2,2,2,2,2,2,2,2,2,2,2,2,2,2,2,2,2,2,2,2,2,2,2,2,2,2,2,2,2,2,2,2,2,2,2,2,2,2,2,2,2,2,2,2,2,2,2,2,2,2,2,2,2,2,2,2,2,2,2,2,2,2,2,2,2,2,2,2,2,2,2,2,2,2,2,2,2,2,2,2,2,2,2,2,2,2,2,2,2,2,2,2,2,2,2,2,2,2,2,2,2,2,2,2,2,2,2,2,2,2,2,2,2,2,2,2,2,2,2,2,2,2,2,2,2,2,2,2,2,2,2,2,2,2,2,2,2,2,2,2,2,2,2,2,2,2,2,2,2,2,2,2,2,2,2,2,2,2,2,2,3,2,3,2,3,2,3,2,3,3,2,3,2,3,2,3,3,2,3,2,3,2,3,2,3,3,2,3,2,3,2,3,3,2,3,2,3,2,3,2,3,3,2,3,2,3,2,3,3,2,3,2,3,2,3,2,3,3,2,3,2,3,2,3,3,2,3,2,3,2,3,2,3,3,2,3,2,3,2,3,3,2,3,2,3,2,3,2,3,3,2,3,2,3,2,3,3,2,3,2,3,2,3,2,3,3,2,3,2,3,2,3,3,2,3,2,3,2,3,2,3,3,2,3,2,3,2,3,3,2,3,2,3,2,3,2,3,3,2,3,2,3,2,3,3,2,3,2,3,2,3,2,3,3,2,3,2,3,2,3,3,2,3,2,3,2,3,2,3,3,2,3,2,3,2,3,3,2,3,2,3,2,3,2,3,3,2,3,2,3,2,3,3,2,3,2,3,2,3,2,3,3,2,3,2,3,2,3,3,2,3,2,3,2,3,2,3,3,2,3,2,3,2,3,3,2,3,2,3,2,3,2,3,3,2,3,2,3,2,3,3,2,3,2,3,2,3,2,3,3,2,3,2,3,2,3,2,2,2,2,2,2,2,2,2,2,2,2,2,2,2,2,2,2,2,2,2,2,2,2,2,2,2,2,2,2,2,2,2,2,2,2,2,2,2,2,2,2,2,2,2,2,2,2,2,2,2,2,2,2,2,2,2,2,2,2,2,2,2,2,2,2,2,2,2,2,2,2,2,2,2,2,2,2,2,2,2,2,2,2,2,2,2,2,2,2,2,2,2,2,2,2,2,2,2,2,2,2,2,2,2,2,2,2,2,2,2,2,2,2,2,2,2,2,2,2,2,2,2,2,2,2,2,2,2,2,2,2,2,2,2,2,2,2,2,2,2,2,2,2,2,2,2,2,2,2,2,2,2,2,2,2,2,2,2,2,2,2,2,2,2,2,2,2,2,2,2,2,2,2,2,2,2,2,2,2,2,2,2,2,2,2,2,2,2,2,2,2,2,2,2,2,2,2,2,2,2,2,2,2,2,2,2,2,2,2,2,2,2,2,2,2,2,2,2,2,2,2,2,2,2,2,2,2,2,2,2,2,2,2,2,2,2,2,2,2,2,2,2,2,2,2,2,2,2,2,2,2,2,2,2,2,3,2,3,2,3,2,3,2,3,3,2,3,2,3,2,3,3,2,3,2,3,2,3,2,3,3,2,3,2,3,2,3,3,2,3,2,3,2,3,2,3,3,2,3,2,3,2,3,3,2,3,2,3,2,3,2,3,3,2,3,2,3,2,3,3,2,3,2,3,2,3,2,3,3,2,3,2,3,2,3,3,2,3,2,3,2,3,2,3,3,2,3,2,3,2,3,3,2,3,2,3,2,3,2,3,3,2,3,2,3,2,3,3,2,3,2,3,2,3,2,3,3,2,3,2,3,2,3,3,2,3,2,3,2,3,2,3,3,2,3,2,3,2,3,3,2,3,2,3,2,3,2,3,3,2,3,2,3,2,3,3,2,3,2,3,2,3,2,3,3,2,3,2,3,2,3,3,2,3,2,3,2,3,2,3,3,2,3,2,3,2,3,3,2,3,2,3,2,3,2,3,3,2,3,2,3,2,3,3,2,3,2,3,2,3,2,3,3,2,3,2,3,2,3,3,2,3,2,3,2,3,2,3,3,2,3,2,3,2,3,3,2,3,2,3,2,3,2,3,3,2,3,2,3,2,3]},{"id":2,"name":"Rivi\u00e8re et cascades anim\u00e9es","type":"tilelayer","x":0,"y":0,"width":256,"height":192,"opacity":1,"visible":true,"data":[0,0,0,0,0,0,0,0,0,0,0,0,0,0,0,0,0,0,0,0,0,0,0,0,0,0,0,0,0,0,0,0,0,0,0,0,0,0,0,0,0,0,0,0,0,0,0,0,0,0,0,0,0,0,0,0,0,0,0,0,0,0,0,0,0,0,0,0,0,0,0,0,0,0,0,0,0,0,0,0,0,0,0,0,0,0,0,0,0,0,0,0,0,0,0,0,0,0,0,0,0,0,0,0,0,0,0,0,0,0,0,0,0,0,0,0,0,0,0,0,0,0,0,0,0,0,0,0,0,0,0,0,0,0,0,0,0,0,0,0,0,0,0,0,0,0,0,0,0,0,0,0,0,0,0,0,0,0,0,0,0,0,0,0,0,0,0,0,0,0,0,0,0,0,0,0,0,0,0,0,0,0,0,0,0,0,0,0,0,0,0,0,0,0,0,0,0,0,0,0,0,0,0,0,0,0,0,0,0,0,0,0,0,0,0,0,0,0,0,0,0,0,0,0,0,0,0,0,0,0,0,0,0,0,0,0,0,0,0,0,0,0,0,0,0,0,0,0,0,0,0,0,0,0,0,0,0,0,0,0,0,0,0,0,0,0,0,0,0,0,0,0,0,0,0,0,0,0,0,0,0,0,0,0,0,0,0,0,0,0,0,0,0,0,0,0,0,0,0,0,0,0,0,0,0,0,0,0,0,0,0,0,0,0,0,0,0,0,0,0,0,0,0,0,0,0,0,0,0,0,0,0,0,0,0,0,0,0,0,0,0,0,0,0,0,0,0,0,0,0,0,0,0,0,0,0,0,0,0,0,0,0,0,0,0,0,0,0,0,0,0,0,0,0,0,0,0,0,0,0,0,0,0,0,0,0,0,0,0,0,0,0,0,0,0,0,0,0,0,0,0,0,0,0,0,0,0,0,0,0,0,0,0,0,0,0,0,0,0,0,0,0,0,0,0,0,0,0,0,0,0,0,0,0,0,0,0,0,0,0,0,0,0,0,0,0,0,0,0,0,0,0,0,0,0,0,0,0,0,0,0,0,0,0,0,0,0,0,0,0,0,0,0,0,0,0,0,0,0,0,0,0,0,0,0,0,0,0,0,0,0,0,0,0,0,0,0,0,0,0,0,0,0,0,0,0,0,0,0,0,0,0,0,0,0,0,0,0,0,0,0,0,0,0,0,0,0,0,0,0,0,0,0,0,0,0,0,0,0,0,0,0,0,0,0,0,0,0,0,0,0,0,0,0,0,0,0,0,0,0,0,0,0,0,0,0,0,0,0,0,0,0,0,0,0,0,0,0,0,0,0,0,0,0,0,0,0,0,0,0,0,0,0,0,0,0,0,0,0,0,0,0,0,0,0,0,0,0,0,0,0,0,0,0,0,0,0,0,0,0,0,0,0,0,0,0,0,0,0,0,0,0,0,0,0,0,0,0,0,0,0,0,0,0,0,0,0,0,0,0,0,0,0,0,0,0,0,0,0,0,0,0,0,0,0,0,0,0,0,0,0,0,0,0,0,0,0,0,0,0,0,0,0,0,0,0,0,0,0,0,0,0,0,0,0,0,0,0,0,0,0,0,0,0,0,0,0,0,0,0,0,0,0,0,0,0,0,0,0,0,0,0,0,0,0,0,0,0,0,0,0,0,0,0,0,0,0,0,0,0,0,0,0,0,0,0,0,0,0,0,0,0,0,0,0,0,0,0,0,0,0,0,0,0,0,0,0,0,0,0,0,0,0,0,0,0,0,0,0,0,0,0,0,0,0,0,0,0,0,0,0,0,0,0,0,0,0,0,0,0,0,0,0,0,0,0,0,0,0,0,0,0,0,0,0,0,0,0,0,0,0,0,0,0,0,0,0,0,0,0,0,0,0,0,0,0,0,0,0,0,0,0,0,0,0,0,0,0,0,0,0,0,0,0,0,0,0,0,0,0,0,0,0,0,0,0,0,0,0,0,0,0,0,0,0,0,0,0,0,0,0,0,0,0,0,0,0,0,0,0,0,0,0,0,0,0,0,0,0,0,0,0,0,0,0,0,0,0,0,0,0,0,0,0,0,0,0,0,0,0,0,0,0,0,0,0,0,0,0,0,0,0,0,0,0,0,0,0,0,0,0,0,0,0,0,0,0,0,0,0,0,0,0,0,0,0,0,0,0,0,0,0,0,0,0,0,0,0,0,0,0,0,0,0,0,0,0,0,0,0,0,0,0,0,0,0,0,0,0,0,0,0,0,0,0,0,0,0,0,0,0,0,0,0,0,0,0,0,0,0,0,0,0,0,0,0,0,0,0,0,0,0,0,0,0,0,0,0,0,0,0,0,0,0,0,0,0,0,0,0,0,0,0,0,0,0,0,0,0,0,0,0,0,0,0,0,0,0,0,0,0,0,0,0,0,0,0,0,0,0,0,0,0,0,0,0,0,0,0,0,0,0,0,0,0,0,0,0,0,0,0,0,0,0,0,0,0,0,0,0,0,0,0,0,0,0,0,0,0,0,0,0,0,0,0,0,0,0,0,0,0,0,0,0,0,0,0,0,0,0,0,0,0,0,0,0,0,0,0,0,0,0,0,0,0,0,0,0,0,0,0,0,0,0,0,0,0,0,0,0,0,0,0,0,0,0,0,0,0,0,0,0,0,0,0,0,0,0,0,0,0,0,0,0,0,0,0,0,0,0,0,0,0,0,0,0,0,0,0,0,0,0,0,0,0,0,0,0,0,0,0,0,0,0,0,0,0,0,0,0,0,0,0,0,0,0,0,0,0,0,0,0,0,0,0,0,0,0,0,0,0,0,0,0,0,0,0,0,0,0,0,0,0,0,0,0,0,0,0,0,0,0,0,0,0,0,0,0,0,0,0,0,0,0,0,0,0,0,0,0,0,0,0,0,0,0,0,0,0,0,0,0,0,0,0,0,0,0,0,0,0,0,0,0,0,0,0,0,0,0,0,0,0,0,0,0,0,0,0,0,0,0,0,0,0,0,0,0,0,0,0,0,0,0,0,0,0,0,0,0,0,0,0,0,0,0,0,0,0,0,0,0,0,0,0,0,0,0,0,0,0,0,0,0,0,0,0,0,0,0,0,0,0,0,0,0,0,0,0,0,0,0,0,0,0,0,0,0,0,0,0,0,0,0,0,0,0,0,0,0,0,0,0,0,0,0,0,0,0,0,0,0,0,0,0,0,0,0,0,0,0,0,0,0,0,0,0,0,0,0,0,0,0,0,0,0,0,0,0,0,0,0,0,0,0,0,0,0,0,0,0,0,0,0,0,0,0,0,0,0,0,0,0,0,0,0,0,0,0,0,0,0,0,0,0,0,0,0,0,0,0,0,0,0,0,0,0,0,0,0,0,0,0,0,0,0,0,0,0,0,0,0,0,0,0,0,0,0,0,0,0,0,0,0,0,0,0,0,0,0,0,0,0,0,0,0,0,0,0,0,0,0,0,0,0,0,0,0,0,0,0,0,0,0,0,0,0,0,0,0,0,0,0,0,0,0,0,0,0,0,0,0,0,0,0,0,0,0,0,0,0,0,0,0,0,0,0,0,0,0,0,0,0,0,0,0,0,0,0,0,0,0,0,0,0,0,0,0,0,0,0,0,0,0,0,0,0,0,0,0,0,0,0,0,0,0,0,0,0,0,0,0,0,0,0,0,0,0,0,0,0,0,0,0,0,0,0,0,0,0,0,0,0,0,0,0,0,0,0,0,0,0,0,0,0,0,0,0,0,0,0,0,0,0,0,0,0,0,0,0,0,0,0,0,0,0,0,0,0,0,0,0,0,0,0,0,0,0,0,0,0,0,0,0,0,0,0,0,0,0,0,0,0,0,0,0,0,0,0,0,0,0,0,0,0,0,0,0,0,0,0,0,0,0,0,0,0,0,0,0,0,0,0,0,0,0,0,0,0,0,0,0,0,0,0,0,0,0,0,0,0,0,0,0,0,0,0,0,0,0,0,0,0,0,0,0,0,0,0,0,0,0,0,0,0,0,0,0,0,0,0,0,0,0,0,0,0,0,0,0,0,0,0,0,0,0,0,0,0,0,0,0,0,0,0,0,0,0,0,0,0,0,0,0,0,0,0,0,0,0,0,0,0,0,0,0,0,0,0,0,0,0,0,0,0,0,0,0,0,0,0,0,0,0,0,0,0,0,0,0,0,0,0,0,0,0,0,0,0,0,0,0,0,0,0,0,0,0,0,0,0,0,0,0,0,0,0,0,0,0,0,0,0,0,0,0,0,0,0,0,0,0,0,0,0,0,0,0,0,0,0,0,0,0,0,0,0,0,0,0,0,0,0,0,0,0,0,0,0,0,0,0,0,0,0,0,0,0,0,0,0,0,0,0,0,0,0,0,0,0,0,0,0,0,0,0,0,0,0,0,0,0,0,0,0,0,0,0,0,0,0,0,0,0,0,0,0,0,0,0,0,0,0,0,0,0,0,0,0,0,0,0,0,0,0,0,0,0,0,0,0,0,0,0,0,0,0,0,0,0,0,0,0,0,0,0,0,0,0,0,0,0,0,0,0,0,0,0,0,0,0,0,0,0,0,0,0,0,0,0,0,0,0,0,0,0,0,0,0,0,0,0,0,0,0,0,0,0,0,0,0,0,0,0,0,0,0,0,0,0,0,0,0,0,0,0,0,0,0,0,0,0,0,0,0,0,0,0,0,0,0,0,0,0,0,0,0,0,0,0,0,0,0,0,0,0,0,0,0,0,0,0,0,0,0,0,0,0,0,0,0,0,0,0,0,0,0,0,0,0,0,0,0,0,0,0,0,0,0,0,0,0,0,0,0,0,0,0,0,0,0,0,0,0,0,0,0,0,0,0,0,0,0,0,0,0,0,0,0,0,0,0,0,0,0,0,0,0,0,0,0,0,0,0,0,0,0,0,0,0,0,0,0,0,0,0,0,0,0,0,0,0,0,0,0,0,0,0,0,0,0,0,0,0,0,0,0,0,0,0,0,0,0,0,0,0,0,0,0,0,0,0,0,0,0,0,0,0,0,0,0,0,0,0,0,0,0,0,0,0,0,0,0,0,0,0,0,0,0,0,0,0,0,0,0,0,0,0,0,0,0,0,0,0,0,0,0,0,0,0,0,0,0,0,0,0,0,0,0,0,0,0,0,0,0,0,0,0,0,0,0,0,0,0,0,0,0,0,0,0,0,0,0,0,0,0,0,0,0,0,0,0,0,0,0,0,0,0,0,0,0,0,0,0,0,0,0,0,0,0,0,0,0,0,0,0,0,0,0,0,0,0,0,0,0,0,0,0,0,0,0,0,0,0,0,0,0,0,0,0,0,0,0,0,0,0,0,0,0,0,0,0,0,0,0,0,0,0,0,0,0,0,0,0,0,0,0,0,0,0,0,0,0,0,0,0,0,0,0,0,0,0,0,0,0,0,0,0,0,0,0,0,0,0,0,0,0,0,0,0,0,0,0,0,0,0,0,0,0,0,0,0,0,0,0,0,0,0,0,0,0,0,0,0,0,0,0,0,0,0,0,0,0,0,0,0,0,0,0,0,0,0,0,0,0,0,0,0,0,0,0,0,0,0,0,0,0,0,0,0,0,0,0,0,0,0,0,0,0,0,0,0,0,0,0,0,0,0,0,0,0,0,0,0,0,0,0,0,0,0,0,0,0,0,0,0,0,0,0,0,0,0,0,0,0,0,0,0,0,0,0,0,0,0,0,0,0,0,0,0,0,0,0,0,0,0,0,0,0,0,0,0,0,0,0,0,0,0,0,0,0,0,0,0,0,0,0,0,0,0,0,0,0,0,0,0,0,0,0,0,0,0,0,0,0,0,0,0,0,0,0,0,0,0,0,0,0,0,0,0,0,0,0,0,0,0,0,0,0,0,0,0,0,0,0,0,0,0,0,0,0,0,0,0,0,0,0,0,0,0,0,0,0,0,0,0,0,0,0,0,0,0,0,0,0,0,0,0,0,0,0,0,0,0,0,0,0,0,0,0,0,0,0,0,0,0,0,0,0,0,0,0,0,0,0,0,0,0,0,0,0,0,0,0,0,0,0,0,0,0,0,0,0,0,0,0,0,0,0,0,0,0,0,0,0,0,0,0,0,0,0,0,0,0,0,0,0,0,0,0,0,0,0,0,0,0,0,0,0,0,0,0,0,0,0,0,0,0,0,0,0,0,0,0,0,0,0,0,0,0,0,0,0,0,0,0,0,0,0,0,0,0,0,0,0,0,0,0,0,0,0,0,0,0,0,0,0,0,0,0,0,0,0,0,0,0,0,0,0,0,0,0,0,0,0,0,0,0,0,0,0,0,0,0,0,0,0,0,0,0,0,0,0,0,0,0,0,0,0,0,0,0,0,0,0,0,0,0,0,0,0,0,0,0,0,0,0,0,0,0,0,0,0,0,0,0,0,0,0,0,0,0,0,0,0,0,0,0,0,0,0,0,0,0,0,0,0,0,0,0,0,0,0,0,0,0,0,0,0,0,0,0,0,0,0,0,0,0,0,0,0,0,0,0,0,0,0,0,0,0,0,0,0,0,0,0,0,0,0,0,0,0,0,0,0,0,0,0,0,0,0,0,0,0,0,0,0,0,0,0,0,0,0,0,0,0,0,0,0,0,0,0,0,0,0,0,0,0,0,0,0,0,0,0,0,0,0,0,0,0,0,0,0,0,0,0,0,0,0,0,0,0,0,0,0,0,0,0,0,0,0,0,0,0,0,0,0,0,0,0,0,0,0,0,0,0,0,0,0,0,0,0,0,0,0,0,0,0,0,0,0,0,0,0,0,0,0,0,0,0,0,0,0,0,0,0,0,0,0,0,0,0,0,0,0,0,0,0,0,0,0,0,0,0,0,0,0,0,0,0,0,0,0,0,0,0,0,0,0,0,0,0,0,0,0,0,0,0,0,0,0,0,0,0,0,0,0,0,0,0,0,0,0,0,0,0,0,0,0,0,0,0,0,0,0,0,0,0,0,0,0,0,0,0,0,0,0,0,0,0,0,0,0,0,0,0,0,0,0,0,0,0,0,0,0,0,0,0,0,0,0,0,0,0,0,0,0,0,0,0,0,0,0,0,0,0,0,0,0,0,0,0,0,0,0,0,0,0,0,0,0,0,0,0,0,0,0,0,0,0,0,0,0,0,0,0,0,0,0,0,0,0,0,0,0,0,0,0,0,0,0,0,0,0,0,0,0,0,0,0,0,0,0,0,0,0,0,0,0,0,0,0,0,0,0,0,0,0,0,0,0,0,0,0,0,0,0,0,0,0,0,0,0,0,0,0,0,0,0,0,0,0,0,0,0,0,0,0,0,0,0,0,0,0,0,0,0,0,0,0,0,0,0,0,0,0,0,0,0,0,0,0,0,0,0,0,0,0,0,0,0,0,0,0,0,0,0,0,0,0,0,0,0,0,0,0,0,0,0,0,0,0,0,0,0,0,0,0,0,0,0,0,0,0,0,0,0,0,0,0,0,0,0,0,0,0,0,0,0,0,0,0,0,0,0,0,0,0,0,0,0,0,0,0,0,0,0,0,0,0,0,0,0,0,0,0,0,0,0,0,0,0,0,0,0,0,0,0,0,0,0,0,0,0,0,0,0,0,0,0,0,0,0,0,0,0,0,0,0,0,0,0,0,0,0,0,0,0,0,0,0,0,0,0,0,0,0,0,0,0,0,0,0,0,0,0,0,0,0,0,0,0,0,0,0,0,0,0,0,0,0,0,0,0,0,0,0,0,0,0,0,0,0,0,0,0,0,0,0,0,0,0,0,0,0,0,0,0,0,0,0,0,0,0,0,0,0,0,0,0,0,0,0,0,0,0,0,0,0,0,0,0,0,0,0,0,0,0,0,0,0,0,0,0,0,0,0,0,0,0,0,0,0,0,0,0,0,0,0,0,0,0,0,0,0,0,0,0,0,0,0,0,0,0,0,0,0,0,0,0,0,0,0,0,0,0,0,0,0,0,0,0,0,0,0,0,0,0,0,0,0,0,0,0,0,0,0,0,0,0,0,0,0,0,0,0,0,0,0,0,0,0,0,0,0,0,0,0,0,0,0,0,0,0,0,0,0,0,0,0,0,0,0,0,0,0,0,0,0,0,0,0,0,0,0,0,0,0,0,0,0,0,0,0,0,0,0,0,0,0,0,0,0,0,0,0,0,0,0,0,0,0,0,0,0,0,0,0,0,0,0,0,0,0,0,0,0,0,0,0,0,0,0,0,0,0,0,0,0,0,0,0,0,0,0,0,0,0,0,0,0,0,0,0,0,0,0,0,0,0,0,0,0,0,0,0,0,0,0,0,0,0,0,0,0,0,0,0,0,0,0,0,0,0,0,0,0,0,0,0,0,0,0,0,0,0,0,0,0,0,0,0,0,0,0,0,0,0,0,0,0,0,0,0,0,0,0,0,0,0,0,0,0,0,0,0,0,0,0,0,0,0,0,0,0,0,0,0,0,0,0,0,0,0,0,0,0,0,0,0,0,0,0,0,0,0,0,0,0,0,0,0,0,0,0,0,0,0,0,0,0,0,0,0,0,0,0,0,0,0,0,0,0,0,0,0,0,0,0,0,0,0,0,0,0,0,0,0,0,0,0,0,0,0,0,0,0,0,0,0,0,0,0,0,0,0,0,0,0,0,0,0,0,0,0,0,0,0,0,0,0,0,0,0,0,0,0,0,0,0,0,0,0,0,0,0,0,0,0,0,0,0,0,0,0,0,0,0,0,0,0,0,0,0,0,0,0,0,0,0,0,0,0,0,0,0,0,0,0,0,0,0,0,0,0,0,0,0,0,0,0,0,0,0,0,0,0,0,0,0,0,0,0,0,0,0,0,0,0,0,0,0,0,0,0,0,0,0,0,0,0,0,0,0,0,0,0,0,0,0,0,0,0,0,0,0,0,0,0,0,0,0,0,0,0,0,0,0,0,0,0,0,0,0,0,0,0,0,0,0,0,0,0,0,0,0,0,0,0,0,0,0,0,0,0,0,0,0,0,0,0,0,0,0,0,0,0,0,0,0,0,0,0,0,0,0,0,0,0,0,0,0,0,0,0,0,0,0,0,0,0,0,0,0,0,0,0,0,0,0,0,0,0,0,0,0,0,0,0,0,0,0,0,0,0,0,0,0,0,0,0,0,0,0,0,0,0,0,0,0,0,0,0,0,0,0,0,0,0,0,0,0,0,0,0,0,0,0,0,0,0,0,0,0,0,0,0,0,0,0,0,0,0,0,0,0,0,0,0,0,0,0,0,0,0,0,0,0,0,0,0,0,0,0,0,0,0,0,0,0,0,0,0,0,0,0,0,0,0,0,0,0,0,0,0,0,0,0,0,0,0,0,0,0,0,0,0,0,0,0,0,0,0,0,0,0,0,0,0,0,0,0,0,0,0,0,0,0,0,0,0,0,0,0,0,0,0,0,0,0,0,0,0,0,0,0,0,0,0,0,0,0,0,0,0,0,0,0,0,0,0,0,0,0,0,0,0,0,0,0,0,0,0,0,0,0,0,0,0,0,0,0,0,0,0,0,0,0,0,0,0,0,0,0,0,0,0,0,0,0,0,0,0,0,0,0,0,0,0,0,0,0,0,0,0,0,0,0,0,0,0,0,0,0,0,0,0,0,0,0,0,0,0,0,0,0,0,0,0,0,0,0,0,0,0,0,0,0,0,0,0,0,0,0,0,0,0,0,0,0,0,0,0,0,0,0,0,0,0,0,0,0,0,0,0,0,0,0,0,0,0,0,0,0,0,0,0,0,0,0,0,0,0,0,0,0,0,0,0,0,0,0,0,0,0,0,0,0,0,0,0,0,0,0,0,0,0,0,0,0,0,0,0,0,0,0,0,0,0,0,0,0,0,0,0,0,0,0,0,0,0,0,0,0,0,0,0,0,0,0,0,0,0,0,0,0,0,0,0,0,0,0,0,0,0,0,0,0,0,0,0,0,0,0,0,0,0,0,0,0,0,0,0,0,0,0,0,0,0,0,0,0,0,0,0,0,0,0,0,0,0,0,0,0,0,0,0,0,0,0,0,0,0,0,0,0,0,0,0,0,0,0,0,0,0,0,0,0,0,0,0,0,0,0,0,0,0,0,0,0,0,0,0,0,0,0,0,0,0,0,0,0,0,0,0,0,0,0,0,0,0,0,0,0,0,0,0,0,0,0,0,0,0,0,0,0,0,0,0,0,0,0,0,0,0,0,0,0,0,0,0,0,0,0,0,0,0,0,0,0,0,0,0,0,0,0,0,0,0,0,0,0,0,0,0,0,0,0,0,0,0,0,0,0,0,0,0,0,0,0,0,0,0,0,0,0,0,0,0,0,0,0,0,0,0,0,0,0,0,0,0,0,0,0,0,0,0,0,0,0,0,0,0,0,0,0,0,0,0,0,0,0,0,0,0,0,0,0,0,0,0,0,0,0,0,0,0,0,0,0,0,0,0,0,0,0,0,0,0,0,0,0,0,0,0,0,0,0,0,0,0,0,0,0,0,0,0,0,0,0,0,0,0,0,0,0,0,0,0,0,0,0,0,0,0,0,0,0,0,0,0,0,0,0,0,0,0,0,0,0,0,0,0,0,0,0,0,0,0,0,0,0,0,0,0,0,0,0,0,0,0,0,0,0,0,0,0,0,0,0,0,0,0,0,0,0,0,0,0,0,0,0,0,0,0,0,0,0,0,0,0,0,0,0,0,0,0,0,0,0,0,0,0,0,0,0,0,0,0,0,0,0,0,0,0,0,0,0,0,0,0,0,0,0,0,0,0,0,0,0,0,0,0,0,0,0,0,0,0,0,0,0,0,0,0,0,0,0,0,0,0,0,0,0,0,0,0,0,0,0,0,0,0,0,0,0,0,0,0,0,0,0,0,0,0,0,0,0,0,0,0,0,0,0,0,0,0,0,0,0,0,0,0,0,0,0,0,0,0,0,0,0,0,0,0,0,0,0,0,0,0,0,0,0,0,0,0,0,0,0,0,0,0,0,0,0,0,0,0,0,0,0,0,0,0,0,0,0,0,0,0,0,0,0,0,0,0,0,0,0,0,0,0,0,0,0,0,0,0,0,0,0,0,0,0,0,0,0,0,0,0,0,0,0,0,0,0,0,0,0,0,0,0,0,0,0,0,0,0,0,0,0,0,0,0,0,0,0,0,0,0,0,0,0,0,0,0,0,0,0,0,0,0,0,0,0,0,0,0,0,0,0,0,0,0,0,0,0,0,0,0,0,0,0,0,0,0,0,0,0,0,0,0,0,0,0,0,0,0,0,0,0,0,0,0,0,0,0,0,0,0,0,0,0,0,0,0,0,0,0,0,0,0,0,0,0,0,0,0,0,0,0,0,0,0,0,0,0,0,0,0,0,0,0,0,0,0,0,0,0,0,0,0,0,0,0,0,0,0,0,0,0,0,0,0,0,0,0,0,0,0,0,0,0,0,0,0,0,0,0,0,0,0,0,0,0,0,0,0,0,0,0,0,0,0,0,0,0,0,0,0,0,0,0,0,0,0,0,0,0,0,0,0,0,0,0,0,0,0,0,0,0,0,0,0,0,0,0,0,0,0,0,0,0,0,0,0,0,0,0,0,0,0,0,0,0,0,0,0,0,0,0,0,0,0,0,0,0,0,0,0,0,0,0,0,0,0,0,0,0,0,0,0,0,0,0,0,0,0,0,0,0,0,0,0,0,0,0,0,0,0,0,0,0,0,0,0,0,0,0,0,0,0,0,0,0,0,0,0,0,0,0,0,0,0,0,0,0,0,0,0,0,0,0,0,0,0,0,0,0,0,0,0,0,0,0,0,0,0,0,0,0,0,0,0,0,0,0,0,0,0,0,0,0,0,0,0,0,0,0,0,0,0,0,0,0,0,0,0,0,0,0,0,0,0,0,0,0,0,0,0,0,0,0,0,0,0,0,0,0,0,0,0,0,0,0,0,0,0,0,0,0,0,0,0,0,0,0,0,0,0,0,0,0,0,0,0,0,0,0,0,0,0,0,0,0,0,0,0,0,0,0,0,0,0,0,0,0,0,0,0,0,0,0,0,0,0,0,0,0,0,0,0,0,0,0,0,0,0,0,0,0,0,0,0,0,0,0,0,0,0,0,0,0,0,0,0,0,0,0,0,0,0,0,0,0,0,0,0,0,0,0,0,0,0,0,0,0,0,0,0,0,0,0,0,0,0,0,0,0,0,0,0,0,0,0,0,0,0,0,0,0,0,0,0,0,0,0,0,0,0,0,0,0,0,0,0,0,0,0,0,0,0,0,0,0,0,0,0,0,0,0,0,0,0,0,0,0,0,0,0,0,0,0,0,0,0,0,0,0,0,0,0,0,0,0,0,0,0,0,0,0,0,0,0,0,0,0,0,0,0,0,0,0,0,0,0,0,0,0,0,0,0,0,0,0,0,0,0,0,0,0,0,0,0,0,0,0,0,0,0,0,0,0,0,0,0,0,0,0,0,0,0,0,0,0,0,0,0,0,0,0,0,0,0,0,0,0,0,0,0,0,0,0,0,0,0,0,0,0,0,0,0,0,0,0,0,0,0,0,0,0,0,0,0,0,0,0,0,0,0,0,0,0,0,0,0,0,0,0,0,0,0,0,0,0,0,0,0,0,0,0,0,0,0,0,0,0,0,0,0,0,0,0,0,0,0,0,0,0,0,0,0,0,0,0,0,0,0,0,0,0,0,0,0,0,0,0,0,0,0,0,0,0,0,0,0,0,0,0,0,0,0,0,0,0,0,0,0,0,0,0,0,0,0,0,0,0,0,0,0,0,0,0,0,0,0,0,0,0,0,0,0,0,0,0,0,0,0,0,0,0,0,0,0,0,0,0,0,0,0,0,0,0,0,0,0,0,0,0,0,0,0,0,0,0,0,0,0,0,0,0,0,0,0,0,0,0,0,0,0,0,0,0,0,0,0,0,0,0,0,0,0,0,0,0,0,0,0,0,0,0,0,0,0,0,0,0,0,0,0,0,0,0,0,0,0,0,0,0,0,0,0,0,0,0,0,0,0,0,0,0,0,0,0,0,0,0,0,0,0,0,0,0,0,0,0,0,0,0,0,0,0,0,0,0,0,0,0,0,0,0,0,0,0,0,0,0,0,0,0,0,0,0,0,0,0,0,0,0,0,0,0,0,0,0,0,0,0,0,0,0,0,0,0,0,0,0,0,0,0,0,0,0,0,0,0,0,0,0,0,0,0,0,0,0,0,0,0,0,0,0,0,0,0,0,0,0,0,0,0,0,0,0,0,0,0,0,0,0,0,0,0,0,0,0,0,0,0,0,0,0,0,0,0,0,0,0,0,0,0,0,0,0,0,0,0,0,0,0,0,0,0,0,0,0,0,0,0,0,0,0,0,0,0,0,0,0,0,0,0,0,0,0,0,0,0,0,0,0,0,0,0,0,0,0,0,0,0,0,0,0,0,0,0,0,0,0,0,0,0,0,0,0,0,0,0,0,0,0,0,0,0,0,0,0,0,0,0,0,0,0,0,0,0,0,0,0,0,0,0,0,0,0,0,0,0,0,0,0,0,0,0,0,0,0,0,0,0,0,0,0,0,0,0,0,0,0,0,0,0,0,0,0,0,0,0,0,0,0,0,0,0,0,0,0,0,0,0,0,0,0,0,0,0,0,0,0,0,0,0,0,0,0,0,0,0,0,0,0,0,0,0,0,0,0,0,0,0,0,0,0,0,0,0,0,0,0,0,0,0,0,0,0,0,0,0,0,0,0,0,0,0,0,0,0,0,0,0,0,0,0,0,0,0,0,0,0,0,0,0,0,0,0,0,0,0,0,0,0,0,0,0,0,0,0,0,0,0,0,0,0,0,0,0,0,0,0,0,0,0,0,0,0,0,0,0,0,0,0,0,0,0,0,0,0,0,0,0,0,0,0,0,0,0,0,0,0,0,0,0,0,0,0,0,0,0,0,0,0,0,0,0,0,0,0,0,0,0,0,0,0,0,0,0,0,0,0,0,0,0,0,0,0,0,0,0,0,0,0,0,0,0,0,0,0,0,0,0,0,0,0,0,0,0,0,0,0,0,0,0,0,0,0,0,0,0,0,0,0,0,0,0,0,0,0,0,0,0,0,0,0,0,0,0,0,0,0,0,0,0,0,0,0,0,0,0,0,0,0,0,0,0,0,0,0,0,0,0,0,0,0,0,0,0,0,0,0,0,0,0,0,0,0,0,0,0,0,0,0,0,0,0,0,0,0,0,0,0,0,0,0,0,0,0,0,0,0,0,0,0,0,0,0,0,0,0,0,0,0,0,0,0,0,0,0,0,0,0,0,0,0,0,0,0,0,0,0,0,0,0,0,0,0,0,0,0,0,0,0,0,0,0,0,0,0,0,0,0,0,0,0,0,0,0,0,0,0,0,0,0,0,0,0,0,0,0,0,0,0,0,0,0,0,0,0,0,0,0,0,0,0,0,0,0,0,0,0,0,0,0,0,0,0,0,0,0,0,0,0,0,0,0,0,0,0,0,0,0,0,0,0,0,0,0,0,0,0,0,0,0,0,0,0,0,0,0,0,0,0,0,0,0,0,0,0,0,0,0,0,0,0,0,0,0,0,0,0,0,0,0,0,0,0,0,0,0,0,0,0,0,0,0,0,0,0,0,0,0,0,0,0,0,0,0,0,0,0,0,0,0,0,0,0,0,0,0,0,0,0,0,0,0,0,0,0,0,0,0,0,0,0,0,0,0,0,0,0,0,0,0,0,0,0,0,0,0,0,0,0,0,0,0,0,0,0,0,0,0,0,0,0,0,0,0,0,0,0,0,0,0,0,0,0,0,0,0,0,0,0,0,0,0,0,0,0,0,0,0,0,0,0,0,0,0,0,0,0,0,0,0,0,0,0,0,0,0,0,0,0,0,0,0,0,0,0,0,0,0,0,0,0,0,0,0,0,0,0,0,0,0,0,0,0,0,0,0,0,0,0,0,0,0,0,0,0,0,0,0,0,0,0,0,0,0,0,0,0,0,0,0,0,0,0,0,0,0,0,0,0,0,0,0,0,0,0,0,0,0,0,0,0,0,0,0,0,0,0,0,0,0,0,0,0,0,0,0,0,0,0,0,0,0,0,0,0,0,0,0,0,0,0,0,0,0,0,0,0,0,0,0,0,0,0,0,0,0,0,0,0,0,0,0,0,0,0,0,0,0,0,0,0,0,0,0,0,0,0,0,0,0,0,0,0,0,0,0,0,0,0,0,0,0,0,0,0,0,0,0,0,0,0,0,0,0,0,0,0,0,0,0,0,0,0,0,0,0,0,0,0,0,0,0,0,0,0,0,0,0,0,0,0,0,0,0,0,0,0,0,0,0,0,0,0,0,0,0,0,0,0,0,0,0,0,0,0,0,0,0,0,0,0,0,0,0,0,0,0,0,0,0,0,0,0,0,0,0,0,0,0,0,0,0,0,0,0,0,0,0,0,0,0,0,0,0,0,0,0,0,0,0,0,0,0,0,0,0,0,0,0,0,0,0,0,0,0,0,0,0,0,0,0,0,0,0,0,0,0,0,0,0,0,0,0,0,0,0,0,0,0,0,0,0,0,0,0,0,0,0,0,0,0,0,0,0,0,0,0,0,0,0,0,0,0,0,0,0,0,0,0,0,0,0,0,0,0,0,0,0,0,0,0,0,0,0,0,0,0,0,0,0,0,0,0,0,0,0,0,0,0,0,0,0,0,0,0,0,0,0,0,0,0,0,0,0,0,0,0,0,0,0,0,0,0,0,0,0,0,0,0,0,0,0,0,0,0,0,0,0,0,0,0,0,0,0,0,0,0,0,0,0,0,0,0,0,0,0,0,2337,85,2338,9,2339,2340,2341,1759,2342,7,51,9,52,53,0,0,0,0,0,0,0,0,0,0,0,0,0,0,0,0,0,0,0,0,0,0,0,0,0,0,0,0,0,0,0,0,0,0,0,0,0,0,0,0,0,0,0,0,0,0,0,0,0,0,0,0,0,0,0,0,0,0,0,0,0,0,0,0,0,0,0,0,0,0,0,0,0,0,0,0,0,0,0,0,0,0,0,0,0,0,0,0,0,0,0,0,0,0,0,0,0,0,0,0,0,0,0,0,0,0,0,0,0,0,0,0,0,0,0,0,0,0,0,0,0,0,0,0,0,0,0,0,0,0,0,0,0,0,0,0,0,0,0,0,0,0,0,0,0,0,0,0,0,0,0,0,0,0,0,0,0,0,0,0,0,0,0,0,0,0,0,0,0,0,0,0,0,0,0,0,0,0,0,0,0,0,0,0,0,0,0,0,0,0,0,0,0,0,0,0,0,0,0,0,0,0,0,0,0,0,0,0,0,0,0,0,0,0,0,0,0,0,0,0,0,0,0,0,0,0,0,0,0,0,0,0,0,0,0,0,0,843,2353,2354,2355,79,2356,18,2357,22,2358,21,173,263,179,181,2361,2362,69,2363,2364,2365,2366,1822,0,0,0,0,0,0,0,0,0,0,0,0,0,0,0,0,0,0,0,0,0,0,0,0,0,0,0,0,0,0,0,0,0,0,0,0,0,0,0,0,0,0,0,0,0,0,0,0,0,0,0,0,0,0,0,0,0,0,0,0,0,0,0,0,0,0,0,0,0,0,0,0,0,0,0,0,0,0,0,0,0,0,0,0,0,0,0,0,0,0,0,0,0,0,0,0,0,0,0,0,0,0,0,0,0,0,0,0,0,0,0,0,0,0,0,0,0,0,0,0,0,0,0,0,0,0,0,0,0,0,0,0,0,0,0,0,0,0,0,0,0,0,0,0,0,0,0,0,0,0,0,0,0,0,0,0,0,0,0,0,0,0,0,0,0,0,0,0,0,0,0,0,0,0,0,0,0,0,0,0,0,0,0,0,0,0,0,0,0,0,0,0,0,0,0,0,0,0,0,0,0,0,0,0,0,0,0,0,0,0,0,0,0,0,0,0,0,0,0,0,0,0,0,0,0,0,0,0,0,0,0,129,2376,2377,2378,2379,21,21,21,21,21,21,21,21,21,21,21,21,21,21,21,21,21,21,108,1852,2380,2381,2382,53,0,0,0,0,0,0,0,0,0,0,0,0,0,0,0,0,0,0,0,0,0,0,0,0,0,0,0,0,0,0,0,0,0,0,0,0,0,0,0,0,0,0,0,0,0,0,0,0,0,0,0,0,0,0,0,0,0,0,0,0,0,0,0,0,0,0,0,0,0,0,0,0,0,0,0,0,0,0,0,0,0,0,0,0,0,0,0,0,0,0,0,0,0,0,0,0,0,0,0,0,0,0,0,0,0,0,0,0,0,0,0,0,0,0,0,0,0,0,0,0,0,0,0,0,0,0,0,0,0,0,0,0,0,0,0,0,0,0,0,0,0,0,0,0,0,0,0,0,0,0,0,0,0,0,0,0,0,0,0,0,0,0,0,0,0,0,0,0,0,0,0,0,0,0,0,0,0,0,0,0,0,0,0,0,0,0,0,0,0,0,0,0,0,0,0,0,0,0,0,0,0,0,0,0,0,0,0,0,0,0,0,0,0,0,0,0,0,0,0,0,0,0,0,0,0,1808,2391,151,2379,21,21,21,21,21,21,21,21,21,21,21,21,21,21,21,21,21,21,21,21,21,21,21,21,1750,1783,2392,2393,73,0,0,0,0,0,0,0,0,0,0,0,0,0,0,0,0,0,0,0,0,0,0,0,0,0,0,0,0,0,0,0,0,0,0,0,0,0,0,0,0,0,0,0,0,0,0,0,0,0,0,0,0,0,0,0,0,0,0,0,0,0,0,0,0,0,0,0,0,0,0,0,0,0,0,0,0,0,0,0,0,0,0,0,0,0,0,0,0,0,0,0,0,0,0,0,0,0,0,0,0,0,0,0,0,0,0,0,0,0,0,0,0,0,0,0,0,0,0,0,0,0,0,0,0,0,0,0,0,0,0,0,0,0,0,0,0,0,0,0,0,0,0,0,0,0,0,0,0,0,0,0,0,0,0,0,0,0,0,0,0,0,0,0,0,0,0,0,0,0,0,0,0,0,0,0,0,0,0,0,0,0,0,0,0,0,0,0,0,0,0,0,0,0,0,0,0,0,0,0,0,0,0,0,0,0,0,0,0,0,0,0,0,0,0,0,0,0,0,0,0,0,0,2400,2401,2402,21,21,21,21,21,21,21,21,21,21,21,21,21,21,21,21,21,21,21,21,21,21,21,21,21,21,21,21,21,2403,99,2404,2405,0,0,0,0,0,0,0,0,0,0,0,0,0,0,0,0,0,0,0,0,0,0,0,0,0,0,0,0,0,0,0,0,0,0,0,0,0,0,0,0,0,0,0,0,0,0,0,0,0,0,0,0,0,0,0,0,0,0,0,0,0,0,0,0,0,0,0,0,0,0,0,0,0,0,0,0,0,0,0,0,0,0,0,0,0,0,0,0,0,0,0,0,0,0,0,0,0,0,0,0,0,0,0,0,0,0,0,0,0,0,0,0,0,0,0,0,0,0,0,0,0,0,0,0,0,0,0,0,0,0,0,0,0,0,0,0,0,0,0,0,0,0,0,0,0,0,0,0,0,0,0,0,0,0,0,0,0,0,0,0,0,0,0,0,0,0,0,0,0,0,0,0,0,0,0,0,0,0,0,0,0,0,0,0,0,0,0,0,0,0,0,0,0,0,0,0,0,0,0,0,0,0,0,0,0,0,0,0,0,0,0,0,0,0,0,0,0,0,0,123,2413,21,21,21,21,21,21,21,21,21,21,21,21,21,21,21,21,21,21,21,21,21,21,21,21,21,21,21,21,21,21,21,21,21,161,2414,2415,2416,0,0,0,0,0,0,0,0,0,0,0,0,0,0,0,0,0,0,0,0,0,0,0,0,0,0,0,0,0,0,0,0,0,0,0,0,0,0,0,0,0,0,0,0,0,0,0,0,0,0,0,0,0,0,0,0,0,0,0,0,0,0,0,0,0,0,0,0,0,0,0,0,0,0,0,0,0,0,0,0,0,0,0,0,0,0,0,0,0,0,0,0,0,0,0,0,0,0,0,0,0,0,0,0,0,0,0,0,0,0,0,0,0,0,0,0,0,0,0,0,0,0,0,0,0,0,0,0,0,0,0,0,0,0,0,0,0,0,0,0,0,0,0,0,0,0,0,0,0,0,0,0,0,0,0,0,0,0,0,0,0,0,0,0,0,0,0,0,0,0,0,0,0,0,0,0,0,0,0,0,0,0,0,0,0,0,0,0,0,0,0,0,0,0,0,0,0,0,0,0,0,0,0,0,0,0,0,0,0,0,0,0,0,0,0,0,2423,2424,21,21,21,21,21,21,21,21,21,153,21,21,21,21,21,21,21,21,21,153,21,21,21,21,21,21,21,21,21,153,21,21,21,21,21,21,243,1697,2425,137,0,0,0,0,0,0,0,0,0,0,0,0,0,0,0,0,0,0,0,0,0,0,0,0,0,0,0,0,0,0,0,0,0,0,0,0,0,0,0,0,0,0,0,0,0,0,0,0,0,0,0,0,0,0,0,0,0,0,0,0,0,0,0,0,0,0,0,0,0,0,0,0,0,0,0,0,0,0,0,0,0,0,0,0,0,0,0,0,0,0,0,0,0,0,0,0,0,0,0,0,0,0,0,0,0,0,0,0,0,0,0,0,0,0,0,0,0,0,0,0,0,0,0,0,0,0,0,0,0,0,0,0,0,0,0,0,0,0,0,0,0,0,0,0,0,0,0,0,0,0,0,0,0,0,0,0,0,0,0,0,0,0,0,0,0,0,0,0,0,0,0,0,0,0,0,0,0,0,0,0,0,0,0,0,0,0,0,0,0,0,0,0,0,0,0,0,0,0,0,0,0,0,0,0,0,0,0,0,0,0,0,0,0,0,2433,2436,263,179,21,21,21,21,21,181,184,186,263,179,21,21,21,21,21,181,184,186,263,179,21,21,21,21,21,181,184,186,263,179,21,21,21,21,21,181,2439,2440,1681,0,0,0,0,0,0,0,0,0,0,0,0,0,0,0,0,0,0,0,0,0,0,0,0,0,0,0,0,0,0,0,0,0,0,0,0,0,0,0,0,0,0,0,0,0,0,0,0,0,0,0,0,0,0,0,0,0,0,0,0,0,0,0,0,0,0,0,0,0,0,0,0,0,0,0,0,0,0,0,0,0,0,0,0,0,0,0,0,0,0,0,0,0,0,0,0,0,0,0,0,0,0,0,0,0,0,0,0,0,0,0,0,0,0,0,0,0,0,0,0,0,0,0,0,0,0,0,0,0,0,0,0,0,0,0,0,0,0,0,0,0,0,0,0,0,0,0,0,0,0,0,0,0,0,0,0,0,0,0,0,0,0,0,0,0,0,0,0,0,0,0,0,0,0,0,0,0,0,0,0,0,0,0,0,0,0,0,0,0,0,0,0,0,0,0,0,0,0,0,0,0,0,0,0,0,0,0,0,0,0,0,0,0,2447,21,21,21,21,21,21,21,21,21,21,21,21,21,21,21,21,21,21,21,21,21,21,21,21,21,21,21,21,21,21,21,21,21,21,21,21,21,21,21,21,243,2448,2449,12,0,0,0,0,0,0,0,0,0,0,0,0,0,0,0,0,0,0,0,0,0,0,0,0,0,0,0,0,0,0,0,0,0,0,0,0,0,0,0,0,0,0,0,0,0,0,0,0,0,0,0,0,0,0,0,0,0,0,0,0,0,0,0,0,0,0,0,0,0,0,0,0,0,0,0,0,0,0,0,0,0,0,0,0,0,0,0,0,0,0,0,0,0,0,0,0,0,0,0,0,0,0,0,0,0,0,0,0,0,0,0,0,0,0,0,0,0,0,0,0,0,0,0,0,0,0,0,0,0,0,0,0,0,0,0,0,0,0,0,0,0,0,0,0,0,0,0,0,0,0,0,0,0,0,0,0,0,0,0,0,0,0,0,0,0,0,0,0,0,0,0,0,0,0,0,0,0,0,0,0,0,0,0,0,0,0,0,0,0,0,0,0,0,0,0,0,0,0,0,0,0,0,0,0,0,0,0,0,0,0,843,271,21,21,21,21,21,21,21,21,21,21,21,21,21,21,21,21,21,21,21,21,21,21,21,21,21,21,21,21,21,21,21,21,21,21,21,21,21,21,21,21,21,21,2455,261,12,0,0,0,0,0,0,0,0,0,0,0,0,0,0,0,0,0,0,0,0,0,0,0,0,0,0,0,0,0,0,0,0,0,0,0,0,0,0,0,0,0,0,0,0,0,0,0,0,0,0,0,0,0,0,0,0,0,0,0,0,0,0,0,0,0,0,0,0,0,0,0,0,0,0,0,0,0,0,0,0,0,0,0,0,0,0,0,0,0,0,0,0,0,0,0,0,0,0,0,0,0,0,0,0,0,0,0,0,0,0,0,0,0,0,0,0,0,0,0,0,0,0,0,0,0,0,0,0,0,0,0,0,0,0,0,0,0,0,0,0,0,0,0,0,0,0,0,0,0,0,0,0,0,0,0,0,0,0,0,0,0,0,0,0,0,0,0,0,0,0,0,0,0,0,0,0,0,0,0,0,0,0,0,0,0,0,0,0,0,0,0,0,0,0,0,0,0,0,0,0,0,0,0,0,0,0,0,0,0,1480,2464,21,21,21,21,21,21,21,21,21,21,21,21,21,21,21,21,21,21,21,21,21,21,21,21,21,21,21,21,21,21,21,21,21,21,21,21,21,21,21,21,21,21,21,250,261,12,0,0,0,0,0,0,0,0,0,0,0,0,0,0,0,0,0,0,0,0,0,0,0,0,0,0,0,0,0,0,0,0,0,0,0,0,0,0,0,0,0,0,0,0,0,0,0,0,0,0,0,0,0,0,0,0,0,0,0,0,0,0,0,0,0,0,0,0,0,0,0,0,0,0,0,0,0,0,0,0,0,0,0,0,0,0,0,0,0,0,0,0,0,0,0,0,0,0,0,0,0,0,0,0,0,0,0,0,0,0,0,0,0,0,0,0,0,0,0,0,0,0,0,0,0,0,0,0,0,0,0,0,0,0,0,0,0,0,0,0,0,0,0,0,0,0,0,0,0,0,0,0,0,0,0,0,0,0,0,0,0,0,0,0,0,0,0,0,0,0,0,0,0,0,0,0,0,0,0,0,0,0,0,0,0,0,0,0,0,0,0,0,0,0,0,0,0,0,0,0,0,0,0,0,0,0,0,0,1406,2470,21,21,21,21,21,21,21,21,21,21,21,21,21,21,21,21,21,21,21,21,21,21,21,21,21,21,21,21,21,21,21,21,21,21,21,21,21,21,21,21,21,21,21,21,2471,2472,0,0,0,0,0,0,0,0,0,0,0,0,0,0,0,0,0,0,0,0,0,0,0,0,0,0,0,0,0,0,0,0,0,0,0,0,0,0,0,0,0,0,0,0,0,0,0,0,0,0,0,0,0,0,0,0,0,0,0,0,0,0,0,0,0,0,0,0,0,0,0,0,0,0,0,0,0,0,0,0,0,0,0,0,0,0,0,0,0,0,0,0,0,0,0,0,0,0,0,0,0,0,0,0,0,0,0,0,0,0,0,0,0,0,0,0,0,0,0,0,0,0,0,0,0,0,0,0,0,0,0,0,0,0,0,0,0,0,0,0,0,0,0,0,0,0,0,0,0,0,0,0,0,0,0,0,0,0,0,0,0,0,0,0,0,0,0,0,0,0,0,0,0,0,0,0,0,0,0,0,0,0,0,0,0,0,0,0,0,0,0,0,0,0,0,0,0,0,0,0,0,0,0,0,0,0,0,0,336,2479,21,21,21,21,21,21,21,21,153,21,21,21,21,21,21,21,21,21,153,21,21,21,21,21,21,21,21,21,153,21,21,21,21,21,21,21,21,21,153,21,21,21,21,21,21,2480,2481,0,0,0,0,0,0,0,0,0,0,0,0,0,0,0,0,0,0,0,0,0,0,0,0,0,0,0,0,0,0,0,0,0,0,0,0,0,0,0,0,0,0,0,0,0,0,0,0,0,0,0,0,0,0,0,0,0,0,0,0,0,0,0,0,0,0,0,0,0,0,0,0,0,0,0,0,0,0,0,0,0,0,0,0,0,0,0,0,0,0,0,0,0,0,0,0,0,0,0,0,0,0,0,0,0,0,0,0,0,0,0,0,0,0,0,0,0,0,0,0,0,0,0,0,0,0,0,0,0,0,0,0,0,0,0,0,0,0,0,0,0,0,0,0,0,0,0,0,0,0,0,0,0,0,0,0,0,0,0,0,0,0,0,0,0,0,0,0,0,0,0,0,0,0,0,0,0,0,0,0,0,0,0,0,0,0,0,0,0,0,0,0,0,0,0,0,0,0,0,0,0,0,0,0,0,0,0,2491,1498,21,181,264,21,21,21,21,364,186,263,179,181,264,21,21,21,21,364,186,263,179,181,264,21,21,21,21,364,186,263,179,181,264,21,21,21,21,364,186,263,179,181,264,21,21,21,2492,2493,0,0,0,0,0,0,0,0,0,0,0,0,0,0,0,0,0,0,0,0,0,0,0,0,0,0,0,0,0,0,0,0,0,0,0,0,0,0,0,0,0,0,0,0,0,0,0,0,0,0,0,0,0,0,0,0,0,0,0,0,0,0,0,0,0,0,0,0,0,0,0,0,0,0,0,0,0,0,0,0,0,0,0,0,0,0,0,0,0,0,0,0,0,0,0,0,0,0,0,0,0,0,0,0,0,0,0,0,0,0,0,0,0,0,0,0,0,0,0,0,0,0,0,0,0,0,0,0,0,0,0,0,0,0,0,0,0,0,0,0,0,0,0,0,0,0,0,0,0,0,0,0,0,0,0,0,0,0,0,0,0,0,0,0,0,0,0,0,0,0,0,0,0,0,0,0,0,0,0,0,0,0,0,0,0,0,0,0,0,0,0,0,0,0,0,0,0,0,0,0,0,0,0,0,0,0,1480,2500,21,21,21,21,21,21,21,21,21,21,21,21,21,21,21,21,21,21,21,21,21,21,21,21,21,21,21,21,21,21,21,21,21,21,21,21,21,21,21,21,21,21,21,21,21,21,243,2501,252,0,0,0,0,0,0,0,0,0,0,0,0,0,0,0,0,0,0,0,0,0,0,0,0,0,0,0,0,0,0,0,0,0,0,0,0,0,0,0,0,0,0,0,0,0,0,0,0,0,0,0,0,0,0,0,0,0,0,0,0,0,0,0,0,0,0,0,0,0,0,0,0,0,0,0,0,0,0,0,0,0,0,0,0,0,0,0,0,0,0,0,0,0,0,0,0,0,0,0,0,0,0,0,0,0,0,0,0,0,0,0,0,0,0,0,0,0,0,0,0,0,0,0,0,0,0,0,0,0,0,0,0,0,0,0,0,0,0,0,0,0,0,0,0,0,0,0,0,0,0,0,0,0,0,0,0,0,0,0,0,0,0,0,0,0,0,0,0,0,0,0,0,0,0,0,0,0,0,0,0,0,0,0,0,0,0,0,0,0,0,0,0,0,0,0,0,0,0,0,0,0,0,0,0,0,0,279,21,21,21,21,21,21,21,21,21,21,21,21,21,21,21,21,21,21,21,21,21,21,21,21,21,21,21,21,21,21,21,21,21,21,21,21,21,21,21,21,21,21,21,21,21,21,21,2509,302,0,0,0,0,0,0,0,0,0,0,0,0,0,0,0,0,0,0,0,0,0,0,0,0,0,0,0,0,0,0,0,0,0,0,0,0,0,0,0,0,0,0,0,0,0,0,0,0,0,0,0,0,0,0,0,0,0,0,0,0,0,0,0,0,0,0,0,0,0,0,0,0,0,0,0,0,0,0,0,0,0,0,0,0,0,0,0,0,0,0,0,0,0,0,0,0,0,0,0,0,0,0,0,0,0,0,0,0,0,0,0,0,0,0,0,0,0,0,0,0,0,0,0,0,0,0,0,0,0,0,0,0,0,0,0,0,0,0,0,0,0,0,0,0,0,0,0,0,0,0,0,0,0,0,0,0,0,0,0,0,0,0,0,0,0,0,0,0,0,0,0,0,0,0,0,0,0,0,0,0,0,0,0,0,0,0,0,0,0,0,0,0,0,0,0,0,0,0,0,0,0,0,0,0,0,0,2516,21,21,21,21,21,21,21,21,21,21,21,21,21,21,21,21,21,21,21,21,21,21,21,21,21,21,21,21,21,21,21,21,21,21,21,21,21,21,21,21,21,21,21,21,21,21,21,21,2517,294,0,0,0,0,0,0,0,0,0,0,0,0,0,0,0,0,0,0,0,0,0,0,0,0,0,0,0,0,0,0,0,0,0,0,0,0,0,0,0,0,0,0,0,0,0,0,0,0,0,0,0,0,0,0,0,0,0,0,0,0,0,0,0,0,0,0,0,0,0,0,0,0,0,0,0,0,0,0,0,0,0,0,0,0,0,0,0,0,0,0,0,0,0,0,0,0,0,0,0,0,0,0,0,0,0,0,0,0,0,0,0,0,0,0,0,0,0,0,0,0,0,0,0,0,0,0,0,0,0,0,0,0,0,0,0,0,0,0,0,0,0,0,0,0,0,0,0,0,0,0,0,0,0,0,0,0,0,0,0,0,0,0,0,0,0,0,0,0,0,0,0,0,0,0,0,0,0,0,0,0,0,0,0,0,0,0,0,0,0,0,0,0,0,0,0,0,0,0,0,0,0,0,0,0,0,2525,21,21,21,21,21,21,21,21,21,21,21,21,21,21,21,21,21,21,21,21,21,21,21,21,21,21,21,21,21,21,21,21,21,21,21,21,21,21,21,21,21,21,21,21,21,21,21,21,2526,290,0,0,0,0,0,0,0,0,0,0,0,0,0,0,0,0,0,0,0,0,0,0,0,0,0,0,0,0,0,0,0,0,0,0,0,0,0,0,0,0,0,0,0,0,0,0,0,0,0,0,0,0,0,0,0,0,0,0,0,0,0,0,0,0,0,0,0,0,0,0,0,0,0,0,0,0,0,0,0,0,0,0,0,0,0,0,0,0,0,0,0,0,0,0,0,0,0,0,0,0,0,0,0,0,0,0,0,0,0,0,0,0,0,0,0,0,0,0,0,0,0,0,0,0,0,0,0,0,0,0,0,0,0,0,0,0,0,0,0,0,0,0,0,0,0,0,0,0,0,0,2337,2534,2534,2534,53,0,0,0,0,0,0,0,0,0,0,0,0,0,0,0,0,0,0,0,0,0,0,0,0,0,0,0,0,0,0,0,0,0,0,0,0,0,0,0,0,0,0,0,0,0,0,0,0,0,0,2535,371,21,21,21,21,21,21,21,21,21,21,153,21,21,21,21,21,21,21,21,21,153,21,21,21,21,21,21,21,21,21,153,21,21,21,21,21,21,21,21,21,153,21,21,21,21,21,21,21,2536,294,0,0,0,0,0,0,0,0,0,0,0,0,0,0,0,0,0,0,0,0,0,0,0,0,0,0,0,0,0,0,0,0,0,0,0,0,0,0,0,0,0,0,0,0,0,0,0,0,0,0,0,0,0,0,0,0,0,0,0,0,0,0,0,0,0,0,0,0,0,0,0,0,0,0,0,0,0,0,0,0,0,0,0,0,0,0,0,0,0,0,0,0,0,0,0,0,0,0,0,0,0,0,0,0,0,0,0,0,0,0,0,0,0,0,0,0,0,0,0,0,0,0,0,0,0,0,0,0,0,0,0,0,0,0,0,0,0,0,0,0,0,0,0,2544,2545,77,1760,2546,2547,2548,1795,1795,110,2549,2550,2551,2552,2553,2554,0,0,0,0,0,0,0,0,0,0,0,0,0,0,0,0,0,0,0,0,0,0,0,0,0,0,0,0,0,0,0,0,0,0,0,0,0,0,0,0,0,0,0,0,0,379,2073,173,175,21,21,21,21,177,179,181,184,186,175,21,21,21,21,177,179,181,184,186,175,21,21,21,21,177,179,181,184,186,175,21,21,21,21,177,179,181,184,186,175,21,21,21,21,177,179,2526,290,0,0,0,0,0,0,0,0,0,0,0,0,0,0,0,0,0,0,0,0,0,0,0,0,0,0,0,0,0,0,0,0,0,0,0,0,0,0,0,0,0,0,0,0,0,0,0,0,0,0,0,0,0,0,0,0,0,0,0,0,0,0,0,0,0,0,0,0,0,0,0,0,0,0,0,0,0,0,0,0,0,0,0,0,0,0,0,0,0,0,0,0,0,0,0,0,0,0,0,0,0,0,0,0,0,0,0,0,0,0,0,0,0,0,0,0,0,0,0,0,0,0,0,0,0,0,0,0,0,0,0,0,0,0,0,0,0,0,0,0,843,2561,1970,2562,2563,242,21,21,21,21,21,21,21,21,21,21,21,146,2564,2565,2566,12,0,0,0,0,0,0,0,0,0,0,0,0,0,0,0,0,0,0,0,0,0,0,0,0,0,0,0,0,0,0,0,0,0,0,0,0,0,0,0,0,0,0,2567,2568,21,21,21,21,21,21,21,21,21,21,21,21,21,21,21,21,21,21,21,21,21,21,21,21,21,21,21,21,21,21,21,21,21,21,21,21,21,21,21,21,21,21,21,21,21,21,21,21,21,2569,12,0,0,0,0,0,0,0,0,0,0,0,0,0,0,0,0,0,0,0,0,0,0,0,0,843,2572,2545,2573,1759,1759,2574,51,2575,12,0,0,0,0,0,0,0,0,0,0,0,0,0,0,0,0,0,0,0,0,0,0,0,0,0,0,0,0,0,0,0,0,0,0,0,0,0,0,0,0,0,0,0,0,0,0,0,0,0,0,0,0,0,0,0,0,0,0,0,0,0,0,0,0,0,0,0,0,0,0,0,0,0,0,0,0,0,0,0,0,0,0,0,0,0,0,0,0,0,0,0,0,0,0,0,0,0,0,0,0,0,0,0,0,1688,2580,2581,21,21,21,21,21,21,21,21,21,21,21,21,21,21,21,21,21,21,221,2582,2583,0,0,0,0,0,0,0,0,0,0,0,0,0,0,0,0,0,0,0,0,0,0,0,0,0,0,0,0,0,0,0,0,0,0,0,0,0,0,0,0,0,0,2584,21,21,21,21,21,21,21,21,21,21,21,21,21,21,21,21,21,21,21,21,21,21,21,21,21,21,21,21,21,21,21,21,21,21,21,21,21,21,21,21,21,21,21,21,21,21,21,21,21,314,315,0,0,0,0,0,0,0,0,0,0,0,0,0,0,0,0,0,0,0,0,0,0,2587,2588,2589,2378,19,242,21,21,21,1826,2590,2591,2592,53,0,0,0,0,0,0,0,0,0,0,0,0,0,0,0,0,0,0,0,0,0,0,0,0,0,0,0,0,0,0,0,0,0,0,0,0,0,0,0,0,0,0,0,0,0,0,0,0,0,0,0,0,0,0,0,0,0,0,0,0,0,0,0,0,0,0,0,0,0,0,0,0,0,0,0,0,0,0,0,0,0,0,0,0,0,0,0,0,0,0,0,0,0,0,0,0,0,0,0,0,0,1475,2597,1724,21,21,21,21,21,21,21,21,21,21,21,21,21,21,21,21,21,21,21,21,1679,2598,231,0,0,0,0,0,0,0,0,0,0,0,0,0,0,0,0,0,0,0,0,0,0,0,0,0,0,0,0,0,0,0,0,0,0,0,0,0,0,0,0,0,2599,695,21,21,21,21,21,21,21,21,21,21,21,21,21,21,21,21,21,21,21,21,21,21,21,21,21,21,21,21,21,21,21,21,21,21,21,21,21,21,21,21,21,21,21,21,21,21,21,21,326,2600,0,0,0,0,0,0,0,0,0,0,0,0,0,0,0,0,0,0,0,0,2603,2604,1870,1744,21,21,21,21,21,21,21,21,21,21,2605,2606,216,0,0,0,0,0,0,0,0,0,0,0,0,0,0,0,0,0,0,0,0,0,0,0,0,0,0,0,0,0,0,0,0,0,0,0,0,0,0,0,0,0,0,0,0,0,0,0,0,0,0,0,0,0,0,0,0,0,0,0,0,0,0,0,0,0,0,0,0,0,0,0,0,0,0,0,0,0,0,0,0,0,0,0,0,0,0,0,0,0,0,0,0,0,0,0,0,0,0,0,0,2611,2612,21,21,21,21,21,21,21,21,21,21,21,21,21,21,21,21,21,21,21,21,21,21,243,2613,223,0,0,0,0,0,0,0,0,0,0,0,0,0,0,0,0,0,0,0,0,0,0,0,0,0,0,0,0,0,0,0,0,0,0,0,0,0,0,0,0,2614,2615,21,21,21,21,21,21,21,21,21,21,21,21,21,21,21,21,21,21,21,21,21,21,21,21,21,21,21,21,21,21,21,21,21,21,21,21,21,21,21,21,21,21,21,21,21,21,21,21,21,2616,0,0,0,0,0,0,0,0,0,0,0,0,0,0,0,0,0,0,2619,2620,2621,1811,21,21,21,21,21,21,21,21,21,21,21,21,21,132,2622,2623,149,0,0,0,0,0,0,0,0,0,0,0,0,0,0,0,0,0,0,0,0,0,0,0,0,0,0,0,0,0,0,0,0,0,0,0,0,0,0,0,0,0,0,0,0,0,0,0,0,0,0,0,0,0,0,0,0,0,0,0,0,0,0,0,0,0,0,0,0,0,0,0,0,0,0,0,0,0,0,0,0,0,0,0,0,0,0,0,0,0,0,0,0,0,0,0,0,0,2629,2630,21,21,21,21,21,153,21,21,21,21,21,21,21,21,21,153,21,21,21,21,21,21,21,21,234,2631,12,0,0,0,0,0,0,0,0,0,0,0,0,0,0,0,0,0,0,0,0,0,0,0,0,0,0,0,0,0,0,0,0,0,0,0,0,0,0,0,431,2632,21,21,21,21,21,21,21,153,21,21,21,21,21,21,21,21,21,153,21,21,21,21,21,21,21,21,21,153,21,21,21,21,21,21,21,21,21,153,21,21,21,21,21,21,21,21,21,153,21,372,0,0,0,0,0,0,0,0,0,0,0,0,0,0,0,0,0,1688,2635,2636,21,21,21,21,21,21,21,153,21,21,21,21,21,21,21,21,21,2638,215,231,0,0,0,0,0,0,0,0,0,0,0,0,0,0,0,0,0,0,0,0,0,0,0,0,0,0,0,0,0,0,0,0,0,0,0,0,0,0,0,0,0,0,0,0,0,0,0,0,0,0,0,0,0,0,0,0,0,0,0,0,0,0,0,0,0,0,0,0,0,0,0,0,0,0,0,0,0,0,0,0,0,0,0,0,0,0,0,0,0,0,0,0,0,0,0,0,2643,1464,21,21,21,181,184,186,263,179,21,21,21,21,21,181,184,186,263,179,21,21,21,21,21,181,264,2644,2645,0,0,0,0,0,0,0,0,0,0,0,0,0,0,0,0,0,0,0,0,0,0,0,0,0,0,0,0,0,0,0,0,0,0,0,0,0,0,0,0,381,382,21,21,21,21,181,184,186,263,179,21,21,21,21,21,181,184,186,263,179,21,21,21,21,21,181,184,186,263,179,21,21,21,21,21,181,184,186,263,179,21,21,21,21,21,181,184,186,175,372,0,0,0,0,0,0,0,0,0,0,0,0,0,0,0,0,843,2649,1724,21,21,21,21,21,21,181,184,186,263,179,21,21,21,21,21,181,184,186,2651,2652,2653,0,0,0,0,0,0,0,0,0,0,0,0,0,0,0,0,0,0,0,0,0,0,0,0,0,0,0,0,0,0,0,0,0,0,0,0,0,0,0,0,0,0,0,0,0,0,0,0,0,0,0,0,0,0,0,0,0,0,0,0,0,0,0,0,0,0,0,0,0,0,0,0,0,0,0,0,0,0,0,0,0,0,0,0,0,0,0,0,0,0,0,0,0,0,970,971,21,21,21,21,21,21,21,21,21,21,21,21,21,21,21,21,21,21,21,21,21,21,21,21,21,21,21,2536,2658,0,0,0,0,0,0,0,0,0,0,0,0,0,0,0,0,0,0,0,0,0,0,0,0,0,0,0,0,0,0,0,0,0,0,0,0,0,0,0,390,2660,21,21,21,21,21,21,21,21,21,21,21,21,21,21,21,21,21,21,21,21,21,21,21,21,21,21,21,21,21,21,21,21,21,21,21,21,21,21,21,21,21,21,21,21,21,21,21,21,2661,0,0,0,0,0,0,0,0,0,0,0,0,0,0,0,0,208,1613,21,21,21,21,21,21,21,21,21,21,21,21,21,21,21,21,21,21,21,21,21,132,2664,2665,0,0,0,0,0,0,0,0,0,0,0,0,0,0,0,0,0,0,0,0,0,0,0,0,0,0,0,0,0,0,0,0,0,0,0,0,0,0,0,0,0,0,0,0,0,0,0,0,0,0,0,0,0,0,0,0,0,0,0,0,0,0,0,0,0,0,0,0,0,0,0,0,0,0,0,0,0,0,0,0,0,0,0,0,0,0,0,0,0,0,0,0,0,2670,691,21,21,21,21,21,21,21,21,21,21,21,21,21,21,21,21,21,21,21,21,21,21,21,21,21,21,21,2671,2672,0,0,0,0,0,0,0,0,0,0,0,0,0,0,0,0,0,0,0,0,0,0,0,0,0,0,0,0,0,0,0,0,0,0,0,0,0,0,0,0,1734,2673,21,21,21,21,21,21,21,21,21,21,21,21,21,21,21,21,21,21,21,21,21,21,21,21,21,21,21,21,21,21,21,21,21,21,21,21,21,21,21,21,21,21,21,21,21,21,2674,2675,0,0,0,0,0,0,0,0,0,0,0,0,0,0,0,0,2678,21,21,21,21,21,21,21,21,21,21,21,21,21,21,21,21,21,21,21,21,21,21,21,21,2679,2680,0,0,0,0,0,0,0,0,0,0,0,0,0,0,0,0,0,0,0,0,0,0,0,0,0,0,0,0,0,0,0,0,0,0,0,0,0,0,0,0,0,0,0,0,0,0,0,0,0,0,0,0,0,0,0,0,0,0,0,0,0,0,0,0,0,0,0,0,0,0,0,0,0,0,0,0,0,0,0,0,0,0,0,0,0,0,0,0,0,0,0,0,2685,21,21,21,21,21,21,21,21,21,21,21,21,21,21,21,21,21,21,21,21,21,21,21,21,21,21,21,21,21,2686,294,0,0,0,0,0,0,0,0,0,0,0,0,0,0,0,0,0,0,0,0,0,0,0,0,0,0,0,0,0,0,0,0,0,0,0,0,0,0,0,2687,455,21,21,21,21,21,21,21,21,21,21,21,21,21,21,21,21,21,21,21,21,21,21,21,21,21,21,21,21,21,21,21,21,21,21,21,21,21,21,21,21,21,21,21,21,21,21,2688,881,0,0,0,0,0,0,0,0,0,0,0,0,0,0,0,2044,2692,21,21,21,21,21,21,21,21,21,21,21,21,21,21,21,21,21,21,21,21,21,21,21,21,21,2480,2693,0,0,0,0,0,0,0,0,0,0,0,0,0,0,0,0,0,0,0,0,0,0,0,0,0,0,0,0,0,0,0,0,0,0,0,0,0,0,0,0,0,0,0,0,0,0,0,0,0,0,0,0,0,0,0,0,0,0,0,0,0,0,0,0,0,0,0,0,0,0,0,0,0,0,0,0,0,0,0,0,0,0,0,0,0,0,0,0,0,0,2698,2699,21,21,21,21,21,21,21,21,21,21,21,21,21,21,21,21,21,21,21,21,21,21,21,21,21,21,21,21,21,2526,2700,0,0,0,0,0,0,0,0,0,0,0,0,0,0,0,0,0,0,0,0,0,0,0,0,0,0,0,0,0,0,0,0,0,0,0,0,0,0,0,0,422,2702,21,21,21,21,21,21,21,21,21,21,21,21,21,21,21,21,21,21,21,21,21,21,21,21,21,21,21,21,21,21,21,21,21,21,21,21,21,21,21,21,21,21,21,21,1705,2703,0,0,0,0,0,0,0,0,0,0,0,0,0,0,0,0,336,2706,21,21,21,21,21,21,21,21,21,21,21,21,21,21,21,21,21,21,21,21,21,21,21,21,21,21,2707,2708,0,0,0,0,0,0,0,0,0,0,0,0,0,0,0,0,0,0,0,0,0,0,0,0,0,0,0,0,0,0,0,0,0,0,0,0,0,0,0,0,0,0,0,0,0,0,0,0,0,0,0,0,0,0,0,0,0,0,0,0,0,0,0,0,0,0,0,0,0,0,0,0,0,0,0,0,0,0,0,0,0,0,0,0,0,0,0,0,0,336,2713,21,21,21,21,21,21,21,21,21,21,153,21,21,21,21,21,21,21,21,21,153,21,21,21,21,21,21,21,21,21,2714,0,0,0,0,0,0,0,0,0,0,0,0,0,0,0,0,0,0,0,0,0,0,0,0,0,0,0,0,0,0,0,0,0,0,0,0,0,0,0,0,431,2717,2718,21,21,21,21,21,21,153,21,21,21,21,21,21,21,21,21,153,21,21,21,21,21,21,21,21,21,153,21,21,21,21,21,21,21,21,21,153,21,21,21,21,21,21,2719,1728,0,0,0,0,0,0,0,0,0,0,0,0,0,0,0,0,2722,841,21,21,21,153,21,21,21,21,21,21,21,21,21,153,21,21,21,21,21,21,21,21,21,153,21,21,2254,2723,284,0,0,0,0,0,0,0,0,0,0,0,0,0,0,0,0,0,0,0,0,0,0,0,0,0,0,0,0,0,0,0,0,0,0,0,0,0,0,0,0,0,0,0,0,0,0,0,0,0,0,0,0,0,0,0,0,0,0,0,0,0,0,0,0,0,0,0,0,0,0,0,0,0,0,0,0,0,0,0,0,0,0,0,0,0,0,0,0,1446,841,21,21,21,21,21,173,263,179,181,184,306,21,21,21,21,173,263,179,181,184,306,21,21,21,21,173,263,179,181,264,2728,2729,0,0,0,0,0,0,0,0,0,0,0,0,0,0,0,0,0,0,0,0,0,0,0,0,0,0,0,0,0,0,0,0,0,0,0,0,0,0,0,0,390,2730,21,173,263,179,181,184,306,21,21,21,21,173,263,179,181,184,306,21,21,21,21,173,263,179,181,184,306,21,21,21,21,173,263,179,181,184,306,21,21,21,21,21,2731,2732,0,0,0,0,0,0,0,0,0,0,0,0,0,0,0,0,0,248,249,21,181,184,306,21,21,21,21,173,263,179,181,184,306,21,21,21,21,173,263,179,181,184,306,21,21,21,286,2735,0,0,0,0,0,0,0,0,0,0,0,0,0,0,0,0,0,0,0,0,0,0,0,0,0,0,0,0,0,0,0,0,0,0,0,0,0,0,0,0,0,0,0,0,0,0,0,0,0,0,0,0,0,0,0,0,0,0,0,0,0,0,0,0,0,0,0,0,0,0,0,0,0,0,0,0,0,0,0,0,0,0,0,0,0,0,0,0,267,1464,21,21,21,21,21,21,21,21,21,21,21,21,21,21,21,21,21,21,21,21,21,21,21,21,21,21,21,21,21,21,2740,2741,0,0,0,0,0,0,0,0,0,0,0,0,0,0,0,0,0,0,0,0,0,0,0,0,0,0,0,0,0,0,0,0,0,0,0,0,0,0,0,0,0,2745,2746,21,21,21,21,21,21,21,21,21,21,21,21,21,21,21,21,21,21,21,21,21,21,21,21,21,21,21,21,21,21,21,21,21,21,21,21,21,21,21,21,2747,2748,0,0,0,0,0,0,0,0,0,0,0,0,0,0,0,0,0,0,248,249,21,21,21,21,21,21,21,21,21,21,21,21,21,21,21,21,21,21,21,21,21,21,21,21,21,21,21,21,2536,2751,0,0,0,0,0,0,0,0,0,0,0,0,0,0,0,0,0,0,0,0,0,0,0,0,0,0,0,0,0,0,0,0,0,0,0,0,0,0,0,0,0,0,0,0,0,0,0,0,0,0,0,0,0,0,0,0,0,0,0,0,0,0,0,0,0,0,0,0,0,0,0,0,0,0,0,0,0,0,0,0,0,0,0,0,0,0,0,2756,21,21,21,21,21,21,21,21,21,21,21,21,21,21,21,21,21,21,21,21,21,21,21,21,21,21,21,21,21,21,21,21,2757,0,0,0,0,0,0,0,0,0,0,0,0,0,0,0,0,0,0,0,0,0,0,0,0,0,0,0,0,0,0,0,0,0,0,0,0,0,0,0,0,0,0,2758,2759,21,21,21,21,21,21,21,21,21,21,21,21,21,21,21,21,21,21,21,21,21,21,21,21,21,21,21,21,21,21,21,21,21,21,21,21,21,21,469,2760,457,0,0,0,0,0,0,0,0,0,0,0,0,0,0,0,0,0,0,248,2763,21,21,21,21,21,21,21,21,21,21,21,21,21,21,21,21,21,21,21,21,21,21,21,21,21,21,21,21,2764,2765,0,0,0,0,0,0,0,0,0,0,0,0,0,0,0,0,0,0,0,0,0,0,0,0,0,0,0,0,0,0,0,0,0,0,0,0,0,0,0,0,0,0,0,0,0,0,0,0,0,0,0,0,0,0,0,0,0,0,0,0,0,0,0,0,0,0,0,0,0,0,0,0,0,0,0,0,0,0,0,0,0,0,0,0,0,0,0,282,21,21,21,21,21,21,21,21,21,21,21,21,21,21,21,21,21,21,21,21,21,21,21,21,21,21,21,21,21,21,21,21,702,0,0,0,0,0,0,0,0,0,0,0,0,0,0,0,0,0,0,0,0,0,0,0,0,0,0,0,0,0,0,0,0,0,0,0,0,0,0,0,0,0,0,431,2770,2759,21,21,21,21,21,21,21,21,21,21,21,21,21,21,21,21,21,21,21,21,21,21,21,21,21,21,21,21,21,21,21,21,21,21,21,21,469,470,457,0,0,0,0,0,0,0,0,0,0,0,0,0,0,0,0,0,0,0,2773,310,21,21,21,21,21,21,21,21,21,21,21,21,21,21,21,21,21,21,21,21,21,21,21,21,21,21,21,21,21,2774,0,0,0,0,0,0,0,0,0,0,0,0,0,0,0,0,0,0,0,0,0,0,0,0,0,0,0,0,0,0,0,0,0,0,0,0,0,0,0,0,0,0,0,0,0,0,0,0,0,0,0,0,0,0,0,0,0,0,0,0,0,0,0,0,0,0,0,0,0,0,0,0,0,0,0,0,0,0,0,0,0,0,0,0,0,0,0,282,21,21,21,21,21,21,21,21,21,21,21,21,21,21,21,21,21,21,21,21,21,21,21,21,21,21,21,21,21,21,21,21,721,0,0,0,0,0,0,0,0,0,0,0,0,0,0,0,0,0,0,0,0,0,0,0,0,0,0,0,0,0,0,0,0,0,0,0,0,0,0,0,0,0,0,0,431,2780,2781,21,21,21,21,21,21,21,21,21,21,21,21,21,21,21,21,21,21,21,21,21,21,21,21,21,21,21,21,21,21,21,21,21,553,2782,2783,457,0,0,0,0,0,0,0,0,0,0,0,0,0,0,0,0,0,0,0,0,2786,2787,21,21,21,21,21,21,21,21,21,21,21,21,21,21,21,21,21,21,21,21,21,21,21,21,21,21,21,21,21,307,297,0,0,0,0,0,0,0,0,0,0,0,0,0,0,0,0,0,0,0,0,0,0,0,0,0,0,0,0,0,0,0,0,0,0,0,0,0,0,0,0,0,0,0,0,0,0,0,0,0,0,0,0,0,0,0,0,0,0,0,0,0,0,0,0,0,0,0,0,0,0,0,0,0,0,0,0,0,0,0,0,0,0,0,0,0,0,282,21,21,21,21,21,21,21,21,21,153,21,21,21,21,21,21,21,21,21,153,21,21,21,21,21,21,21,21,21,153,21,21,2792,0,0,0,0,0,0,0,0,0,0,0,0,0,0,0,0,0,0,0,0,0,0,0,0,0,0,0,0,0,0,0,0,0,0,0,0,0,0,0,0,0,0,0,0,0,2793,2794,288,21,21,21,21,21,21,21,21,153,21,21,21,21,21,21,21,21,21,153,21,21,21,21,21,21,21,21,21,153,21,2795,2796,2797,0,0,0,0,0,0,0,0,0,0,0,0,0,0,0,0,0,0,0,0,0,0,2800,2801,21,153,21,21,21,21,21,21,21,21,21,153,21,21,21,21,21,21,21,21,21,153,21,21,21,21,21,21,21,774,2802,0,0,0,0,0,0,0,0,0,0,0,0,0,0,0,0,0,0,0,0,0,0,0,0,0,0,0,0,0,0,0,0,0,0,0,0,0,0,0,0,0,0,0,0,0,0,0,0,0,0,0,0,0,0,0,0,0,0,0,0,0,0,0,0,0,0,0,0,0,0,0,0,0,0,0,0,0,0,0,0,0,0,0,0,0,0,2806,177,179,21,21,21,21,21,181,184,186,263,179,21,21,21,21,21,181,184,186,263,179,21,21,21,21,21,181,184,186,263,2809,778,0,0,0,0,0,0,0,0,0,0,0,0,0,0,0,0,0,0,0,0,0,0,0,0,0,0,0,0,0,0,0,0,0,0,0,0,0,0,0,0,0,0,0,0,0,0,2810,2811,2812,21,21,21,21,21,181,184,186,263,179,21,21,21,21,21,181,184,186,263,179,21,21,21,21,21,181,184,2814,534,2815,501,0,0,0,0,0,0,0,0,0,0,0,0,0,0,0,0,0,0,0,0,0,0,0,0,2818,364,186,263,179,21,21,21,21,21,181,184,186,263,179,21,21,21,21,21,181,184,186,263,179,21,21,21,21,21,594,595,0,0,0,0,0,0,0,0,0,0,0,0,0,0,0,0,0,0,0,0,0,0,0,0,0,0,0,0,0,0,0,0,0,0,0,0,0,0,0,0,0,0,0,0,0,0,0,0,0,0,0,0,0,0,0,0,0,0,0,0,0,0,0,0,0,0,0,0,0,0,0,0,0,0,0,0,0,0,0,0,0,0,0,0,0,0,267,21,21,21,21,21,21,21,21,21,21,21,21,21,21,21,21,21,21,21,21,21,21,21,21,21,21,21,21,21,21,21,2822,2823,0,0,0,0,0,0,0,0,0,0,0,0,0,0,0,0,0,0,0,0,0,0,0,0,0,0,0,0,0,0,0,0,0,0,0,0,0,0,0,0,0,0,0,0,0,0,0,601,2824,2825,578,21,21,21,21,21,21,21,21,21,21,21,21,21,21,21,21,21,21,21,21,21,21,21,2046,534,535,2161,0,0,0,0,0,0,0,0,0,0,0,0,0,0,0,0,0,0,0,0,0,0,0,0,0,0,946,21,21,21,21,21,21,21,21,21,21,21,21,21,21,21,21,21,21,21,21,21,21,21,21,21,21,21,21,21,2827,2828,0,0,0,0,0,0,0,0,0,0,0,0,0,0,0,0,0,0,0,0,0,0,0,0,0,0,0,0,0,0,0,0,0,0,0,0,0,0,0,0,0,0,0,0,0,0,0,0,0,0,0,0,0,0,0,0,0,0,0,0,0,0,0,0,0,0,0,0,0,0,0,0,0,0,0,0,0,0,0,0,0,0,0,0,0,0,2832,2833,21,21,21,21,21,21,21,21,21,21,21,21,21,21,21,21,21,21,21,21,21,21,21,21,21,21,21,21,21,21,2834,0,0,0,0,0,0,0,0,0,0,0,0,0,0,0,0,0,0,0,0,0,0,0,0,0,0,0,0,0,0,0,0,0,0,0,0,0,0,0,0,0,0,0,0,0,0,0,0,0,0,2835,2154,2836,2837,1962,21,21,21,21,21,21,21,21,21,21,21,21,21,21,21,21,553,2838,2839,2840,2841,2842,0,0,0,0,0,0,0,0,0,0,0,0,0,0,0,0,0,0,0,0,0,0,0,0,0,0,0,0,2844,2845,21,21,21,21,21,21,21,21,21,21,21,21,21,21,21,21,21,21,21,21,21,21,21,21,21,21,21,21,2846,2828,0,0,0,0,0,0,0,0,0,0,0,0,0,0,0,0,0,0,0,0,0,0,0,0,0,0,0,0,0,0,0,0,0,0,0,0,0,0,0,0,0,0,0,0,0,0,0,0,0,0,0,0,0,0,0,0,0,0,0,0,0,0,0,0,0,0,0,0,0,0,0,0,0,0,0,0,0,0,0,0,0,0,0,0,0,0,2849,730,21,21,21,21,21,21,21,21,21,21,21,21,21,21,21,21,21,21,21,21,21,21,21,21,21,21,21,21,21,1705,2850,0,0,0,0,0,0,0,0,0,0,0,0,0,0,0,0,0,0,0,0,0,0,0,0,0,0,0,0,0,0,0,0,0,0,0,0,0,0,0,0,0,0,0,0,0,0,0,0,0,0,0,0,0,1997,1981,2852,2853,2854,2855,2856,2857,2858,21,21,21,21,21,21,2859,2860,2861,2862,2863,2864,0,0,0,0,0,0,0,0,0,0,0,0,0,0,0,0,0,0,0,0,0,0,0,0,0,0,0,0,0,0,0,2867,337,21,21,21,21,21,21,21,21,21,21,21,21,21,21,21,21,21,21,21,21,21,21,21,21,21,21,21,21,2846,2828,0,0,0,0,0,0,0,0,0,0,0,0,0,0,0,0,0,0,0,0,0,0,0,0,0,0,0,0,0,0,0,0,0,0,0,0,0,0,0,0,0,0,0,0,0,0,0,0,0,0,0,0,0,0,0,0,0,0,0,0,0,0,0,0,0,0,0,0,0,0,0,0,0,0,0,0,0,0,0,0,0,0,0,0,0,0,2871,2787,21,21,21,21,21,21,21,21,21,21,21,21,21,21,21,21,21,21,21,21,21,21,21,21,21,21,21,21,21,463,464,0,0,0,0,0,0,0,0,0,0,0,0,0,0,0,0,0,0,0,0,0,0,0,0,0,0,0,0,0,0,0,0,0,0,0,0,0,0,0,0,0,0,0,0,0,0,0,0,0,0,0,0,0,0,0,0,0,0,530,2872,2873,237,21,21,21,21,21,21,2874,0,0,0,0,0,0,0,0,0,0,0,0,0,0,0,0,0,0,0,0,0,0,0,0,0,0,0,0,0,0,0,0,0,0,0,0,2877,2878,21,21,21,21,21,21,21,21,21,21,21,21,21,21,21,21,21,21,21,21,21,21,21,21,21,21,21,21,357,2879,0,0,0,0,0,0,0,0,0,0,0,0,0,0,0,0,0,0,0,0,0,0,0,0,0,0,0,0,0,0,0,0,0,0,0,0,0,0,0,0,0,0,0,0,0,0,0,0,0,0,0,0,0,0,0,0,0,0,0,0,0,0,0,0,0,0,0,0,0,0,0,0,0,0,0,0,0,0,0,0,0,0,0,0,0,0,2800,2882,21,21,21,21,21,21,153,21,21,21,21,21,21,21,21,21,153,21,21,21,21,21,21,21,21,21,153,21,2883,2884,0,0,0,0,0,0,0,0,0,0,0,0,0,0,0,0,0,0,0,0,0,0,0,0,0,0,0,0,0,0,0,0,0,0,0,0,0,0,0,0,0,0,0,0,0,0,0,0,0,0,0,0,0,0,0,0,0,0,0,0,0,2885,1417,21,21,21,153,21,21,692,0,0,0,0,0,0,0,0,0,0,0,0,0,0,0,0,0,0,0,0,0,0,0,0,0,0,0,0,0,0,0,0,0,0,0,0,0,2888,21,21,21,21,21,21,21,21,153,21,21,21,21,21,21,21,21,21,153,21,21,21,21,21,21,21,21,21,2891,2892,0,0,0,0,0,0,0,0,0,0,0,0,0,0,0,0,0,0,0,0,0,0,0,0,0,0,0,0,0,0,0,0,0,0,0,0,0,0,0,0,0,0,0,0,0,0,0,0,0,0,0,0,0,0,0,0,0,0,0,0,0,0,0,0,0,0,0,0,0,0,0,0,0,0,0,0,0,0,0,0,0,0,0,0,0,0,0,2894,21,21,21,21,21,364,186,263,179,181,264,21,21,21,21,364,186,263,179,181,264,21,21,21,21,364,186,2896,2897,1049,0,0,0,0,0,0,0,0,0,0,0,0,0,0,0,0,0,0,0,0,0,0,0,0,0,0,0,0,0,0,0,0,0,0,0,0,0,0,0,0,0,0,0,0,0,0,0,0,0,0,0,0,0,0,0,0,0,0,0,0,0,2898,21,21,21,364,186,263,2900,2901,0,0,0,0,0,0,0,0,0,0,0,0,0,0,0,0,0,0,0,0,0,0,0,0,0,0,0,0,0,0,0,0,0,0,0,0,0,2904,2905,181,264,21,21,21,21,364,186,263,179,181,264,21,21,21,21,364,186,263,179,181,264,21,21,21,21,364,2908,2909,0,0,0,0,0,0,0,0,0,0,0,0,0,0,0,0,0,0,0,0,0,0,0,0,0,0,0,0,0,0,0,0,0,0,0,0,0,0,0,0,0,0,0,0,0,0,0,0,0,0,0,0,0,0,0,0,0,0,0,0,0,0,0,0,0,0,0,0,0,0,0,0,0,0,0,0,0,0,0,0,0,0,0,0,0,0,0,2911,695,21,21,21,21,21,21,21,21,21,21,21,21,21,21,21,21,21,21,21,21,21,21,21,21,21,21,2912,2913,0,0,0,0,0,0,0,0,0,0,0,0,0,0,0,0,0,0,0,0,0,0,0,0,0,0,0,0,0,0,0,0,0,0,0,0,0,0,0,0,0,0,0,0,0,0,0,0,0,0,0,0,0,0,0,0,0,0,0,0,0,0,1434,21,21,2916,21,21,21,2917,387,0,0,0,0,0,0,0,0,0,0,0,0,0,0,0,0,0,0,0,0,0,0,0,0,0,0,0,0,0,0,0,0,0,0,0,0,0,454,455,21,21,21,21,21,21,21,21,21,21,21,21,21,21,21,21,21,21,21,21,21,21,21,21,21,21,21,2920,0,0,0,0,0,0,0,0,0,0,0,0,0,0,0,0,0,0,0,0,0,0,0,0,0,0,0,0,0,0,0,0,0,0,0,0,0,0,0,0,0,0,0,0,0,0,0,0,0,0,0,0,0,0,0,0,0,0,0,0,0,0,0,0,0,0,0,0,0,0,0,0,0,0,0,0,0,0,0,0,0,0,0,0,0,0,0,0,2614,2922,21,21,21,21,21,21,21,21,21,21,21,21,21,21,21,21,21,21,21,21,21,21,21,21,21,2923,2924,0,0,0,0,0,0,0,0,0,0,0,0,0,0,0,0,0,0,0,0,0,0,0,0,0,0,0,0,0,0,0,0,0,0,0,0,0,0,0,0,0,0,0,0,0,0,0,0,0,0,0,0,0,0,0,0,0,0,0,0,0,0,843,271,21,21,21,21,21,21,2926,1019,0,0,0,0,0,0,0,0,0,0,0,0,0,0,0,0,0,0,0,0,0,0,0,0,0,0,0,0,0,0,0,0,0,0,0,0,0,0,443,444,21,21,21,21,21,21,21,21,21,21,21,21,21,21,21,21,21,21,21,21,21,21,21,21,21,1705,2929,0,0,0,0,0,0,0,0,0,0,0,0,0,0,0,0,0,0,0,0,0,0,0,0,0,0,0,0,0,0,0,0,0,0,0,0,0,0,0,0,0,0,0,0,0,0,0,0,0,0,0,0,0,0,0,0,0,0,0,0,0,0,0,0,0,0,0,0,0,0,0,0,0,0,0,0,0,0,0,0,0,0,0,0,0,0,0,0,473,2930,288,21,21,21,21,21,21,21,21,21,21,21,21,21,21,21,21,21,21,21,21,21,21,433,2931,2932,0,0,0,0,0,0,0,0,0,0,0,0,0,0,0,0,0,0,0,0,0,0,0,0,0,0,0,0,0,0,0,0,0,0,0,0,0,0,0,0,0,0,0,0,0,0,0,0,0,0,0,0,0,0,0,0,0,0,0,0,0,0,0,2935,2936,21,21,21,21,21,21,2937,2938,0,0,0,0,0,0,0,0,0,0,0,0,0,0,0,0,0,0,0,0,0,0,0,0,0,0,0,0,0,0,0,0,0,0,0,0,0,0,454,2941,371,21,21,21,21,21,21,21,21,21,21,21,21,21,21,21,21,21,21,21,21,21,21,21,21,463,464,0,0,0,0,0,0,0,0,0,0,0,0,0,0,0,0,0,0,0,0,0,0,0,0,0,0,0,0,0,0,0,0,0,0,0,0,0,0,0,0,0,0,0,0,0,0,0,0,0,0,0,0,0,0,0,0,0,0,0,0,0,0,0,0,0,0,0,0,0,0,0,0,0,0,0,0,0,0,0,0,0,0,0,0,0,0,0,0,0,2943,2944,21,21,21,21,21,21,21,21,21,21,21,21,21,21,21,21,21,21,21,21,21,2945,2134,2946,0,0,0,0,0,0,0,0,0,0,0,0,0,0,0,0,0,0,0,0,0,0,0,0,0,0,0,0,0,0,0,0,0,0,0,0,0,0,0,0,0,0,0,0,0,0,0,0,0,0,0,0,0,0,0,0,0,0,0,0,0,0,0,0,246,2949,21,21,21,21,21,21,2950,457,0,0,0,0,0,0,0,0,0,0,0,0,0,0,0,0,0,0,0,0,0,0,0,0,0,0,0,0,0,0,0,0,0,0,0,0,0,0,0,2953,2954,21,21,21,21,21,21,21,21,21,21,21,21,21,21,21,21,21,21,21,21,21,21,21,2955,2956,0,0,0,0,0,0,0,0,0,0,0,0,0,0,0,0,0,0,0,0,0,0,0,0,0,0,0,0,0,0,0,0,0,0,0,0,0,0,0,0,0,0,0,0,0,0,0,0,0,0,0,0,0,0,0,0,0,0,0,0,0,0,0,0,0,0,0,0,0,0,0,0,0,0,0,0,0,0,0,0,0,0,0,0,0,0,0,0,0,0,0,2770,2959,21,21,21,21,21,21,153,21,21,21,21,21,21,21,21,21,153,21,2960,2961,2962,2144,0,0,0,0,0,0,0,0,0,0,0,0,0,0,0,0,0,0,0,0,0,0,0,0,0,0,0,0,0,0,0,0,0,0,0,0,0,0,0,0,0,0,0,0,0,0,0,0,0,0,0,0,0,0,0,0,0,0,0,0,0,0,0,0,0,2885,1417,21,21,21,21,21,21,2965,0,0,0,0,0,0,0,0,0,0,0,0,0,0,0,0,0,0,0,0,0,0,0,0,0,0,0,0,0,0,0,0,0,0,0,0,0,0,0,0,0,502,2968,21,21,21,21,21,21,21,153,21,21,21,21,21,21,21,21,21,153,21,21,21,452,500,1049,0,0,0,0,0,0,0,0,0,0,0,0,0,0,0,0,0,0,0,0,0,0,0,0,0,0,0,0,0,0,0,0,0,0,0,0,0,0,0,0,0,0,0,0,0,0,0,0,0,0,0,0,0,0,0,0,0,0,0,0,0,0,0,0,0,0,0,0,0,0,0,0,0,0,0,0,0,0,0,0,0,0,0,0,0,0,0,0,0,0,0,431,2970,2971,2972,492,179,181,184,186,175,21,21,21,21,177,2974,2977,2981,2984,2862,2985,1978,0,0,0,0,0,0,0,0,0,0,0,0,0,0,0,0,0,0,0,0,0,0,0,0,0,0,0,0,0,0,0,0,0,0,0,0,0,0,0,0,0,0,0,0,0,0,0,0,0,0,0,0,0,0,0,0,0,0,0,0,0,0,0,0,0,0,0,2987,21,21,21,21,177,179,21,378,0,0,0,0,0,0,0,0,0,0,0,0,0,0,0,0,0,0,0,0,0,0,0,0,0,0,0,0,0,0,0,0,0,0,0,0,0,0,0,0,0,0,2989,2759,21,21,177,179,181,184,186,175,21,21,21,21,177,179,181,184,186,175,21,2795,2990,1728,0,0,0,0,0,0,0,0,0,0,0,0,0,0,0,0,0,0,0,0,0,0,0,0,0,0,0,0,0,0,0,0,0,0,0,0,0,0,0,0,0,0,0,0,0,0,0,0,0,0,0,0,0,0,0,0,0,0,0,0,0,0,0,0,0,0,0,0,0,0,0,0,0,0,0,0,0,0,0,0,0,0,0,0,0,0,0,0,0,0,0,0,0,0,2180,2993,2994,2995,2996,2997,2998,21,21,21,21,21,2999,3000,3001,3002,457,0,0,0,0,0,0,0,0,0,0,0,0,0,0,0,0,0,0,0,0,0,0,0,0,0,0,0,0,0,0,0,0,0,0,0,0,0,0,0,0,0,0,0,0,0,0,0,0,0,0,0,0,0,0,0,0,0,0,0,0,0,0,0,0,0,0,0,0,0,0,3005,21,21,21,3006,21,21,386,387,0,0,0,0,0,0,0,0,0,0,0,0,0,0,0,0,0,0,0,0,0,0,0,0,0,0,0,0,0,0,0,0,0,0,0,0,0,0,0,0,0,0,431,3007,3008,288,21,21,21,21,21,21,21,21,21,21,21,21,21,21,21,433,3009,3010,501,0,0,0,0,0,0,0,0,0,0,0,0,0,0,0,0,0,0,0,0,0,0,0,0,0,0,0,0,0,0,0,0,0,0,0,0,0,0,0,0,0,0,0,0,0,0,0,0,0,0,0,0,0,0,0,0,0,0,0,0,0,0,0,0,0,0,0,0,0,0,0,0,0,0,0,0,0,0,0,0,0,0,0,0,0,0,0,0,0,0,0,0,0,0,0,0,0,0,0,0,256,257,21,21,21,21,21,3012,0,0,0,0,0,0,0,0,0,0,0,0,0,0,0,0,0,0,0,0,0,0,0,0,0,0,0,0,0,0,0,0,0,0,0,0,0,0,0,0,0,0,0,0,0,0,0,0,0,0,0,0,0,0,0,0,0,0,0,0,0,0,0,0,0,0,0,0,0,0,0,0,0,0,1434,21,21,21,21,21,21,3015,3016,0,0,0,0,0,0,0,0,0,0,0,0,0,0,0,0,0,0,0,0,0,0,0,0,0,0,0,0,0,0,0,0,0,0,0,0,0,0,0,0,0,0,0,0,2810,3017,1882,21,21,21,21,21,21,21,21,21,21,21,21,21,3018,3019,3020,0,0,0,0,0,0,0,0,0,0,0,0,0,0,0,0,0,0,0,0,0,0,0,0,0,0,0,0,0,0,0,0,0,0,0,0,0,0,0,0,0,0,0,0,0,0,0,0,0,0,0,0,0,0,0,0,0,0,0,0,0,0,0,0,0,0,0,0,0,0,0,0,0,0,0,0,0,0,0,0,0,0,0,0,0,0,0,0,0,0,0,0,0,0,0,0,0,0,0,0,0,0,3021,21,21,21,21,21,21,3022,0,0,0,0,0,0,0,0,0,0,0,0,0,0,0,0,0,0,0,0,0,0,0,0,0,0,0,0,0,0,0,0,0,0,0,0,0,0,0,0,0,0,0,0,0,0,0,0,0,0,0,0,0,0,0,0,0,0,0,0,0,0,0,0,0,0,0,0,0,0,0,0,0,0,3025,21,21,21,21,21,21,3026,2107,0,0,0,0,0,0,0,0,0,0,0,0,0,0,0,0,0,0,0,0,0,0,0,0,0,0,0,0,0,0,0,0,0,0,0,0,0,0,0,0,0,0,0,0,0,1900,3029,3030,21,21,21,21,21,21,21,21,21,433,3031,3032,3033,585,0,0,0,0,0,0,0,0,0,0,0,0,0,0,0,0,0,0,0,0,0,0,0,0,0,0,0,0,0,0,0,0,0,0,0,0,0,0,0,0,0,0,0,0,0,0,0,0,0,0,0,0,0,0,0,0,0,0,0,0,0,0,0,0,0,0,0,0,0,0,0,0,0,0,0,0,0,0,0,0,0,0,0,0,0,0,0,0,0,0,0,0,0,0,0,0,0,0,0,0,0,0,0,3034,21,21,21,21,21,386,3035,0,0,0,0,0,0,0,0,0,0,0,0,0,0,0,0,0,0,0,0,0,0,0,0,0,0,0,0,0,0,0,0,0,0,0,0,0,0,0,0,0,0,0,0,0,0,0,0,0,0,0,0,0,0,0,0,0,0,0,0,0,0,0,0,0,0,0,0,0,0,0,0,0,3038,3039,21,21,21,3040,21,21,3041,918,0,0,0,0,0,0,0,0,0,0,0,0,0,0,0,0,0,0,0,0,0,0,0,0,0,0,0,0,0,0,0,0,0,0,0,0,0,0,0,0,0,0,0,0,0,0,0,3042,3043,2156,3044,21,21,21,21,21,21,3045,3046,680,0,0,0,0,0,0,0,0,0,0,0,0,0,0,0,0,0,0,0,0,0,0,0,0,0,0,0,0,0,0,0,0,0,0,0,0,0,0,0,0,0,0,0,0,0,0,0,0,0,0,0,0,0,0,0,0,0,0,0,0,0,0,0,0,0,0,0,0,0,0,0,0,0,0,0,0,0,0,0,0,0,0,0,0,0,0,0,0,0,0,0,0,0,0,0,0,0,0,0,0,0,0,0,0,0,3047,21,21,21,21,21,3048,2828,0,0,0,0,0,0,0,0,0,0,0,0,0,0,0,0,0,0,0,0,0,0,0,0,0,0,0,0,0,0,0,0,0,0,0,0,0,0,0,0,0,0,0,0,0,0,0,0,0,0,0,0,0,0,0,0,0,0,0,0,0,0,0,0,0,0,0,0,0,0,0,0,0,224,3051,21,21,21,21,21,21,2950,0,0,0,0,0,0,0,0,0,0,0,0,0,0,0,0,0,0,0,0,0,0,0,0,0,0,0,0,0,0,0,0,0,0,0,0,0,0,0,0,0,0,0,0,0,0,0,0,0,0,3053,3054,2787,21,21,21,21,21,3055,3056,0,0,0,0,0,0,0,0,0,0,0,0,0,0,0,0,0,0,0,0,0,0,0,0,0,0,0,0,0,0,0,0,0,0,0,0,0,0,0,0,0,0,0,0,0,0,0,0,0,0,0,0,0,0,0,0,0,0,0,0,0,0,0,0,0,0,0,0,0,0,0,0,0,0,0,0,0,0,0,0,0,0,0,0,0,0,0,0,0,0,0,0,0,0,0,0,0,0,0,0,0,0,0,0,0,0,3057,21,21,21,21,21,3058,397,0,0,0,0,0,0,0,0,0,0,0,0,0,0,0,0,0,0,0,0,0,0,0,0,0,0,0,0,0,0,0,0,0,0,0,0,0,0,0,0,0,0,0,0,0,0,0,0,0,0,0,0,0,0,0,0,0,0,0,0,0,0,0,0,0,0,0,0,0,0,0,0,0,2722,841,21,21,21,21,181,264,3059,0,0,0,0,0,0,0,0,0,0,0,0,0,0,0,0,0,0,0,0,0,0,0,0,0,0,0,0,0,0,0,0,0,0,0,0,0,0,0,0,0,0,0,0,0,0,0,0,0,0,0,592,3061,21,21,3062,21,181,3065,3066,0,0,0,0,0,0,0,0,0,0,0,0,0,0,0,0,0,0,0,0,0,0,0,0,0,0,0,0,0,0,0,0,0,0,0,0,0,0,0,0,0,0,0,0,0,0,0,0,0,0,0,0,0,0,0,0,0,0,0,0,0,0,0,0,0,0,0,0,0,0,0,0,0,0,0,0,0,0,0,0,0,0,0,0,0,0,0,0,0,0,0,0,0,0,0,0,0,0,0,0,0,0,0,0,0,3067,3068,21,21,21,21,21,3069,2938,0,0,0,0,0,0,0,0,0,0,0,0,0,0,0,0,0,0,0,0,0,0,0,0,0,0,0,0,0,0,0,0,0,0,0,0,0,0,0,0,0,0,0,0,0,0,0,0,0,0,0,0,0,0,0,0,0,0,0,0,0,0,0,0,0,0,0,0,0,0,0,0,0,3071,249,21,21,21,21,21,21,858,0,0,0,0,0,0,0,0,0,0,0,0,0,0,0,0,0,0,0,0,0,0,0,0,0,0,0,0,0,0,0,0,0,0,0,0,0,0,0,0,0,0,0,0,0,0,0,0,0,0,0,0,3072,21,21,21,288,21,132,3073,0,0,0,0,0,0,0,0,0,0,0,0,0,0,0,0,0,0,0,0,0,0,0,0,0,0,0,0,0,0,0,0,0,0,0,0,0,0,0,0,0,0,0,0,0,0,0,0,0,0,0,0,0,0,0,0,0,0,0,0,0,0,0,0,0,0,0,0,0,0,0,0,0,0,0,0,0,0,0,0,0,0,0,0,0,0,0,0,0,0,0,0,0,0,0,0,0,0,0,0,0,0,0,0,0,3074,3075,21,21,21,21,21,3076,375,0,0,0,0,0,0,0,0,0,0,0,0,0,0,0,0,0,0,0,0,0,0,0,0,0,0,0,0,0,0,0,0,0,0,0,0,0,0,0,0,0,0,0,0,0,0,0,0,0,0,0,0,0,0,0,0,0,0,0,0,0,0,0,0,0,0,0,0,0,0,0,0,0,267,242,21,21,21,21,21,21,3022,0,0,0,0,0,0,0,0,0,0,0,0,0,0,0,0,0,0,0,0,0,0,0,0,0,0,0,0,0,0,0,0,0,0,0,0,0,0,0,0,0,0,0,0,0,0,0,0,0,0,0,0,3080,3081,21,21,21,21,21,3082,0,0,0,0,0,0,0,0,0,0,0,0,0,0,0,0,0,0,0,0,0,0,0,0,0,0,0,0,0,0,0,0,0,0,0,0,0,0,0,0,0,0,0,0,0,0,0,0,0,0,0,0,0,0,0,0,0,0,0,0,0,0,0,0,0,0,0,0,0,0,0,0,0,0,0,0,0,0,0,0,0,0,0,0,0,0,0,0,0,0,0,0,0,0,0,0,0,0,0,0,0,0,0,0,0,690,691,21,21,21,21,21,3083,0,0,0,0,0,0,0,0,0,0,0,0,0,0,0,0,0,0,0,0,0,0,0,0,0,0,0,0,0,0,0,0,0,0,0,0,0,0,0,0,0,0,0,0,0,0,0,0,0,0,0,0,0,0,0,0,0,0,0,0,0,0,0,0,0,0,0,0,0,0,0,0,0,0,3021,21,21,21,21,21,21,21,333,0,0,0,0,0,0,0,0,0,0,0,0,0,0,0,0,0,0,0,0,0,0,0,0,0,0,0,0,0,0,0,0,0,0,0,0,0,0,0,0,0,0,0,0,0,0,0,0,0,0,0,0,3085,3086,21,21,21,21,21,3087,1585,0,0,0,0,0,0,0,0,0,0,0,0,0,0,0,0,0,0,0,0,0,0,0,0,0,0,0,0,0,0,0,0,0,0,0,0,0,0,0,0,0,0,0,0,0,0,0,0,0,0,0,0,0,0,0,0,0,0,0,0,0,0,0,0,0,0,0,0,0,0,0,0,0,0,0,0,0,0,0,0,0,0,0,0,0,0,0,0,0,0,0,0,0,0,0,0,0,0,0,0,0,0,0,0,3088,21,21,21,21,21,21,3089,0,0,0,0,0,0,0,0,0,0,0,0,0,0,0,0,0,0,0,0,0,0,0,0,0,0,0,0,0,0,0,0,0,0,0,0,0,0,0,0,0,0,0,0,0,0,0,0,0,0,0,0,0,0,0,0,0,0,0,0,0,0,0,0,0,0,0,0,0,0,0,0,0,0,3005,21,21,21,21,21,21,2846,3092,0,0,0,0,0,0,0,0,0,0,0,0,0,0,0,0,0,0,0,0,0,0,0,0,0,0,0,0,0,0,0,0,0,0,0,0,0,0,0,0,0,0,0,0,0,0,0,0,0,0,0,0,592,3095,21,21,21,21,21,3096,3097,0,0,0,0,0,0,0,0,0,0,0,0,0,0,0,0,0,0,0,0,0,0,0,0,0,0,0,0,0,0,0,0,0,0,0,0,0,0,0,0,0,0,0,0,0,0,0,0,0,0,0,0,0,0,0,0,0,0,0,0,0,0,0,0,0,0,0,0,0,0,0,0,0,0,0,0,0,0,0,0,0,0,0,0,0,0,0,0,0,0,0,0,0,0,0,0,0,0,0,0,0,0,0,0,3098,21,21,153,21,21,846,2792,0,0,0,0,0,0,0,0,0,0,0,0,0,0,0,0,0,0,0,0,0,0,0,0,0,0,0,0,0,0,0,0,0,0,0,0,0,0,0,0,0,0,0,0,0,0,0,0,0,0,0,0,0,0,0,0,0,0,0,0,0,0,0,0,0,0,0,0,0,0,0,0,0,0,3099,21,21,21,21,21,21,357,2879,0,0,0,0,0,0,0,0,0,0,0,0,0,0,0,0,0,0,0,0,0,0,0,0,0,0,0,0,0,0,0,0,0,0,0,0,0,0,0,0,0,0,0,0,0,0,0,0,0,0,0,0,0,3100,21,21,21,21,21,21,3101,0,0,0,0,0,0,0,0,0,0,0,0,0,0,0,0,0,0,0,0,0,0,0,0,0,0,0,0,0,0,0,0,0,0,0,0,0,0,0,0,0,0,0,0,0,0,0,0,0,0,0,0,0,0,0,0,0,0,0,0,0,0,0,0,0,0,0,0,0,0,0,0,0,0,0,0,0,0,0,0,0,0,0,0,0,0,0,0,0,0,0,0,0,0,0,0,0,0,0,0,0,0,0,951,952,181,184,306,21,21,3103,864,0,0,0,0,0,0,0,0,0,0,0,0,0,0,0,0,0,0,0,0,0,0,0,0,0,0,0,0,0,0,0,0,0,0,0,0,0,0,0,0,0,0,0,0,0,0,0,0,0,0,0,0,0,0,0,0,0,0,0,0,0,0,0,0,0,0,0,0,0,0,0,0,0,0,3099,21,21,21,21,21,173,3106,2107,0,0,0,0,0,0,0,0,0,0,0,0,0,0,0,0,0,0,0,0,0,0,0,0,0,0,0,0,0,0,0,0,0,0,0,0,0,0,0,0,0,0,0,0,0,0,0,0,0,0,0,0,0,3109,695,21,21,173,263,179,3110,769,0,0,0,0,0,0,0,0,0,0,0,0,0,0,0,0,0,0,0,0,0,0,0,0,0,0,0,0,0,0,0,0,0,0,0,0,0,0,0,0,0,0,0,0,0,0,0,0,0,0,0,0,0,0,0,0,0,0,0,0,0,0,0,0,0,0,0,0,0,0,0,0,0,0,0,0,0,0,0,0,0,0,0,0,0,0,0,0,0,0,0,0,0,0,0,0,0,0,0,0,0,0,3112,967,21,21,21,21,21,1442,1443,0,0,0,0,0,0,0,0,0,0,0,0,0,0,0,0,0,0,0,0,0,0,0,0,0,0,0,0,0,0,0,0,0,0,0,0,0,0,0,0,0,0,0,0,0,0,0,0,0,0,0,0,0,0,0,0,0,0,0,0,0,0,0,0,0,0,0,0,0,0,0,0,0,0,1434,21,21,21,21,21,21,3113,2107,0,0,0,0,0,0,0,0,0,0,0,0,0,0,0,0,0,0,0,0,0,0,0,0,0,0,0,0,0,0,0,0,0,0,0,0,0,0,0,0,0,0,0,0,0,0,0,0,0,0,0,0,0,3116,3117,21,21,21,21,21,3118,3119,0,0,0,0,0,0,0,0,0,0,0,0,0,0,0,0,0,0,0,0,0,0,0,0,0,0,0,0,0,0,0,0,0,0,0,0,0,0,0,0,0,0,0,0,0,0,0,0,0,0,0,0,0,0,0,0,0,0,0,0,0,0,0,0,0,0,0,0,0,0,0,0,0,0,0,0,0,0,0,0,0,0,0,0,0,0,0,0,0,0,0,0,0,0,0,0,0,0,0,0,0,0,857,1464,21,21,21,21,21,3120,0,0,0,0,0,0,0,0,0,0,0,0,0,0,0,0,0,0,0,0,0,0,0,0,0,0,0,0,0,0,0,0,0,0,0,0,0,0,0,0,0,0,0,0,0,0,0,0,0,0,0,0,0,0,0,0,0,0,0,0,0,0,0,0,0,0,0,0,0,0,0,0,0,0,0,3122,21,21,21,21,21,21,410,2110,0,0,0,0,0,0,0,0,0,0,0,0,0,0,0,0,0,0,0,0,0,0,0,0,0,0,0,0,0,0,0,0,0,0,0,0,0,0,0,0,0,0,0,0,0,0,0,0,0,0,0,0,0,473,3124,21,21,21,21,21,272,3125,0,0,0,0,0,0,0,0,0,0,0,0,0,0,0,0,0,0,0,0,0,0,0,0,0,0,0,0,0,0,0,0,0,0,0,0,0,0,0,0,0,0,0,0,0,0,0,0,0,0,0,0,0,0,0,0,0,0,0,0,0,0,0,0,0,0,0,0,0,0,0,0,0,0,0,0,0,0,0,0,0,0,0,0,0,0,0,0,0,0,0,0,0,0,0,0,0,0,0,0,0,0,3126,21,21,3127,21,21,3128,3129,0,0,0,0,0,0,0,0,0,0,0,0,0,0,0,0,0,0,0,0,0,0,0,0,0,0,0,0,0,0,0,0,0,0,0,0,0,0,0,0,0,0,0,0,0,0,0,0,0,0,0,0,0,0,0,0,0,0,0,0,0,0,0,0,0,0,0,0,0,0,0,0,0,0,0,1088,21,21,21,21,21,21,3131,747,0,0,0,0,0,0,0,0,0,0,0,0,0,0,0,0,0,0,0,0,0,0,0,0,0,0,0,0,0,0,0,0,0,0,0,0,0,0,0,0,0,0,0,0,0,0,0,0,0,0,0,0,0,0,3134,288,21,21,21,21,21,3135,12,0,0,0,0,0,0,0,0,0,0,0,0,0,0,0,0,0,0,0,0,0,0,0,0,0,0,0,0,0,0,0,0,0,0,0,0,0,0,0,0,0,0,0,0,0,0,0,0,0,0,0,0,0,0,0,0,0,0,0,0,0,0,0,0,0,0,0,0,0,0,0,0,0,0,0,0,0,0,0,0,0,0,0,0,0,0,0,0,0,0,0,0,0,0,0,0,0,0,0,0,3136,3137,21,21,21,21,21,3138,3139,0,0,0,0,0,0,0,0,0,0,0,0,0,0,0,0,0,0,0,0,0,0,0,0,0,0,0,0,0,0,0,0,0,0,0,0,0,0,0,0,0,0,0,0,0,0,0,0,0,0,0,0,0,0,0,0,0,0,0,0,0,0,0,0,0,0,0,0,0,0,0,0,0,0,0,3141,21,21,21,21,21,21,3131,747,0,0,0,0,0,0,0,0,0,0,0,0,0,0,0,0,0,0,0,0,0,0,0,0,0,0,0,0,0,0,0,0,0,0,0,0,0,0,0,0,0,0,0,0,0,0,0,0,0,0,0,0,0,0,908,380,21,21,21,21,21,3142,3143,0,0,0,0,0,0,0,0,0,0,0,0,0,0,0,0,0,0,0,0,0,0,0,0,0,0,0,0,0,0,0,0,0,0,0,0,0,0,0,0,0,0,0,0,0,0,0,0,0,0,0,0,0,0,0,0,0,0,0,0,0,0,0,0,0,0,0,0,0,0,0,0,0,0,0,0,0,0,0,0,0,0,0,0,0,0,0,0,0,0,0,0,0,0,0,0,0,0,0,0,3144,663,21,153,817,21,21,818,819,0,0,0,0,0,0,0,0,0,0,0,0,0,0,0,0,0,0,0,0,0,0,0,0,0,0,0,0,0,0,0,0,0,0,0,0,0,0,0,0,0,0,0,0,0,0,0,0,0,0,0,0,0,0,0,0,0,0,0,0,0,0,0,0,0,0,0,0,0,0,0,0,0,0,0,3146,21,21,21,21,21,21,3147,3143,0,0,0,0,0,0,0,0,0,0,0,0,0,0,0,0,0,0,0,0,0,0,0,0,0,0,0,0,0,0,0,0,0,0,0,0,0,0,0,0,0,0,0,0,0,0,0,0,0,0,0,0,0,0,367,3150,21,21,21,21,153,3151,3152,0,0,0,0,0,0,0,0,0,0,0,0,0,0,0,0,0,0,0,0,0,0,0,0,0,0,0,0,0,0,0,0,0,0,0,0,0,0,0,0,0,0,0,0,0,0,0,0,0,0,0,0,0,0,0,0,0,0,0,0,0,0,0,0,0,0,0,0,0,0,0,0,0,0,0,0,0,0,0,0,0,0,0,0,0,0,0,0,0,0,0,0,0,0,0,0,0,0,0,0,3153,181,184,186,263,179,21,3154,0,0,0,0,0,0,0,0,0,0,0,0,0,0,0,0,0,0,0,0,0,0,0,0,0,0,0,0,0,0,0,0,0,0,0,0,0,0,0,0,0,0,0,0,0,0,0,0,0,0,0,0,0,0,0,0,0,0,0,0,0,0,0,0,0,0,0,0,0,0,0,0,0,0,0,0,3155,21,21,21,21,21,21,3113,2107,0,0,0,0,0,0,0,0,0,0,0,0,0,0,0,0,0,0,0,0,0,0,0,0,0,0,0,0,0,0,0,0,0,0,0,0,0,0,0,0,0,0,0,0,0,0,0,0,0,0,0,0,0,0,0,3157,21,21,181,184,186,175,3158,0,0,0,0,0,0,0,0,0,0,0,0,0,0,0,0,0,0,0,0,0,0,0,0,0,0,0,0,0,0,0,0,0,0,0,0,0,0,0,0,0,0,0,0,0,0,0,0,0,0,0,0,0,0,0,0,0,0,0,0,0,0,0,0,0,0,0,0,0,0,0,0,0,0,0,0,0,0,0,0,0,0,0,0,0,0,0,0,0,0,0,0,0,0,0,0,0,0,0,144,1476,21,21,21,21,21,3159,3160,0,0,0,0,0,0,0,0,0,0,0,0,0,0,0,0,0,0,0,0,0,0,0,0,0,0,0,0,0,0,0,0,0,0,0,0,0,0,0,0,0,0,0,0,0,0,0,0,0,0,0,0,0,0,0,0,0,0,0,0,0,0,0,0,0,0,0,0,0,0,0,0,0,0,0,0,3099,21,21,21,21,21,21,2106,2107,0,0,0,0,0,0,0,0,0,0,0,0,0,0,0,0,0,0,0,0,0,0,0,0,0,0,0,0,0,0,0,0,0,0,0,0,0,0,0,0,0,0,0,0,0,0,0,0,0,0,0,0,0,0,0,3162,3163,21,21,21,21,21,3164,3165,0,0,0,0,0,0,0,0,0,0,0,0,0,0,0,0,0,0,0,0,0,0,0,0,0,0,0,0,0,0,0,0,0,0,0,0,0,0,0,0,0,0,0,0,0,0,0,0,0,0,0,0,0,0,0,0,0,0,0,0,0,0,0,0,0,0,0,0,0,0,0,0,0,0,0,0,0,0,0,0,0,0,0,0,0,0,0,0,0,0,0,0,0,0,0,0,0,0,246,3166,21,21,21,21,21,3167,3168,0,0,0,0,0,0,0,0,0,0,0,0,0,0,0,0,0,0,0,0,0,0,0,0,0,0,0,0,0,0,0,0,0,0,0,0,0,0,0,0,0,0,0,0,0,0,0,0,0,0,0,0,0,0,0,0,0,0,0,0,0,0,0,0,0,0,0,0,0,0,0,0,0,0,0,0,3099,21,21,21,21,21,21,3170,3171,0,0,0,0,0,0,0,0,0,0,0,0,0,0,0,0,0,0,0,0,0,0,0,0,0,0,0,0,0,0,0,0,0,0,0,0,0,0,0,0,0,0,0,0,0,0,0,0,0,0,0,0,0,0,0,3175,3176,21,21,21,21,21,3177,3178,0,0,0,0,0,0,0,0,0,0,0,0,0,0,0,0,0,0,0,0,0,0,0,0,0,0,0,0,0,0,0,0,0,0,0,0,0,0,0,0,0,0,0,0,0,0,0,0,0,0,0,0,0,0,0,0,0,0,0,0,0,0,0,0,0,0,0,0,0,0,0,0,0,0,0,0,0,0,0,0,0,0,0,0,0,0,0,0,0,0,0,0,0,0,0,0,0,0,2670,691,21,21,21,21,21,3179,457,0,0,0,0,0,0,0,0,0,0,0,0,0,0,0,0,0,0,0,0,0,0,0,0,0,0,0,0,0,0,0,0,0,0,0,0,0,0,0,0,0,0,0,0,0,0,0,0,0,0,0,0,0,0,0,0,0,0,0,0,0,0,0,0,0,0,0,0,0,0,0,0,0,0,0,0,3182,21,21,21,21,21,21,3183,3184,0,0,0,0,0,0,0,0,0,0,0,0,0,0,0,0,0,0,0,0,0,0,0,0,0,0,0,0,0,0,0,0,0,0,0,0,0,0,0,0,0,0,0,0,0,0,0,0,0,0,0,0,0,0,0,0,3186,21,21,21,21,21,21,3187,0,0,0,0,0,0,0,0,0,0,0,0,0,0,0,0,0,0,0,0,0,0,0,0,0,0,0,0,0,0,0,0,0,0,0,0,0,0,0,0,0,0,0,0,0,0,0,0,0,0,0,0,0,0,0,0,0,0,0,0,0,0,0,0,0,0,0,0,0,0,0,0,0,0,0,0,0,0,0,0,0,0,0,0,0,0,0,0,0,0,0,0,0,0,0,0,0,0,3188,21,21,21,21,21,413,3189,0,0,0,0,0,0,0,0,0,0,0,0,0,0,0,0,0,0,0,0,0,0,0,0,0,0,0,0,0,0,0,0,0,0,0,0,0,0,0,0,0,0,0,0,0,0,0,0,0,0,0,0,0,0,0,0,0,0,0,0,0,0,0,0,0,0,0,0,0,0,0,0,0,0,0,0,0,2806,21,21,21,21,21,21,21,2757,0,0,0,0,0,0,0,0,0,0,0,0,0,0,0,0,0,0,0,0,0,0,0,0,0,0,0,0,0,0,0,0,0,0,0,0,0,0,0,0,0,0,0,0,0,0,0,0,0,0,0,0,0,0,0,0,3194,377,21,21,21,21,21,3195,3196,0,0,0,0,0,0,0,0,0,0,0,0,0,0,0,0,0,0,0,0,0,0,0,0,0,0,0,0,0,0,0,0,0,0,0,0,0,0,0,0,0,0,0,0,0,0,0,0,0,0,0,0,0,0,0,0,0,0,0,0,0,0,0,0,0,0,0,0,0,0,0,0,0,0,0,0,0,0,0,0,0,0,0,0,0,0,0,0,0,0,0,0,0,0,0,0,970,3197,21,153,21,21,21,1448,3198,0,0,0,0,0,0,0,0,0,0,0,0,0,0,0,0,0,0,0,0,0,0,0,0,0,0,0,0,0,0,0,0,0,0,0,0,0,0,0,0,0,0,0,0,0,0,0,0,0,0,0,0,0,0,0,0,0,0,0,0,0,0,0,0,0,0,0,0,0,0,0,0,0,0,0,0,0,267,288,21,21,21,21,21,153,3200,0,0,0,0,0,0,0,0,0,0,0,0,0,0,0,0,0,0,0,0,0,0,0,0,0,0,0,0,0,0,0,0,0,0,0,0,0,0,0,0,0,0,0,0,0,0,0,0,0,0,0,0,0,0,0,0,3203,3204,21,21,21,21,21,3205,319,0,0,0,0,0,0,0,0,0,0,0,0,0,0,0,0,0,0,0,0,0,0,0,0,0,0,0,0,0,0,0,0,0,0,0,0,0,0,0,0,0,0,0,0,0,0,0,0,0,0,0,0,0,0,0,0,0,0,0,0,0,0,0,0,0,0,0,0,0,0,0,0,0,0,0,0,0,0,0,0,0,0,0,0,0,0,0,0,0,0,0,0,0,0,0,0,690,691,364,186,263,179,21,3206,375,0,0,0,0,0,0,0,0,0,0,0,0,0,0,0,0,0,0,0,0,0,0,0,0,0,0,0,0,0,0,0,0,0,0,0,0,0,0,0,0,0,0,0,0,0,0,0,0,0,0,0,0,0,0,0,0,0,0,0,0,0,0,0,0,0,0,0,0,0,0,0,0,0,0,0,0,0,295,249,21,21,21,21,364,306,3208,0,0,0,0,0,0,0,0,0,0,0,0,0,0,0,0,0,0,0,0,0,0,0,0,0,0,0,0,0,0,0,0,0,0,0,0,0,0,0,0,0,0,0,0,0,0,0,0,0,0,0,0,0,0,0,0,0,3209,173,263,179,181,264,21,992,0,0,0,0,0,0,0,0,0,0,0,0,0,0,0,0,0,0,0,0,0,0,0,0,0,0,0,0,0,0,0,0,0,0,0,0,0,0,0,0,0,0,0,0,0,0,0,0,0,0,0,0,0,0,0,0,0,0,0,0,0,0,0,0,0,0,0,0,0,0,0,0,0,0,0,0,0,0,0,0,0,0,0,0,0,0,0,0,0,0,0,0,0,0,0,0,1000,1005,1006,1006,1006,1006,1011,1014,0,0,0,0,0,0,0,0,0,0,0,0,0,0,0,0,0,0,0,0,0,0,0,0,0,0,0,0,0,0,0,0,0,0,0,0,0,0,0,0,0,0,0,0,0,0,0,0,0,0,0,0,0,0,0,0,0,0,0,0,0,0,0,0,0,0,0,0,0,0,0,0,0,0,0,0,0,0,3085,3212,21,21,21,21,21,21,3213,0,0,0,0,0,0,0,0,0,0,0,0,0,0,0,0,0,0,0,0,0,0,0,0,0,0,0,0,0,0,0,0,0,0,0,0,0,0,0,0,0,0,0,0,0,0,0,0,0,0,0,0,0,0,0,0,0,1000,1005,1006,1006,1006,1006,1011,1014,0,0,0,0,0,0,0,0,0,0,0,0,0,0,0,0,0,0,0,0,0,0,0,0,0,0,0,0,0,0,0,0,0,0,0,0,0,0,0,0,0,0,0,0,0,0,0,0,0,0,0,0,0,0,0,0,0,0,0,0,0,0,0,0,0,0,0,0,0,0,0,0,0,0,0,0,0,0,0,0,0,0,0,0,0,0,0,0,0,0,0,0,0,0,0,0,1024,1029,1032,1035,1032,1035,1040,1044,0,0,0,0,0,0,0,0,0,0,0,0,0,0,0,0,0,0,0,0,0,0,0,0,0,0,0,0,0,0,0,0,0,0,0,0,0,0,0,0,0,0,0,0,0,0,0,0,0,0,0,0,0,0,0,0,0,0,0,0,0,0,0,0,0,0,0,0,0,0,0,0,0,0,0,0,0,0,2567,2568,21,21,21,21,21,21,3217,3218,0,0,0,0,0,0,0,0,0,0,0,0,0,0,0,0,0,0,0,0,0,0,0,0,0,0,0,0,0,0,0,0,0,0,0,0,0,0,0,0,0,0,0,0,0,0,0,0,0,0,0,0,0,0,0,0,1024,1029,1032,1035,1032,1035,1040,1044,0,0,0,0,0,0,0,0,0,0,0,0,0,0,0,0,0,0,0,0,0,0,0,0,0,0,0,0,0,0,0,0,0,0,0,0,0,0,0,0,0,0,0,0,0,0,0,0,0,0,0,0,0,0,0,0,0,0,0,0,0,0,0,0,0,0,0,0,0,0,0,0,0,0,0,0,0,0,0,0,0,0,0,0,0,0,0,0,0,0,0,0,0,0,0,0,1055,1060,1065,1070,1075,1070,1080,1085,0,0,0,0,0,0,0,0,0,0,0,0,0,0,0,0,0,0,0,0,0,0,0,0,0,0,0,0,0,0,0,0,0,0,0,0,0,0,0,0,0,0,0,0,0,0,0,0,0,0,0,0,0,0,0,0,0,0,0,0,0,0,0,0,0,0,0,0,0,0,0,0,0,0,0,0,0,0,0,279,21,21,21,21,21,21,3222,2107,0,0,0,0,0,0,0,0,0,0,0,0,0,0,0,0,0,0,0,0,0,0,0,0,0,0,0,0,0,0,0,0,0,0,0,0,0,0,0,0,0,0,0,0,0,0,0,0,0,0,0,0,0,0,0,0,1055,1060,1065,1070,1075,1070,1080,1085,0,0,0,0,0,0,0,0,0,0,0,0,0,0,0,0,0,0,0,0,0,0,0,0,0,0,0,0,0,0,0,0,0,0,0,0,0,0,0,0,0,0,0,0,0,0,0,0,0,0,0,0,0,0,0,0,0,0,0,0,0,0,0,0,0,0,0,0,0,0,0,0,0,0,0,0,0,0,0,0,0,0,0,0,0,0,0,0,0,0,0,0,0,0,0,0,1096,1101,1106,1111,1116,1111,1106,1121,0,0,0,0,0,0,0,0,0,0,0,0,0,0,0,0,0,0,0,0,0,0,0,0,0,0,0,0,0,0,0,0,0,0,0,0,0,0,0,0,0,0,0,0,0,0,0,0,0,0,0,0,0,0,0,0,0,0,0,0,0,0,0,0,0,0,0,0,0,0,0,0,0,0,0,0,0,0,0,305,21,21,21,21,21,21,3224,3225,0,0,0,0,0,0,0,0,0,0,0,0,0,0,0,0,0,0,0,0,0,0,0,0,0,0,0,0,0,0,0,0,0,0,0,0,0,0,0,0,0,0,0,0,0,0,0,0,0,0,0,0,0,0,0,0,1096,1101,1106,1111,1116,1111,1106,1121,0,0,0,0,0,0,0,0,0,0,0,0,0,0,0,0,0,0,0,0,0,0,0,0,0,0,0,0,0,0,0,0,0,0,0,0,0,0,0,0,0,0,0,0,0,0,0,0,0,0,0,0,0,0,0,0,0,0,0,0,0,0,0,0,0,0,0,0,0,0,0,0,0,0,0,0,0,0,0,0,0,0,0,0,0,0,0,0,0,0,0,0,0,0,0,0,1129,1134,1139,1144,1149,1144,1139,1154,0,0,0,0,0,0,0,0,0,0,0,0,0,0,0,0,0,0,0,0,0,0,0,0,0,0,0,0,0,0,0,0,0,0,0,0,0,0,0,0,0,0,0,0,0,0,0,0,0,0,0,0,0,0,0,0,0,0,0,0,0,0,0,0,0,0,0,0,0,0,0,0,0,0,0,0,0,0,0,3227,21,21,21,21,21,21,3228,3229,0,0,0,0,0,0,0,0,0,0,0,0,0,0,0,0,0,0,0,0,0,0,0,0,0,0,0,0,0,0,0,0,0,0,0,0,0,0,0,0,0,0,0,0,0,0,0,0,0,0,0,0,0,0,0,0,1129,1134,1139,1144,1149,1144,1139,1154,0,0,0,0,0,0,0,0,0,0,0,0,0,0,0,0,0,0,0,0,0,0,0,0,0,0,0,0,0,0,0,0,0,0,0,0,0,0,0,0,0,0,0,0,0,0,0,0,0,0,0,0,0,0,0,0,0,0,0,0,0,0,0,0,0,0,0,0,0,0,0,0,0,0,0,0,0,0,0,0,0,0,0,0,0,0,0,0,0,0,0,0,0,0,0,0,1173,1178,1183,1188,1193,1188,1183,1198,0,0,0,0,0,0,0,0,0,0,0,0,0,0,0,0,0,0,0,0,0,0,0,0,0,0,0,0,0,0,0,0,0,0,0,0,0,0,0,0,0,0,0,0,0,0,0,0,0,0,0,0,0,0,0,0,0,0,0,0,0,0,0,0,0,0,0,0,0,0,0,0,0,0,0,0,0,0,0,3232,21,21,21,21,177,179,21,3200,0,0,0,0,0,0,0,0,0,0,0,0,0,0,0,0,0,0,0,0,0,0,0,0,0,0,0,0,0,0,0,0,0,0,0,0,0,0,0,0,0,0,0,0,0,0,0,0,0,0,0,0,0,0,0,0,1173,1178,1183,1188,1193,1188,1183,1198,0,0,0,0,0,0,0,0,0,0,0,0,0,0,0,0,0,0,0,0,0,0,0,0,0,0,0,0,0,0,0,0,0,0,0,0,0,0,0,0,0,0,0,0,0,0,0,0,0,0,0,0,0,0,0,0,0,0,0,0,0,0,0,0,0,0,0,0,0,0,0,0,0,0,0,0,0,0,0,0,0,0,0,0,0,0,0,0,0,0,0,0,0,0,0,0,1214,1219,1224,1229,1234,1229,1224,1239,0,0,0,0,0,0,0,0,0,0,0,0,0,0,0,0,0,0,0,0,0,0,0,0,0,0,0,0,0,0,0,0,0,0,0,0,0,0,0,0,0,0,0,0,0,0,0,0,0,0,0,0,0,0,0,0,0,0,0,0,0,0,0,0,0,0,0,0,0,0,0,0,0,0,0,0,0,0,0,3235,3081,21,21,21,21,21,21,3236,0,0,0,0,0,0,0,0,0,0,0,0,0,0,0,0,0,0,0,0,0,0,0,0,0,0,0,0,0,0,0,0,0,0,0,0,0,0,0,0,0,0,0,0,0,0,0,0,0,0,0,0,0,0,0,0,1214,1219,1224,1229,1234,1229,1224,1239,0,0,0,0,0,0,0,0,0,0,0,0,0,0,0,0,0,0,0,0,0,0,0,0,0,0,0,0,0,0,0,0,0,0,0,0,0,0,0,0,0,0,0,0,0,0,0,0,0,0,0,0,0,0,0,0,0,0,0,0,0,0,0,0,0,0,0,0,0,0,0,0,0,0,0,0,0,0,0,0,0,0,0,0,0,0,0,0,0,0,0,0,0,0,0,0,1254,1259,1264,1269,1274,1269,1264,1279,0,0,0,0,0,0,0,0,0,0,0,0,0,0,0,0,0,0,0,0,0,0,0,0,0,0,0,0,0,0,0,0,0,0,0,0,0,0,0,0,0,0,0,0,0,0,0,0,0,0,0,0,0,0,0,0,0,0,0,0,0,0,0,0,0,0,0,0,0,0,0,0,0,0,0,0,0,0,0,3085,3212,21,21,21,21,21,21,3239,769,0,0,0,0,0,0,0,0,0,0,0,0,0,0,0,0,0,0,0,0,0,0,0,0,0,0,0,0,0,0,0,0,0,0,0,0,0,0,0,0,0,0,0,0,0,0,0,0,0,0,0,0,0,0,0,1254,1259,1264,1269,1274,1269,1264,1279,0,0,0,0,0,0,0,0,0,0,0,0,0,0,0,0,0,0,0,0,0,0,0,0,0,0,0,0,0,0,0,0,0,0,0,0,0,0,0,0,0,0,0,0,0,0,0,0,0,0,0,0,0,0,0,0,0,0,0,0,0,0,0,0,0,0,0,0,0,0,0,0,0,0,0,0,0,0,0,0,0,0,0,0,0,0,0,0,0,0,0,0,0,0,0,0,1286,1291,1296,1301,1306,1301,1296,1311,0,0,0,0,0,0,0,0,0,0,0,0,0,0,0,0,0,0,0,0,0,0,0,0,0,0,0,0,0,0,0,0,0,0,0,0,0,0,0,0,0,0,0,0,0,0,0,0,0,0,0,0,0,0,0,0,0,0,0,0,0,0,0,0,0,0,0,0,0,0,0,0,0,0,0,0,0,0,0,2567,2568,21,21,21,21,21,21,3242,3056,0,0,0,0,0,0,0,0,0,0,0,0,0,0,0,0,0,0,0,0,0,0,0,0,0,0,0,0,0,0,0,0,0,0,0,0,0,0,0,0,0,0,0,0,0,0,0,0,0,0,0,0,0,0,0,1286,1291,1296,1301,1306,1301,1296,1311,0,0,0,0,0,0,0,0,0,0,0,0,0,0,0,0,0,0,0,0,0,0,0,0,0,0,0,0,0,0,0,0,0,0,0,0,0,0,0,0,0,0,0,0,0,0,0,0,0,0,0,0,0,0,0,0,0,0,0,0,0,0,0,0,0,0,0,0,0,0,0,0,0,0,0,0,0,0,0,0,0,0,0,0,0,0,0,0,0,0,0,0,0,0,0,0,1316,1321,1326,1331,1336,1331,1326,1341,0,0,0,0,0,0,0,0,0,0,0,0,0,0,0,0,0,0,0,0,0,0,0,0,0,0,0,0,0,0,0,0,0,0,0,0,0,0,0,0,0,0,0,0,0,0,0,0,0,0,0,0,0,0,0,0,0,0,0,0,0,0,0,0,0,0,0,0,0,0,0,0,0,0,0,0,0,0,0,0,3245,21,21,21,21,21,21,3246,3225,0,0,0,0,0,0,0,0,0,0,0,0,0,0,0,0,0,0,0,0,0,0,0,0,0,0,0,0,0,0,0,0,0,0,0,0,0,0,0,0,0,0,0,0,0,0,0,0,0,0,0,0,0,0,0,1316,1321,1326,1331,1336,1331,1326,1341,0,0,0,0,0,0,0,0,0,0,0,0,0,0,0,0,0,0,0,0,0,0,0,0,0,0,0,0,0,0,0,0,0,0,0,0,0,0,0,0,0,0,0,0,0,0,0,0,0,0,0,0,0,0,0,0,0,0,0,0,0,0,0,0,0,0,0,0,0,0,0,0,0,0,0,0,0,0,0,0,0,0,0,0,0,0,0,0,0,0,0,0,0,0,0,0,1214,1219,1224,1229,1234,1229,1224,1239,0,0,0,0,0,0,0,0,0,0,0,0,0,0,0,0,0,0,0,0,0,0,0,0,0,0,0,0,0,0,0,0,0,0,0,0,0,0,0,0,0,0,0,0,0,0,0,0,0,0,0,0,0,0,0,0,0,0,0,0,0,0,0,0,0,0,0,0,0,0,0,0,0,0,0,0,0,0,0,0,3249,21,21,21,21,21,153,3228,3250,0,0,0,0,0,0,0,0,0,0,0,0,0,0,0,0,0,0,0,0,0,0,0,0,0,0,0,0,0,0,0,0,0,0,0,0,0,0,0,0,0,0,0,0,0,0,0,0,0,0,0,0,0,0,0,1214,1219,1224,1229,1234,1229,1224,1239,0,0,0,0,0,0,0,0,0,0,0,0,0,0,0,0,0,0,0,0,0,0,0,0,0,0,0,0,0,0,0,0,0,0,0,0,0,0,0,0,0,0,0,0,0,0,0,0,0,0,0,0,0,0,0,0,0,0,0,0,0,0,0,0,0,0,0,0,0,0,0,0,0,0,0,0,0,0,0,0,0,0,0,0,0,0,0,0,0,0,0,0,0,0,0,0,1254,1259,1264,1269,1274,1269,1264,1279,0,0,0,0,0,0,0,0,0,0,0,0,0,0,0,0,0,0,0,0,0,0,0,0,0,0,0,0,0,0,0,0,0,0,0,0,0,0,0,0,0,0,0,0,0,0,0,0,0,0,0,0,0,0,0,0,0,0,0,0,0,0,0,0,0,0,0,0,0,0,0,0,0,0,0,0,0,0,0,0,2832,2833,21,21,181,184,186,175,714,0,0,0,0,0,0,0,0,0,0,0,0,0,0,0,0,0,0,0,0,0,0,0,0,0,0,0,0,0,0,0,0,0,0,0,0,0,0,0,0,0,0,0,0,0,0,0,0,0,0,0,0,0,0,0,1254,1259,1264,1269,1274,1269,1264,1279,0,0,0,0,0,0,0,0,0,0,0,0,0,0,0,0,0,0,0,0,0,0,0,0,0,0,0,0,0,0,0,0,0,0,0,0,0,0,0,0,0,0,0,0,0,0,0,0,0,0,0,0,0,0,0,0,0,0,0,0,0,0,0,0,0,0,0,0,0,0,0,0,0,0,0,0,0,0,0,0,0,0,0,0,0,0,0,0,0,0,0,0,0,0,0,0,1286,1291,1296,1301,1306,1301,1296,1311,0,0,0,0,0,0,0,0,0,0,0,0,0,0,0,0,0,0,0,0,0,0,0,0,0,0,0,0,0,0,0,0,0,0,0,0,0,0,0,0,0,0,0,0,0,0,0,0,0,0,0,0,0,0,0,0,0,0,0,0,0,0,0,0,0,0,0,0,0,0,0,0,0,0,0,0,0,0,0,0,328,329,21,21,21,21,21,21,3251,0,0,0,0,0,0,0,0,0,0,0,0,0,0,0,0,0,0,0,0,0,0,0,0,0,0,0,0,0,0,0,0,0,0,0,0,0,0,0,0,0,0,0,0,0,0,0,0,0,0,0,0,0,0,0,1286,1291,1296,1301,1306,1301,1296,1311,0,0,0,0,0,0,0,0,0,0,0,0,0,0,0,0,0,0,0,0,0,0,0,0,0,0,0,0,0,0,0,0,0,0,0,0,0,0,0,0,0,0,0,0,0,0,0,0,0,0,0,0,0,0,0,0,0,0,0,0,0,0,0,0,0,0,0,0,0,0,0,0,0,0,0,0,0,0,0,0,0,0,0,0,0,0,0,0,0,0,0,0,0,0,0,0,1316,1321,1326,1331,1336,1331,1326,1341,0,0,0,0,0,0,0,0,0,0,0,0,0,0,0,0,0,0,0,0,0,0,0,0,0,0,0,0,0,0,0,0,0,0,0,0,0,0,0,0,0,0,0,0,0,0,0,0,0,0,0,0,0,0,0,0,0,0,0,0,0,0,0,0,0,0,0,0,0,0,0,0,0,0,0,0,0,0,0,0,2786,2922,21,21,21,21,21,21,3252,3253,0,0,0,0,0,0,0,0,0,0,0,0,0,0,0,0,0,0,0,0,0,0,0,0,0,0,0,0,0,0,0,0,0,0,0,0,0,0,0,0,0,0,0,0,0,0,0,0,0,0,0,0,0,0,1316,1321,1326,1331,1336,1331,1326,1341,0,0,0,0,0,0,0,0,0,0,0,0,0,0,0,0,0,0,0,0,0,0,0,0,0,0,0,0,0,0,0,0,0,0,0,0,0,0,0,0,0,0,0,0,0,0,0,0,0,0,0,0,0,0,0,0,0,0,0,0,0,0,0,0,0,0,0,0,0,0,0,0,0,0,0,0,0,0,0,0,0,0,0,0,0,0,0,0,0,0,0,0,0,0,0,0,1214,1219,1224,1229,1234,1229,1224,1239,0,0,0,0,0,0,0,0,0,0,0,0,0,0,0,0,0,0,0,0,0,0,0,0,0,0,0,0,0,0,0,0,0,0,0,0,0,0,0,0,0,0,0,0,0,0,0,0,0,0,0,0,0,0,0,0,0,0,0,0,0,0,0,0,0,0,0,0,0,0,0,0,0,0,0,0,0,0,0,0,473,3255,21,21,21,21,21,21,3256,595,0,0,0,0,0,0,0,0,0,0,0,0,0,0,0,0,0,0,0,0,0,0,0,0,0,0,0,0,0,0,0,0,0,0,0,0,0,0,0,0,0,0,0,0,0,0,0,0,0,0,0,0,0,0,1214,1219,1224,1229,1234,1229,1224,1239,0,0,0,0,0,0,0,0,0,0,0,0,0,0,0,0,0,0,0,0,0,0,0,0,0,0,0,0,0,0,0,0,0,0,0,0,0,0,0,0,0,0,0,0,0,0,0,0,0,0,0,0,0,0,0,0,0,0,0,0,0,0,0,0,0,0,0,0,0,0,0,0,0,0,0,0,0,0,0,0,0,0,0,0,0,0,0,0,0,0,0,0,0,0,0,0,1254,1259,1264,1269,1274,1269,1264,1279,0,0,0,0,0,0,0,0,0,0,0,0,0,0,0,0,0,0,0,0,0,0,0,0,0,0,0,0,0,0,0,0,0,0,0,0,0,0,0,0,0,0,0,0,0,0,0,0,0,0,0,0,0,0,0,0,0,0,0,0,0,0,0,0,0,0,0,0,0,0,0,0,0,0,0,0,0,0,0,0,0,3257,21,21,21,21,21,21,3258,3259,0,0,0,0,0,0,0,0,0,0,0,0,0,0,0,0,0,0,0,0,0,0,0,0,0,0,0,0,0,0,0,0,0,0,0,0,0,0,0,0,0,0,0,0,0,0,0,0,0,0,0,0,0,0,1254,1259,1264,1269,1274,1269,1264,1279,0,0,0,0,0,0,0,0,0,0,0,0,0,0,0,0,0,0,0,0,0,0,0,0,0,0,0,0,0,0,0,0,0,0,0,0,0,0,0,0,0,0,0,0,0,0,0,0,0,0,0,0,0,0,0,0,0,0,0,0,0,0,0,0,0,0,0,0,0,0,0,0,0,0,0,0,0,0,0,0,0,0,0,0,0,0,0,0,0,0,0,0,0,0,0,0,1286,1291,1296,1301,1306,1301,1296,1311,0,0,0,0,0,0,0,0,0,0,0,0,0,0,0,0,0,0,0,0,0,0,0,0,0,0,0,0,0,0,0,0,0,0,0,0,0,0,0,0,0,0,0,0,0,0,0,0,0,0,0,0,0,0,0,0,0,0,0,0,0,0,0,0,0,0,0,0,0,0,0,0,0,0,0,0,0,0,0,0,0,3260,21,21,21,21,21,21,3261,3262,0,0,0,0,0,0,0,0,0,0,0,0,0,0,0,0,0,0,0,0,0,0,0,0,0,0,0,0,0,0,0,0,0,0,0,0,0,0,0,0,0,0,0,0,0,0,0,0,0,0,0,0,0,0,1286,1291,1296,1301,1306,1301,1296,1311,0,0,0,0,0,0,0,0,0,0,0,0,0,0,0,0,0,0,0,0,0,0,0,0,0,0,0,0,0,0,0,0,0,0,0,0,0,0,0,0,0,0,0,0,0,0,0,0,0,0,0,0,0,0,0,0,0,0,0,0,0,0,0,0,0,0,0,0,0,0,0,0,0,0,0,0,0,0,0,0,0,0,0,0,0,0,0,0,0,0,0,0,0,0,0,0,1316,1321,1326,1331,1336,1331,1326,1341,0,0,0,0,0,0,0,0,0,0,0,0,0,0,0,0,0,0,0,0,0,0,0,0,0,0,0,0,0,0,0,0,0,0,0,0,0,0,0,0,0,0,0,0,0,0,0,0,0,0,0,0,0,0,0,0,0,0,0,0,0,0,0,0,0,0,0,0,0,0,0,0,0,0,0,0,0,0,0,0,0,3264,3265,21,173,263,179,181,264,3266,0,0,0,0,0,0,0,0,0,0,0,0,0,0,0,0,0,0,0,0,0,0,0,0,0,0,0,0,0,0,0,0,0,0,0,0,0,0,0,0,0,0,0,0,0,0,0,0,0,0,0,0,0,0,1316,1321,1326,1331,1336,1331,1326,1341,0,0,0,0,0,0,0,0,0,0,0,0,0,0,0,0,0,0,0,0,0,0,0,0,0,0,0,0,0,0,0,0,0,0,0,0,0,0,0,0,0,0,0,0,0,0,0,0,0,0,0,0,0,0,0,0,0,0,0,0,0,0,0,0,0,0,0,0,0,0,0,0,0,0,0,0,0,0,0,0,0,0,0,0,0,0,0,0,0,0,0,0,0,0,0,0,1214,1219,1224,1229,1234,1229,1224,1239,0,0,0,0,0,0,0,0,0,0,0,0,0,0,0,0,0,0,0,0,0,0,0,0,0,0,0,0,0,0,0,0,0,0,0,0,0,0,0,0,0,0,0,0,0,0,0,0,0,0,0,0,0,0,0,0,0,0,0,0,0,0,0,0,0,0,0,0,0,0,0,0,0,0,0,0,0,0,0,0,0,2867,2479,21,21,21,21,21,21,3267,12,0,0,0,0,0,0,0,0,0,0,0,0,0,0,0,0,0,0,0,0,0,0,0,0,0,0,0,0,0,0,0,0,0,0,0,0,0,0,0,0,0,0,0,0,0,0,0,0,0,0,0,0,0,1214,1219,1224,1229,1234,1229,1224,1239,0,0,0,0,0,0,0,0,0,0,0,0,0,0,0,0,0,0,0,0,0,0,0,0,0,0,0,0,0,0,0,0,0,0,0,0,0,0,0,0,0,0,0,0,0,0,0,0,0,0,0,0,0,0,0,0,0,0,0,0,0,0,0,0,0,0,0,0,0,0,0,0,0,0,0,0,0,0,0,0,0,0,0,0,0,0,0,0,0,0,0,0,0,0,0,0,1254,1259,1264,1269,1274,1269,1264,1279,0,0,0,0,0,0,0,0,0,0,0,0,0,0,0,0,0,0,0,0,0,0,0,0,0,0,0,0,0,0,0,0,0,0,0,0,0,0,0,0,0,0,0,0,0,0,0,0,0,0,0,0,0,0,0,0,0,0,0,0,0,0,0,0,0,0,0,0,0,0,0,0,0,0,0,0,0,0,0,0,0,2491,1560,21,21,21,21,21,21,1420,747,0,0,0,0,0,0,0,0,0,0,0,0,0,0,0,0,0,0,0,0,0,0,0,0,0,0,0,0,0,0,0,0,0,0,0,0,0,0,0,0,0,0,0,0,0,0,0,0,0,0,0,0,0,1254,1259,1264,1269,1274,1269,1264,1279,0,0,0,0,0,0,0,0,0,0,0,0,0,0,0,0,0,0,0,0,0,0,0,0,0,0,0,0,0,0,0,0,0,0,0,0,0,0,0,0,0,0,0,0,0,0,0,0,0,0,0,0,0,0,0,0,0,0,0,0,0,0,0,0,0,0,0,0,0,0,0,0,0,0,0,0,0,0,0,0,0,0,0,0,0,0,0,0,0,0,0,0,0,0,0,0,1286,1291,1296,1301,1306,1301,1296,1311,0,0,0,0,0,0,0,0,0,0,0,0,0,0,0,0,0,0,0,0,0,0,0,0,0,0,0,0,0,0,0,0,0,0,0,0,0,0,0,0,0,0,0,0,0,0,0,0,0,0,0,0,0,0,0,0,0,0,0,0,0,0,0,0,0,0,0,0,0,0,0,0,0,0,0,0,0,0,0,0,0,431,1000,1005,1006,1006,1006,1006,1011,1014,747,0,0,0,0,0,0,0,0,0,0,0,0,0,0,0,0,0,0,0,0,0,0,0,0,0,0,0,0,0,0,0,0,0,0,0,0,0,0,0,0,0,0,0,0,0,0,0,0,0,0,0,0,0,1286,1291,1296,1301,1306,1301,1296,1311,0,0,0,0,0,0,0,0,0,0,0,0,0,0,0,0,0,0,0,0,0,0,0,0,0,0,0,0,0,0,0,0,0,0,0,0,0,0,0,0,0,0,0,0,0,0,0,0,0,0,0,0,0,0,0,0,0,0,0,0,0,0,0,0,0,0,0,0,0,0,0,0,0,0,0,0,0,0,0,0,0,0,0,0,0,0,0,0,0,0,0,0,0,0,0,0,1316,1321,1326,1331,1336,1331,1326,1341,0,0,0,0,0,0,0,0,0,0,0,0,0,0,0,0,0,0,0,0,0,0,0,0,0,0,0,0,0,0,0,0,0,0,0,0,0,0,0,0,0,0,0,0,0,0,0,0,0,0,0,0,0,0,0,0,0,0,0,0,0,0,0,0,0,0,0,0,0,0,0,0,0,0,0,0,0,0,0,0,0,0,1024,1029,1032,1035,1032,1035,1040,1044,1431,0,0,0,0,0,0,0,0,0,0,0,0,0,0,0,0,0,0,0,0,0,0,0,0,0,0,0,0,0,0,0,0,0,0,0,0,0,0,0,0,0,0,0,0,0,0,0,0,0,0,0,0,0,1316,1321,1326,1331,1336,1331,1326,1341,0,0,0,0,0,0,0,0,0,0,0,0,0,0,0,0,0,0,0,0,0,0,0,0,0,0,0,0,0,0,0,0,0,0,0,0,0,0,0,0,0,0,0,0,0,0,0,0,0,0,0,0,0,0,0,0,0,0,0,0,0,0,0,0,0,0,0,0,0,0,0,0,0,0,0,0,0,0,0,0,0,0,0,0,0,0,0,0,0,0,0,0,0,0,0,0,1214,1219,1224,1229,1234,1229,1224,1239,0,0,0,0,0,0,0,0,0,0,0,0,0,0,0,0,0,0,0,0,0,0,0,0,0,0,0,0,0,0,0,0,0,0,0,0,0,0,0,0,0,0,0,0,0,0,0,0,0,0,0,0,0,0,0,0,0,0,0,0,0,0,0,0,0,0,0,0,0,0,0,0,0,0,0,0,0,0,0,0,0,0,1055,1060,1065,1070,1075,1070,1080,1085,0,0,0,0,0,0,0,0,0,0,0,0,0,0,0,0,0,0,0,0,0,0,0,0,0,0,0,0,0,0,0,0,0,0,0,0,0,0,0,0,0,0,0,0,0,0,0,0,0,0,0,0,0,0,1214,1219,1224,1229,1234,1229,1224,1239,0,0,0,0,0,0,0,0,0,0,0,0,0,0,0,0,0,0,0,0,0,0,0,0,0,0,0,0,0,0,0,0,0,0,0,0,0,0,0,0,0,0,0,0,0,0,0,0,0,0,0,0,0,0,0,0,0,0,0,0,0,0,0,0,0,0,0,0,0,0,0,0,0,0,0,0,0,0,0,0,0,0,0,0,0,0,0,0,0,0,0,0,0,0,0,0,1254,1259,1264,1269,1274,1269,1264,1279,0,0,0,0,0,0,0,0,0,0,0,0,0,0,0,0,0,0,0,0,0,0,0,0,0,0,0,0,0,0,0,0,0,0,0,0,0,0,0,0,0,0,0,0,0,0,0,0,0,0,0,0,0,0,0,0,0,0,0,0,0,0,0,0,0,0,0,0,0,0,0,0,0,0,0,0,0,0,0,0,0,0,1096,1101,1106,1111,1116,1111,1106,1121,0,0,0,0,0,0,0,0,0,0,0,0,0,0,0,0,0,0,0,0,0,0,0,0,0,0,0,0,0,0,0,0,0,0,0,0,0,0,0,0,0,0,0,0,0,0,0,0,0,0,0,0,0,0,1254,1259,1264,1269,1274,1269,1264,1279,0,0,0,0,0,0,0,0,0,0,0,0,0,0,0,0,0,0,0,0,0,0,0,0,0,0,0,0,0,0,0,0,0,0,0,0,0,0,0,0,0,0,0,0,0,0,0,0,0,0,0,0,0,0,0,0,0,0,0,0,0,0,0,0,0,0,0,0,0,0,0,0,0,0,0,0,0,0,0,0,0,0,0,0,0,0,0,0,0,0,0,0,0,0,0,0,1286,1291,1296,1301,1306,1301,1296,1311,0,0,0,0,0,0,0,0,0,0,0,0,0,0,0,0,0,0,0,0,0,0,0,0,0,0,0,0,0,0,0,0,0,0,0,0,0,0,0,0,0,0,0,0,0,0,0,0,0,0,0,0,0,0,0,0,0,0,0,0,0,0,0,0,0,0,0,0,0,0,0,0,0,0,0,0,0,0,0,0,0,0,1129,1134,1139,1144,1149,1144,1139,1154,0,0,0,0,0,0,0,0,0,0,0,0,0,0,0,0,0,0,0,0,0,0,0,0,0,0,0,0,0,0,0,0,0,0,0,0,0,0,0,0,0,0,0,0,0,0,0,0,0,0,0,0,0,0,1286,1291,1296,1301,1306,1301,1296,1311,0,0,0,0,0,0,0,0,0,0,0,0,0,0,0,0,0,0,0,0,0,0,0,0,0,0,0,0,0,0,0,0,0,0,0,0,0,0,0,0,0,0,0,0,0,0,0,0,0,0,0,0,0,0,0,0,0,0,0,0,0,0,0,0,0,0,0,0,0,0,0,0,0,0,0,0,0,0,0,0,0,0,0,0,0,0,0,0,0,0,0,0,0,0,0,0,1316,1321,1326,1331,1336,1331,1326,1341,0,0,0,0,0,0,0,0,0,0,0,0,0,0,0,0,0,0,0,0,0,0,0,0,0,0,0,0,0,0,0,0,0,0,0,0,0,0,0,0,0,0,0,0,0,0,0,0,0,0,0,0,0,0,0,0,0,0,0,0,0,0,0,0,0,0,0,0,0,0,0,0,0,0,0,0,0,0,0,0,0,0,1173,1178,1183,1188,1193,1188,1183,1198,0,0,0,0,0,0,0,0,0,0,0,0,0,0,0,0,0,0,0,0,0,0,0,0,0,0,0,0,0,0,0,0,0,0,0,0,0,0,0,0,0,0,0,0,0,0,0,0,0,0,0,0,0,0,1316,1321,1326,1331,1336,1331,1326,1341,0,0,0,0,0,0,0,0,0,0,0,0,0,0,0,0,0,0,0,0,0,0,0,0,0,0,0,0,0,0,0,0,0,0,0,0,0,0,0,0,0,0,0,0,0,0,0,0,0,0,0,0,0,0,0,0,0,0,0,0,0,0,0,0,0,0,0,0,0,0,0,0,0,0,0,0,0,0,0,0,0,0,0,0,0,0,0,0,0,0,0,0,0,0,0,0,1214,1219,1224,1229,1234,1229,1224,1239,0,0,0,0,0,0,0,0,0,0,0,0,0,0,0,0,0,0,0,0,0,0,0,0,0,0,0,0,0,0,0,0,0,0,0,0,0,0,0,0,0,0,0,0,0,0,0,0,0,0,0,0,0,0,0,0,0,0,0,0,0,0,0,0,0,0,0,0,0,0,0,0,0,0,0,0,0,0,0,0,0,0,1214,1219,1224,1229,1234,1229,1224,1239,0,0,0,0,0,0,0,0,0,0,0,0,0,0,0,0,0,0,0,0,0,0,0,0,0,0,0,0,0,0,0,0,0,0,0,0,0,0,0,0,0,0,0,0,0,0,0,0,0,0,0,0,0,0,1214,1219,1224,1229,1234,1229,1224,1239,0,0,0,0,0,0,0,0,0,0,0,0,0,0,0,0,0,0,0,0,0,0,0,0,0,0,0,0,0,0,0,0,0,0,0,0,0,0,0,0,0,0,0,0,0,0,0,0,0,0,0,0,0,0,0,0,0,0,0,0,0,0,0,0,0,0,0,0,0,0,0,0,0,0,0,0,0,0,0,0,0,0,0,0,0,0,0,0,0,0,0,0,0,0,0,0,1254,1259,1264,1269,1274,1269,1264,1279,0,0,0,0,0,0,0,0,0,0,0,0,0,0,0,0,0,0,0,0,0,0,0,0,0,0,0,0,0,0,0,0,0,0,0,0,0,0,0,0,0,0,0,0,0,0,0,0,0,0,0,0,0,0,0,0,0,0,0,0,0,0,0,0,0,0,0,0,0,0,0,0,0,0,0,0,0,0,0,0,0,0,1254,1259,1264,1269,1274,1269,1264,1279,0,0,0,0,0,0,0,0,0,0,0,0,0,0,0,0,0,0,0,0,0,0,0,0,0,0,0,0,0,0,0,0,0,0,0,0,0,0,0,0,0,0,0,0,0,0,0,0,0,0,0,0,0,0,1254,1259,1264,1269,1274,1269,1264,1279,0,0,0,0,0,0,0,0,0,0,0,0,0,0,0,0,0,0,0,0,0,0,0,0,0,0,0,0,0,0,0,0,0,0,0,0,0,0,0,0,0,0,0,0,0,0,0,0,0,0,0,0,0,0,0,0,0,0,0,0,0,0,0,0,0,0,0,0,0,0,0,0,0,0,0,0,0,0,0,0,0,0,0,0,0,0,0,0,0,0,0,0,0,0,0,0,1286,1291,1296,1301,1306,1301,1296,1311,0,0,0,0,0,0,0,0,0,0,0,0,0,0,0,0,0,0,0,0,0,0,0,0,0,0,0,0,0,0,0,0,0,0,0,0,0,0,0,0,0,0,0,0,0,0,0,0,0,0,0,0,0,0,0,0,0,0,0,0,0,0,0,0,0,0,0,0,0,0,0,0,0,0,0,0,0,0,0,0,0,0,1286,1291,1296,1301,1306,1301,1296,1311,0,0,0,0,0,0,0,0,0,0,0,0,0,0,0,0,0,0,0,0,0,0,0,0,0,0,0,0,0,0,0,0,0,0,0,0,0,0,0,0,0,0,0,0,0,0,0,0,0,0,0,0,0,0,1286,1291,1296,1301,1306,1301,1296,1311,0,0,0,0,0,0,0,0,0,0,0,0,0,0,0,0,0,0,0,0,0,0,0,0,0,0,0,0,0,0,0,0,0,0,0,0,0,0,0,0,0,0,0,0,0,0,0,0,0,0,0,0,0,0,0,0,0,0,0,0,0,0,0,0,0,0,0,0,0,0,0,0,0,0,0,0,0,0,0,0,0,0,0,0,0,0,0,0,0,0,0,0,0,0,0,0,1316,1321,1326,1331,1336,1331,1326,1341,0,0,0,0,0,0,0,0,0,0,0,0,0,0,0,0,0,0,0,0,0,0,0,0,0,0,0,0,0,0,0,0,0,0,0,0,0,0,0,0,0,0,0,0,0,0,0,0,0,0,0,0,0,0,0,0,0,0,0,0,0,0,0,0,0,0,0,0,0,0,0,0,0,0,0,0,0,0,0,0,0,0,1316,1321,1326,1331,1336,1331,1326,1341,0,0,0,0,0,0,0,0,0,0,0,0,0,0,0,0,0,0,0,0,0,0,0,0,0,0,0,0,0,0,0,0,0,0,0,0,0,0,0,0,0,0,0,0,0,0,0,0,0,0,0,0,0,0,1316,1321,1326,1331,1336,1331,1326,1341,0,0,0,0,0,0,0,0,0,0,0,0,0,0,0,0,0,0,0,0,0,0,0,0,0,0,0,0,0,0,0,0,0,0,0,0,0,0,0,0,0,0,0,0,0,0,0,0,0,0,0,0,0,0,0,0,0,0,0,0,0,0,0,0,0,0,0,0,0,0,0,0,0,0,0,0,0,0,0,0,0,0,0,0,0,0,0,0,0,0,0,0,0,0,0,3268,1350,1355,1359,1363,1367,1363,1359,1370,294,0,0,0,0,0,0,0,0,0,0,0,0,0,0,0,0,0,0,0,0,0,0,0,0,0,0,0,0,0,0,0,0,0,0,0,0,0,0,0,0,0,0,0,0,0,0,0,0,0,0,0,0,0,0,0,0,0,0,0,0,0,0,0,0,0,0,0,0,0,0,0,0,0,0,0,0,0,0,0,0,0,1214,1219,1224,1229,1234,1229,1224,1239,0,0,0,0,0,0,0,0,0,0,0,0,0,0,0,0,0,0,0,0,0,0,0,0,0,0,0,0,0,0,0,0,0,0,0,0,0,0,0,0,0,0,0,0,0,0,0,0,0,0,0,0,0,190,1350,1355,1359,1363,1367,1363,1359,1370,3269,12,0,0,0,0,0,0,0,0,0,0,0,0,0,0,0,0,0,0,0,0,0,0,0,0,0,0,0,0,0,0,0,0,0,0,0,0,0,0,0,0,0,0,0,0,0,0,0,0,0,0,0,0,0,0,0,0,0,0,0,0,0,0,0,0,0,0,0,0,0,0,0,0,0,0,0,0,0,0,0,0,0,0,0,0,0,0,0,0,0,0,0,0,3270,3271,1375,1380,1384,1387,1391,1387,1384,1395,1396,0,0,0,0,0,0,0,0,0,0,0,0,0,0,0,0,0,0,0,0,0,0,0,0,0,0,0,0,0,0,0,0,0,0,0,0,0,0,0,0,0,0,0,0,0,0,0,0,0,0,0,0,0,0,0,0,0,0,0,0,0,0,0,0,0,0,0,0,0,0,0,0,0,0,0,0,0,0,0,0,0,1254,1259,1264,1269,1274,1269,1264,1279,0,0,0,0,0,0,0,0,0,0,0,0,0,0,0,0,0,0,0,0,0,0,0,0,0,0,0,0,0,0,0,0,0,0,0,0,0,0,0,0,0,0,0,0,0,0,0,0,0,0,0,0,0,1371,1375,1380,1384,1387,1391,1387,1384,1395,3272,3273,3274,0,0,0,0,0,0,0,0,0,0,0,0,0,0,0,0,0,0,0,0,0,0,0,0,0,0,0,0,0,0,0,0,0,0,0,0,0,0,0,0,0,0,0,0,0,0,0,0,0,0,0,0,0,0,0,0,0,0,0,0,0,0,0,0,0,0,0,0,0,0,0,0,0,0,0,0,0,0,0,0,0,0,0,0,0,0,0,0,0,843,3275,3276,242,21,21,21,21,21,21,21,21,1398,0,0,0,0,0,0,0,0,0,0,0,0,0,0,0,0,0,0,0,0,0,0,0,0,0,0,0,0,0,0,0,0,0,0,0,0,0,0,0,0,0,0,0,0,0,0,0,0,0,0,0,0,0,0,0,0,0,0,0,0,0,0,0,0,0,0,0,0,0,0,0,0,0,0,0,0,0,0,0,0,0,1286,1291,1296,1301,1306,1301,1296,1311,0,0,0,0,0,0,0,0,0,0,0,0,0,0,0,0,0,0,0,0,0,0,0,0,0,0,0,0,0,0,0,0,0,0,0,0,0,0,0,0,0,0,0,0,0,0,0,0,0,0,0,0,0,1399,828,21,21,21,21,21,21,21,21,3277,3278,3279,0,0,0,0,0,0,0,0,0,0,0,0,0,0,0,0,0,0,0,0,0,0,0,0,0,0,0,0,0,0,0,0,0,0,0,0,0,0,0,0,0,0,0,0,0,0,0,0,0,0,0,0,0,0,0,0,0,0,0,0,0,0,0,0,0,0,0,0,0,0,0,0,0,0,0,0,0,0,0,0,0,0,0,0,0,0,0,3280,3281,3282,21,21,21,21,21,21,21,21,21,21,1402,0,0,0,0,0,0,0,0,0,0,0,0,0,0,0,0,0,0,0,0,0,0,0,0,0,0,0,0,0,0,0,0,0,0,0,0,0,0,0,0,0,0,0,0,0,0,0,0,0,0,0,0,0,0,0,0,0,0,0,0,0,0,0,0,0,0,0,0,0,0,0,0,0,0,0,0,0,0,0,0,0,1316,1321,1326,1331,1336,1331,1326,1341,0,0,0,0,0,0,0,0,0,0,0,0,0,0,0,0,0,0,0,0,0,0,0,0,0,0,0,0,0,0,0,0,0,0,0,0,0,0,0,0,0,0,0,0,0,0,0,0,0,0,0,0,0,267,371,21,21,21,21,21,21,21,21,21,132,3283,202,149,0,0,0,0,0,0,0,0,0,0,0,0,0,0,0,0,0,0,0,0,0,0,0,0,0,0,0,0,0,0,0,0,0,0,0,0,0,0,0,0,0,0,0,0,0,0,0,0,0,0,0,0,0,0,0,0,0,0,0,0,0,0,0,0,0,0,0,0,0,0,0,0,0,0,0,0,0,0,0,0,0,0,0,0,3284,3285,3286,21,21,21,21,21,21,21,21,21,153,3287,3288,0,0,0,0,0,0,0,0,0,0,0,0,0,0,0,0,0,0,0,0,0,0,0,0,0,0,0,0,0,0,0,0,0,0,0,0,0,0,0,0,0,0,0,0,0,0,0,0,0,0,0,0,0,0,0,0,0,0,0,0,0,0,0,0,0,0,0,0,0,0,0,0,0,0,0,0,0,0,0,0,0,1214,1219,1224,1229,1234,1229,1224,1239,0,0,0,0,0,0,0,0,0,0,0,0,0,0,0,0,0,0,0,0,0,0,0,0,0,0,0,0,0,0,0,0,0,0,0,0,0,0,0,0,0,0,0,0,0,0,0,0,0,0,0,0,0,379,3289,21,21,21,153,21,21,21,21,21,21,21,214,3290,3291,0,0,0,0,0,0,0,0,0,0,0,0,0,0,0,0,0,0,0,0,0,0,0,0,0,0,0,0,0,0,0,0,0,0,0,0,0,0,0,0,0,0,0,0,0,0,0,0,0,0,0,0,0,0,0,0,0,0,0,0,0,0,0,0,0,0,0,0,0,0,0,0,0,0,0,0,0,0,0,0,0,0,3292,3293,3294,173,175,21,21,21,21,177,179,181,184,3296,3297,464,0,0,0,0,0,0,0,0,0,0,0,0,0,0,0,0,0,0,0,0,0,0,0,0,0,0,0,0,0,0,0,0,0,0,0,0,0,0,0,0,0,0,0,0,0,0,0,0,0,0,0,0,0,0,0,0,0,0,0,0,0,0,0,0,0,0,0,0,0,0,0,0,0,0,0,0,0,0,0,0,0,1254,1259,1264,1269,1274,1269,1264,1279,0,0,0,0,0,0,0,0,0,0,0,0,0,0,0,0,0,0,0,0,0,0,0,0,0,0,0,0,0,0,0,0,0,0,0,0,0,0,0,0,0,0,0,0,0,0,0,0,0,0,0,0,0,454,3298,440,181,184,186,175,21,21,21,21,177,179,181,3300,147,3301,137,0,0,0,0,0,0,0,0,0,0,0,0,0,0,0,0,0,0,0,0,0,0,0,0,0,0,0,0,0,0,0,0,0,0,0,0,0,0,0,0,0,0,0,0,0,0,0,0,0,0,0,0,0,0,0,0,0,0,0,0,0,0,0,0,0,0,0,0,0,0,0,0,0,0,0,0,0,0,0,3302,3303,242,21,21,21,21,21,21,21,21,21,21,475,1864,1890,0,0,0,0,0,0,0,0,0,0,0,0,0,0,0,0,0,0,0,0,0,0,0,0,0,0,0,0,0,0,0,0,0,0,0,0,0,0,0,0,0,0,0,0,0,0,0,0,0,0,0,0,0,0,0,0,0,0,0,0,0,0,0,0,0,0,0,0,0,0,0,0,0,0,0,0,0,0,0,0,0,0,1286,1291,1296,1301,1306,1301,1296,1311,0,0,0,0,0,0,0,0,0,0,0,0,0,0,0,0,0,0,0,0,0,0,0,0,0,0,0,0,0,0,0,0,0,0,0,0,0,0,0,0,0,0,0,0,0,0,0,0,0,0,0,0,0,0,450,1847,588,21,21,21,21,21,21,21,21,21,21,21,21,3304,188,199,0,0,0,0,0,0,0,0,0,0,0,0,0,0,0,0,0,0,0,0,0,0,0,0,0,0,0,0,0,0,0,0,0,0,0,0,0,0,0,0,0,0,0,0,0,0,0,0,0,0,0,0,0,0,0,0,0,0,0,0,0,0,0,0,0,0,0,0,0,0,0,0,0,0,0,0,0,3305,3306,21,21,21,21,21,21,21,21,21,21,21,2133,3307,3308,0,0,0,0,0,0,0,0,0,0,0,0,0,0,0,0,0,0,0,0,0,0,0,0,0,0,0,0,0,0,0,0,0,0,0,0,0,0,0,0,0,0,0,0,0,0,0,0,0,0,0,0,0,0,0,0,0,0,0,0,0,0,0,0,0,0,0,0,0,0,0,0,0,0,0,0,0,0,0,0,0,0,0,1316,1321,1326,1331,1336,1331,1326,1341,0,0,0,0,0,0,0,0,0,0,0,0,0,0,0,0,0,0,0,0,0,0,0,0,0,0,0,0,0,0,0,0,0,0,0,0,0,0,0,0,0,0,0,0,0,0,0,0,0,0,0,0,0,0,0,614,3309,3310,21,21,21,21,21,21,21,21,21,21,21,21,146,3311,3312,0,0,0,0,0,0,0,0,0,0,0,0,0,0,0,0,0,0,0,0,0,0,0,0,0,0,0,0,0,0,0,0,0,0,0,0,0,0,0,0,0,0,0,0,0,0,0,0,0,0,0,0,0,0,0,0,0,0,0,0,0,0,0,0,0,0,0,0,0,0,0,0,0,0,0,3313,3314,21,21,21,21,21,21,21,21,21,21,21,3315,3316,3317,0,0,0,0,0,0,0,0,0,0,0,0,0,0,0,0,0,0,0,0,0,0,0,0,0,0,0,0,0,0,0,0,0,0,0,0,0,0,0,0,0,0,0,0,0,0,0,0,0,0,0,0,0,0,0,0,0,0,0,0,0,0,0,0,0,0,0,0,0,0,0,0,0,0,0,0,0,0,0,0,0,0,0,0,1214,1219,1224,1229,1234,1229,1224,1239,0,0,0,0,0,0,0,0,0,0,0,0,0,0,0,0,0,0,0,0,0,0,0,0,0,0,0,0,0,0,0,0,0,0,0,0,0,0,0,0,0,0,0,0,0,0,0,0,0,0,0,0,0,0,0,0,0,3318,3319,3320,21,21,21,21,21,21,21,21,21,21,21,21,3321,3322,53,0,0,0,0,0,0,0,0,0,0,0,0,0,0,0,0,0,0,0,0,0,0,0,0,0,0,0,0,0,0,0,0,0,0,0,0,0,0,0,0,0,0,0,0,0,0,0,0,0,0,0,0,0,0,0,0,0,0,0,0,0,0,0,0,0,0,0,0,0,0,0,0,3324,3325,192,21,21,21,21,21,21,21,21,21,21,3326,2129,484,0,0,0,0,0,0,0,0,0,0,0,0,0,0,0,0,0,0,0,0,0,0,0,0,0,0,0,0,0,0,0,0,0,0,0,0,0,0,0,0,0,0,0,0,0,0,0,0,0,0,0,0,0,0,0,0,0,0,0,0,0,0,0,0,0,0,0,0,0,0,0,0,0,0,0,0,0,0,0,0,0,0,0,0,0,1254,1259,1264,1269,1274,1269,1264,1279,0,0,0,0,0,0,0,0,0,0,0,0,0,0,0,0,0,0,0,0,0,0,0,0,0,0,0,0,0,0,0,0,0,0,0,0,0,0,0,0,0,0,0,0,0,0,0,0,0,0,0,0,0,0,0,0,0,0,3327,3328,3329,21,21,21,21,21,21,21,21,21,21,21,21,3330,3331,223,0,0,0,0,0,0,0,0,0,0,0,0,0,0,0,0,0,0,0,0,0,0,0,0,0,0,0,0,0,0,0,0,0,0,0,0,0,0,0,0,0,0,0,0,0,0,0,0,0,0,0,0,0,0,0,0,0,0,0,0,0,0,0,0,0,0,0,0,0,0,0,3335,3336,21,21,21,153,21,21,21,21,21,433,3337,3338,0,0,0,0,0,0,0,0,0,0,0,0,0,0,0,0,0,0,0,0,0,0,0,0,0,0,0,0,0,0,0,0,0,0,0,0,0,0,0,0,0,0,0,0,0,0,0,0,0,0,0,0,0,0,0,0,0,0,0,0,0,0,0,0,0,0,0,0,0,0,0,0,0,0,0,0,0,0,0,0,0,0,0,0,0,0,0,1286,1291,1296,1301,1306,1301,1296,1311,0,0,0,0,0,0,0,0,0,0,0,0,0,0,0,0,0,0,0,0,0,0,0,0,0,0,0,0,0,0,0,0,0,0,0,0,0,0,0,0,0,0,0,0,0,0,0,0,0,0,0,0,0,0,0,0,0,0,0,431,3339,489,440,21,21,21,153,21,21,21,21,21,21,21,3340,259,297,0,0,0,0,0,0,0,0,0,0,0,0,0,0,0,0,0,0,0,0,0,0,0,0,0,0,0,0,0,0,0,0,0,0,0,0,0,0,0,0,0,0,0,0,0,0,0,0,0,0,0,0,0,0,0,0,0,0,0,0,0,0,0,0,0,0,0,0,0,2629,3342,21,21,181,184,186,263,179,21,21,1775,3307,3343,0,0,0,0,0,0,0,0,0,0,0,0,0,0,0,0,0,0,0,0,0,0,0,0,0,0,0,0,0,0,0,0,0,0,0,0,0,0,0,0,0,0,0,0,0,0,0,0,0,0,0,0,0,0,0,0,0,0,0,0,0,0,0,0,0,0,0,0,0,0,0,0,0,0,0,0,0,0,0,0,0,0,0,0,0,0,0,0,1316,1321,1326,1331,1336,1331,1326,1341,0,0,0,0,0,0,0,0,0,0,0,0,0,0,0,0,0,0,0,0,0,0,0,0,0,0,0,0,0,0,0,0,0,0,0,0,0,0,0,0,0,0,0,0,0,0,0,0,0,0,0,0,0,0,0,0,0,0,0,0,0,3344,3345,3346,181,184,186,263,179,21,21,21,21,21,181,3349,3350,297,0,0,0,0,0,0,0,0,0,0,0,0,0,0,0,0,0,0,0,0,0,0,0,0,0,0,0,0,0,0,0,0,0,0,0,0,0,0,0,0,0,0,0,0,0,0,0,0,0,0,0,0,0,0,0,0,0,0,0,0,0,0,0,0,0,0,0,0,2643,1464,21,21,21,21,21,21,21,21,480,3351,3352,0,0,0,0,0,0,0,0,0,0,0,0,0,0,0,0,0,0,0,0,0,0,0,0,0,0,0,0,0,0,0,0,0,0,0,0,0,0,0,0,0,0,0,0,0,0,0,0,0,0,0,0,0,0,0,0,0,0,0,0,0,0,0,0,0,0,0,0,0,0,0,0,0,0,0,0,0,0,0,0,0,0,0,0,0,0,0,0,0,1214,1219,1224,1229,1234,1229,1224,1239,0,0,0,0,0,0,0,0,0,0,0,0,0,0,0,0,0,0,0,0,0,0,0,0,0,0,0,0,0,0,0,0,0,0,0,0,0,0,0,0,0,0,0,0,0,0,0,0,0,0,0,0,0,0,0,0,0,0,0,0,0,0,530,3353,3354,288,21,21,21,21,21,21,21,21,21,21,3347,3355,0,0,0,0,0,0,0,0,0,0,0,0,0,0,0,0,0,0,0,0,0,0,0,0,0,0,0,0,0,0,0,0,0,0,0,0,0,0,0,0,0,0,0,0,0,0,0,0,0,0,0,0,0,0,0,0,0,0,0,0,0,0,0,0,0,0,0,3357,3358,21,21,21,21,21,21,21,21,1767,500,501,0,0,0,0,0,0,0,0,0,0,0,0,0,0,0,0,0,0,0,0,0,0,0,0,0,0,0,0,0,0,0,0,0,0,0,0,0,0,0,0,0,0,0,0,0,0,0,0,0,0,0,0,0,0,0,0,0,0,0,0,0,0,0,0,0,0,0,0,0,0,0,0,0,0,0,0,0,0,0,0,0,0,0,0,0,0,0,0,0,0,1254,1259,1264,1269,1274,1269,1264,1279,0,0,0,0,0,0,0,0,0,0,0,0,0,0,0,0,0,0,0,0,0,0,0,0,0,0,0,0,0,0,0,0,0,0,0,0,0,0,0,0,0,0,0,0,0,0,0,0,0,0,0,0,0,0,0,0,0,0,0,0,0,0,0,0,3359,3360,3361,21,21,21,21,21,21,21,21,21,21,3362,3363,0,0,0,0,0,0,0,0,0,0,0,0,0,0,0,0,0,0,0,0,0,0,0,0,0,0,0,0,0,0,0,0,0,0,0,0,0,0,0,0,0,0,0,0,0,0,0,0,0,0,0,0,0,0,0,0,0,0,0,0,0,0,0,0,0,0,3364,3365,21,21,21,21,21,21,21,475,3366,1685,0,0,0,0,0,0,0,0,0,0,0,0,0,0,0,0,0,0,0,0,0,0,0,0,0,0,0,0,0,0,0,0,0,0,0,0,0,0,0,0,0,0,0,0,0,0,0,0,0,0,0,0,0,0,0,0,0,0,0,0,0,0,0,0,0,0,0,0,0,0,0,0,0,0,0,0,0,0,0,0,0,0,0,0,0,0,0,0,0,0,0,1286,1291,1296,1301,1306,1301,1296,1311,0,0,0,0,0,0,0,0,0,0,0,0,0,0,0,0,0,0,0,0,0,0,0,0,0,0,0,0,0,0,0,0,0,0,0,0,0,0,0,0,0,0,0,0,0,0,0,0,0,0,0,0,0,0,0,0,0,0,0,0,0,0,0,0,0,3367,3368,3369,21,21,21,21,21,21,21,21,21,21,3370,3371,0,0,0,0,0,0,0,0,0,0,0,0,0,0,0,0,0,0,0,0,0,0,0,0,0,0,0,0,0,0,0,0,0,0,0,0,0,0,0,0,0,0,0,0,0,0,0,0,0,0,0,0,0,0,0,0,0,0,0,0,0,0,0,0,0,3377,21,21,21,21,21,21,21,21,3378,3379,0,0,0,0,0,0,0,0,0,0,0,0,0,0,0,0,0,0,0,0,0,0,0,0,0,0,0,0,0,0,0,0,0,0,0,0,0,0,0,0,0,0,0,0,0,0,0,0,0,0,0,0,0,0,0,0,0,0,0,0,0,0,0,0,0,0,0,0,0,0,0,0,0,0,0,0,0,0,0,0,0,0,0,0,0,0,0,0,0,0,0,0,1316,1321,1326,1331,1336,1331,1326,1341,0,0,0,0,0,0,0,0,0,0,0,0,0,0,0,0,0,0,0,0,0,0,0,0,0,0,0,0,0,0,0,0,0,0,0,0,0,0,0,0,0,0,0,0,0,0,0,0,0,0,0,0,0,0,0,0,0,0,0,0,0,0,0,0,0,0,601,1877,3382,21,21,21,21,21,21,21,21,21,353,3383,0,0,0,0,0,0,0,0,0,0,0,0,0,0,0,0,0,0,0,0,0,0,0,0,0,0,0,0,0,0,0,0,0,0,0,0,0,0,0,0,0,0,0,0,0,0,0,0,0,0,0,0,0,0,0,0,0,0,0,0,0,0,0,0,0,3099,21,21,21,21,21,21,21,348,3393,0,0,0,0,0,0,0,0,0,0,0,0,0,0,0,0,0,0,0,0,0,0,0,0,0,0,0,0,0,0,0,0,0,0,0,0,0,0,0,0,0,0,0,0,0,0,0,0,0,0,0,0,0,0,0,0,0,0,0,0,0,0,0,0,0,0,0,0,0,0,0,0,0,0,0,0,0,0,0,0,0,0,0,0,0,0,0,0,0,0,0,0,0,1214,1219,1224,1229,1234,1229,1224,1239,0,0,0,0,0,0,0,0,0,0,0,0,0,0,0,0,0,0,0,0,0,0,0,0,0,0,0,0,0,0,0,0,0,0,0,0,0,0,0,0,0,0,0,0,0,0,0,0,0,0,0,0,0,0,0,0,0,0,0,0,0,0,0,0,0,0,0,0,477,3396,21,21,21,21,21,21,21,21,21,3401,294,0,0,0,0,0,0,0,0,0,0,0,0,0,0,0,0,0,0,0,0,0,0,0,0,0,0,0,0,0,0,0,0,0,0,0,0,0,0,0,0,0,0,0,0,0,0,0,0,0,0,0,0,0,0,0,0,0,0,0,0,0,0,0,0,3099,21,21,21,21,173,263,179,3403,3404,0,0,0,0,0,0,0,0,0,0,0,0,0,0,0,0,0,0,0,0,0,0,0,0,0,0,0,0,0,0,0,0,0,0,0,0,0,0,0,0,0,0,0,0,0,0,0,0,0,0,0,0,0,0,0,0,0,0,0,0,0,0,0,0,0,0,0,0,0,0,0,0,0,0,0,0,0,0,0,0,0,0,0,0,0,0,0,0,0,0,0,0,0,1254,1259,1264,1269,1274,1269,1264,1279,0,0,0,0,0,0,0,0,0,0,0,0,0,0,0,0,0,0,0,0,0,0,0,0,0,0,0,0,0,0,0,0,0,0,0,0,0,0,0,0,0,0,0,0,0,0,0,0,0,0,0,0,0,0,0,0,0,0,0,0,0,0,0,0,0,0,0,0,0,3410,2968,21,21,21,173,263,179,181,184,3415,3416,0,0,0,0,0,0,0,0,0,0,0,0,0,0,0,0,0,0,0,0,0,0,0,0,0,0,0,0,0,0,0,0,0,0,0,0,0,0,0,0,0,0,0,0,0,0,0,0,0,0,0,0,0,0,0,0,0,0,0,0,0,0,0,0,3417,21,21,21,21,21,21,21,21,3418,339,0,0,0,0,0,0,0,0,0,0,0,0,0,0,0,0,0,0,0,0,0,0,0,0,0,0,0,0,0,0,0,0,0,0,0,0,0,0,0,0,0,0,0,0,0,0,0,0,0,0,0,0,0,0,0,0,0,0,0,0,0,0,0,0,0,0,0,0,0,0,0,0,0,0,0,0,0,0,0,0,0,0,0,0,0,0,0,0,0,0,0,0,1286,1291,1296,1301,1306,1301,1296,1311,0,0,0,0,0,0,0,0,0,0,0,0,0,0,0,0,0,0,0,0,0,0,0,0,0,0,0,0,0,0,0,0,0,0,0,0,0,0,0,0,0,0,0,0,0,0,0,0,0,0,0,0,0,0,0,0,0,0,0,0,0,0,0,0,0,0,0,0,0,0,3425,3426,21,21,21,21,21,21,21,21,3427,0,0,0,0,0,0,0,0,0,0,0,0,0,0,0,0,0,0,0,0,0,0,0,0,0,0,0,0,0,0,0,0,0,0,0,0,0,0,0,0,0,0,0,0,0,0,0,0,0,0,0,0,0,0,0,0,0,0,0,0,0,0,0,0,3428,371,21,21,21,21,21,21,21,3429,3430,0,0,0,0,0,0,0,0,0,0,0,0,0,0,0,0,0,0,0,0,0,0,0,0,0,0,0,0,0,0,0,0,0,0,0,0,0,0,0,0,0,0,0,0,0,0,0,0,0,0,0,0,0,0,0,0,0,0,0,0,0,0,0,0,0,0,0,0,0,0,0,0,0,0,0,0,0,0,0,0,0,0,0,0,0,0,0,0,0,0,0,843,1316,1321,1326,1331,1336,1331,1326,1341,284,0,0,0,0,0,0,0,0,0,0,0,0,0,0,0,0,0,0,0,0,0,0,0,0,0,0,0,0,0,0,0,0,0,0,0,0,0,0,0,0,0,0,0,0,0,0,0,0,0,0,0,0,0,0,0,0,0,0,0,0,0,0,0,0,0,0,0,0,0,431,3435,371,21,21,21,21,21,21,21,3436,0,0,0,0,0,0,0,0,0,0,0,0,0,0,0,0,0,0,0,0,0,0,0,0,0,0,0,0,0,0,0,0,0,0,0,0,0,0,0,0,0,0,0,0,0,0,0,0,0,0,0,0,0,0,0,0,0,0,0,0,0,0,0,0,379,3289,21,21,21,21,21,21,21,21,3439,266,0,0,0,0,0,0,0,0,0,0,0,0,0,0,0,0,0,0,0,0,0,0,0,0,0,0,0,0,0,0,0,0,0,0,0,0,0,0,0,0,0,0,0,0,0,0,0,0,0,0,0,0,0,0,0,0,0,0,0,0,0,0,0,0,0,0,0,0,0,0,0,0,0,0,0,0,0,0,0,0,0,0,0,0,0,0,0,0,0,0,1404,1350,1355,1359,1363,1367,1363,1359,1370,1405,0,0,0,0,0,0,0,0,0,0,0,0,0,0,0,0,0,0,0,0,0,0,0,0,0,0,0,0,0,0,0,0,0,0,0,0,0,0,0,0,0,0,0,0,0,0,0,0,0,0,0,0,0,0,0,0,0,0,0,0,0,0,0,0,0,0,0,0,0,0,379,3289,21,21,21,21,21,21,21,3442,3218,0,0,0,0,0,0,0,0,0,0,0,0,0,0,0,0,0,0,0,0,0,0,0,0,0,0,0,0,0,0,0,0,0,0,0,0,0,0,0,0,0,0,0,0,0,0,0,0,0,0,0,0,0,0,0,0,0,0,0,0,0,0,0,454,2256,21,21,21,21,21,21,21,21,272,2246,252,0,0,0,0,0,0,0,0,0,0,0,0,0,0,0,0,0,0,0,0,0,0,0,0,0,0,0,0,0,0,0,0,0,0,0,0,0,0,0,0,0,0,0,0,0,0,0,0,0,0,0,0,0,0,0,0,0,0,0,0,0,0,0,0,0,0,0,0,0,0,0,0,0,0,0,0,0,0,0,0,0,0,0,0,0,0,0,0,0,1412,1375,1380,1384,1387,1391,1387,1384,1395,1413,12,0,0,0,0,0,0,0,0,0,0,0,0,0,0,0,0,0,0,0,0,0,0,0,0,0,0,0,0,0,0,0,0,0,0,0,0,0,0,0,0,0,0,0,0,0,0,0,0,0,0,0,0,0,0,0,0,0,0,0,0,0,0,0,0,0,0,0,0,0,454,3450,21,21,21,21,21,21,21,3451,747,0,0,0,0,0,0,0,0,0,0,0,0,0,0,0,0,0,0,0,0,0,0,0,0,0,0,0,0,0,0,0,0,0,0,0,0,0,0,0,0,0,0,0,0,0,0,0,0,0,0,0,0,0,0,0,0,0,0,0,0,0,0,0,0,3460,3461,21,21,21,21,21,153,21,21,2248,3350,12,0,0,0,0,0,0,0,0,0,0,0,0,0,0,0,0,0,0,0,0,0,0,0,0,0,0,0,0,0,0,0,0,0,0,0,0,0,0,0,0,0,0,0,0,0,0,0,0,0,0,0,0,0,0,0,0,0,0,0,0,0,0,0,0,0,0,0,0,0,0,0,0,0,0,0,0,0,0,0,0,0,0,0,0,0,0,0,843,1088,21,21,21,21,21,153,21,21,1420,747,0,0,0,0,0,0,0,0,0,0,0,0,0,0,0,0,0,0,0,0,0,0,0,0,0,0,0,0,0,0,0,0,0,0,0,0,0,0,0,0,0,0,0,0,0,0,0,0,0,0,0,0,0,0,0,0,0,0,0,0,0,0,0,0,0,0,0,0,0,0,3476,21,21,21,21,153,21,21,3481,3482,0,0,0,0,0,0,0,0,0,0,0,0,0,0,0,0,0,0,0,0,0,0,0,0,0,0,0,0,0,0,0,0,0,0,0,0,0,0,0,0,0,0,0,0,0,0,0,0,0,0,0,0,0,0,0,0,0,0,0,0,0,0,0,0,473,3483,371,21,21,181,184,186,263,179,21,268,3484,0,0,0,0,0,0,0,0,0,0,0,0,0,0,0,0,0,0,0,0,0,0,0,0,0,0,0,0,0,0,0,0,0,0,0,0,0,0,0,0,0,0,0,0,0,0,0,0,0,0,0,0,0,0,0,0,0,0,0,0,0,0,0,0,0,0,0,0,0,0,0,0,0,0,0,0,0,0,0,0,0,0,0,0,0,0,0,1406,3485,21,21,21,181,184,186,263,179,1424,747,0,0,0,0,0,0,0,0,0,0,0,0,0,0,0,0,0,0,0,0,0,0,0,0,0,0,0,0,0,0,0,0,0,0,0,0,0,0,0,0,0,0,0,0,0,0,0,0,0,0,0,0,0,0,0,0,0,0,0,0,0,0,0,0,0,0,0,0,0,0,3486,21,21,181,184,186,263,179,3487,2107,0,0,0,0,0,0,0,0,0,0,0,0,0,0,0,0,0,0,0,0,0,0,0,0,0,0,0,0,0,0,0,0,0,0,0,0,0,0,0,0,0,0,0,0,0,0,0,0,0,0,0,0,0,0,0,0,0,0,0,0,0,0,0,0,0,418,3488,21,21,21,21,21,21,21,21,21,2480,2693,0,0,0,0,0,0,0,0,0,0,0,0,0,0,0,0,0,0,0,0,0,0,0,0,0,0,0,0,0,0,0,0,0,0,0,0,0,0,0,0,0,0,0,0,0,0,0,0,0,0,0,0,0,0,0,0,0,0,0,0,0,0,0,0,0,0,0,0,0,0,0,0,0,0,0,0,0,0,0,0,0,0,0,0,0,0,3489,310,21,21,21,21,21,21,21,21,1430,1431,0,0,0,0,0,0,0,0,0,0,0,0,0,0,0,0,0,0,0,0,0,0,0,0,0,0,0,0,0,0,0,0,0,0,0,0,0,0,0,0,0,0,0,0,0,0,0,0,0,0,0,0,0,0,0,0,0,0,0,0,0,0,0,0,0,0,0,0,0,0,3494,21,21,21,21,21,21,21,3495,2107,0,0,0,0,0,0,0,0,0,0,0,0,0,0,0,0,0,0,0,0,0,0,0,0,0,0,0,0,0,0,0,0,0,0,0,0,0,0,0,0,0,0,0,0,0,0,0,0,0,0,0,0,0,0,0,0,0,0,0,0,0,0,0,0,0,0,3496,402,21,21,21,21,21,21,21,21,21,3497,207,0,0,0,0,0,0,0,0,0,0,0,0,0,0,0,0,0,0,0,0,0,0,0,0,0,0,0,0,0,0,0,0,0,0,0,0,0,0,0,0,0,0,0,0,0,0,0,0,0,0,0,0,0,0,0,0,0,0,0,0,0,0,0,0,0,0,0,0,0,0,0,0,0,0,0,0,0,0,0,0,0,0,0,0,0,3498,3499,21,21,21,21,21,21,21,21,3500,0,0,0,0,0,0,0,0,0,0,0,0,0,0,0,0,0,0,0,0,0,0,0,0,0,0,0,0,0,0,0,0,0,0,0,0,0,0,0,0,0,0,0,0,0,0,0,0,0,0,0,0,0,0,0,0,0,0,0,0,0,0,0,0,0,0,0,0,0,0,0,3122,21,21,21,21,21,21,21,3502,2107,0,0,0,0,0,0,0,0,0,0,0,0,0,0,0,0,0,0,0,0,0,0,0,0,0,0,0,0,0,0,0,0,0,0,0,0,0,0,0,0,0,0,0,0,0,0,0,0,0,0,0,0,0,0,0,0,0,0,0,0,0,0,0,0,0,0,405,3503,440,21,21,21,21,21,21,21,21,132,219,207,0,0,0,0,0,0,0,0,0,0,0,0,0,0,0,0,0,0,0,0,0,0,0,0,0,0,0,0,0,0,0,0,0,0,0,0,0,0,0,0,0,0,0,0,0,0,0,0,0,0,0,0,0,0,0,0,0,0,0,0,0,0,0,0,0,0,0,0,0,0,0,0,0,0,0,0,0,0,0,0,0,0,0,0,2898,21,21,21,21,21,21,21,21,433,3505,0,0,0,0,0,0,0,0,0,0,0,0,0,0,0,0,0,0,0,0,0,0,0,0,0,0,0,0,0,0,0,0,0,0,0,0,0,0,0,0,0,0,0,0,0,0,0,0,0,0,0,0,0,0,0,0,0,0,0,0,0,0,0,0,0,0,0,0,0,0,3506,952,21,21,21,21,21,21,21,3507,747,0,0,0,0,0,0,0,0,0,0,0,0,0,0,0,0,0,0,0,0,0,0,0,0,0,0,0,0,0,0,0,0,0,0,0,0,0,0,0,0,0,0,0,0,0,0,0,0,0,0,0,0,0,0,0,0,0,0,0,0,0,0,0,0,0,0,0,3508,486,21,21,21,21,21,21,21,21,21,132,219,207,0,0,0,0,0,0,0,0,0,0,0,0,0,0,0,0,0,0,0,0,0,0,0,0,0,0,0,0,0,0,0,0,0,0,0,0,0,0,0,0,0,0,0,0,0,0,0,0,0,0,0,0,0,0,0,0,0,0,0,0,0,0,0,0,0,0,0,0,0,0,0,0,0,0,0,0,0,0,0,0,0,0,0,3509,21,21,21,21,21,21,21,21,357,3510,0,0,0,0,0,0,0,0,0,0,0,0,0,0,0,0,0,0,0,0,0,0,0,0,0,0,0,0,0,0,0,0,0,0,0,0,0,0,0,0,0,0,0,0,0,0,0,0,0,0,0,0,0,0,0,0,0,0,0,0,0,0,0,0,0,0,0,0,0,0,3511,3512,21,21,21,21,21,21,21,3513,457,0,0,0,0,0,0,0,0,0,0,0,0,0,0,0,0,0,0,0,0,0,0,0,0,0,0,0,0,0,0,0,0,0,0,0,0,0,0,0,0,0,0,0,0,0,0,0,0,0,0,0,0,0,0,0,0,0,0,0,0,0,0,0,0,0,0,0,0,477,3396,21,21,21,21,21,21,21,21,21,3520,2492,3522,0,0,0,0,0,0,0,0,0,0,0,0,0,0,0,0,0,0,0,0,0,0,0,0,0,0,0,0,0,0,0,0,0,0,0,0,0,0,0,0,0,0,0,0,0,0,0,0,0,0,0,0,0,0,0,0,0,0,0,0,0,0,0,0,0,0,0,0,0,0,0,0,0,0,0,0,0,0,0,0,0,3534,3535,21,21,21,21,153,21,21,21,3536,2892,0,0,0,0,0,0,0,0,0,0,0,0,0,0,0,0,0,0,0,0,0,0,0,0,0,0,0,0,0,0,0,0,0,0,0,0,0,0,0,0,0,0,0,0,0,0,0,0,0,0,0,0,0,0,0,0,0,0,0,0,0,0,0,0,0,0,0,0,0,0,3537,663,21,21,153,21,21,21,21,3538,0,0,0,0,0,0,0,0,0,0,0,0,0,0,0,0,0,0,0,0,0,0,0,0,0,0,0,0,0,0,0,0,0,0,0,0,0,0,0,0,0,0,0,0,0,0,0,0,0,0,0,0,0,0,0,0,0,0,0,0,0,0,0,0,0,0,0,0,0,0,3539,3540,21,181,264,21,21,21,21,364,186,3542,3543,227,0,0,0,0,0,0,0,0,0,0,0,0,0,0,0,0,0,0,0,0,0,0,0,0,0,0,0,0,0,0,0,0,0,0,0,0,0,0,0,0,0,0,0,0,0,0,0,0,0,0,0,0,0,0,0,0,0,0,0,0,0,0,0,0,0,0,0,0,0,0,0,0,0,0,0,0,0,0,0,0,3537,1491,21,21,21,364,186,263,179,21,3544,1431,0,0,0,0,0,0,0,0,0,0,0,0,0,0,0,0,0,0,0,0,0,0,0,0,0,0,0,0,0,0,0,0,0,0,0,0,0,0,0,0,0,0,0,0,0,0,0,0,0,0,0,0,0,0,0,0,0,0,0,0,0,0,0,0,0,0,0,0,0,0,3545,21,21,364,186,263,179,181,264,3546,0,0,0,0,0,0,0,0,0,0,0,0,0,0,0,0,0,0,0,0,0,0,0,0,0,0,0,0,0,0,0,0,0,0,0,0,0,0,0,0,0,0,0,0,0,0,0,0,0,0,0,0,0,0,0,0,0,0,0,0,0,0,0,0,0,0,0,0,0,0,431,3547,3548,21,21,21,21,21,21,21,21,21,21,3549,3550,0,0,0,0,0,0,0,0,0,0,0,0,0,0,0,0,0,0,0,0,0,0,0,0,0,0,0,0,0,0,0,0,0,0,0,0,0,0,0,0,0,0,0,0,0,0,0,0,0,0,0,0,0,0,0,0,0,0,0,0,0,0,0,0,2337,3551,5,3552,9,3553,7,7,7,3554,9,3555,3556,3557,1766,3558,21,21,21,21,21,21,21,21,21,3559,0,0,0,0,0,0,0,0,0,0,0,0,0,0,0,0,0,0,0,0,0,0,0,0,0,0,0,0,0,0,0,0,0,0,0,0,0,0,0,0,0,0,0,0,0,0,0,0,0,0,0,0,0,0,0,0,0,0,0,0,0,0,0,0,0,0,0,0,0,0,1437,3560,21,21,21,21,21,21,21,3561,1409,0,0,0,0,0,0,0,0,0,0,0,0,0,0,0,0,0,0,0,0,0,0,0,0,0,0,0,0,0,0,0,0,0,0,0,0,0,0,0,0,0,0,0,0,0,0,0,0,0,0,0,0,0,0,0,0,0,0,0,0,0,0,0,0,0,0,0,0,0,0,0,426,3562,2718,21,21,21,21,21,21,21,21,21,21,3563,3564,12,0,0,0,0,0,0,0,0,0,0,0,0,0,0,0,0,0,0,0,0,0,0,0,0,0,0,0,0,0,0,0,0,0,0,0,0,0,0,0,0,0,0,0,0,0,0,0,0,0,0,0,0,0,0,0,2337,3565,3566,77,3567,79,3568,2548,3569,3570,19,22,3571,21,21,21,3572,22,58,3573,3574,3575,3576,21,21,21,21,21,21,21,21,433,3577,0,0,0,0,0,0,0,0,0,0,0,0,0,0,0,0,0,0,0,0,0,0,0,0,0,0,0,0,0,0,0,0,0,0,0,0,0,0,0,0,0,0,0,0,0,0,0,0,0,0,0,0,0,0,0,0,0,0,0,0,0,0,0,0,0,0,0,0,0,0,3578,916,21,21,21,21,21,21,21,3579,411,0,0,0,0,0,0,0,0,0,0,0,0,0,0,0,0,0,0,0,0,0,0,0,0,0,0,0,0,0,0,0,0,0,0,0,0,0,0,0,0,0,0,0,0,0,0,0,0,0,0,0,0,0,0,0,0,0,0,0,0,0,0,0,0,0,0,0,0,0,0,0,0,3580,3581,3582,21,21,21,21,21,21,21,21,21,21,3583,251,252,0,0,0,0,0,0,0,0,0,0,0,0,0,0,0,0,0,0,0,0,0,0,0,0,0,0,0,0,0,0,0,0,0,0,0,0,0,0,0,0,0,0,0,0,0,0,0,0,0,0,1823,3584,3585,3586,2356,3587,3588,20,21,21,21,21,21,21,21,21,21,21,21,21,21,21,21,21,21,21,21,21,21,21,21,21,21,21,21,3589,3590,0,0,0,0,0,0,0,0,0,0,0,0,0,0,0,0,0,0,0,0,0,0,0,0,0,0,0,0,0,0,0,0,0,0,0,0,0,0,0,0,0,0,0,0,0,0,0,0,0,0,0,0,0,0,0,0,0,0,0,0,0,0,0,0,0,0,0,0,0,240,3591,21,21,21,21,21,21,21,21,3592,1431,0,0,0,0,0,0,0,0,0,0,0,0,0,0,0,0,0,0,0,0,0,0,0,0,0,0,0,0,0,0,0,0,0,0,0,0,0,0,0,0,0,0,0,0,0,0,0,0,0,0,0,0,0,0,0,0,0,0,0,0,0,0,0,0,0,0,0,0,0,0,0,0,0,3593,3581,3582,21,21,21,21,21,21,21,21,21,21,3594,3595,2583,0,0,0,0,0,0,0,0,0,0,0,0,0,0,0,0,0,0,0,0,0,0,0,0,0,0,0,0,0,0,0,0,0,0,0,0,0,0,0,0,0,0,0,0,0,3596,3597,3598,3599,3600,3601,20,21,21,21,21,21,21,21,21,21,21,21,21,21,21,21,21,21,21,21,21,21,21,21,21,21,21,21,21,21,21,21,21,3602,3603,1829,3604,1855,3605,53,0,0,0,0,0,0,0,0,0,0,0,0,0,0,0,0,0,0,0,0,0,0,0,0,0,0,0,0,0,0,0,0,0,0,0,0,0,0,0,0,0,0,0,0,0,0,0,0,0,0,0,0,0,0,0,0,0,0,0,0,0,0,0,0,3606,3607,21,21,21,21,21,21,21,399,3608,0,0,0,0,0,0,0,0,0,0,0,0,0,0,0,0,0,0,0,0,0,0,0,0,0,0,0,0,0,0,0,0,0,0,0,0,0,0,0,0,0,0,0,0,0,0,0,0,0,0,0,0,0,0,0,0,0,0,0,0,0,0,0,0,0,0,0,0,0,0,0,0,0,0,0,3593,3581,3582,21,21,21,21,21,21,153,21,21,21,1679,3609,3610,0,0,0,0,0,0,0,0,0,0,0,0,0,0,0,0,0,0,0,0,0,0,0,0,0,0,0,0,0,0,0,0,0,0,0,0,0,0,0,0,0,0,1893,3611,3612,3613,2358,21,21,21,21,21,21,153,21,21,21,21,21,21,21,21,21,153,21,21,21,21,21,21,21,21,21,153,21,21,21,21,21,21,21,21,21,153,21,21,21,107,1783,3614,3615,3616,3617,3618,0,0,0,0,0,0,0,0,0,0,0,0,0,0,0,0,0,0,0,0,0,0,0,0,0,0,0,0,0,0,0,0,0,0,0,0,0,0,0,0,0,0,0,0,0,0,0,0,0,0,0,0,0,0,0,0,0,0,0,3619,3620,21,21,21,21,21,21,21,21,3621,3622,0,0,0,0,0,0,0,0,0,0,0,0,0,0,0,0,0,0,0,0,0,0,0,0,0,0,0,0,0,0,0,0,0,0,0,0,0,0,0,0,0,0,0,0,0,0,0,0,0,0,0,0,0,0,0,0,0,0,0,0,0,0,0,0,0,0,0,0,0,0,0,0,0,0,0,0,3593,3623,3624,21,177,179,181,184,186,175,21,21,21,132,238,3625,149,0,0,0,0,0,0,0,0,0,0,0,0,0,0,0,0,0,0,0,0,0,0,0,0,0,0,0,0,0,0,0,0,0,0,0,0,0,38,2561,3626,1971,3628,175,21,21,21,21,177,179,181,184,186,175,21,21,21,21,177,179,181,184,186,175,21,21,21,21,177,179,181,184,186,175,21,21,21,21,177,179,181,184,186,175,21,21,21,21,177,179,3631,3634,3636,3639,3640,3641,36,3642,0,0,0,0,0,0,0,0,0,0,0,0,0,0,0,0,0,0,0,0,0,0,0,0,0,0,0,0,0,0,0,0,0,0,0,0,0,0,0,0,0,0,0,0,0,0,0,0,0,0,0,0,0,3643,3644,21,21,21,21,21,177,179,181,264,3645,0,0,0,0,0,0,0,0,0,0,0,0,0,0,0,0,0,0,0,0,0,0,0,0,0,0,0,0,0,0,0,0,0,0,0,0,0,0,0,0,0,0,0,0,0,0,0,0,0,0,0,0,0,0,0,0,0,0,0,0,0,0,0,0,0,0,0,0,0,0,0,0,0,0,0,0,0,0,523,3646,3548,21,21,21,21,21,21,21,21,21,21,21,167,3647,3648,0,0,0,0,0,0,0,0,0,0,0,0,0,0,0,0,0,0,0,0,0,0,0,0,0,0,0,0,0,0,0,0,0,0,0,3649,3650,3651,21,21,21,21,21,21,21,21,21,21,21,21,21,21,21,21,21,21,21,21,21,21,21,21,21,21,21,21,21,21,21,21,21,21,21,21,21,21,21,21,21,21,21,21,21,21,21,21,21,21,21,21,21,21,21,2003,3652,3653,1829,3654,3655,3656,1856,11,12,0,0,0,0,0,0,0,0,0,0,0,0,0,0,0,0,0,0,0,0,0,0,0,0,0,0,0,0,0,0,0,0,0,0,0,0,0,0,0,0,0,0,0,0,38,3657,3658,242,21,21,21,21,21,21,21,21,1593,3659,0,0,0,0,0,0,0,0,0,0,0,0,0,0,0,0,0,0,0,0,0,0,0,0,0,0,0,0,0,0,0,0,0,0,0,0,0,0,0,0,0,0,0,0,0,0,0,0,0,0,0,0,0,0,0,0,0,0,0,0,0,0,0,0,0,0,0,0,0,0,0,0,0,0,0,0,0,0,0,426,3660,3661,21,21,21,21,21,21,21,21,21,21,21,132,3662,3663,2027,0,0,0,0,0,0,0,0,0,0,0,0,0,0,0,0,0,0,0,0,0,0,0,0,0,0,0,0,0,0,0,3664,3665,3666,21,21,21,21,21,21,21,21,21,21,21,21,21,21,21,21,21,21,21,21,21,21,21,21,21,21,21,21,21,21,21,21,21,21,21,21,21,21,21,21,21,21,21,21,21,21,21,21,21,21,21,21,21,21,21,21,21,21,21,21,21,21,161,2362,28,31,3667,3668,3669,3670,3555,63,12,0,0,0,0,0,0,0,0,0,0,0,0,0,0,0,0,0,0,0,0,0,0,0,0,0,0,0,0,0,0,0,0,0,0,0,0,3280,102,3671,3672,21,21,21,21,21,21,21,21,21,846,3673,1431,0,0,0,0,0,0,0,0,0,0,0,0,0,0,0,0,0,0,0,0,0,0,0,0,0,0,0,0,0,0,0,0,0,0,0,0,0,0,0,0,0,0,0,0,0,0,0,0,0,0,0,0,0,0,0,0,0,0,0,0,0,0,0,0,0,0,0,0,0,0,0,0,0,0,0,0,0,0,0,0,431,2770,3674,21,21,21,21,21,21,21,21,21,21,21,21,125,2037,100,2027,0,0,0,0,0,0,0,0,0,0,0,0,0,0,0,0,0,0,0,0,0,0,0,0,0,0,0,0,3675,3676,2402,21,21,21,21,21,21,21,21,21,21,21,21,21,21,21,21,21,21,21,21,21,21,21,21,21,21,21,21,21,21,21,21,21,21,21,21,21,21,21,21,21,21,21,21,21,21,21,21,21,21,21,21,21,21,21,21,21,21,21,21,21,21,21,21,21,21,21,21,21,21,3629,58,31,2363,3677,3678,1885,1926,0,0,0,0,0,0,0,0,0,0,0,0,0,0,0,0,0,0,0,0,0,0,0,0,0,0,0,0,0,3679,1929,3680,3681,3682,21,21,21,21,21,21,21,21,21,21,21,3683,3684,0,0,0,0,0,0,0,0,0,0,0,0,0,0,0,0,0,0,0,0,0,0,0,0,0,0,0,0,0,0,0,0,0,0,0,0,0,0,0,0,0,0,0,0,0,0,0,0,0,0,0,0,0,0,0,0,0,0,0,0,0,0,0,0,0,0,0,0,0,0,0,0,0,0,0,0,0,0,0,0,0,0,0,2108,3685,288,21,21,21,21,21,21,21,21,21,21,21,21,125,2037,3686,1832,137,0,0,0,0,0,0,0,0,0,0,0,0,0,0,0,0,0,0,0,0,0,0,0,0,3687,3688,242,21,21,21,21,21,21,21,21,21,21,21,21,21,21,21,21,21,21,21,21,21,21,21,21,21,21,21,21,21,21,21,21,21,21,21,21,21,21,21,21,21,21,21,21,21,21,21,21,21,21,21,21,21,21,21,21,21,21,21,21,21,21,21,21,21,21,21,21,21,21,21,21,21,21,21,21,161,3689,3690,3691,3692,0,0,0,0,0,0,0,0,0,0,0,0,0,0,0,0,0,0,0,0,0,2337,3693,3597,3694,3695,3696,3697,1948,20,21,21,21,21,21,21,21,21,21,21,21,21,3698,3699,0,0,0,0,0,0,0,0,0,0,0,0,0,0,0,0,0,0,0,0,0,0,0,0,0,0,0,0,0,0,0,0,0,0,0,0,0,0,0,0,0,0,0,0,0,0,0,0,0,0,0,0,0,0,0,0,0,0,0,0,0,0,0,0,0,0,0,0,0,0,0,0,0,0,0,0,0,0,0,0,0,0,0,0,0,3700,3701,3702,21,21,21,21,21,21,21,153,21,21,21,21,21,161,3703,3704,3655,3705,3556,3706,0,0,0,0,0,0,0,0,0,0,0,38,3707,75,9,3708,1757,3709,42,3710,3711,21,21,21,21,21,21,153,21,21,21,21,21,21,21,21,21,153,21,21,21,21,21,21,21,21,21,153,21,21,21,21,21,21,21,21,21,153,21,21,21,21,21,21,21,21,21,153,21,21,21,21,21,21,21,21,21,153,21,21,21,21,21,21,21,21,21,153,21,21,21,21,21,21,21,21,21,153,21,21,21,21,161,2564,3712,2416,0,0,0,0,0,0,0,0,0,0,0,2337,3693,3597,9,3713,3714,3715,3716,3717,3718,3720,3721,21,21,21,21,21,21,21,21,153,21,21,21,21,21,21,21,480,3722,484,0,0,0,0,0,0,0,0,0,0,0,0,0,0,0,0,0,0,0,0,0,0,0,0,0,0,0,0,0,0,0,0,0,0,0,0,0,0,0,0,0,0,0,0,0,0,0,0,0,0,0,0,0,0,0,0,0,0,0,0,0,0,0,0,0,0,0,0,0,0,0,0,0,0,0,0,0,0,0,0,0,0,0,0,0,0,3723,3724,3725,21,21,21,21,181,184,186,263,179,21,21,21,21,21,181,3727,3729,3731,3732,32,80,80,3733,42,42,79,3735,3737,80,3738,2549,3739,3740,106,3742,3744,173,263,179,21,21,21,21,21,181,184,186,263,179,21,21,21,21,21,181,184,186,263,179,21,21,21,21,21,181,184,186,263,179,21,21,21,21,21,181,184,186,263,179,21,21,21,21,21,181,184,186,263,179,21,21,21,21,21,181,184,186,263,179,21,21,21,21,21,181,184,186,263,179,21,21,21,21,21,181,184,186,263,179,21,21,21,21,243,2448,3745,85,2338,3566,7,3746,3747,3748,3749,3750,3751,3753,3755,28,3756,22,1825,21,21,181,184,186,263,179,21,21,21,21,21,181,184,186,263,179,21,21,21,21,2133,3757,501,0,0,0,0,0,0,0,0,0,0,0,0,0,0,0,0,0,0,0,0,0,0,0,0,0,0,0,0,0,0,0,0,0,0,0,0,0,0,0,0,0,0,0,0,0,0,0,0,0,0,0,0,0,0,0,0,0,0,0,0,0,0,0,0,0,0,0,0,0,0,0,0,0,0,0,0,0,0,0,0,0,0,0,0,0,0,0,0,426,3758,3759,1882,21,21,21,21,21,21,21,21,21,21,21,21,21,21,21,21,21,21,21,21,21,21,21,21,21,21,21,21,21,21,21,21,21,21,21,21,21,21,21,21,21,21,21,21,21,21,21,21,21,21,21,21,21,21,21,21,21,21,21,21,21,21,21,21,21,21,21,21,21,21,21,21,21,21,21,21,21,21,21,21,21,21,21,21,21,21,21,21,21,21,21,21,21,21,21,21,21,21,21,21,21,21,21,21,21,21,21,21,21,21,21,21,21,21,21,21,21,21,21,21,21,21,21,3760,28,2357,22,20,21,21,21,21,21,21,21,21,21,21,21,21,21,21,21,21,21,21,21,21,21,21,21,21,21,21,21,21,21,21,21,21,2795,3761,3317,0,0,0,0,0,0,0,0,0,0,0,0,0,0,0,0,0,0,0,0,0,0,0,0,0,0,0,0,0,0,0,0,0,0,0,0,0,0,0,0,0,0,0,0,0,0,0,0,0,0,0,0,0,0,0,0,0,0,0,0,0,0,0,0,0,0,0,0,0,0,0,0,0,0,0,0,0,0,0,0,0,0,0,0,0,0,0,0,0,0,0,1900,3762,3763,21,21,21,21,21,21,21,21,21,21,21,21,21,21,21,21,21,21,21,21,21,21,21,21,21,21,21,21,21,21,21,21,21,21,21,21,21,21,21,21,21,21,21,21,21,21,21,21,21,21,21,21,21,21,21,21,21,21,21,21,21,21,21,21,21,21,21,21,21,21,21,21,21,21,21,21,21,21,21,21,21,21,21,21,21,21,21,21,21,21,21,21,21,21,21,21,21,21,21,21,21,21,21,21,21,21,21,21,21,21,21,21,21,21,21,21,21,21,21,21,21,21,21,21,21,21,21,21,21,21,21,21,21,21,21,21,21,21,21,21,21,21,21,21,21,21,21,21,21,21,21,21,21,21,21,21,21,433,3764,2815,501,0,0,0,0,0,0,0,0,0,0,0,0,0,0,0,0,0,0,0,0,0,0,0,0,0,0,0,0,0,0,0,0,0,0,0,0,0,0,0,0,0,0,0,0,0,0,0,0,0,0,0,0,0,0,0,0,0,0,0,0,0,0,0,0,0,0,0,0,0,0,0,0,0,0,0,0,0,0,0,0,0,0,0,0,0,0,0,0,0,0,0,0,0,530,3758,3759,3765,21,21,21,21,21,21,21,21,21,21,21,21,21,21,21,21,21,21,21,21,21,21,21,21,21,21,21,21,21,21,21,21,21,21,21,21,21,21,21,21,21,21,21,21,21,21,21,21,21,21,21,21,21,21,21,21,21,21,21,21,21,21,21,21,21,21,21,21,21,21,21,21,21,21,21,21,21,21,21,21,21,21,21,21,21,21,21,21,21,21,21,21,21,21,21,21,21,21,21,21,21,21,21,21,21,21,21,21,21,21,21,21,21,21,21,21,21,21,21,21,21,21,21,21,21,21,21,21,21,21,21,21,21,21,21,21,21,21,21,21,21,21,21,21,21,21,21,21,21,21,21,21,21,21,1917,1918,3766,0,0,0,0,0,0,0,0,0,0,0,0,0,0,0,0,0,0,0,0,0,0,0,0,0,0,0,0,0,0,0,0,0,0,0,0,0,0,0,0,0,0,0,0,0,0,0,0,0,0,0,0,0,0,0,0,0,0,0,0,0,0,0,0,0,0,0,0,0,0,0,0,0,0,0,0,0,0,0,0,0,0,0,0,0,0,0,0,0,0,0,0,0,0,0,0,0,3767,3768,525,1882,21,21,21,21,21,21,21,21,21,21,21,21,21,21,21,21,21,21,21,21,21,21,21,21,21,21,21,21,21,21,21,21,21,21,21,21,21,21,21,21,21,21,21,21,21,21,21,21,21,21,21,21,21,21,21,21,21,21,21,21,21,21,21,21,21,21,21,21,21,21,21,21,21,21,21,21,21,21,21,21,21,21,21,21,21,21,21,21,21,21,21,21,21,21,21,21,21,21,21,21,21,21,21,21,21,21,21,21,21,21,21,21,21,21,21,21,21,21,21,21,21,21,21,21,21,21,21,21,21,21,21,21,21,21,21,21,21,21,21,21,21,21,21,21,21,21,21,21,21,433,3769,3770,3771,548,0,0,0,0,0,0,0,0,0,0,0,0,0,0,0,0,0,0,0,0,0,0,0,0,0,0,0,0,0,0,0,0,0,0,0,0,0,0,0,0,0,0,0,0,0,0,0,0,0,0,0,0,0,0,0,0,0,0,0,0,0,0,0,0,0,0,0,0,0,0,0,0,0,0,0,0,0,0,0,0,0,0,0,0,0,0,0,0,0,0,0,0,0,0,0,0,0,0,0,0,3772,3773,525,1882,21,21,21,21,21,21,21,21,21,21,153,21,21,21,21,21,21,21,21,21,153,21,21,21,21,21,21,21,21,21,153,21,21,21,21,21,21,21,21,21,153,21,21,21,21,21,21,21,21,21,153,21,21,21,21,21,21,21,21,21,153,21,21,21,21,21,21,21,21,21,153,21,21,21,21,21,21,21,21,21,153,21,21,21,21,21,21,21,21,21,153,21,21,21,21,21,21,21,21,21,153,21,21,21,21,21,21,21,21,21,153,21,21,21,21,21,21,21,21,21,153,21,21,21,21,21,21,21,21,21,153,21,21,21,21,21,21,21,21,21,153,21,21,21,3774,3775,3776,2862,2169,585,0,0,0,0,0,0,0,0,0,0,0,0,0,0,0,0,0,0,0,0,0,0,0,0,0,0,0,0,0,0,0,0,0,0,0,0,0,0,0,0,0,0,0,0,0,0,0,0,0,0,0,0,0,0,0,0,0,0,0,0,0,0,0,0,0,0,0,0,0,0,0,0,0,0,0,0,0,0,0,0,0,0,0,0,0,0,0,0,0,0,0,0,0,0,0,0,0,0,0,0,0,0,0,0,3772,3777,3778,3779,21,21,21,173,263,179,181,184,306,21,21,21,21,173,263,179,181,184,306,21,21,21,21,173,263,179,181,184,306,21,21,21,21,173,263,179,181,184,306,21,21,21,21,173,263,179,181,184,306,21,21,21,21,173,263,179,181,184,306,21,21,21,21,173,263,179,181,184,306,21,21,21,21,173,263,179,181,184,306,21,21,21,21,173,263,179,181,184,306,21,21,21,21,173,263,179,181,184,306,21,21,21,21,173,263,179,181,184,306,21,21,21,21,173,263,179,181,184,306,21,21,21,21,173,263,179,181,184,306,21,21,21,21,173,263,179,181,3782,3785,3786,3787,3788,3789,3790,0,0,0,0,0,0,0,0,0,0,0,0,0,0,0,0,0,0,0,0,0,0,0,0,0,0,0,0,0,0,0,0,0,0,0,0,0,0,0,0,0,0,0,0,0,0,0,0,0,0,0,0,0,0,0,0,0,0,0,0,0,0,0,0,0,0,0,0,0,0,0,0,0,0,0,0,0,0,0,0,0,0,0,0,0,0,0,0,0,0,0,0,0,0,0,0,0,0,0,0,0,0,0,0,0,0,0,0,0,0,1876,3791,1982,3792,2024,3793,21,21,21,21,21,21,21,21,21,21,21,21,21,21,21,21,21,21,21,21,21,21,21,21,21,21,21,21,21,21,21,21,21,21,21,21,21,21,21,21,21,21,21,21,21,21,21,21,21,21,21,21,21,21,21,21,21,21,21,21,21,21,21,21,21,21,21,21,21,21,21,21,21,21,21,21,21,21,21,21,21,21,21,21,21,21,21,21,21,21,21,21,21,21,21,21,21,21,21,21,21,21,21,21,21,21,21,21,21,21,21,21,21,21,21,21,21,21,21,21,21,21,21,21,21,21,21,3794,3795,3796,3797,3798,3799,3800,3801,3802,0,0,0,0,0,0,0,0,0,0,0,0,0,0,0,0,0,0,0,0,0,0,0,0,0,0,0,0,0,0,0,0,0,0,0,0,0,0,0,0,0,0,0,0,0,0,0,0,0,0,0,0,0,0,0,0,0,0,0,0,0,0,0,0,0,0,0,0,0,0,0,0,0,0,0,0,0,0,0,0,0,0,0,0,0,0,0,0,0,0,0,0,0,0,0,0,0,0,0,0,0,0,0,0,0,0,0,0,0,0,0,0,0,0,0,0,0,2035,2170,3803,3804,3805,3806,3807,3808,3809,3810,3810,3811,3812,3810,3810,3810,3796,3813,3814,3815,3816,21,21,21,21,21,21,21,21,21,21,21,21,21,21,21,21,21,21,21,21,21,21,21,21,21,21,21,21,21,21,21,21,21,21,21,21,21,21,21,21,21,21,21,21,21,21,21,21,21,21,21,21,21,21,21,21,21,21,21,21,21,21,21,21,21,21,21,21,21,21,21,21,21,21,21,21,21,21,21,21,21,21,21,21,21,21,21,21,21,21,21,21,21,21,21,21,21,21,21,21,3817,3818,3810,3819,3797,3798,3799,2219,3820,3821,3822,3823,0,0,0,0,0,0,0,0,0,0,0,0,0,0,0,0,0,0,0,0,0,0,0,0,0,0,0,0,0,0,0,0,0,0,0,0,0,0,0,0,0,0,0,0,0,0,0,0,0,0,0,0,0,0,0,0,0,0,0,0,0,0,0,0,0,0,0,0,0,0,0,0,0,0,0,0,0,0,0,0,0,0,0,0,0,0,0,0,0,0,0,0,0,0,0,0,0,0,0,0,0,0,0,0,0,0,0,0,0,0,0,0,0,0,0,0,0,0,0,0,0,0,0,0,0,0,0,0,0,0,2035,3824,3824,3824,3825,3826,3824,3824,3824,3823,0,843,3827,1650,21,21,21,21,21,21,21,21,21,21,21,21,21,21,21,21,21,21,21,21,21,21,21,21,21,21,21,21,21,21,21,21,21,21,21,21,21,21,21,21,21,21,21,21,21,21,21,21,21,21,21,21,21,21,21,21,21,21,21,21,21,21,21,21,21,21,21,21,21,21,21,21,21,21,21,21,21,21,21,21,21,21,21,21,21,21,21,21,21,21,21,21,21,21,21,21,21,21,21,21,1679,3828,3829,3830,0,0,0,0,0,0,0,0,0,0,0,0,0,0,0,0,0,0,0,0,0,0,0,0,0,0,0,0,0,0,0,0,0,0,0,0,0,0,0,0,0,0,0,0,0,0,0,0,0,0,0,0,0,0,0,0,0,0,0,0,0,0,0,0,0,0,0,0,0,0,0,0,0,0,0,0,0,0,0,0,0,0,0,0,0,0,0,0,0,0,0,0,0,0,0,0,0,0,0,0,0,0,0,0,0,0,0,0,0,0,0,0,0,0,0,0,0,0,0,0,0,0,0,0,0,0,0,0,0,0,0,0,0,0,0,0,0,0,0,0,0,0,0,0,0,0,0,0,0,3831,3832,21,21,21,21,21,21,21,21,21,21,21,21,21,21,21,21,21,21,21,21,21,21,21,21,21,21,21,21,21,21,21,21,21,21,21,21,21,21,21,21,21,21,21,21,21,21,21,21,21,21,21,21,21,21,21,21,21,21,21,21,21,21,21,21,21,21,21,21,21,21,21,21,21,21,21,21,21,21,21,21,21,21,21,21,21,21,21,21,21,21,21,21,21,21,21,21,21,21,21,21,21,21,3833,2735,0,0,0,0,0,0,0,0,0,0,0,0,0,0,0,0,0,0,0,0,0,0,0,0,0,0,0,0,0,0,0,0,0,0,0,0,0,0,0,0,0,0,0,0,0,0,0,0,0,0,0,0,0,0,0,0,0,0,0,0,0,0,0,0,0,0,0,0,0,0,0,0,0,0,0,0,0,0,0,0,0,0,0,0,0,0,0,0,0,0,0,0,0,0,0,0,0,0,0,0,0,0,0,0,0,0,0,0,0,0,0,0,0,0,0,0,0,0,0,0,0,0,0,0,0,0,0,0,0,0,0,0,0,0,0,0,0,0,0,0,0,0,0,0,0,0,0,0,0,3834,3835,21,21,21,21,21,21,153,21,21,21,21,21,21,21,21,21,153,21,21,21,21,21,21,21,21,21,153,21,21,21,21,21,21,21,21,21,153,21,21,21,21,21,21,21,21,21,153,21,21,21,21,21,21,21,21,21,153,21,21,21,21,21,21,21,21,21,153,21,21,21,21,21,21,21,21,21,153,21,21,21,21,21,21,21,21,21,153,21,21,21,21,21,21,21,21,21,153,21,21,21,21,21,21,21,3836,2089,0,0,0,0,0,0,0,0,0,0,0,0,0,0,0,0,0,0,0,0,0,0,0,0,0,0,0,0,0,0,0,0,0,0,0,0,0,0,0,0,0,0,0,0,0,0,0,0,0,0,0,0,0,0,0,0,0,0,0,0,0,0,0,0,0,0,0,0,0,0,0,0,0,0,0,0,0,0,0,0,0,0,0,0,0,0,0,0,0,0,0,0,0,0,0,0,0,0,0,0,0,0,0,0,0,0,0,0,0,0,0,0,0,0,0,0,0,0,0,0,0,0,0,0,0,0,0,0,0,0,0,0,0,0,0,0,0,0,0,0,0,0,0,0,0,0,0,3837,3838,21,21,21,21,21,181,184,186,263,179,21,21,21,21,21,181,184,186,263,179,21,21,21,21,21,181,184,186,263,179,21,21,21,21,21,181,184,186,263,179,21,21,21,21,21,181,184,186,263,179,21,21,21,21,21,181,184,186,263,179,21,21,21,21,21,181,184,186,263,179,21,21,21,21,21,181,184,186,263,179,21,21,21,21,21,181,184,186,263,179,21,21,21,21,21,181,184,186,263,179,21,21,21,21,21,2093,2094,0,0,0,0,0,0,0,0,0,0,0,0,0,0,0,0,0,0,0,0,0,0,0,0,0,0,0,0,0,0,0,0,0,0,0,0,0,0,0,0,0,0,0,0,0,0,0,0,0,0,0,0,0,0,0,0,0,0,0,0,0,0,0,0,0,0,0,0,0,0,0,0,0,0,0,0,0,0,0,0,0,0,0,0,0,0,0,0,0,0,0,0,0,0,0,0,0,0,0,0,0,0,0,0,0,0,0,0,0,0,0,0,0,0,0,0,0,0,0,0,0,0,0,0,0,0,0,0,0,0,0,0,0,0,0,0,0,0,0,0,0,0,0,0,0,0,1617,3839,242,21,21,21,21,21,21,21,21,21,21,21,21,21,21,21,21,21,21,21,21,21,21,21,21,21,21,21,21,21,21,21,21,21,21,21,21,21,21,21,21,21,21,21,21,21,21,21,21,21,21,21,21,21,21,21,21,21,21,21,21,21,21,21,21,21,21,21,21,21,21,21,21,21,21,21,21,21,21,21,21,21,21,21,21,21,21,21,21,21,21,21,21,21,21,21,21,21,21,21,21,21,21,21,21,21,21,3840,0,0,0,0,0,0,0,0,0,0,0,0,0,0,0,0,0,0,0,0,0,0,0,0,0,0,0,0,0,0,0,0,0,0,0,0,0,0,0,0,0,0,0,0,0,0,0,0,0,0,0,0,0,0,0,0,0,0,0,0,0,0,0,0,0,0,0,0,0,0,0,0,0,0,0,0,0,0,0,0,0,0,0,0,0,0,0,0,0,0,0,0,0,0,0,0,0,0,0,0,0,0,0,0,0,0,0,0,0,0,0,0,0,0,0,0,0,0,0,0,0,0,0,0,0,0,0,0,0,0,0,0,0,0,0,0,0,0,0,0,0,0,0,0,0,0,3841,1635,21,21,21,21,21,21,21,21,21,21,21,21,21,21,21,21,21,21,21,21,21,21,21,21,21,21,21,21,21,21,21,21,21,21,21,21,21,21,21,21,21,21,21,21,21,21,21,21,21,21,21,21,21,21,21,21,21,21,21,21,21,21,21,21,21,21,21,21,21,21,21,21,21,21,21,21,21,21,21,21,21,21,21,21,21,21,21,21,21,21,21,21,21,21,21,21,21,21,21,21,21,21,21,21,21,21,21,3842,0,0,0,0,0,0,0,0,0,0,0,0,0,0,0,0,0,0,0,0,0,0,0,0,0,0,0,0,0,0,0,0,0,0,0,0,0,0,0,0,0,0,0,0,0,0,0,0,0,0,0,0,0,0,0,0,0,0,0,0,0,0,0,0,0,0,0,0,0,0,0,0,0,0,0,0,0,0,0,0,0,0,0,0,0,0,0,0,0,0,0,0,0,0,0,0,0,0,0,0,0,0,0,0,0,0,0,0,0,0,0,0,0,0,0,0,0,0,0,0,0,0,0,0,0,0,0,0,0,0,0,0,0,0,0,0,0,0,0,0,0,0,0,0,0,0,3843,21,21,21,21,21,21,21,21,21,21,21,21,21,21,21,21,21,21,21,21,21,21,21,21,21,21,21,21,21,21,21,21,21,21,21,21,21,21,21,21,21,21,21,21,21,21,21,21,21,21,21,21,21,21,21,21,21,21,21,21,21,21,21,21,21,21,21,21,21,21,21,21,21,21,21,21,21,21,21,21,21,21,21,21,21,21,21,21,21,21,21,21,21,21,21,21,21,21,21,21,21,21,21,21,21,21,21,21,3844,0,0,0,0,0,0,0,0,0,0,0,0,0,0,0,0,0,0,0,0,0,0,0,0,0,0,0,0,0,0,0,0,0,0,0,0,0,0,0,0,0,0,0,0,0,0,0,0,0,0,0,0,0,0,0,0,0,0,0,0,0,0,0,0,0,0,0,0,0,0,0,0,0,0,0,0,0,0,0,0,0,0,0,0,0,0,0,0,0,0,0,0,0,0,0,0,0,0,0,0,0,0,0,0,0,0,0,0,0,0,0,0,0,0,0,0,0,0,0,0,0,0,0,0,0,0,0,0,0,0,0,0,0,0,0,0,0,0,0,0,0,0,0,0,0,0,3845,21,21,21,21,21,21,21,21,21,21,21,21,21,21,21,21,21,21,21,21,21,21,21,21,21,21,21,21,21,21,21,21,21,21,21,21,21,21,21,21,21,21,21,21,21,21,21,21,21,21,21,21,21,21,21,21,21,21,21,21,21,21,21,21,21,21,21,21,21,21,21,21,21,21,21,21,21,21,21,21,21,21,21,21,21,21,21,21,21,21,21,21,21,21,21,21,21,21,21,21,21,21,21,21,21,21,21,433,3846,0,0,0,0,0,0,0,0,0,0,0,0,0,0,0,0,0,0,0,0,0,0,0,0,0,0,0,0,0,0,0,0,0,0,0,0,0,0,0,0,0,0,0,0,0,0,0,0,0,0,0,0,0,0,0,0,0,0,0,0,0,0,0,0,0,0,0,0,0,0,0,0,0,0,0,0,0,0,0,0,0,0,0,0,0,0,0,0,0,0,0,0,0,0,0,0,0,0,0,0,0,0,0,0,0,0,0,0,0,0,0,0,0,0,0,0,0,0,0,0,0,0,0,0,0,0,0,0,0,0,0,0,0,0,0,0,0,0,0,0,0,0,0,0,0,0,3847,3624,21,21,21,21,21,21,153,21,21,21,21,21,21,21,21,21,153,21,21,21,21,21,21,21,21,21,153,21,21,21,21,21,21,21,21,21,153,21,21,21,21,21,21,21,21,21,153,21,21,21,21,21,21,21,21,21,153,21,21,21,21,21,21,21,21,21,153,21,21,21,21,21,21,21,21,21,153,21,21,21,21,21,21,21,21,21,153,21,21,21,21,21,21,21,21,21,153,21,21,21,21,21,21,21,21,21,2731,3848,0,0,0,0,0,0,0,0,0,0,0,0,0,0,0,0,0,0,0,0,0,0,0,0,0,0,0,0,0,0,0,0,0,0,0,0,0,0,0,0,0,0,0,0,0,0,0,0,0,0,0,0,0,0,0,0,0,0,0,0,0,0,0,0,0,0,0,0,0,0,0,0,0,0,0,0,0,0,0,0,0,0,0,0,0,0,0,0,0,0,0,0,0,0,0,0,0,0,0,0,0,0,0,0,0,0,0,0,0,0,0,0,0,0,0,0,0,0,0,0,0,0,0,0,0,0,0,0,0,0,0,0,0,0,0,0,0,0,0,0,0,0,0,0,0,0,523,3849,3850,3851,21,21,21,364,186,263,179,181,264,21,21,21,21,364,186,263,179,181,264,21,21,21,21,364,186,263,179,181,264,21,21,21,21,364,186,263,179,181,264,21,21,21,21,364,186,263,179,181,264,21,21,21,21,364,186,263,179,181,264,21,21,21,21,364,186,263,179,181,264,21,21,21,21,364,186,263,179,181,264,21,21,21,21,364,186,263,179,181,264,21,21,21,21,364,186,263,179,181,264,21,21,21,508,3852,3853,0,0,0,0,0,0,0,0,0,0,0,0,0,0,0,0,0,0,0,0,0,0,0,0,0,0,0,0,0,0,0,0,0,0,0,0,0,0,0,0,0,0,0,0,0,0,0,0,0,0,0,0,0,0,0,0,0,0,0,0,0,0,0,0,0,0,0,0,0,0,0,0,0,0,0,0,0,0,0,0,0,0,0,0,0,0,0,0,0,0,0,0,0,0,0,0,0,0,0,0,0,0,0,0,0,0,0,0,0,0,0,0,0,0,0,0,0,0,0,0,0,0,0,0,0,0,0,0,0,0,0,0,0,0,0,0,0,0,0,0,0,0,0,0,0,0,0,0,0,3854,2151,3855,2164,3856,3857,288,21,21,21,21,21,21,21,21,21,21,21,21,21,21,21,21,21,21,21,21,21,21,21,21,21,21,21,21,21,21,21,21,21,21,21,21,21,21,21,21,21,21,21,21,21,21,21,21,21,21,21,21,21,21,21,21,21,21,21,21,21,21,21,21,21,21,21,21,21,21,21,21,21,21,21,21,21,21,21,21,21,21,21,21,21,21,21,21,21,21,21,21,21,21,1468,3858,3859,3860,557,0,0,0,0,0,0,0,0,0,0,0,0,0,0,0,0,0,0,0,0,0,0,0,0,0,0,0,0,0,0,0,0,0,0,0,0,0,0,0,0,0,0,0,0,0,0,0,0,0,0,0,0,0,0,0,0,0,0,0,0,0,0,0]}],"tilesets":[{"firstgid":1,"source":"../Extension_Metano.tsj"}]}