{"type":"map","version":"1.10","tiledversion":"1.10.2","orientation":"orthogonal","renderorder":"right-down","width":256,"height":192,"tilewidth":8,"tileheight":8,"infinite":false,"nextlayerid":3,"nextobjectid":1,"layers":[{"id":1,"name":"Terrain et falaises","type":"tilelayer","x":0,"y":0,"width":256,"height":192,"opacity":1,"visible":true,"data":[2,2,2,2,2,2,2,2,2,2,2,2,2,2,2,2,2,2,2,2,2,2,2,2,2,2,2,2,2,2,2,2,2,2,2,2,2,2,2,2,2,2,2,2,2,2,2,2,2,2,2,2,2,2,2,2,2,2,2,2,2,2,2,2,2,2,2,2,2,2,2,2,2,2,2,2,2,2,2,2,2,2,2,2,2,2,2,2,2,2,2,2,2,2,2,2,2,2,2,2,2,2,2,2,2,2,2,2,2,2,2,2,2,2,2,2,2,2,2,2,2,2,2,2,2,2,2,2,2,2,2,2,2,2,2,2,2,2,2,2,2,2,2,2,2,2,2,2,2,2,2,2,2,2,2,2,2,2,2,2,2,2,2,2,2,2,2,2,2,2,2,2,2,2,2,2,2,2,2,2,2,2,2,2,2,2,2,2,2,2,2,2,2,2,2,2,2,2,2,2,2,2,2,2,2,2,2,2,2,2,2,2,2,2,2,2,2,2,2,2,2,2,2,2,2,2,2,2,2,2,2,2,2,2,2,2,2,2,2,2,2,2,2,2,2,2,2,2,2,2,2,2,2,2,2,2,2,2,2,2,2,2,2,2,2,2,2,2,2,2,2,2,2,2,2,2,2,2,2,2,2,2,2,2,2,2,2,2,2,2,2,2,2,2,2,2,2,2,2,2,2,2,2,2,2,2,2,2,2,2,2,2,2,2,2,2,2,2,2,2,2,2,2,2,2,2,2,2,2,2,2,2,2,2,2,2,2,2,2,2,2,2,2,2,2,2,2,2,2,2,2,2,2,2,2,2,2,2,2,2,2,2,2,2,2,2,2,2,2,2,2,2,2,2,2,2,2,2,2,2,2,2,2,2,2,2,2,2,2,2,2,2,2,2,2,2,2,2,2,2,2,2,2,2,2,2,2,2,2,2,2,2,2,2,2,2,2,2,2,2,2,2,2,2,2,2,2,2,2,2,2,2,2,2,2,2,2,2,2,2,2,2,2,2,2,2,2,2,2,2,2,2,2,2,2,2,2,2,2,2,2,2,2,2,2,2,2,2,2,2,2,2,2,2,2,2,2,2,2,2,2,2,2,2,2,2,2,2,2,2,2,2,2,2,2,2,2,2,2,2,2,2,2,2,2,2,2,2,2,2,2,2,3,2,3,2,3,2,3,2,3,3,2,3,2,3,2,3,3,2,3,2,3,2,3,2,3,3,2,3,2,3,2,3,3,2,3,2,3,2,3,2,3,3,2,3,2,3,2,3,3,2,3,2,3,2,3,2,3,3,2,3,2,3,2,3,3,2,3,2,3,2,3,2,3,3,2,3,2,3,2,3,3,2,3,2,3,2,3,2,3,3,2,3,2,3,2,3,3,2,3,2,3,2,3,2,3,3,2,3,2,3,2,3,3,2,3,2,3,2,3,2,3,3,2,3,2,3,2,3,3,2,3,2,3,2,3,2,3,3,2,3,2,3,2,3,3,2,3,2,3,2,3,2,3,3,2,3,2,3,2,3,3,2,3,2,3,2,3,2,3,3,2,3,2,3,2,3,3,2,3,2,3,2,3,2,3,3,2,3,2,3,2,3,3,2,3,2,3,2,3,2,3,3,2,3,2,3,2,3,3,2,3,2,3,2,3,2,3,3,2,3,2,3,2,3,3,2,3,2,3,2,3,2,3,3,2,3,2,3,2,3,3,2,3,2,3,2,3,2,3,3,2,3,2,3,2,3,2,2,2,2,2,2,2,2,2,2,2,2,2,2,2,2,2,2,2,2,2,2,2,2,2,2,2,2,2,2,2,2,2,2,2,2,2,2,2,2,2,2,2,2,2,2,2,2,2,2,2,2,2,2,2,2,2,2,2,2,2,2,2,2,2,2,2,2,2,2,2,2,2,2,2,2,2,2,2,2,2,2,2,2,2,2,2,2,2,2,2,2,2,2,2,2,2,2,2,2,2,2,2,2,2,2,2,2,2,2,2,2,2,2,2,2,2,2,2,2,2,2,2,2,2,2,2,2,2,2,2,2,2,2,2,2,2,2,2,2,2,2,2,2,2,2,2,2,2,2,2,2,2,2,2,2,2,2,2,2,2,2,2,2,2,2,2,2,2,2,2,2,2,2,2,2,2,2,2,2,2,2,2,2,2,2,2,2,2,2,2,2,2,2,2,2,2,2,2,2,2,2,2,2,2,2,2,2,2,2,2,2,2,2,2,2,2,2,2,2,2,2,2,2,2,2,2,2,2,2,2,2,2,2,2,2,2,2,2,2,2,2,2,2,2,2,2,2,2,2,2,2,2,2,2,2,3,2,3,2,3,2,3,2,3,3,2,3,2,3,2,3,3,2,3,2,3,2,3,2,3,3,2,3,2,3,2,3,3,2,3,2,3,2,3,2,3,3,2,3,2,3,2,3,3,2,3,2,3,2,3,2,3,3,2,3,2,3,2,3,3,2,3,2,3,2,3,2,3,3,2,3,2,3,2,3,3,2,3,2,3,2,3,2,3,3,2,3,2,3,2,3,3,2,3,2,3,2,3,2,3,3,2,3,2,3,2,3,3,2,3,2,3,2,3,2,3,3,2,3,2,3,2,3,3,2,3,2,3,2,3,2,3,3,2,3,2,3,2,3,3,2,3,2,3,2,3,2,3,3,2,3,2,3,2,3,3,2,3,2,3,2,3,2,3,3,2,3,2,3,2,3,3,2,3,2,3,2,3,2,3,3,2,3,2,3,2,3,3,2,3,2,3,2,3,2,3,3,2,3,2,3,2,3,3,2,3,2,3,2,3,2,3,3,2,3,2,3,2,3,3,2,3,2,3,2,3,2,3,3,2,3,2,3,2,3,3,2,3,2,3,2,3,2,3,3,2,3,2,3,2,3,2,2,2,2,2,2,2,2,2,2,2,2,2,2,2,2,2,2,2,2,2,2,2,2,2,2,2,2,2,2,2,2,2,2,2,2,2,2,2,2,2,2,2,2,2,2,2,2,2,2,2,2,2,2,2,2,2,2,2,2,2,2,2,2,2,2,2,2,2,2,2,2,2,2,2,2,2,2,2,2,2,2,2,2,2,2,2,2,2,2,2,2,2,4,5,6,7,8,5,6,9,10,5,6,7,8,5,6,9,10,5,6,7,8,5,6,9,10,5,6,7,8,5,6,9,10,5,6,7,8,5,6,9,10,5,6,7,8,5,6,9,10,5,6,7,8,5,6,9,10,5,6,7,8,5,6,9,10,5,6,7,8,5,6,9,10,11,2,2,2,2,2,2,2,2,2,2,2,2,2,2,2,2,2,2,2,2,2,2,2,2,2,2,2,2,2,2,2,2,2,2,2,2,2,2,2,2,2,2,2,2,2,2,2,2,2,2,2,2,2,2,2,2,2,2,2,2,2,2,2,2,2,2,2,2,2,2,2,2,2,2,2,2,2,2,2,2,2,2,2,2,2,2,2,2,2,3,2,3,2,3,2,3,2,3,3,2,3,2,3,2,3,3,2,3,2,3,2,3,2,3,3,2,3,2,3,2,3,3,2,3,2,3,2,3,2,3,3,2,3,2,3,2,3,3,2,3,2,3,2,3,2,3,3,2,3,2,3,2,3,3,2,3,2,3,2,3,2,3,3,2,3,2,3,2,3,3,2,3,2,3,2,3,2,3,3,2,3,12,13,2,3,3,2,3,2,3,2,3,2,3,3,2,3,2,3,2,3,3,2,3,2,3,2,3,2,3,3,2,3,2,3,2,3,3,2,3,2,3,2,3,2,3,3,2,3,2,3,2,3,3,2,3,2,3,2,3,2,3,3,2,3,2,3,2,3,3,2,3,2,3,2,14,15,16,3,2,3,2,3,2,3,3,2,3,2,3,2,3,2,3,3,2,3,2,3,2,3,3,2,3,2,3,2,3,2,3,3,2,3,2,3,2,3,3,2,3,2,3,2,3,2,3,3,2,3,2,3,2,3,3,2,3,2,3,2,3,2,3,3,2,3,2,3,2,3,3,2,3,2,3,2,3,2,3,3,2,3,2,3,2,3,2,2,2,2,2,2,2,2,2,2,2,2,2,2,2,2,2,2,2,2,2,2,2,2,2,2,2,2,2,2,2,2,2,2,2,2,2,2,2,2,2,2,2,2,2,2,2,2,2,2,2,2,2,2,2,2,2,2,2,2,2,2,2,2,2,2,2,2,2,2,2,2,2,2,2,2,2,2,2,2,2,2,2,2,2,2,2,2,2,2,2,17,18,19,2,2,2,2,2,2,2,2,2,2,2,2,2,2,2,2,2,2,2,2,2,2,2,2,2,2,2,2,2,2,2,2,2,2,2,2,2,2,2,2,2,2,2,2,2,2,2,2,2,2,2,2,2,2,2,2,2,2,2,2,2,2,2,2,2,2,2,2,2,2,2,2,2,20,21,22,2,2,2,2,2,2,2,2,2,2,2,2,2,2,2,2,2,2,2,2,2,2,2,2,2,2,2,2,2,2,2,2,2,2,2,2,2,2,2,2,2,2,2,2,2,2,2,2,2,2,2,2,2,2,2,2,2,2,2,2,2,2,2,2,2,2,2,2,2,2,2,2,2,2,2,2,2,2,2,2,2,2,2,2,2,2,3,2,3,2,3,2,3,2,3,3,2,3,2,3,2,3,3,2,3,2,3,2,3,2,3,3,2,3,2,3,2,3,3,2,3,2,3,2,3,2,3,3,2,3,2,3,2,3,3,2,3,2,3,2,3,2,3,3,2,3,2,3,2,3,3,2,3,2,3,2,3,2,3,3,2,3,2,3,2,3,3,2,3,2,3,2,3,2,3,3,23,24,25,3,2,3,3,2,3,2,3,2,3,2,3,3,2,3,2,3,2,3,3,2,3,2,3,2,3,2,3,3,2,3,2,3,2,3,3,2,3,2,3,2,3,2,3,3,2,3,2,3,2,3,3,2,3,2,3,2,3,2,3,3,2,3,2,3,2,3,3,2,3,2,3,2,3,2,26,27,28,3,2,3,2,3,3,2,3,2,3,2,3,2,3,3,2,3,2,3,2,3,3,2,3,2,3,2,3,2,3,3,2,3,2,3,2,3,3,2,3,2,3,2,3,2,3,3,2,3,2,3,2,3,3,2,3,2,3,2,3,2,3,3,2,3,2,3,2,3,3,2,3,2,3,2,3,2,3,3,2,3,2,3,2,3,2,2,2,2,2,2,2,2,2,2,2,2,2,2,2,2,2,2,2,2,2,2,2,2,2,2,2,2,2,2,2,2,2,2,2,2,2,2,2,2,2,2,2,2,2,2,2,2,2,2,2,2,2,2,2,2,2,2,2,2,2,2,2,2,2,2,2,2,2,2,2,2,2,2,2,2,2,2,2,2,2,2,2,2,2,2,2,2,2,29,30,31,2,2,2,2,2,2,2,2,2,2,2,2,2,2,2,2,2,2,2,2,2,2,2,2,2,2,2,2,2,2,2,2,2,2,2,2,2,2,2,2,2,2,2,2,2,2,2,2,2,2,2,2,2,2,2,2,2,2,2,2,2,2,2,2,2,2,2,2,2,2,2,2,2,2,2,2,2,32,33,34,2,2,2,2,2,2,2,2,2,2,2,2,2,2,2,2,2,2,2,2,2,2,2,2,2,2,2,2,2,2,2,2,2,2,2,2,2,2,2,2,2,2,2,2,2,2,2,2,2,2,2,2,2,2,2,2,2,2,2,2,2,2,2,2,2,2,2,2,2,2,2,2,2,2,2,2,2,2,2,2,2,2,2,2,2,2,2,2,2,2,2,2,2,2,2,2,2,2,2,2,2,2,2,2,2,2,2,2,2,2,2,2,2,2,2,2,2,2,2,2,2,2,2,2,2,2,2,2,2,2,2,2,2,2,2,2,2,2,2,2,2,2,2,2,2,2,2,2,2,2,2,2,2,2,2,2,2,2,2,2,2,2,2,2,2,2,2,2,2,2,2,2,2,35,36,2,2,2,2,2,2,2,2,2,2,2,2,2,2,2,2,2,2,2,2,2,2,2,2,2,2,2,2,2,2,2,2,2,2,2,2,2,2,2,2,2,2,2,2,2,2,2,2,2,2,2,2,2,2,2,2,2,2,2,2,2,2,2,2,2,2,2,2,2,2,2,2,2,2,2,2,2,2,2,37,38,39,2,2,2,2,2,2,2,2,2,2,2,2,2,2,2,2,2,2,2,2,2,2,2,2,2,2,2,2,2,2,2,2,2,2,2,2,2,2,2,2,2,2,2,2,2,2,2,2,2,2,2,2,2,2,2,2,2,2,2,2,2,2,2,2,2,2,2,2,2,2,2,2,2,2,2,2,2,2,2,2,2,2,2,3,2,3,2,3,2,3,2,3,3,2,3,2,3,2,3,3,2,3,2,3,2,3,2,3,3,2,3,2,3,2,3,3,2,3,2,3,2,3,2,3,3,2,3,2,3,2,3,3,2,3,2,3,2,3,2,3,3,2,3,2,3,2,3,3,2,3,2,3,2,3,2,3,3,2,3,2,3,2,3,3,2,3,2,3,2,3,2,40,41,2,3,2,3,2,3,3,2,3,2,3,2,3,2,3,3,2,3,2,3,2,3,3,2,3,2,3,2,3,2,3,3,2,3,2,3,2,3,3,2,3,2,3,2,3,2,3,3,2,3,2,3,2,3,3,2,3,2,3,2,3,2,3,3,2,3,2,3,2,3,3,2,3,2,3,2,3,2,3,3,2,3,42,43,2,3,3,2,3,2,3,2,3,2,3,3,2,3,2,3,2,3,3,2,3,2,3,2,3,2,3,3,2,3,2,3,2,3,3,2,3,2,3,2,3,2,3,3,2,3,2,3,2,3,3,2,3,2,3,2,3,2,3,3,2,3,2,3,2,3,3,2,3,2,3,2,3,2,3,3,2,3,2,3,2,3,2,2,2,2,2,2,2,2,2,2,2,2,2,2,2,2,2,2,2,2,2,2,2,2,2,2,2,2,2,2,2,2,2,2,2,2,2,2,2,2,2,2,2,2,2,2,2,2,2,2,2,2,2,2,2,2,2,2,2,2,2,2,2,2,2,2,2,2,2,2,2,2,2,2,2,2,2,2,2,2,2,2,2,2,2,2,2,44,45,2,2,2,2,2,2,2,2,2,2,2,2,2,2,2,2,2,2,2,2,2,2,2,2,2,2,2,2,2,2,2,2,2,2,2,2,2,2,2,2,2,2,2,2,2,2,2,2,2,2,2,2,2,2,2,2,2,2,2,2,2,2,2,2,2,2,2,2,2,2,2,2,2,2,2,2,2,2,2,2,2,2,2,2,46,47,48,2,2,2,2,2,2,2,2,2,2,2,2,2,2,2,2,2,2,2,2,2,2,2,2,2,2,2,2,2,2,2,2,2,2,2,2,2,2,2,2,2,2,2,2,2,2,2,2,2,2,2,2,2,2,2,2,2,2,2,2,2,2,2,2,2,2,2,2,2,2,2,2,2,2,2,2,2,2,2,2,3,2,3,2,3,2,3,2,3,3,2,3,2,3,2,3,3,2,3,2,3,2,3,2,3,3,2,3,2,3,2,3,3,2,3,2,3,2,3,2,3,3,2,3,2,3,2,3,3,2,3,2,3,2,3,2,3,3,2,3,2,3,2,3,3,2,3,2,3,2,3,2,3,3,2,3,2,3,2,3,3,2,3,2,3,2,49,50,51,3,2,3,2,3,2,3,3,2,3,2,3,2,3,2,3,3,2,3,2,3,2,3,3,2,3,2,3,2,3,2,3,3,2,3,2,3,2,3,3,2,3,2,3,2,3,2,3,3,2,3,2,3,2,3,3,2,3,2,3,2,3,2,3,3,2,3,2,3,2,3,3,2,3,2,3,2,3,2,3,3,2,3,2,3,52,53,54,2,3,2,3,2,3,2,3,3,2,3,2,3,2,3,3,55,56,57,58,59,60,59,60,60,59,60,59,60,59,60,60,59,60,59,60,59,60,59,60,60,59,60,59,60,59,60,60,59,60,59,60,59,60,59,60,60,59,60,59,60,59,60,60,59,60,59,60,59,60,59,60,60,59,60,59,60,59,61,2,2,2,2,2,2,2,2,2,2,2,2,2,2,2,2,2,2,2,2,2,2,2,2,2,2,2,2,2,2,2,2,2,2,2,2,2,2,2,2,2,2,2,2,2,2,2,2,2,2,2,2,2,2,2,2,2,2,2,2,2,2,2,2,2,2,2,2,2,2,2,2,2,2,2,2,2,2,2,2,2,2,2,2,2,62,63,64,2,2,2,2,2,2,2,2,2,2,2,2,2,2,2,2,2,2,2,2,2,2,2,2,2,2,2,2,2,2,2,2,2,2,2,2,2,2,2,2,2,2,2,2,2,2,2,2,2,2,2,2,2,2,2,2,2,2,2,2,2,2,2,2,2,2,2,2,2,2,2,2,2,2,2,2,2,2,2,2,2,2,2,2,2,2,2,65,66,67,2,2,2,2,2,2,2,2,2,2,2,2,2,2,2,68,69,69,69,69,69,69,69,69,69,69,69,69,69,69,69,69,69,69,69,69,69,69,69,69,69,69,69,69,69,69,69,69,69,69,69,69,69,69,69,69,69,69,69,69,69,69,69,69,69,69,69,69,69,69,69,69,69,69,69,69,69,69,3,2,3,2,3,2,3,2,3,3,2,3,2,3,2,3,3,2,3,2,3,2,3,2,3,3,2,3,2,3,2,3,3,2,3,2,3,2,3,2,3,3,2,3,2,3,2,3,3,2,3,2,3,2,3,2,3,3,2,3,2,3,2,3,3,2,3,2,3,2,3,2,3,3,2,3,2,3,2,3,3,2,3,2,70,71,72,2,3,3,2,3,2,3,2,3,3,2,3,2,3,2,3,2,3,3,2,3,2,3,2,3,3,2,3,2,3,2,3,2,3,3,2,3,2,3,2,3,3,2,3,2,3,2,3,2,3,3,2,3,2,3,2,3,3,2,3,2,3,2,3,2,3,3,2,3,2,3,2,3,3,2,3,2,3,2,3,2,3,3,2,3,2,3,2,3,73,74,75,2,3,2,3,2,3,3,2,3,2,3,2,3,3,76,69,69,69,69,69,69,69,69,69,69,69,69,69,69,69,69,69,69,69,69,69,69,69,69,69,69,69,69,69,69,69,69,69,69,69,69,69,69,69,69,69,69,69,69,69,69,69,69,69,69,69,69,69,69,69,69,69,69,69,69,69,69,2,2,2,2,2,2,2,2,2,2,2,2,2,2,2,2,2,2,2,2,2,2,2,2,2,2,2,2,2,2,2,2,2,2,2,2,2,2,2,2,2,2,2,2,2,2,2,2,2,2,2,2,2,2,2,2,2,2,2,2,2,2,2,2,2,2,2,2,2,2,2,2,2,2,2,2,2,2,2,2,2,2,2,2,77,78,2,2,2,2,2,2,2,2,2,2,2,2,2,2,2,2,2,2,2,2,2,2,2,2,2,2,2,2,2,2,2,2,2,2,2,2,2,2,2,2,2,2,2,2,2,2,2,2,2,2,2,2,2,2,2,2,2,2,2,2,2,2,2,2,2,2,2,2,2,2,2,2,2,2,2,2,2,2,2,2,2,2,2,2,2,2,2,2,2,2,2,82,83,84,2,2,2,2,2,2,2,2,2,2,2,2,2,85,69,69,69,69,69,69,69,69,69,69,69,69,69,69,69,69,69,69,69,69,69,69,69,69,69,69,69,69,69,69,69,69,69,69,69,69,69,69,69,69,69,69,69,69,69,69,69,69,69,69,69,69,69,69,69,69,69,69,69,69,69,69,2,2,2,2,2,2,2,2,2,2,2,2,2,2,2,2,2,2,2,2,2,2,2,2,2,2,2,2,2,2,2,2,2,2,2,2,2,2,2,2,2,2,2,2,2,2,2,2,2,2,2,2,2,2,2,2,2,2,2,2,2,2,2,2,2,2,2,2,2,2,2,2,2,2,2,2,2,2,2,2,2,2,2,86,87,2,2,2,2,2,2,2,2,2,2,2,2,2,2,2,2,2,2,2,2,2,2,2,2,2,2,2,2,2,2,2,2,2,2,2,2,2,2,2,2,2,2,2,2,2,2,2,2,2,2,2,2,2,2,2,2,2,2,2,2,2,2,2,2,2,2,2,2,2,2,2,2,2,2,2,2,2,2,2,2,2,2,2,2,2,2,2,2,2,2,2,2,2,2,102,103,2,2,2,2,2,2,2,2,2,2,2,2,104,69,69,69,69,69,69,69,69,69,69,69,69,69,69,69,69,69,69,69,69,69,69,69,69,69,69,69,69,69,69,69,69,69,69,69,69,69,69,69,69,69,69,69,69,69,69,69,69,69,69,69,69,69,69,69,69,69,69,69,69,69,69,3,2,3,2,3,2,3,2,3,3,2,3,2,3,2,3,3,2,3,2,3,2,3,2,3,3,2,3,2,3,2,3,3,2,3,2,3,2,3,2,3,3,2,3,2,3,2,3,3,2,3,2,3,2,3,2,3,3,2,3,2,3,2,3,3,2,3,2,3,2,3,2,3,3,2,3,2,3,2,3,3,2,3,105,3,2,3,2,3,3,2,3,2,3,2,3,3,2,3,2,3,2,3,2,3,3,2,3,2,3,2,3,3,2,3,2,3,2,3,2,3,3,2,3,2,3,2,3,3,2,3,2,3,2,3,2,3,3,2,3,2,3,2,3,3,2,3,2,3,2,3,2,3,3,2,3,2,3,2,3,3,2,3,2,3,2,3,2,3,3,2,3,2,3,2,3,3,2,3,2,117,2,3,2,3,3,2,3,2,3,2,3,3,118,69,69,69,69,69,69,69,69,69,69,69,69,69,69,69,69,69,69,69,69,69,69,69,69,69,69,69,69,69,69,69,69,69,69,69,69,69,69,69,69,69,69,69,69,69,69,69,69,69,69,69,69,69,69,69,69,69,69,69,69,69,69,2,2,2,2,2,2,2,2,2,2,2,2,2,2,2,2,2,2,2,2,2,2,2,2,2,2,2,2,2,2,2,2,2,2,2,2,2,2,2,2,2,2,2,2,2,2,2,2,2,2,2,2,2,2,2,2,2,2,2,2,2,2,2,2,2,2,2,2,2,2,2,2,2,2,2,2,2,2,2,2,2,2,2,119,2,2,2,2,2,2,2,2,2,2,2,2,2,2,2,2,2,2,2,2,2,2,2,2,2,2,2,2,2,2,2,2,2,2,2,2,2,2,2,2,2,2,2,2,2,2,2,2,2,2,2,2,2,2,2,2,2,2,2,2,2,2,2,2,2,2,2,2,2,2,2,2,2,2,2,2,2,2,2,2,2,2,2,2,2,2,2,2,2,2,2,2,2,2,2,2,127,2,2,2,2,2,2,2,2,2,2,2,2,128,69,69,69,69,69,129,130,130,130,130,130,130,130,130,130,130,130,130,130,130,130,130,130,130,130,130,130,130,130,130,130,130,130,130,130,130,130,130,130,130,130,130,130,130,130,130,130,130,130,130,130,130,130,130,130,130,130,130,130,130,130,130,3,2,3,2,3,2,3,2,3,3,2,3,2,3,2,3,3,2,3,2,3,2,3,2,3,3,2,3,2,3,2,3,3,2,3,2,3,2,3,2,3,3,2,3,2,3,2,3,3,2,3,2,3,2,3,2,3,3,2,3,2,3,2,3,3,2,3,2,3,2,3,2,3,3,2,3,2,3,2,3,3,2,3,131,3,2,3,2,3,3,2,3,2,3,2,3,3,2,3,2,3,2,3,2,3,3,2,3,2,3,2,3,3,2,3,2,3,2,3,2,3,3,2,3,2,3,2,3,3,2,3,2,3,2,3,2,3,3,2,3,2,3,2,3,3,2,3,2,3,2,3,2,3,3,2,3,2,3,2,3,3,2,3,2,3,2,3,2,3,3,2,3,2,3,2,3,3,2,3,2,137,2,3,2,3,3,2,3,2,3,2,3,3,138,69,69,69,69,69,69,139,3,2,3,2,3,2,3,3,2,3,2,3,2,3,2,3,3,2,3,2,3,2,3,3,2,3,2,3,2,3,2,3,3,2,3,2,3,2,3,3,2,3,2,3,2,3,2,3,3,2,3,2,3,2,3,2,2,2,2,2,2,2,2,2,2,2,2,2,2,2,2,2,2,2,2,2,2,2,2,2,2,2,2,2,2,2,2,2,2,2,2,2,2,2,2,2,2,2,2,2,2,2,2,2,2,2,2,2,2,2,2,2,2,2,2,2,2,2,2,2,2,2,2,2,2,2,2,2,2,2,2,2,2,2,2,2,2,2,140,2,2,2,2,2,2,2,2,2,2,2,2,2,2,2,2,2,2,2,2,2,2,2,2,2,2,2,2,2,2,2,2,2,2,2,2,2,2,2,2,2,2,2,2,2,2,2,2,2,2,2,2,2,2,2,2,2,2,2,2,2,2,2,2,2,2,2,2,2,2,2,2,2,2,2,2,2,2,2,2,2,2,2,2,2,2,2,2,2,2,2,2,2,2,2,2,148,2,2,2,2,2,2,2,2,2,2,2,2,2,149,69,69,69,69,69,150,2,2,2,2,2,2,2,2,2,2,2,2,2,2,2,2,2,2,2,2,2,2,2,2,2,2,2,2,2,2,2,2,2,2,2,2,2,2,2,2,2,2,2,2,2,2,2,2,2,2,2,2,2,2,2,3,2,3,2,3,2,3,2,3,3,2,3,2,3,2,3,3,2,3,2,3,2,3,2,3,3,2,3,2,3,2,3,3,2,3,2,3,2,3,2,3,3,2,3,2,3,2,3,3,2,3,2,3,2,3,2,3,3,2,3,2,3,2,3,3,2,3,2,3,151,152,57,58,153,154,3,2,3,2,3,3,2,3,105,3,2,3,2,3,3,2,3,2,3,2,3,3,2,3,2,3,2,3,2,3,3,2,3,2,3,2,3,3,2,3,2,3,2,3,2,3,3,2,3,2,3,2,3,3,2,3,2,3,2,3,2,3,3,2,3,2,3,2,3,3,2,3,2,3,2,3,2,3,3,2,3,2,3,2,3,3,2,3,2,3,2,3,2,3,3,2,3,2,3,2,3,3,2,3,2,117,2,3,2,3,3,2,3,2,3,2,3,3,2,173,69,69,69,69,69,174,3,2,3,2,3,2,3,3,2,3,2,3,2,3,2,3,3,2,3,2,3,2,3,3,2,3,2,3,2,3,2,3,3,2,3,2,3,2,3,3,2,3,2,3,2,3,2,3,3,2,3,2,3,2,3,58,59,59,59,59,59,59,59,59,59,59,59,59,59,59,57,58,175,154,2,2,2,2,2,2,2,2,2,2,2,2,2,2,2,2,2,2,2,2,2,2,2,2,2,2,2,2,2,2,2,2,2,2,2,2,2,2,2,2,2,2,2,2,2,2,2,151,176,177,69,69,69,69,69,178,2,2,2,2,2,2,2,2,119,2,2,2,2,2,2,2,2,2,2,2,2,2,2,2,2,2,2,2,2,2,2,2,2,2,2,2,2,2,2,2,2,2,2,2,2,2,2,2,2,2,2,2,2,2,2,2,2,2,2,2,2,2,2,2,2,2,2,2,2,2,2,2,2,2,2,2,2,2,2,2,2,2,2,2,2,2,2,2,2,2,2,2,2,2,2,2,2,2,2,2,2,2,2,2,2,127,2,2,2,2,2,2,2,2,2,2,2,2,2,183,69,69,69,69,69,184,2,2,2,2,2,2,2,2,2,2,2,2,2,2,2,2,2,2,2,2,2,2,2,2,2,2,2,2,2,2,2,2,2,2,2,2,2,2,2,2,2,2,2,2,2,2,2,2,2,2,2,2,2,2,2,69,69,69,69,69,69,69,69,69,69,69,69,69,69,69,69,69,69,185,2,3,2,3,2,3,3,2,3,2,3,2,3,3,2,3,2,3,2,3,2,3,3,2,3,2,3,2,3,3,2,3,2,3,2,3,2,3,3,2,3,2,3,2,186,187,177,69,69,69,69,69,69,69,69,69,188,2,3,2,3,3,2,3,105,3,2,3,2,3,3,2,3,2,3,2,3,3,2,3,2,3,2,3,2,3,3,2,3,2,3,2,3,3,2,3,2,3,2,3,2,3,3,2,3,2,3,2,3,3,2,3,2,3,2,3,2,3,3,2,3,2,3,2,3,3,2,3,2,3,2,3,2,3,3,2,3,2,3,2,3,3,2,3,2,3,2,3,2,3,3,2,3,2,3,2,3,3,2,3,2,117,2,3,2,3,3,2,3,2,3,2,3,3,2,193,69,69,69,69,69,194,3,2,3,2,3,2,3,3,2,3,2,3,2,3,2,3,3,2,3,2,3,2,3,3,2,3,2,3,2,3,2,3,3,2,3,2,3,2,3,3,2,3,2,3,2,3,2,3,3,2,3,2,3,2,3,69,69,69,69,69,69,69,69,69,69,69,69,69,69,69,69,69,69,69,195,2,2,2,2,2,2,2,2,2,2,2,2,2,2,2,2,2,2,2,2,2,2,2,2,2,2,2,2,2,2,2,2,2,2,2,2,2,2,2,2,151,176,177,69,69,69,69,69,69,69,69,69,69,69,69,196,197,2,2,2,2,2,2,119,2,2,2,2,2,2,2,2,2,2,2,2,2,2,2,2,2,2,2,2,2,2,2,2,2,2,2,2,2,2,2,2,2,2,2,2,2,2,2,2,2,2,2,2,2,2,2,2,2,2,2,2,2,2,2,2,2,2,2,2,2,2,2,2,2,2,2,2,2,2,2,2,2,2,2,2,2,2,2,2,2,2,2,2,2,2,2,2,2,2,2,2,2,2,2,2,127,2,2,2,2,2,2,2,2,2,2,2,2,2,202,203,69,69,69,69,69,204,2,2,2,2,2,2,2,2,2,2,2,2,2,2,2,2,2,2,2,2,2,2,2,2,2,2,2,2,2,2,2,2,2,2,2,2,2,2,2,2,2,2,2,2,2,2,2,2,2,2,2,2,2,2,69,69,69,69,69,69,69,69,69,69,69,69,69,69,69,69,69,69,69,205,2,2,2,2,2,2,2,2,2,2,2,2,2,2,2,2,2,2,2,2,2,2,2,2,2,2,2,2,2,2,2,2,2,2,2,2,2,55,206,57,69,69,69,69,69,69,69,69,69,69,69,69,69,69,69,69,178,2,2,2,2,2,2,131,2,2,2,2,2,2,2,2,2,2,2,2,2,2,2,2,2,2,2,2,2,2,2,2,2,2,2,2,2,2,2,2,2,2,2,2,2,2,2,2,2,2,2,2,2,2,2,2,2,2,2,2,2,2,2,2,2,2,2,2,2,2,2,2,2,2,2,2,2,2,2,2,2,2,2,2,2,2,2,2,2,2,2,2,2,2,2,2,2,2,2,2,2,2,2,2,210,2,2,2,2,2,2,2,2,2,2,2,2,2,2,211,69,69,69,69,69,212,2,2,2,2,2,2,2,2,2,2,2,2,2,2,2,2,2,2,2,2,2,2,2,2,2,2,2,2,2,2,2,2,2,2,2,2,2,2,2,2,2,2,2,2,2,2,2,2,2,2,2,2,2,2,69,69,69,69,69,69,69,69,69,69,69,69,69,69,69,69,69,69,69,69,213,2,3,2,3,3,2,3,2,3,2,3,3,2,3,2,3,2,3,2,3,3,2,3,2,3,2,3,3,2,3,2,3,2,3,2,3,214,69,69,69,69,69,69,69,69,69,69,69,69,69,69,69,69,69,69,69,188,2,3,3,2,3,140,3,2,3,2,3,3,2,3,2,3,2,3,3,2,3,2,3,2,3,2,3,3,2,3,2,3,2,3,3,2,3,2,3,2,3,2,3,3,2,3,2,3,2,3,3,2,3,2,3,2,3,2,3,3,2,3,2,3,2,3,3,2,3,2,3,2,3,2,3,3,2,3,2,3,2,3,3,2,3,2,3,2,3,2,3,3,2,3,2,3,2,3,3,2,3,2,217,2,3,2,3,3,2,3,2,3,2,3,3,2,3,218,69,69,69,69,69,219,2,3,2,3,2,3,3,2,3,2,3,2,3,2,3,3,2,3,2,3,2,3,3,2,3,2,3,2,3,2,3,3,2,3,2,3,2,3,3,2,3,2,3,2,3,2,3,3,2,3,2,3,2,3,69,69,69,69,69,69,69,69,69,69,69,69,69,69,69,69,69,69,69,69,230,231,2,2,2,2,2,2,2,2,2,2,2,2,2,2,2,2,2,2,2,2,2,2,2,2,2,2,2,2,2,2,2,2,2,2,2,76,69,69,69,69,69,69,69,69,69,69,69,69,232,203,69,69,69,69,69,196,197,2,2,2,2,105,2,2,2,2,2,2,2,2,2,2,2,2,2,2,2,2,2,2,2,2,2,2,2,2,2,2,2,2,2,2,2,2,2,2,2,2,2,2,2,2,2,2,2,2,2,2,2,2,2,2,2,2,2,2,2,2,2,2,2,2,2,2,2,2,2,2,2,2,2,2,2,2,2,2,2,2,2,2,2,2,2,2,2,2,2,2,2,2,2,2,2,2,2,2,2,2,238,2,2,2,2,2,2,2,2,2,2,2,2,2,2,239,69,69,69,69,69,240,2,2,2,2,2,2,2,2,2,2,2,2,2,2,2,2,2,2,2,2,2,2,2,2,2,2,2,2,2,2,2,2,2,2,2,2,2,2,2,2,2,2,2,2,2,2,2,2,2,2,2,2,2,2,257,130,257,130,257,130,257,130,257,257,130,257,130,257,258,69,69,69,69,69,69,259,3,2,3,3,2,3,2,3,2,3,3,2,3,2,3,2,3,2,3,3,2,3,2,3,2,3,3,2,3,2,3,2,3,2,3,260,69,69,69,69,69,69,69,69,69,232,261,262,3,263,69,69,69,69,69,69,178,3,3,2,3,119,3,2,3,2,3,3,2,3,2,3,2,3,3,2,3,2,3,2,3,2,3,3,2,3,2,3,2,3,3,2,3,2,3,2,3,2,3,3,2,3,2,3,2,3,3,2,3,2,3,2,3,2,3,3,2,3,2,3,2,3,3,2,3,2,3,2,3,2,3,3,2,3,2,3,2,3,3,2,3,2,3,2,3,2,3,3,2,3,2,3,2,3,3,2,3,2,267,2,3,2,3,3,2,3,2,3,2,3,3,2,3,268,69,69,69,69,69,269,2,3,2,3,2,3,3,2,3,2,3,2,3,2,3,3,2,3,2,3,2,3,3,2,3,2,3,2,3,2,3,3,2,3,2,3,2,3,3,2,3,2,3,2,3,2,3,3,2,3,2,3,2,3,2,2,2,2,2,2,2,2,2,2,2,2,2,2,278,279,69,69,69,69,69,280,281,2,2,2,2,2,2,2,2,2,2,2,2,2,2,2,2,2,2,2,2,2,2,2,2,2,2,2,2,2,2,2,2,2,2,282,69,69,69,69,69,69,232,283,262,2,2,2,2,278,284,69,69,69,69,69,69,285,2,2,2,105,2,2,2,2,2,2,2,2,2,2,2,2,2,2,2,2,2,2,2,2,2,2,2,2,2,2,2,2,2,2,2,2,2,2,2,2,2,2,2,2,2,2,2,2,2,2,2,2,2,2,2,2,2,2,2,2,2,2,2,2,2,2,2,2,2,2,2,2,2,2,2,2,2,2,2,2,2,2,2,2,2,2,2,2,2,2,2,2,2,2,2,2,2,2,2,2,238,2,2,2,2,2,2,2,2,2,2,2,2,2,2,2,85,69,69,69,69,69,289,2,2,2,2,2,2,2,2,2,2,2,2,2,2,2,2,2,2,2,2,2,2,2,2,2,2,2,2,2,2,2,2,2,2,2,2,2,2,2,2,2,2,2,2,2,2,2,2,2,2,2,2,2,3,2,3,2,3,2,3,2,3,3,2,3,2,3,2,294,69,69,69,69,69,69,295,2,3,3,2,3,2,3,2,3,3,2,3,2,3,2,3,2,3,3,2,3,2,3,2,3,3,2,3,2,3,2,3,2,3,296,297,69,69,298,283,299,3,2,3,2,3,2,3,2,300,203,69,69,69,69,69,301,302,2,3,119,3,2,3,2,3,3,2,3,2,3,2,3,3,2,3,2,3,2,3,2,3,3,2,3,2,3,2,3,3,2,3,2,3,2,3,2,3,3,2,3,2,3,2,3,3,2,3,2,3,2,3,2,3,3,2,3,2,3,2,3,3,2,3,2,3,2,3,2,3,3,2,3,2,3,2,3,3,2,3,2,3,2,3,2,3,3,2,3,2,3,2,3,3,2,3,2,267,2,3,2,3,3,2,3,2,3,2,3,3,2,3,2,307,69,69,69,69,69,308,3,2,3,2,3,3,2,3,2,3,2,3,2,3,3,2,3,2,3,2,3,3,2,3,2,3,2,3,2,3,3,2,3,2,3,2,3,3,2,3,2,3,2,3,2,3,3,2,3,2,3,2,3,2,2,2,2,2,2,2,2,2,2,2,2,2,2,2,2,313,69,69,69,69,69,314,315,2,2,2,2,2,2,2,2,2,2,2,2,2,2,2,2,2,2,2,2,2,2,2,2,2,2,2,2,2,2,2,2,2,2,2,316,317,2,2,2,2,2,2,2,2,2,2,2,2,263,69,69,69,69,69,69,318,319,231,131,2,2,2,2,2,2,2,2,2,2,2,2,2,2,2,2,2,2,2,2,2,2,2,2,2,2,2,2,2,2,2,2,2,2,2,2,2,2,2,2,2,2,2,2,2,2,2,2,2,2,2,2,2,2,2,2,2,2,2,2,2,2,2,2,2,2,2,2,2,2,2,2,2,2,2,2,2,2,2,2,2,2,2,2,2,2,2,2,2,2,2,2,2,2,2,2,210,2,2,2,2,2,2,2,2,2,2,2,2,2,2,2,324,69,69,69,69,69,325,2,2,2,2,2,2,2,2,2,2,2,2,2,2,2,2,2,2,2,2,2,2,2,2,2,2,2,2,2,2,2,2,2,2,2,2,2,2,2,2,2,2,2,2,2,2,2,2,2,2,2,2,2,2,2,2,2,2,2,2,2,2,2,2,2,2,2,2,2,331,69,69,69,69,69,69,332,2,2,2,2,2,2,2,2,2,2,2,2,2,2,2,2,2,2,2,2,2,2,2,2,2,2,2,2,2,2,2,2,2,2,2,2,2,2,2,2,2,2,2,2,2,2,2,2,2,278,284,69,69,69,69,69,69,69,333,334,2,2,2,2,2,2,2,2,2,2,2,2,2,2,2,2,2,2,2,2,2,2,2,2,2,2,2,2,2,2,2,2,2,2,2,2,2,2,2,2,2,2,2,2,2,2,2,2,2,2,2,2,2,2,2,2,2,2,2,2,2,2,2,2,2,2,2,2,2,2,2,2,2,2,2,2,2,2,2,2,2,2,2,2,2,2,2,2,2,2,2,2,2,2,2,2,148,2,2,2,2,2,2,2,2,2,2,2,2,2,2,2,338,69,69,69,69,69,339,2,2,2,2,2,2,2,2,2,2,2,2,2,2,2,2,2,2,2,2,2,2,2,2,2,2,2,2,2,2,2,2,2,2,2,2,2,2,2,2,2,2,2,2,2,2,2,2,2,2,2,2,2,3,2,3,2,3,2,3,2,3,3,2,3,2,3,2,3,3,344,69,69,69,69,69,345,346,3,2,3,2,3,2,3,3,2,3,2,3,2,3,2,3,3,2,3,2,3,2,3,3,2,3,2,3,2,3,2,3,3,2,3,2,3,2,3,3,2,3,2,3,2,3,2,3,3,347,203,69,69,69,69,69,69,69,69,348,349,3,2,3,3,2,3,2,3,2,3,3,2,3,2,3,2,3,2,3,3,2,3,2,3,2,3,3,2,3,2,3,2,3,2,3,3,2,3,2,3,2,3,3,2,3,2,3,2,3,2,3,3,2,3,2,3,2,3,3,2,3,2,3,2,3,2,3,3,2,3,2,3,2,3,3,2,3,2,3,2,3,2,3,3,2,3,2,3,2,3,3,2,3,2,117,2,3,2,3,3,2,3,2,3,2,3,3,2,3,2,355,69,69,69,69,69,69,139,2,3,2,3,3,2,3,2,3,2,3,2,3,3,2,3,2,3,2,3,3,2,3,2,3,2,3,2,3,3,2,3,2,3,2,3,3,2,3,2,3,2,3,2,3,3,2,3,2,3,2,3,2,2,2,2,2,2,2,2,2,2,2,2,2,2,2,2,2,361,362,69,69,69,69,69,363,2,2,2,2,2,2,2,2,2,2,2,2,2,2,2,2,2,2,2,2,2,2,2,2,2,2,2,2,2,2,2,2,2,2,2,2,2,2,2,2,2,2,2,2,2,2,2,2,2,2,282,69,69,69,69,69,69,69,69,69,377,378,379,2,2,2,2,2,2,2,2,2,2,2,2,2,2,2,2,2,2,2,2,2,2,2,2,2,2,2,2,2,2,2,2,2,2,2,2,2,2,2,2,2,2,2,2,2,2,2,2,2,2,2,2,2,2,2,2,2,2,2,2,2,2,2,2,2,2,2,2,2,2,2,2,2,2,2,2,2,2,2,2,2,2,2,2,2,2,2,2,2,2,2,2,127,2,2,2,2,2,2,2,2,2,2,2,2,2,2,2,384,69,69,69,69,69,69,385,2,2,2,2,2,2,2,2,2,2,2,2,2,2,2,2,2,2,2,2,2,2,2,2,2,2,2,2,2,2,2,2,2,2,2,2,2,2,2,2,2,2,2,2,2,2,2,2,2,2,2,2,3,2,3,2,3,2,3,2,3,3,2,3,2,3,2,3,3,2,390,69,69,69,69,69,69,139,2,3,2,3,2,3,3,2,3,2,3,2,3,2,3,3,2,3,2,3,2,3,3,2,3,2,3,2,3,2,3,3,2,3,2,3,2,3,3,2,3,2,3,2,3,2,3,3,2,296,297,69,69,69,69,69,69,69,69,69,69,402,403,404,2,3,2,3,2,3,3,2,3,2,3,2,3,2,3,3,2,3,2,3,2,3,3,2,3,2,3,2,3,2,3,3,2,3,2,3,2,3,3,2,3,2,3,2,3,2,3,3,2,3,2,3,2,3,3,2,3,2,3,2,3,2,3,3,2,3,2,3,2,3,3,2,3,2,3,2,3,2,3,3,2,3,2,3,2,3,3,2,3,2,117,2,3,2,3,3,2,3,2,3,2,3,3,2,3,2,410,69,69,69,69,69,411,3,2,3,2,3,3,2,3,2,3,2,3,2,3,3,2,3,2,3,2,3,3,2,3,2,3,2,3,2,3,3,2,3,2,3,2,3,3,2,3,2,3,2,3,2,3,3,2,3,2,3,2,3,2,2,2,2,2,2,2,2,2,2,2,2,2,2,2,2,2,2,415,85,69,69,69,69,69,385,2,2,2,2,2,2,2,2,2,2,2,2,2,2,2,2,2,2,2,2,2,2,2,2,2,2,2,2,2,2,2,2,2,2,2,2,2,2,2,2,2,2,2,2,2,2,2,2,2,2,2,425,426,69,69,69,69,69,69,69,69,69,69,427,428,2,2,2,2,2,2,2,2,2,2,2,2,2,2,2,2,2,2,2,2,2,2,2,2,2,2,2,2,2,2,2,2,2,2,2,2,2,2,2,2,2,2,2,2,2,2,2,2,2,2,2,2,2,2,2,2,2,2,2,2,2,2,2,2,2,2,2,2,2,2,2,2,2,2,2,2,2,2,2,2,2,2,2,2,2,2,2,2,2,127,2,2,2,2,2,2,2,2,2,2,2,2,2,2,2,433,69,69,69,69,69,434,2,2,2,2,2,2,2,2,2,2,2,2,2,2,2,2,2,2,2,2,2,2,2,2,2,2,2,2,2,2,2,2,2,2,2,2,2,2,2,2,2,2,2,2,2,2,2,2,2,2,2,2,2,3,2,3,2,3,2,3,2,3,3,2,3,2,3,2,3,3,2,3,282,69,69,69,69,439,3,2,3,2,3,2,3,3,2,3,2,3,2,3,2,3,3,2,3,2,3,2,3,3,2,3,2,3,2,3,2,3,3,2,3,2,3,2,3,3,2,3,2,3,2,3,2,3,3,2,3,2,3,2,446,447,69,69,69,69,69,69,69,69,69,69,448,449,3,2,3,3,2,3,2,3,2,3,2,3,3,2,3,2,3,2,3,3,2,3,2,3,2,3,2,3,3,2,3,2,3,2,3,3,2,3,2,3,2,3,2,3,3,2,3,2,3,2,3,3,2,3,2,3,2,3,2,3,3,2,3,2,3,2,3,3,2,3,2,3,2,3,2,3,3,2,3,2,3,2,3,3,2,3,2,137,2,3,2,3,3,2,3,2,3,2,3,3,2,3,2,454,69,69,69,69,69,455,3,2,3,2,3,3,2,3,2,3,2,3,2,3,3,2,3,2,3,2,3,3,2,3,2,3,2,3,2,3,3,2,3,2,3,2,3,3,2,3,2,3,2,3,2,3,3,2,3,2,3,2,3,2,2,2,2,2,2,2,2,2,2,2,2,2,2,2,2,2,2,2,460,297,69,69,461,462,2,2,2,2,2,2,2,2,2,2,2,2,2,2,2,2,2,2,2,2,2,2,2,2,2,2,2,2,2,2,2,2,2,2,2,2,2,2,2,2,2,2,2,2,2,2,2,2,2,2,2,2,2,2,2,278,468,469,69,69,69,69,69,69,69,69,69,69,470,471,2,2,2,2,2,2,2,2,2,2,2,2,2,2,2,2,2,2,2,2,2,2,2,2,2,2,2,2,2,2,2,2,2,2,2,2,2,2,2,2,2,2,2,2,2,2,2,2,2,2,2,2,2,2,2,2,2,2,2,2,2,2,2,2,2,2,2,2,2,2,2,2,2,2,2,2,2,2,2,2,2,2,2,2,2,148,2,2,2,2,2,2,2,2,2,2,2,2,2,2,2,477,69,69,69,69,69,478,2,2,2,2,2,2,2,2,2,2,2,2,2,2,2,2,2,2,2,2,2,2,2,2,2,2,2,2,2,2,2,2,2,2,2,2,2,2,2,2,2,2,2,2,2,2,2,2,2,2,2,2,2,3,2,3,2,3,2,3,2,3,3,2,3,2,3,2,3,3,2,3,2,3,316,485,2,3,3,2,3,2,3,2,3,3,2,3,2,3,2,3,2,3,3,2,3,2,3,2,3,3,2,3,2,3,2,3,2,3,3,2,3,2,3,2,3,3,2,3,2,3,2,3,2,3,3,2,3,2,3,2,3,3,2,492,493,203,69,69,69,69,69,69,69,69,69,494,153,495,2,3,2,3,2,3,2,3,3,2,3,2,3,2,3,3,2,3,2,3,2,3,2,3,3,2,3,2,3,2,3,3,2,3,2,3,2,3,2,3,3,2,3,2,3,2,3,3,2,3,2,3,2,3,2,3,3,2,3,2,3,2,3,3,2,3,2,3,2,3,2,3,3,2,3,2,3,2,3,3,2,3,2,117,2,3,2,3,3,2,3,2,3,2,3,3,2,3,502,69,69,69,69,69,69,503,3,2,3,2,3,3,2,3,2,3,2,3,2,3,3,2,3,2,3,2,3,3,2,3,2,3,2,3,2,3,3,2,3,2,3,2,3,3,2,3,2,3,2,3,2,3,3,2,3,2,3,2,3,2,2,2,2,2,2,2,2,2,2,2,2,2,2,2,2,2,2,2,2,2,2,2,2,2,2,2,2,2,2,2,2,2,2,2,2,2,2,2,2,2,2,2,2,2,2,2,2,2,2,2,2,2,2,2,2,2,2,2,2,2,2,2,2,2,2,2,2,2,2,2,2,2,2,2,2,2,2,2,2,2,2,2,119,509,510,69,69,69,69,511,512,513,514,515,516,517,518,2,2,2,2,2,2,2,2,2,2,2,2,2,2,2,2,2,2,2,2,2,2,2,2,2,2,2,2,2,2,2,2,2,2,2,2,2,2,2,2,2,2,2,2,2,2,2,2,2,2,2,2,2,2,2,2,2,2,2,2,2,2,2,2,2,2,2,2,2,2,2,2,2,2,2,2,2,2,2,2,2,2,127,2,2,2,2,2,2,2,2,2,2,2,2,2,2,528,69,69,69,69,69,529,2,2,2,2,2,2,2,2,2,2,2,2,2,2,2,2,2,2,2,2,2,2,2,2,2,2,2,2,2,2,2,2,2,2,2,2,2,2,2,2,2,2,2,2,2,2,2,2,2,2,2,2,2,2,2,2,2,2,2,2,2,2,2,2,2,2,2,2,2,2,2,2,2,2,2,2,2,2,2,2,2,2,2,2,2,2,2,2,2,2,2,2,2,2,2,2,2,2,2,2,2,2,2,2,2,2,2,2,2,2,2,2,2,2,2,2,2,2,2,2,2,2,2,2,2,2,2,2,2,2,2,2,2,2,2,2,2,105,2,2,535,536,69,69,537,538,539,540,541,542,543,544,2,2,2,2,2,2,2,2,2,2,2,2,2,2,2,2,2,2,2,2,2,2,2,2,2,2,2,2,2,2,2,2,2,2,2,2,2,2,2,2,2,2,2,2,2,2,2,2,2,2,2,2,2,2,2,2,2,2,2,2,2,2,2,2,2,2,2,2,2,2,2,2,2,2,2,2,2,2,2,2,2,2,238,2,2,2,2,2,2,2,2,2,2,2,2,2,2,555,69,69,69,69,69,556,2,2,2,2,2,2,2,2,2,2,2,2,2,2,2,2,2,2,2,2,2,2,2,2,2,2,2,2,2,2,2,2,2,2,2,2,2,2,2,2,2,2,2,2,2,2,2,2,2,2,2,2,2,2,3,2,3,2,3,2,3,2,3,3,2,3,2,3,2,3,3,2,3,2,3,2,3,2,3,3,2,3,2,3,2,3,3,2,3,2,3,2,3,2,3,3,2,3,2,3,2,3,3,2,3,2,3,2,3,2,3,3,2,3,2,3,2,3,3,2,3,2,3,2,3,2,3,3,2,3,2,3,2,3,3,2,3,119,562,563,564,565,566,567,568,569,570,571,572,573,574,575,564,565,3,2,3,2,3,3,2,3,2,3,2,3,3,2,3,2,3,2,3,2,3,3,2,3,2,3,2,3,3,2,3,2,3,2,3,2,3,3,2,3,2,3,2,3,3,2,3,2,3,2,3,2,3,3,2,3,2,3,2,3,3,2,3,2,3,563,564,565,581,582,564,565,562,563,564,565,581,582,564,565,562,2,3,2,3,3,2,3,2,3,2,3,3,2,3,583,69,69,69,69,69,584,2,3,2,3,2,3,3,2,3,2,3,2,3,2,3,3,2,3,2,3,2,3,3,2,3,2,3,2,3,2,3,3,2,3,2,3,2,3,3,2,3,2,3,2,3,2,3,3,2,3,2,3,2,3,2,2,2,2,2,2,2,2,2,2,2,2,2,2,2,2,2,2,2,2,2,2,2,2,2,2,2,2,2,2,2,2,2,2,2,2,2,2,2,2,2,2,2,2,2,2,2,2,2,2,2,2,2,2,2,2,2,2,2,2,2,2,2,2,2,2,2,2,2,2,2,2,2,2,2,2,2,2,2,2,2,2,2,590,591,592,593,594,595,596,537,538,539,540,541,542,543,597,593,594,2,2,2,2,2,2,2,2,2,2,2,2,2,2,2,2,2,2,2,2,2,2,2,2,2,2,2,2,2,2,2,2,2,2,2,2,2,2,2,2,2,2,2,2,2,2,2,2,2,2,2,2,2,2,2,2,2,2,2,2,2,2,2,2,600,592,593,594,595,601,593,594,591,592,593,594,595,601,593,594,591,2,2,2,2,2,2,2,2,2,2,2,2,2,2,602,69,69,69,69,69,603,2,2,2,2,2,2,2,2,2,2,2,2,2,2,2,2,2,2,2,2,2,2,2,2,2,2,2,2,2,2,2,2,2,2,2,2,2,2,2,2,2,2,2,2,2,2,2,2,2,2,2,2,2,2,3,2,3,2,3,2,3,2,3,3,2,3,2,3,2,3,3,2,3,2,3,2,3,2,3,3,2,3,2,3,2,3,3,2,3,2,3,2,3,2,3,3,2,3,2,3,2,3,3,2,3,2,3,2,3,2,3,3,2,3,2,3,2,3,3,2,3,2,3,2,3,2,3,3,2,3,2,3,2,3,3,2,3,2,608,609,610,611,612,613,568,569,570,571,572,573,574,575,610,611,3,2,3,2,3,3,2,3,2,3,2,3,3,2,3,2,3,2,3,2,3,3,2,3,2,3,2,3,3,2,3,2,3,2,3,2,3,3,2,3,2,3,2,3,3,2,3,2,3,2,3,2,3,3,2,3,2,3,2,3,3,2,3,2,217,609,610,611,612,613,610,611,608,609,610,611,612,613,610,611,608,2,3,2,3,3,2,3,2,3,2,3,3,2,614,615,69,69,69,69,69,616,2,3,2,3,2,3,3,2,3,2,3,2,3,2,3,3,2,3,2,3,2,3,3,2,3,2,3,2,3,2,3,3,2,3,2,3,2,3,3,2,3,2,3,2,3,2,3,3,2,3,2,3,2,3,2,2,2,2,2,2,2,2,2,2,2,2,2,2,2,2,2,2,2,2,2,2,2,2,2,2,2,2,2,2,2,2,2,2,2,2,2,2,2,2,2,2,2,2,2,2,2,2,2,2,2,2,2,2,2,2,2,2,2,2,2,2,2,2,2,2,2,2,2,2,2,2,2,2,2,2,2,2,2,2,2,2,2,2,621,622,623,624,625,626,537,538,539,540,541,542,543,597,623,624,2,2,2,2,2,2,2,2,2,2,2,2,2,2,2,2,2,2,2,2,2,2,2,2,2,2,2,2,2,2,2,2,2,2,2,2,2,2,2,2,2,2,2,2,2,2,2,2,2,2,2,2,2,2,2,2,2,2,2,2,2,2,2,2,238,622,623,624,625,626,623,624,621,622,623,624,625,626,623,624,621,2,2,2,2,2,2,2,2,2,2,2,2,2,384,69,69,69,69,69,629,630,2,2,2,2,2,2,2,2,2,2,2,2,2,2,2,2,2,2,2,2,2,2,2,2,2,2,2,2,2,2,2,2,2,2,2,2,2,2,2,2,2,2,2,2,2,2,2,2,2,2,2,2,2,2,3,2,3,2,3,2,3,2,3,3,2,3,2,3,2,3,3,2,3,2,3,2,3,2,3,3,2,3,2,3,2,3,3,2,3,2,3,2,3,2,3,3,2,3,2,3,2,3,3,2,3,2,3,2,3,2,3,3,2,3,2,3,2,3,3,2,3,2,3,2,3,2,3,3,2,3,2,3,2,3,3,2,3,2,638,639,640,641,642,643,568,569,570,571,572,573,574,575,640,641,3,2,3,2,3,3,2,3,2,3,2,3,3,2,3,2,3,2,3,2,3,3,2,3,2,3,2,3,3,2,3,2,3,2,3,2,3,3,2,3,2,3,2,3,3,2,3,2,3,2,3,2,3,3,2,3,2,3,2,3,3,2,3,2,267,639,640,641,642,643,640,641,638,639,640,641,642,643,640,641,638,2,3,2,3,3,2,3,2,3,2,3,3,2,410,69,69,69,69,69,644,3,2,3,2,3,2,3,3,2,3,2,3,2,3,2,3,3,2,3,2,3,2,3,3,2,3,2,3,2,3,2,3,3,2,3,2,3,2,3,3,2,3,2,3,2,3,2,3,3,2,3,2,3,2,3,2,2,2,2,2,2,2,2,2,2,2,2,2,2,2,2,2,2,2,2,2,2,2,2,2,2,2,2,2,2,2,2,2,2,2,2,2,2,2,2,2,2,2,2,2,2,2,2,2,2,2,2,2,2,2,2,2,2,2,2,2,2,2,2,2,2,2,2,2,2,2,2,2,2,2,2,2,2,2,2,2,2,2,2,608,609,610,611,650,613,537,538,539,540,541,542,543,597,610,611,2,2,2,2,2,2,2,2,2,2,2,2,2,2,2,2,2,2,2,2,2,2,2,2,2,2,2,2,2,2,2,2,2,2,2,2,2,2,2,2,2,2,2,2,2,2,2,2,2,2,2,2,2,2,2,2,2,2,2,2,2,2,2,2,238,609,610,611,650,613,610,611,608,609,610,611,650,613,610,611,608,2,2,2,2,2,2,2,2,2,2,2,2,2,433,69,69,69,69,69,434,2,2,2,2,2,2,2,2,2,2,2,2,2,2,2,2,2,2,2,2,2,2,2,2,2,2,2,2,2,2,2,2,2,2,2,2,2,2,2,2,2,2,2,2,2,2,2,2,2,2,2,2,2,2,2,2,2,2,2,2,2,2,2,2,2,2,2,2,2,2,2,2,2,2,2,2,2,2,2,2,2,2,2,2,2,2,2,2,2,2,2,2,2,2,2,2,2,2,2,2,2,2,2,2,2,2,2,2,2,2,2,2,2,2,2,2,2,2,2,2,2,2,2,2,2,2,2,2,2,2,2,2,2,2,2,2,2,2,2,657,658,659,660,661,662,568,569,570,571,572,573,574,575,659,660,2,2,2,2,2,2,2,2,2,2,2,2,2,2,2,2,2,2,2,2,2,2,2,2,2,2,2,2,2,2,2,2,2,2,2,2,2,2,2,2,2,2,2,2,2,2,2,2,2,2,2,2,2,2,2,2,2,2,2,2,2,2,2,2,127,658,659,660,661,662,659,660,657,658,659,660,661,662,659,660,657,2,2,2,2,2,2,2,2,2,2,2,2,2,663,69,69,69,69,69,455,2,2,2,2,2,2,2,2,2,2,2,2,2,2,2,2,2,2,2,2,2,2,2,2,2,2,2,2,2,2,2,2,2,2,2,2,2,2,2,2,2,2,2,2,2,2,2,2,2,2,2,2,2,2,2,3,2,3,2,3,2,3,2,3,3,2,3,2,3,2,3,3,2,3,2,3,2,3,2,3,3,2,3,2,3,2,3,3,2,3,2,3,2,3,2,3,3,2,3,2,3,2,3,3,2,3,2,3,2,3,2,3,3,2,3,2,3,2,3,3,2,3,2,3,2,3,2,3,3,2,3,2,3,2,3,3,2,3,2,621,622,623,624,625,626,537,538,539,540,541,542,543,597,623,624,3,2,3,2,3,3,2,3,2,3,2,3,3,2,3,2,3,2,3,2,3,3,2,3,2,3,2,3,3,2,3,2,3,2,3,2,3,3,2,3,2,3,2,3,3,2,3,2,3,2,3,2,3,3,2,3,2,3,2,3,3,2,3,2,137,622,623,624,625,626,623,624,621,622,623,624,625,626,623,624,621,2,3,2,3,3,2,3,2,3,2,3,3,2,477,69,69,69,69,69,671,3,2,3,2,3,2,3,3,2,3,2,3,2,3,2,3,3,2,3,2,3,2,3,3,2,3,2,3,2,3,2,3,3,2,3,2,3,2,3,3,2,3,2,3,2,3,2,3,3,2,3,2,3,2,3,2,2,2,2,2,2,2,2,2,2,2,2,2,2,2,2,2,2,2,2,2,2,2,2,2,2,2,2,2,2,2,2,2,2,2,2,2,2,2,2,2,2,2,2,2,2,2,2,2,2,2,2,2,2,2,2,2,2,2,2,2,2,2,2,2,2,2,2,2,2,2,2,2,2,2,2,2,2,2,2,2,2,2,2,657,658,659,660,661,662,568,569,570,571,572,573,574,575,659,660,2,2,2,2,2,2,2,2,2,2,2,2,2,2,2,2,2,2,2,2,2,2,2,2,2,2,2,2,2,2,2,2,2,2,2,2,2,2,2,2,2,2,2,2,2,2,2,2,2,2,2,2,2,2,2,2,2,2,2,2,2,2,2,2,148,658,659,660,661,662,659,660,657,658,659,660,661,662,659,660,657,2,2,2,2,2,2,2,2,2,2,2,2,502,69,69,69,69,69,69,503,2,2,2,2,2,2,2,2,2,2,2,2,2,2,2,2,2,2,2,2,2,2,2,2,2,2,2,2,2,2,2,2,2,2,2,2,2,2,2,2,2,2,2,2,2,2,2,2,2,2,2,2,2,2,2,3,2,3,2,3,2,3,2,3,3,2,3,2,3,2,3,3,2,3,2,3,2,3,2,3,3,2,3,2,3,2,3,3,2,3,2,3,2,3,2,3,3,2,3,2,3,2,3,3,2,3,2,3,2,3,2,3,3,2,3,2,3,2,3,3,2,3,2,3,2,3,2,3,3,2,3,2,3,2,3,3,2,3,2,621,622,623,624,625,626,537,538,539,540,541,542,543,597,623,624,3,2,3,2,3,3,2,3,2,3,2,3,3,2,3,2,3,2,3,2,3,3,2,3,2,3,2,3,3,2,3,2,3,2,3,2,3,3,2,3,2,3,2,3,3,2,3,2,3,2,3,2,3,3,2,3,2,3,2,3,3,2,3,2,117,622,623,624,625,626,623,624,621,622,623,624,625,626,623,624,621,2,3,2,3,3,2,3,2,3,2,3,3,528,69,69,69,69,69,529,3,3,2,3,2,3,2,3,3,2,3,2,3,2,3,2,3,3,2,3,2,3,2,3,3,2,3,2,3,2,3,2,3,3,2,3,2,3,2,3,3,2,3,2,3,2,3,2,3,3,2,3,2,3,2,3,2,2,2,2,2,2,2,2,2,2,2,2,2,2,2,2,2,2,2,2,2,2,2,2,2,2,2,2,2,2,2,2,2,2,2,2,2,2,2,2,2,2,2,2,2,2,2,2,2,2,2,2,2,2,2,2,2,2,2,2,2,2,2,2,2,2,2,2,2,2,2,2,2,2,2,2,2,2,2,2,2,2,2,2,638,639,640,641,642,643,568,569,570,571,572,573,574,575,640,641,562,563,564,565,581,582,564,565,562,563,564,565,581,582,564,565,562,563,564,565,581,582,564,565,562,563,564,565,581,582,564,565,562,563,564,565,581,582,564,565,562,563,564,565,581,582,564,565,562,563,564,565,581,582,564,565,562,563,564,565,581,582,564,565,562,639,640,641,642,643,640,641,638,639,640,641,642,643,640,641,638,2,2,2,2,2,2,2,2,2,2,2,2,555,69,69,69,69,69,556,2,2,2,2,2,2,2,2,2,2,2,2,2,2,2,2,2,2,2,2,2,2,2,2,2,2,2,2,2,2,2,2,2,2,2,2,2,2,2,2,2,2,2,2,2,2,2,2,2,2,2,2,2,2,2,2,3,2,3,2,3,2,3,2,3,3,2,3,2,3,2,3,3,2,3,2,3,2,3,2,3,3,2,3,2,3,2,3,3,2,3,2,3,2,3,2,3,3,2,3,2,3,2,3,3,2,3,2,3,2,3,2,3,3,2,3,2,3,2,3,3,2,3,2,3,2,3,2,3,3,2,3,2,3,2,3,3,2,3,2,608,609,610,611,650,613,537,538,539,540,541,542,543,597,610,611,591,592,593,594,595,601,593,594,591,592,593,594,595,601,593,594,591,592,593,594,595,601,593,594,591,592,593,594,595,601,593,594,591,592,593,594,595,601,593,594,591,592,593,594,595,601,593,594,591,592,593,594,595,601,593,594,591,592,593,594,595,601,593,594,591,609,610,611,650,613,610,611,608,609,610,611,650,613,610,611,608,2,3,2,3,3,2,3,2,3,2,3,3,583,69,69,69,69,69,756,3,3,2,3,2,3,2,3,3,2,3,2,3,2,3,2,3,3,2,3,2,3,2,3,3,2,3,2,3,2,3,2,3,3,2,3,2,3,2,3,3,2,3,2,3,2,3,2,3,3,2,3,2,3,2,3,2,2,2,2,2,2,2,2,2,2,2,2,2,2,2,2,2,2,2,2,2,2,2,2,2,2,2,2,2,2,2,2,2,2,2,2,2,2,2,2,2,2,2,2,2,2,2,2,2,2,2,2,2,2,2,2,2,2,2,2,2,2,2,2,2,2,2,2,2,2,2,2,2,2,2,2,2,2,2,2,2,2,2,2,657,658,659,660,661,662,568,569,570,571,572,573,574,575,659,660,608,609,610,611,612,613,610,611,608,609,610,611,612,613,610,611,608,609,610,611,612,613,610,611,608,609,610,611,612,613,610,611,608,609,610,611,612,613,610,611,608,609,610,611,612,613,610,611,608,609,610,611,612,613,610,611,608,609,610,611,612,613,610,611,608,658,659,660,661,662,659,660,657,658,659,660,661,662,659,660,657,2,2,2,2,2,2,2,2,2,2,2,2,799,69,69,69,69,69,603,2,2,2,2,2,2,2,2,2,2,2,2,2,2,2,2,2,2,2,2,2,2,2,2,2,2,2,2,2,2,2,2,2,2,2,2,2,2,2,2,2,2,2,2,2,2,2,2,2,2,2,2,2,2,2,2,3,2,3,2,3,2,3,2,3,3,2,3,2,3,2,3,3,2,3,2,3,2,3,2,3,3,2,3,2,3,2,3,3,2,3,2,3,2,3,2,3,3,2,3,2,3,2,3,3,2,3,2,3,2,3,2,3,3,2,3,2,3,2,3,3,2,3,2,3,2,3,2,3,3,2,3,2,3,2,3,3,2,3,2,621,622,623,624,625,626,537,538,539,540,541,542,543,597,623,624,621,622,623,624,625,626,623,624,621,622,623,624,625,626,623,624,621,622,623,624,625,626,623,624,621,622,623,624,625,626,623,624,621,622,623,624,625,626,623,624,621,622,623,624,625,626,623,624,621,622,623,624,625,626,623,624,621,622,623,624,625,626,623,624,621,622,623,624,625,626,623,624,621,622,623,624,625,626,623,624,621,2,3,2,3,3,2,3,2,3,2,3,846,69,69,69,69,69,69,847,3,3,2,3,2,3,2,3,3,2,3,2,3,2,3,2,3,3,2,3,2,3,2,3,3,2,3,2,3,2,3,2,3,3,2,3,2,3,2,3,3,2,3,2,3,2,3,2,3,3,2,3,2,3,2,3,2,2,2,2,2,2,2,2,2,2,2,2,2,2,2,2,2,2,2,2,2,2,2,2,2,2,2,2,2,2,2,2,2,2,2,2,2,2,2,2,2,2,2,2,2,2,2,2,2,2,2,2,2,2,2,2,2,2,2,2,2,2,2,2,2,2,2,2,2,2,2,2,2,2,2,2,2,2,2,2,2,2,2,2,657,658,659,660,661,662,568,569,570,571,572,573,574,575,659,660,638,639,640,641,642,643,640,641,638,639,640,641,642,643,640,641,638,639,640,641,642,643,640,641,638,639,640,641,642,643,640,641,638,639,640,641,642,643,640,641,638,639,640,641,642,643,640,641,638,639,640,641,642,643,640,641,638,639,640,641,642,643,640,641,638,658,659,660,661,662,659,660,657,658,659,660,661,662,659,660,657,2,2,2,2,2,2,2,2,2,2,892,69,69,69,69,69,69,69,385,2,2,2,2,2,2,2,2,2,2,2,2,2,2,2,2,2,2,2,2,2,2,2,2,2,2,2,2,2,2,2,2,2,2,2,2,2,2,2,2,2,2,2,2,2,2,2,2,2,2,2,2,2,2,2,2,2,2,2,2,2,2,2,2,2,2,2,2,2,2,2,2,2,2,2,2,2,2,2,2,2,2,2,2,2,2,2,2,2,2,2,2,2,2,2,2,2,2,2,2,2,2,2,2,2,2,2,2,2,2,2,2,2,2,2,2,2,2,2,2,2,2,2,2,2,2,2,2,2,2,2,2,2,2,2,2,2,2,2,2,608,609,610,611,899,613,537,538,539,540,541,542,543,597,610,611,608,609,610,611,650,613,610,611,608,609,610,611,650,613,610,611,608,609,610,611,650,613,610,611,608,609,610,611,650,613,610,611,608,609,610,611,650,613,610,611,608,609,610,611,650,613,610,611,608,609,610,611,650,613,610,611,608,609,610,611,650,613,610,611,608,609,610,611,899,613,610,611,608,609,610,611,899,613,610,611,608,2,2,2,2,2,2,2,2,2,892,69,69,69,69,69,69,69,930,2,2,2,2,2,2,2,2,2,2,2,2,2,2,2,2,2,2,2,2,2,2,2,2,2,2,2,2,2,2,2,2,2,2,2,2,2,2,2,2,2,2,2,2,2,2,2,2,2,2,2,2,2,2,2,2,2,58,933,934,935,936,937,938,939,3,3,2,3,2,3,2,3,3,2,3,2,3,2,3,2,3,3,2,3,2,3,2,3,3,2,3,2,3,2,3,2,3,3,2,3,2,3,2,3,3,2,3,2,3,2,3,2,3,3,2,3,2,3,2,3,3,2,3,2,3,2,3,2,3,3,2,3,2,3,2,3,3,2,3,2,944,658,945,946,947,948,568,569,570,571,572,573,574,949,945,946,657,658,659,660,661,662,659,660,657,658,659,660,661,662,659,660,657,658,659,660,661,662,659,660,657,658,659,660,661,662,659,660,657,658,659,660,661,662,659,660,657,658,659,660,661,662,659,660,657,658,659,660,661,662,659,660,657,658,659,660,661,662,659,660,657,658,945,946,947,980,945,946,944,658,945,946,947,980,945,946,944,2,3,2,3,3,2,3,2,846,69,69,69,69,69,69,69,981,982,2,3,3,2,3,2,3,2,3,3,2,3,2,3,2,3,2,3,3,2,3,2,3,2,3,3,2,3,2,3,2,3,2,3,3,2,3,2,3,2,3,3,2,3,2,3,2,3,2,3,3,2,3,2,3,2,3,69,69,69,69,69,69,69,69,69,985,986,987,988,935,989,937,990,939,2,2,2,2,2,2,2,2,2,2,2,2,2,2,2,2,2,2,2,2,2,2,2,2,2,2,2,2,2,2,2,2,2,2,2,2,2,2,2,2,2,2,2,2,2,2,2,2,2,2,2,2,2,2,2,2,2,2,2,2,2,2,2,2,2,2,2,2,2,2,997,998,999,1000,1001,1002,1003,1004,1005,1006,2,2,621,622,623,624,625,626,623,624,621,622,623,624,625,626,623,624,621,622,623,624,625,626,623,624,621,622,623,624,625,626,623,624,621,622,623,624,625,626,623,624,621,622,623,624,625,626,623,624,621,622,623,624,625,626,623,624,621,622,623,624,625,626,623,624,621,2,2,2,2,2,2,2,2,2,2,2,2,2,2,2,2,2,2,2,2,2,2,2,892,69,69,69,69,69,69,69,1037,1038,2,2,2,2,2,2,2,2,2,2,2,2,2,2,2,2,2,2,2,2,2,2,2,2,2,2,2,2,2,2,2,2,2,2,2,2,2,2,2,2,2,2,2,2,2,2,2,2,2,2,2,2,2,2,2,2,2,2,69,69,69,69,69,69,69,69,69,69,69,69,69,69,69,69,69,69,69,1042,58,175,495,2,3,3,2,3,2,3,2,3,3,2,3,2,3,2,3,2,3,3,2,3,2,3,2,3,3,2,3,2,3,2,3,2,3,3,2,3,2,3,2,3,3,2,3,2,3,2,3,2,3,3,2,3,2,3,2,3,3,2,3,2,3,2,3,1050,1051,69,69,69,69,69,69,69,439,2,3,2,657,658,659,660,661,662,659,660,657,658,659,660,661,662,659,660,657,658,659,660,661,662,659,660,657,658,659,660,661,662,659,660,657,658,659,660,661,662,659,660,657,658,659,660,661,662,659,660,657,658,659,660,661,662,659,660,657,658,659,660,661,662,659,660,657,2,3,2,3,3,2,3,2,3,2,3,3,2,3,2,3,2,3,2,3,3,2,846,69,69,69,69,69,69,69,1037,1082,2,3,2,3,3,2,3,2,3,2,3,3,2,3,2,3,2,3,2,3,3,2,3,2,3,2,3,3,2,3,2,3,2,3,2,3,3,2,3,2,3,2,3,3,2,3,2,3,2,3,2,3,3,2,3,2,3,2,3,69,69,69,69,69,69,69,69,69,69,69,69,69,69,69,69,69,69,69,69,69,69,363,2,2,2,2,2,2,2,2,2,2,2,2,2,2,2,2,2,2,2,2,2,2,2,2,2,2,2,2,2,2,2,2,2,2,2,2,2,2,2,2,2,2,2,2,2,2,2,2,2,2,2,2,2,2,2,2,2,2,2,2,2,2,2,1093,1094,69,69,69,69,69,69,69,1095,462,2,2,2,621,622,623,624,625,626,623,624,621,622,623,624,625,626,623,624,621,622,623,624,625,626,623,624,621,622,623,624,625,626,623,624,621,622,623,624,625,626,623,624,621,622,623,624,625,626,623,624,621,622,623,624,625,626,623,624,621,622,623,624,625,626,623,624,621,2,2,2,2,2,2,2,2,2,2,2,2,2,2,2,2,2,2,2,2,55,1126,69,69,69,69,69,69,69,1037,1038,2,2,2,2,2,2,2,2,2,2,2,2,2,2,2,2,2,2,2,2,2,2,2,2,2,2,2,2,2,2,2,2,2,2,2,2,2,2,2,2,2,2,2,2,2,2,2,2,2,2,2,2,2,2,2,2,2,2,2,2,69,69,69,69,69,69,69,69,69,69,69,69,69,69,69,69,69,69,69,69,69,69,69,1131,3,3,2,3,2,3,2,3,3,2,3,2,3,2,3,2,3,3,2,3,2,3,2,3,3,2,3,2,3,2,3,2,3,3,2,3,2,3,2,3,3,2,3,2,3,2,3,2,3,3,2,3,2,3,2,3,3,2,3,2,3,1137,1138,69,69,69,69,69,69,69,1139,1140,3,2,3,2,638,639,640,641,642,643,640,641,638,639,640,641,642,643,640,641,638,639,640,641,642,643,640,641,638,639,640,641,642,643,640,641,638,639,640,641,642,643,640,641,638,639,640,641,642,643,640,641,638,639,640,641,642,643,640,641,638,639,640,641,642,643,640,641,638,2,3,2,3,3,2,3,2,3,2,3,3,2,3,2,3,2,3,2,3,214,69,69,69,69,69,69,69,1037,1082,2,3,2,3,2,3,3,2,3,2,3,2,3,3,2,3,2,3,2,3,2,3,3,2,3,2,3,2,3,3,2,3,2,3,2,3,2,3,3,2,3,2,3,2,3,3,2,3,2,3,2,3,2,3,3,2,3,2,3,2,3,69,69,69,69,69,69,69,69,69,69,69,69,69,69,69,69,69,69,69,69,69,69,69,1143,2,2,2,2,2,2,2,2,2,2,2,2,2,2,2,2,2,2,2,2,2,2,2,2,2,2,2,2,2,2,2,2,2,2,2,2,2,2,2,2,2,2,2,2,2,2,2,2,2,2,2,2,2,2,2,2,2,2,2,2,1148,1149,69,69,69,69,69,69,69,1150,1151,2,2,2,2,2,608,609,610,611,650,613,610,611,608,609,610,611,650,613,610,611,608,609,610,611,650,613,610,611,608,609,610,611,650,613,610,611,608,609,610,611,650,613,610,611,608,609,610,611,650,613,610,611,608,609,610,611,650,613,610,611,608,609,610,611,650,613,610,611,608,2,2,2,2,2,2,2,2,2,2,2,2,2,2,2,2,2,2,2,2,76,69,69,69,69,69,69,1037,1038,2,2,2,2,2,2,2,2,2,2,2,2,2,2,2,2,2,2,2,2,2,2,2,2,2,2,2,2,2,2,2,2,2,2,2,2,2,2,2,2,2,2,2,2,2,2,2,2,2,2,2,2,2,2,2,2,2,2,2,2,2,2,130,1158,1159,1160,1161,1162,1163,1164,1165,69,69,69,69,69,69,69,69,69,69,69,69,69,69,1166,2,2,2,2,2,2,2,2,2,2,2,2,2,2,2,2,2,2,2,2,2,2,2,2,2,2,2,2,2,2,2,2,2,2,2,2,2,2,2,2,2,2,2,2,2,2,2,2,2,2,2,2,2,2,2,2,2,2,2,1170,1149,69,69,69,69,69,69,69,1171,2,2,2,2,2,2,2,657,658,659,660,661,662,659,660,657,658,659,660,661,662,659,660,657,658,659,660,661,662,659,660,657,658,659,660,661,662,659,660,657,658,659,660,661,662,659,660,657,658,659,660,661,662,659,660,657,658,659,660,661,662,659,660,657,658,659,660,661,662,659,660,657,2,2,2,2,2,2,2,2,2,2,2,2,2,2,2,2,2,2,2,2,69,69,69,69,69,69,1037,1038,2,2,2,2,2,2,2,2,2,2,2,2,2,2,2,2,2,2,2,2,2,2,2,2,2,2,2,2,2,2,2,2,2,2,2,2,2,2,2,2,2,2,2,2,2,2,2,2,2,2,2,2,2,2,2,2,2,2,2,2,2,2,2,3,2,3,2,3,2,3,2,3,1176,130,1177,1159,1178,1161,1179,1180,1181,69,69,69,69,69,1182,3,3,2,3,2,3,2,3,3,2,3,2,3,2,3,2,3,3,2,3,2,3,2,3,3,2,3,2,3,2,3,2,3,3,2,3,2,3,2,3,3,2,3,2,3,2,3,2,3,3,2,3,2,3,2,3,3,2,1186,69,69,69,69,69,69,69,69,1187,2,3,2,3,3,2,3,2,621,622,623,624,625,626,623,624,621,622,623,624,625,626,623,624,621,622,623,624,625,626,623,624,621,622,623,624,625,626,623,624,621,622,623,624,625,626,623,624,621,622,623,624,625,626,623,624,621,622,623,624,625,626,623,624,621,622,623,624,625,626,623,624,621,2,3,2,3,3,2,3,2,3,2,3,3,2,3,2,3,2,3,2,3,69,69,69,69,69,69,1082,3,2,3,2,3,2,3,2,3,3,2,3,2,3,2,3,3,2,3,2,3,2,3,2,3,3,2,3,2,3,2,3,3,2,3,2,3,2,3,2,3,3,2,3,2,3,2,3,3,2,3,2,3,2,3,2,3,3,2,3,2,3,2,3,2,2,2,2,2,2,2,2,2,2,2,2,2,2,2,2,2,324,69,69,69,69,69,1191,2,2,2,2,2,2,2,2,2,2,2,2,2,2,2,2,2,2,2,2,2,2,2,2,2,2,2,2,2,2,2,2,2,2,2,2,2,2,2,2,2,2,2,2,2,2,2,2,2,2,2,2,2,2,2,2,2,892,69,69,69,69,69,69,69,629,1195,2,2,2,2,2,2,2,2,2,657,658,659,660,661,662,659,660,657,658,659,660,661,662,659,660,657,658,659,660,661,662,659,660,657,658,659,660,661,662,659,660,657,658,659,660,661,662,659,660,657,658,659,660,661,662,659,660,657,658,659,660,661,662,659,660,657,658,659,660,661,662,659,660,657,2,2,2,2,2,2,2,2,2,2,2,2,2,2,2,2,2,2,2,2,69,69,69,69,69,69,2,2,2,2,2,2,2,2,2,2,2,2,2,2,2,2,2,2,2,2,2,2,2,2,2,2,2,2,2,2,2,2,2,2,2,2,2,2,2,2,2,2,2,2,2,2,2,2,2,2,2,2,2,2,2,2,2,2,2,2,2,2,2,2,2,3,2,3,2,3,2,3,2,3,3,2,3,2,3,2,3,3,1223,69,69,69,69,69,1224,3,3,2,3,2,3,2,3,3,2,3,2,3,2,3,2,3,3,2,3,2,3,2,3,3,2,3,2,3,2,3,2,3,3,2,3,2,3,2,3,3,2,3,2,3,2,3,2,3,3,2,3,2,3,2,614,1228,69,69,69,69,69,69,69,1229,1230,2,3,2,3,2,3,3,2,3,2,608,609,610,611,899,613,610,611,608,609,610,611,899,613,610,611,608,609,610,611,899,613,610,611,608,609,610,611,899,613,610,611,608,609,610,611,899,613,610,611,608,609,610,611,899,613,610,611,608,609,610,611,899,613,610,611,608,609,610,611,899,613,610,611,608,2,3,2,3,3,2,3,2,3,2,3,3,2,3,2,3,2,3,2,3,69,69,69,69,69,69,3,3,2,3,2,3,2,3,2,3,3,2,3,2,3,2,3,3,2,3,2,3,2,3,2,3,3,2,3,2,3,2,3,3,2,3,2,3,2,3,2,3,3,2,3,2,3,2,3,3,2,3,2,3,2,3,2,3,3,2,3,2,3,2,3,581,582,564,565,562,563,564,565,581,582,564,565,562,563,564,565,581,1257,69,69,69,69,69,1258,581,582,564,565,2,2,2,2,2,2,2,2,2,2,2,2,2,2,2,2,2,2,2,2,2,2,2,2,2,2,2,2,2,2,2,2,2,2,2,2,2,2,2,2,2,2,2,2,2,2,2,2,2,2,2,68,69,69,69,69,69,69,69,1263,1264,2,2,2,2,2,2,2,2,2,2,2,944,658,945,946,947,980,945,946,944,658,945,946,947,980,945,946,944,658,945,946,947,980,945,946,944,658,945,946,947,980,945,946,944,658,945,946,947,980,945,946,944,658,945,946,947,980,945,946,944,658,945,946,947,980,945,946,944,658,945,946,947,980,945,946,944,2,2,2,2,2,2,2,2,2,2,2,2,2,2,2,2,2,2,2,2,69,69,69,69,69,69,2,2,2,2,2,2,2,2,2,2,2,2,2,2,2,2,2,2,2,2,2,2,2,2,2,2,2,2,2,2,2,2,2,2,2,2,2,2,2,2,2,2,2,2,2,2,2,2,2,2,2,2,2,2,2,2,2,2,2,2,2,2,2,2,2,595,601,593,594,591,592,593,594,595,601,593,594,591,592,593,594,595,1273,69,69,69,69,69,1274,595,601,593,594,2,3,2,3,3,2,3,2,3,2,3,2,3,3,2,3,2,3,2,3,3,2,3,2,3,2,3,2,3,3,2,3,2,3,2,3,3,2,3,2,3,2,3,2,3,3,2,3,2,3,1279,76,69,69,69,69,69,69,1280,1281,3,3,2,3,2,3,2,3,3,2,3,2,3,2,3,2,3,3,2,3,2,3,2,3,3,2,3,2,3,2,3,2,3,3,2,3,2,3,2,3,3,2,3,2,3,2,3,2,3,3,2,3,2,3,2,3,3,2,3,2,3,2,3,2,3,3,2,3,2,3,2,3,3,2,3,2,3,2,3,2,3,3,2,3,2,3,2,3,3,2,3,2,3,2,3,2,3,69,69,69,69,69,69,3,3,2,3,2,3,2,3,2,3,3,2,3,2,3,2,3,3,2,3,2,3,2,3,2,3,3,2,3,2,3,2,3,3,2,3,2,3,2,3,2,3,3,2,3,2,3,2,3,3,2,3,2,3,2,3,2,3,3,2,3,2,3,2,3,612,613,610,611,608,609,610,611,612,613,610,611,608,609,610,611,612,1289,69,69,69,69,69,1290,612,613,610,611,2,2,2,2,2,2,2,2,2,2,2,2,2,2,2,2,2,2,2,2,2,2,2,2,2,2,2,2,2,2,2,2,2,2,2,2,2,2,2,2,2,2,2,2,2,2,2,2,2,2,1294,69,69,69,69,69,69,1295,1296,2,2,2,2,2,2,2,2,2,2,2,2,2,2,2,2,2,2,2,2,2,2,2,2,2,2,2,2,2,2,2,2,2,2,2,2,2,2,2,2,2,2,2,2,2,2,2,2,2,2,2,2,2,2,2,2,2,2,2,2,2,2,2,2,2,2,2,2,2,2,2,2,2,2,2,2,2,2,2,2,2,2,2,2,2,2,2,2,2,2,2,2,2,2,2,2,2,2,69,69,69,69,69,69,2,2,2,2,2,2,2,2,2,2,2,2,2,2,2,2,2,2,582,564,565,562,563,564,565,581,582,564,565,562,563,564,565,581,582,564,565,562,563,564,565,2,2,2,2,2,2,2,2,2,2,2,2,2,2,2,2,2,2,2,2,2,2,2,2,625,626,623,624,621,622,623,624,625,626,623,624,621,622,623,624,625,1301,69,69,69,69,69,69,625,626,623,624,2,3,2,3,3,2,3,2,3,2,3,2,3,3,2,3,2,3,2,3,3,2,3,2,3,2,3,2,3,3,2,3,2,3,2,3,3,2,3,2,3,2,3,2,3,3,2,3,2,1305,1306,69,69,69,69,69,1307,462,3,2,3,3,2,3,2,3,2,3,3,2,3,2,3,2,3,2,3,3,2,3,2,3,2,3,3,2,3,2,3,2,3,2,3,3,2,3,2,3,2,3,3,2,3,2,3,2,3,2,3,3,2,3,2,3,2,3,3,2,3,2,3,2,3,2,3,3,2,3,2,3,2,3,3,2,3,2,3,2,3,2,3,3,2,3,2,3,2,3,3,2,3,2,3,2,3,2,3,69,69,69,69,69,69,3,3,2,3,2,3,2,3,2,3,3,2,3,2,3,2,3,1310,601,593,594,591,592,593,594,595,601,593,594,591,592,593,594,595,601,593,594,591,592,593,594,3,3,2,3,2,3,2,3,3,2,3,2,3,2,3,2,3,3,2,3,2,3,2,3,642,643,640,641,638,639,640,641,642,643,640,641,638,639,640,641,642,643,1311,69,69,69,69,69,1312,643,640,641,2,2,2,2,2,2,2,2,2,2,2,2,2,2,2,2,2,2,2,2,2,2,2,2,2,2,2,2,2,2,2,2,2,2,2,2,2,2,2,2,2,2,2,2,2,2,2,2,2,1317,69,69,69,69,69,629,1318,2,2,2,2,2,2,2,2,2,2,2,2,2,2,2,2,2,2,2,2,2,2,2,2,2,2,2,2,2,2,2,2,2,2,2,2,2,2,2,2,2,2,2,2,2,2,2,2,2,2,2,2,2,2,2,2,2,2,2,2,2,2,2,2,2,2,2,2,2,2,2,2,2,2,2,2,2,2,2,2,2,2,2,2,2,2,2,2,2,2,2,2,2,2,2,2,2,2,2,2,69,69,69,69,69,69,2,2,2,2,2,2,2,2,2,2,2,2,2,2,2,2,2,1322,613,610,611,608,609,610,611,612,613,610,611,608,609,610,611,612,613,610,611,608,609,610,611,2,2,2,2,2,2,2,2,2,2,2,2,2,2,2,2,2,2,2,2,2,2,2,2,650,613,610,611,608,609,610,611,650,613,610,611,608,609,610,611,650,613,1323,69,69,69,69,69,1324,613,610,611,2,2,2,2,2,2,2,2,2,2,2,2,2,2,2,2,2,2,2,2,2,2,2,2,2,2,2,2,2,2,2,2,2,2,2,2,2,2,2,2,2,2,2,2,2,2,2,2,1329,1149,69,69,69,69,69,1330,2,2,2,2,2,2,2,2,2,2,2,2,2,2,2,2,2,2,2,2,2,2,2,2,2,2,2,2,2,2,2,2,2,2,2,2,2,2,2,2,2,2,2,2,2,2,2,2,2,2,2,2,2,2,2,2,2,2,2,2,2,2,2,2,2,2,2,2,2,2,2,2,2,2,2,2,2,2,2,2,2,2,2,2,2,2,2,2,2,2,2,2,2,2,2,2,2,2,2,2,2,69,69,69,69,69,69,2,2,2,2,2,2,2,2,2,2,2,2,2,2,2,2,2,1335,626,623,624,621,622,623,624,625,626,623,624,621,622,623,624,625,626,623,624,621,622,623,624,2,2,2,2,2,2,2,2,2,2,2,2,2,2,2,2,2,2,2,2,2,2,2,2,661,662,659,660,657,658,659,660,661,662,659,660,657,658,659,660,661,662,1336,69,69,69,69,69,1337,662,659,660,2,3,2,3,3,2,3,2,3,2,3,2,3,3,2,3,2,3,2,3,3,2,3,2,3,2,3,2,3,3,2,3,2,3,2,3,3,2,3,2,3,2,3,2,3,3,2,3,1340,69,69,69,69,69,1341,1342,3,2,3,2,3,3,2,3,2,3,2,3,3,2,3,2,3,2,3,2,3,3,2,3,2,3,2,3,3,2,3,2,3,2,3,2,3,3,2,3,2,3,2,3,3,2,3,2,3,2,3,2,3,3,2,3,2,3,2,3,3,2,3,2,3,2,3,2,3,3,2,3,2,3,2,3,3,2,3,2,3,2,3,2,3,3,2,3,2,3,2,3,3,2,3,2,3,2,3,2,3,69,69,69,69,69,69,3,3,2,3,2,3,2,3,2,3,3,2,3,2,3,2,3,1348,643,640,641,638,639,640,641,642,643,640,641,638,639,640,641,642,643,640,641,638,639,640,641,3,3,2,3,2,3,2,3,3,2,3,2,3,2,3,2,3,3,2,3,2,3,2,3,625,626,623,624,621,622,623,624,625,626,623,624,621,622,623,624,625,626,1349,69,69,69,69,69,1350,626,623,624,2,2,2,2,2,2,2,2,2,2,2,2,2,2,2,2,2,2,2,2,2,2,2,2,2,2,2,2,2,2,2,2,2,2,2,2,2,2,2,2,2,2,2,2,2,2,2,1355,69,69,69,69,69,69,1356,2,2,2,2,2,2,2,2,2,2,2,2,2,2,2,2,2,2,2,2,2,2,2,2,2,2,2,2,2,2,2,2,2,2,2,2,2,2,2,2,2,2,2,2,2,2,2,2,2,2,2,2,2,2,2,2,2,2,2,2,2,2,2,2,2,2,2,2,2,2,2,2,2,2,2,2,2,2,2,2,2,2,2,2,2,2,2,2,2,2,2,2,2,2,2,2,2,2,2,2,2,2,69,69,69,69,69,69,2,2,2,2,2,2,2,2,2,2,2,2,2,2,2,2,2,1361,613,610,611,608,609,610,611,650,613,610,611,608,609,610,611,650,613,610,611,608,609,610,611,2,2,2,2,2,2,2,2,2,2,2,2,2,2,2,2,2,2,2,2,2,2,2,2,661,662,659,660,657,658,659,660,661,662,659,660,657,658,659,660,661,662,1362,69,69,69,69,69,1363,662,659,660,2,3,2,3,3,2,3,2,3,2,3,2,3,3,2,3,2,3,2,3,3,2,3,2,3,2,3,2,3,3,2,3,2,3,2,3,3,2,3,2,3,2,3,2,3,3,2,1367,69,69,69,69,69,1368,1369,2,3,2,3,2,3,3,2,3,2,3,2,3,3,2,3,2,3,2,3,2,3,3,2,3,2,3,2,3,3,2,3,2,3,2,3,2,3,3,2,3,2,3,2,3,3,2,3,2,3,2,3,2,3,3,2,3,2,3,2,3,3,2,3,2,3,2,3,2,3,3,2,3,2,3,2,3,3,2,3,2,3,2,3,2,3,3,2,3,2,3,2,3,3,2,3,2,3,2,3,2,3,69,69,69,69,69,69,3,3,2,3,2,3,2,3,2,3,3,2,3,2,3,2,3,1373,662,659,660,657,658,659,660,661,662,659,660,657,658,659,660,661,662,659,660,657,658,659,660,3,3,2,3,2,3,2,3,3,2,3,2,3,2,3,2,3,3,2,3,2,3,2,3,625,626,623,624,621,622,623,624,625,626,623,624,621,622,623,624,625,626,1374,69,69,69,69,69,1375,626,623,624,2,2,2,2,2,2,2,2,2,2,2,2,2,2,2,2,2,2,2,2,2,2,2,2,2,2,2,2,2,2,2,2,2,2,2,2,2,2,2,2,2,2,2,2,2,2,1377,69,69,69,69,69,69,1378,2,2,2,2,2,2,2,2,2,2,2,2,2,2,2,2,2,2,2,2,2,2,2,2,2,2,2,2,2,2,2,2,2,2,2,2,2,2,2,2,2,2,2,2,2,2,2,2,2,2,2,2,2,2,2,2,2,2,2,2,2,2,2,2,2,2,2,2,2,2,2,2,2,2,2,2,2,2,2,2,2,2,2,2,2,2,2,2,2,2,2,2,2,2,2,2,2,2,2,2,2,2,2,69,69,69,69,69,69,2,2,2,2,2,2,2,2,2,2,2,2,2,2,2,2,2,1361,626,623,624,621,622,623,624,625,626,623,624,621,622,623,624,625,626,623,624,621,622,623,624,2,2,2,2,2,2,2,2,2,2,2,2,2,2,2,2,2,2,2,2,2,2,2,2,642,643,640,641,638,639,640,641,642,643,640,641,638,639,640,641,642,643,1382,69,69,69,69,69,1383,643,640,641,562,563,564,565,581,582,564,565,562,563,564,565,581,582,564,565,562,563,564,565,581,582,564,565,562,563,564,565,3,3,2,3,2,3,2,3,3,2,3,2,3,2,3,2,3,614,1384,69,69,69,69,69,1385,630,3,2,3,2,3,2,3,3,2,3,2,3,2,3,3,2,3,2,3,2,3,2,3,3,2,3,2,3,2,3,3,2,3,2,3,2,3,2,3,3,2,3,2,3,2,3,3,2,3,2,3,2,3,2,3,3,2,3,2,3,2,3,3,2,3,2,3,2,3,2,3,3,2,3,2,3,2,3,3,2,3,2,3,2,3,2,3,3,2,3,2,3,2,3,3,2,3,2,3,2,3,2,3,69,69,69,69,69,69,3,3,2,3,2,3,2,3,2,3,3,2,3,2,3,2,3,1373,662,659,660,657,658,659,660,661,662,659,660,657,658,659,660,661,662,659,660,657,658,659,660,581,582,564,565,562,563,564,565,581,582,564,565,562,563,564,565,581,582,564,565,562,563,564,565,650,613,610,611,608,609,610,611,650,613,610,611,608,609,610,611,650,613,1388,69,69,69,69,69,1389,613,610,611,591,592,593,594,595,601,593,594,591,592,593,594,595,601,593,594,591,592,593,594,595,601,593,594,591,592,593,594,2,2,2,2,2,2,2,2,2,2,2,2,2,2,2,2,2,68,69,69,69,69,69,69,1390,2,2,2,2,2,2,2,2,2,2,2,2,2,2,2,2,2,2,2,2,2,2,2,2,2,2,2,2,2,2,2,2,2,2,2,2,2,2,2,2,2,2,2,2,2,2,2,2,2,2,2,2,2,2,2,2,2,2,2,2,2,2,2,2,2,2,2,2,2,2,2,2,2,2,2,2,2,2,2,2,2,2,2,2,2,2,2,2,2,2,2,2,2,2,2,2,2,2,2,2,2,2,2,2,69,69,69,69,69,69,2,2,2,2,2,2,2,2,2,2,2,2,2,2,2,2,2,1335,626,623,624,621,622,623,624,625,626,623,624,621,622,623,624,625,626,623,624,621,622,623,624,595,601,593,594,591,592,593,594,595,601,593,594,591,592,593,594,595,601,593,594,591,592,593,594,661,662,659,660,657,658,659,660,661,662,659,660,657,658,659,660,661,662,1393,69,69,69,69,69,1394,1395,1396,1397,1398,609,610,611,612,613,610,611,608,609,610,611,612,613,610,611,608,609,610,611,612,613,610,611,608,609,610,611,2,2,2,2,2,2,2,2,2,2,2,2,2,2,2,2,2,76,69,69,69,69,69,1399,2,2,2,2,2,2,2,2,2,2,2,2,2,2,2,2,2,2,2,2,2,2,2,2,2,2,2,2,2,2,2,2,2,2,2,2,2,2,2,2,2,2,2,2,2,2,2,2,2,2,2,2,2,2,2,2,2,2,2,2,2,2,2,2,2,2,2,2,2,2,2,2,2,2,2,2,2,2,2,2,2,2,2,2,2,2,2,2,2,2,2,2,2,2,2,2,2,2,2,2,2,2,2,2,2,69,69,69,69,69,69,2,2,2,2,2,2,2,2,2,2,2,2,2,2,2,2,2,1404,643,640,641,638,639,640,641,642,643,640,641,638,639,640,641,642,643,640,641,638,639,640,641,612,613,610,611,608,609,610,611,612,613,610,611,608,609,610,611,612,613,610,611,608,609,610,611,625,626,623,624,621,622,623,624,625,626,623,624,621,622,623,624,625,626,1405,69,69,69,69,69,69,69,69,69,69,1406,1407,1408,1409,1410,1411,1412,621,622,623,624,625,626,623,624,621,622,623,624,625,626,623,624,621,622,623,624,3,3,2,3,2,3,2,3,3,2,3,2,3,2,3,2,3,260,69,69,69,69,69,1413,3,2,3,2,3,2,3,2,3,3,2,3,2,3,2,3,3,2,3,2,3,2,3,2,3,3,2,3,2,3,2,3,3,2,3,2,3,2,3,2,3,3,2,3,2,3,2,3,3,2,3,2,3,2,3,2,3,3,2,3,2,3,2,3,3,2,3,2,3,2,3,2,3,3,2,3,2,3,2,3,3,2,3,2,3,2,3,2,3,3,2,3,2,3,2,3,3,2,3,2,3,2,3,2,3,69,69,69,69,69,69,3,3,2,3,2,3,2,3,2,3,3,2,3,2,3,2,3,1417,613,610,611,608,609,610,611,650,613,610,611,608,609,610,611,650,613,610,611,608,609,610,611,625,626,623,624,621,622,623,624,625,626,623,624,621,622,623,624,625,626,623,624,621,622,623,624,661,662,659,660,657,658,659,660,661,662,659,660,657,658,659,660,661,662,659,69,69,69,69,69,69,69,69,69,69,69,69,69,69,69,69,69,1418,1419,1420,1421,1422,1423,1424,641,638,639,640,641,642,643,640,641,638,639,640,641,2,2,2,2,2,2,2,2,2,2,2,2,2,2,2,2,2,282,69,69,69,69,930,2,2,2,2,2,2,2,2,2,2,2,2,2,2,2,2,2,2,2,2,2,2,2,2,2,2,2,2,2,2,2,2,2,2,2,2,2,2,2,2,2,2,2,2,2,2,2,2,2,2,2,2,2,2,2,2,2,2,2,2,2,2,2,2,2,2,2,2,2,2,2,2,2,2,2,2,2,2,2,2,2,2,2,2,2,2,2,2,2,2,2,2,2,2,2,2,2,2,2,2,2,2,2,2,2,2,69,69,69,69,69,69,2,2,2,2,2,2,2,2,2,2,2,2,2,2,2,2,2,1322,662,659,660,657,658,659,660,661,662,659,660,657,658,659,660,661,662,659,660,657,658,659,660,642,643,640,641,638,639,640,641,642,643,640,641,638,639,640,641,642,643,640,641,638,639,640,641,625,626,623,624,621,622,623,624,625,626,623,624,621,622,623,624,625,626,623,1427,69,69,69,69,69,69,69,69,69,69,69,69,69,69,69,69,69,69,69,69,69,69,69,1428,1429,1430,1431,1432,1433,1434,1435,611,608,609,610,611,3,3,2,3,2,3,2,3,3,2,3,2,3,2,3,2,3,296,297,69,69,1436,462,3,3,2,3,2,3,2,3,2,3,3,2,3,2,3,2,3,3,2,3,2,3,2,3,2,3,3,2,3,2,3,2,3,3,2,3,2,3,2,3,2,3,3,2,3,2,3,2,3,3,2,3,2,3,2,3,2,3,3,2,3,2,3,2,3,3,2,3,2,3,2,3,2,3,3,2,3,2,3,2,3,3,2,3,2,3,2,3,2,3,3,2,3,2,3,2,3,3,2,3,2,3,2,3,2,3,69,69,69,69,69,69,3,3,2,3,2,3,2,3,2,3,3,2,3,2,3,2,3,1417,626,623,624,621,622,623,624,625,626,623,624,621,622,623,624,625,626,623,624,621,622,623,624,650,613,610,611,608,609,610,611,650,613,610,611,608,609,610,611,650,613,610,611,608,609,610,611,642,643,640,641,638,639,640,641,642,643,640,641,638,639,640,641,642,643,640,1441,69,69,69,69,69,69,69,69,69,69,69,69,69,69,69,69,69,69,69,69,69,69,69,69,69,69,69,69,69,69,69,1442,1443,1444,1445,1446,1447,1448,2,2,2,2,2,2,2,2,2,2,2,2,2,2,2,2,2,316,317,2,2,2,2,2,2,2,2,2,2,2,2,2,2,2,2,2,2,2,2,2,2,2,2,2,2,2,2,2,2,2,2,2,2,2,2,2,2,2,2,2,2,2,2,2,2,2,2,2,2,2,2,2,2,2,2,2,2,2,2,2,2,2,2,2,2,2,2,2,2,2,2,2,2,2,2,2,2,2,2,2,2,2,2,2,2,2,2,2,2,2,2,2,2,2,2,2,2,2,2,2,2,2,2,2,2,2,511,512,513,514,515,516,517,518,2,2,2,2,2,2,2,2,2,2,2,2,2,2,2,2,1322,662,659,660,657,658,659,660,661,662,659,660,657,658,659,660,661,662,659,660,657,658,659,660,661,662,659,660,657,658,659,660,661,662,659,660,657,658,659,660,661,662,659,660,657,658,659,660,650,613,610,611,608,609,610,611,650,613,610,611,608,609,610,611,650,613,610,1451,1452,69,69,69,69,69,69,69,69,69,69,69,69,69,69,69,69,69,69,69,69,69,69,69,69,69,69,69,69,69,69,69,69,69,69,69,69,69,494,1453,987,1454,1455,1456,1457,1458,3,2,3,2,3,2,3,3,2,3,2,3,2,3,3,2,3,2,3,2,3,2,3,3,2,3,2,3,2,3,3,2,3,2,3,2,3,2,3,3,2,3,2,3,2,3,3,2,3,2,3,2,3,2,3,3,2,3,2,3,2,3,3,2,3,2,3,2,3,2,3,3,2,3,2,3,2,3,3,2,3,2,3,2,3,2,3,3,2,3,2,3,2,3,3,2,3,2,3,2,3,2,3,3,2,3,2,3,2,3,3,2,3,2,3,2,3,2,537,538,539,540,541,542,543,544,3,2,3,2,3,2,3,2,3,3,2,3,2,3,2,3,1462,626,623,624,621,622,623,624,625,626,623,624,621,622,623,624,625,626,623,624,621,622,623,624,625,626,623,624,621,622,623,624,625,626,623,624,621,622,623,624,625,626,623,624,621,622,623,624,661,662,659,660,657,658,659,660,661,662,659,660,657,658,659,660,661,662,659,660,657,1463,1464,1465,1466,1467,1468,1469,1470,69,69,69,69,69,69,69,69,69,69,69,69,69,69,69,69,69,69,69,69,69,69,69,69,69,69,69,69,69,69,69,69,69,69,69,69,69,985,1471,988,1472,1473,1474,1475,2,2,2,2,2,2,2,2,2,2,2,2,2,2,2,2,2,2,2,2,2,2,2,2,2,2,2,2,2,2,2,2,2,2,2,2,2,2,2,2,2,2,2,2,2,2,2,2,2,2,2,2,2,2,2,2,2,2,2,2,2,2,2,2,2,2,2,2,2,2,2,2,2,2,2,2,2,2,2,2,2,2,2,2,2,2,2,2,2,2,2,2,2,2,2,2,2,2,2,2,2,2,2,2,2,2,2,2,2,2,2,568,569,570,571,572,573,574,575,581,582,564,565,562,563,564,565,581,582,564,565,562,563,564,565,581,643,640,641,638,639,640,641,642,643,640,641,638,639,640,641,642,643,640,641,638,639,640,641,661,662,659,660,657,658,659,660,661,662,659,660,657,658,659,660,661,662,659,660,657,658,659,660,625,626,623,624,621,622,623,624,625,626,623,624,621,622,623,624,625,626,623,624,621,622,623,624,625,626,623,624,621,1481,1482,1483,1484,1485,1486,1487,69,69,69,69,69,69,69,69,69,69,69,69,69,69,69,69,69,69,69,69,69,69,69,69,69,69,69,69,69,69,69,69,69,69,69,69,69,69,58,153,154,3,2,3,3,2,3,2,3,2,3,2,3,3,2,3,2,3,2,3,3,2,3,2,3,2,3,2,3,3,2,3,2,3,2,3,3,2,3,2,3,2,3,2,3,3,2,3,2,3,2,3,3,2,3,2,3,2,3,2,3,3,2,3,2,3,2,3,3,2,3,2,3,2,3,2,3,3,2,3,2,3,2,3,3,2,3,2,3,2,3,2,3,3,2,3,2,3,2,3,3,2,3,2,3,2,3,2,537,538,539,540,541,542,543,597,595,601,593,594,591,592,593,594,595,601,593,594,591,592,593,594,595,613,610,611,608,609,610,611,650,613,610,611,608,609,610,611,650,613,610,611,608,609,610,611,625,626,623,624,621,622,623,624,625,626,623,624,621,622,623,624,625,626,623,624,621,622,623,624,661,662,659,660,657,658,659,660,661,662,659,660,657,658,659,660,661,662,659,660,657,658,659,660,661,662,659,660,638,639,640,641,642,643,640,641,1494,1495,1496,1497,1498,1499,1500,69,69,69,69,69,69,69,69,69,69,69,69,69,69,69,69,69,69,69,69,69,69,69,69,69,69,69,69,69,69,69,69,69,363,2,2,2,2,2,2,2,2,2,2,2,2,2,2,2,2,2,2,2,2,2,2,2,2,2,2,2,2,2,2,2,2,2,2,2,2,2,2,2,2,2,2,2,2,2,2,2,2,2,2,2,2,2,2,2,2,2,2,2,2,2,2,2,2,2,2,2,2,2,2,2,2,2,2,2,2,2,2,2,2,2,2,2,2,2,2,2,2,2,2,2,2,2,2,2,2,2,2,2,2,2,2,2,2,2,2,2,568,569,570,571,572,573,574,575,612,613,610,611,608,609,610,611,612,613,610,611,608,609,610,611,612,662,659,660,657,658,659,660,661,662,659,660,657,658,659,660,661,662,659,660,657,658,659,660,642,643,640,641,638,639,640,641,642,643,640,641,638,639,640,641,642,643,640,641,638,639,640,641,625,626,623,624,621,622,623,624,625,626,623,624,621,622,623,624,625,626,623,624,621,622,623,624,625,626,623,624,608,609,610,611,650,613,610,611,608,609,610,611,650,613,610,1503,1504,1505,1506,1507,1508,1509,1510,69,69,69,69,69,69,69,69,69,69,69,69,69,69,69,69,69,69,69,69,69,69,69,69,69,69,1131,2,2,2,2,2,2,2,2,2,2,2,2,2,2,2,2,2,2,2,2,2,2,2,2,2,2,2,2,2,2,2,2,2,2,2,2,2,2,2,2,2,2,2,2,2,2,2,2,2,2,2,2,2,2,2,2,2,2,2,2,2,2,2,2,2,2,2,2,2,2,2,2,2,2,2,2,2,2,2,2,2,2,2,2,2,2,2,2,2,2,2,2,2,2,2,2,2,2,2,2,2,2,2,2,2,2,537,538,539,540,541,542,543,597,625,626,623,624,621,622,623,624,625,626,623,624,621,622,623,624,625,626,623,624,621,622,623,624,625,626,623,624,621,622,623,624,625,626,623,624,621,622,623,624,650,613,610,611,608,609,610,611,650,613,610,611,608,609,610,611,650,613,610,611,608,609,610,611,642,643,640,641,638,639,640,641,642,643,640,641,638,639,640,641,642,643,640,641,638,639,640,641,642,643,640,641,657,658,659,660,661,662,659,660,657,658,659,660,661,662,659,660,657,658,659,660,661,662,659,1513,1514,1515,1516,1517,1518,1519,69,69,69,69,69,69,69,69,69,69,69,69,511,512,513,514,515,516,517,518,2,3,3,2,3,2,3,2,3,2,3,3,2,3,2,3,2,3,3,2,3,2,3,2,3,2,3,3,2,3,2,3,2,3,3,2,3,2,3,2,3,2,3,582,564,565,562,563,564,565,581,582,564,565,562,563,564,565,581,582,564,565,562,563,564,565,581,582,564,565,562,563,564,565,3,3,2,3,2,3,2,3,3,2,3,2,3,2,3,2,3,3,2,3,2,3,2,3,3,2,3,2,3,2,3,2,568,569,570,571,572,573,574,575,642,643,640,641,638,639,640,641,642,643,640,641,638,639,640,641,642,662,659,660,657,658,659,660,661,662,659,660,657,658,659,660,661,662,659,660,657,658,659,660,661,662,659,660,657,658,659,660,661,662,659,660,657,658,659,660,661,662,659,660,657,658,659,660,650,613,610,611,608,609,610,611,650,613,610,611,608,609,610,611,650,613,610,611,608,609,610,611,650,613,610,611,621,622,623,624,625,626,623,624,621,622,623,624,625,626,623,624,621,622,623,624,625,626,623,624,621,622,623,624,2,2,1521,1522,1523,1160,1524,1525,1526,1527,69,69,69,69,537,538,539,540,541,542,543,544,2,2,2,2,2,2,2,2,2,2,2,2,2,2,2,2,2,2,2,2,2,2,2,2,2,2,2,2,2,2,2,2,2,2,2,2,2,2,2,2,2,2,1528,601,593,594,591,592,593,594,595,601,593,594,591,592,593,594,595,601,593,594,591,592,593,594,595,601,593,594,591,592,593,594,2,2,2,2,2,2,2,2,2,2,2,2,2,2,2,2,2,2,2,2,2,2,2,2,2,2,2,2,2,2,2,2,537,538,539,540,541,542,543,597,650,613,610,611,608,609,610,611,650,613,610,611,608,609,610,611,650,626,623,624,621,622,623,624,625,626,623,624,621,622,623,624,625,626,623,624,621,622,623,624,625,626,623,624,621,622,623,624,625,626,623,624,621,622,623,624,625,626,623,624,621,622,623,624,661,662,659,660,657,658,659,660,661,662,659,660,657,658,659,660,661,662,659,660,657,658,659,660,661,662,659,660,657,658,659,660,661,662,659,660,657,658,659,660,661,662,659,660,657,658,659,660,661,662,659,660,657,658,659,660,581,582,564,565,562,563,564,565,581,582,1530,1531,1532,1533,568,569,570,571,572,573,574,575,564,565,581,582,564,565,562,563,564,565,3,3,2,3,2,3,2,3,3,2,3,2,3,2,3,2,3,3,2,3,2,3,2,3,3,2,3,2,3,2,3,2,1348,613,610,611,608,609,610,611,612,613,610,611,608,609,610,611,612,613,610,611,608,609,610,611,612,613,610,611,608,609,610,611,3,3,2,3,2,3,2,3,3,2,3,2,3,2,3,2,3,3,2,3,2,3,2,3,3,2,3,2,3,2,3,2,568,569,570,571,572,573,574,575,661,662,659,660,657,658,659,660,661,662,659,660,657,658,659,660,661,643,640,641,638,639,640,641,642,643,640,641,638,639,640,641,642,643,640,641,638,639,640,641,661,662,659,660,657,658,659,660,661,662,659,660,657,658,659,660,661,662,659,660,657,658,659,660,625,626,623,624,621,622,623,624,625,626,623,624,621,622,623,624,625,626,623,624,621,622,623,624,625,626,623,624,621,622,623,624,625,626,623,624,621,622,623,624,625,626,623,624,621,622,623,624,625,626,623,624,621,622,623,624,595,601,593,594,591,592,593,594,595,601,593,594,591,592,537,538,539,540,541,542,543,597,593,594,595,601,593,594,591,592,593,594,2,2,2,2,2,2,2,2,2,2,2,2,2,2,2,2,2,2,2,2,2,2,2,2,2,2,2,2,2,2,2,2,1361,626,623,624,621,622,623,624,625,626,623,624,621,622,623,624,625,626,623,624,621,622,623,624,625,626,623,624,621,622,623,624,2,2,2,2,2,2,2,2,2,2,2,2,2,2,2,2,2,2,2,2,2,2,2,2,2,2,2,2,2,2,2,2,537,538,539,540,541,542,543,597,625,626,623,624,621,622,623,624,625,626,623,624,621,622,623,624,625,613,610,611,608,609,610,611,650,613,610,611,608,609,610,611,650,613,610,611,608,609,610,611,625,626,623,624,621,622,623,624,625,626,623,624,621,622,623,624,625,626,623,624,621,622,623,624,661,662,659,660,657,658,659,660,661,662,659,660,657,658,659,660,661,662,659,660,657,658,659,660,661,662,659,660,638,639,640,641,642,643,640,641,638,639,640,641,642,643,640,641,638,639,640,641,642,643,640,641,638,639,640,641,612,613,610,611,608,609,610,611,612,613,610,611,608,609,568,569,570,571,572,573,574,575,610,611,612,613,610,611,608,609,610,611,3,3,2,3,2,3,2,3,3,2,3,2,3,2,3,2,3,3,2,3,2,3,2,3,3,2,3,2,3,2,3,2,1373,643,640,641,638,639,640,641,642,643,640,641,638,639,640,641,642,643,640,641,638,639,640,641,642,643,640,641,638,639,640,641,3,3,2,3,2,3,2,3,3,2,3,2,3,2,3,2,3,3,2,3,2,3,2,3,3,2,3,2,3,2,3,2,568,569,570,571,572,573,574,575,661,662,659,660,657,658,659,660,661,662,659,660,657,658,659,660,661,662,659,660,657,658,659,660,661,662,659,660,657,658,659,660,661,662,659,660,657,658,659,660,642,643,640,641,638,639,640,641,642,643,640,641,638,639,640,641,642,643,640,641,638,639,640,641,625,626,623,624,621,622,623,624,625,626,623,624,621,622,623,624,625,626,623,624,621,622,623,624,625,626,623,624,608,609,610,611,650,613,610,611,608,609,610,611,650,613,610,611,608,609,610,611,650,613,610,611,608,609,610,611,625,626,623,624,621,622,623,624,625,626,623,624,621,622,537,538,539,540,541,542,543,597,623,624,625,626,623,624,621,622,623,624,2,2,2,2,2,2,2,2,2,2,2,2,2,2,2,2,2,2,2,2,2,2,2,2,2,2,2,2,2,2,2,2,1361,613,610,611,608,609,610,611,650,613,610,611,608,609,610,611,650,613,610,611,608,609,610,611,650,613,610,611,608,609,610,611,2,2,2,2,2,2,2,2,2,2,2,2,2,2,2,2,2,2,2,2,2,2,2,2,2,2,2,2,2,2,2,2,537,538,539,540,541,542,543,597,625,626,623,624,621,622,623,624,625,626,623,624,621,622,623,624,625,626,623,624,621,622,623,624,625,626,623,624,621,622,623,624,625,626,623,624,621,622,623,624,650,613,610,611,608,609,610,611,650,613,610,611,608,609,610,611,650,613,610,611,608,609,610,611,642,643,640,641,638,639,640,641,642,643,640,641,638,639,640,641,642,643,640,641,638,639,640,641,642,643,640,641,657,658,659,660,661,662,659,660,657,658,659,660,661,662,659,660,657,658,659,660,661,662,659,660,657,658,659,660,642,643,640,641,638,639,640,641,642,643,640,641,638,639,568,569,570,571,572,573,574,575,640,641,642,643,640,641,638,639,640,641,2,2,2,2,2,2,2,2,2,2,2,2,2,2,2,2,2,2,2,2,2,2,2,2,2,2,2,2,2,2,2,2,1322,662,659,660,657,658,659,660,661,662,659,660,657,658,659,660,661,662,659,660,657,658,659,660,661,662,659,660,657,658,659,660,2,2,2,2,2,2,2,2,2,2,2,2,2,2,2,2,2,2,2,2,2,2,2,2,2,2,2,2,2,2,2,2,568,569,570,571,572,573,574,575,642,643,640,641,638,639,640,641,642,643,640,641,638,639,640,641,642,662,659,660,657,658,659,660,661,662,659,660,657,658,659,660,661,662,659,660,657,658,659,660,661,662,659,660,657,658,659,660,661,662,659,660,657,658,659,660,661,662,659,660,657,658,659,660,650,613,610,611,608,609,610,611,650,613,610,611,608,609,610,611,650,613,610,611,608,609,610,611,650,613,610,611,621,622,623,624,625,626,623,624,621,622,623,624,625,626,623,624,621,622,623,624,625,626,623,624,621,622,623,624,650,613,610,611,608,609,610,611,650,613,610,611,608,609,537,538,539,540,541,542,543,597,610,611,650,613,610,611,608,609,610,611,3,3,2,3,2,3,2,3,3,2,3,2,3,2,3,2,3,3,2,3,2,3,2,3,3,2,3,2,3,2,3,2,1462,626,623,624,621,622,623,624,625,626,623,624,621,622,623,624,625,626,623,624,621,622,623,624,625,626,623,624,621,622,623,624,3,3,2,3,2,3,2,3,3,2,3,2,3,2,3,2,3,3,2,3,2,3,2,3,3,2,3,2,3,2,3,2,537,538,539,540,541,542,543,597,650,613,610,611,608,609,610,611,650,613,610,611,608,609,610,611,650,626,623,624,621,622,623,624,625,626,623,624,621,622,623,624,625,626,623,624,621,622,623,624,625,626,623,624,621,622,623,624,625,626,623,624,621,622,623,624,625,626,623,624,621,622,623,624,661,662,659,660,657,658,659,660,661,662,659,660,657,658,659,660,661,662,659,660,657,658,659,660,661,662,659,660,657,658,659,660,661,662,659,660,657,658,659,660,661,662,659,660,657,658,659,660,661,662,659,660,657,658,659,660,661,662,659,660,657,658,659,660,661,662,659,660,657,658,568,569,570,571,572,573,574,575,659,660,661,662,659,660,657,658,659,660,2,2,2,2,2,2,2,2,2,2,2,2,2,2,2,2,2,2,2,2,2,2,2,2,2,2,2,2,2,2,2,2,1404,662,659,660,657,658,659,660,661,662,659,660,657,658,659,660,661,662,659,660,657,658,659,660,661,662,659,660,657,658,659,660,581,582,564,565,562,563,564,565,581,582,564,565,562,563,564,565,581,582,564,565,562,563,564,565,581,582,564,565,562,563,564,565,568,569,570,571,572,573,574,575,661,662,659,660,657,658,659,660,661,662,659,660,657,658,659,660,661,643,640,641,638,639,640,641,642,643,640,641,638,639,640,641,642,643,640,641,638,639,640,641,661,662,659,660,657,658,659,660,661,662,659,660,657,658,659,660,661,662,659,660,657,658,659,660,899,613,610,611,608,609,610,611,899,613,610,611,608,609,610,611,899,613,610,611,608,609,610,611,899,613,610,611,621,622,623,624,625,626,623,624,621,622,623,624,625,626,623,624,621,622,623,624,625,626,623,624,621,622,623,624,625,626,623,624,621,622,623,624,625,626,623,624,621,622,537,538,539,540,541,542,543,597,623,624,625,626,623,624,621,622,623,624,3,3,2,3,2,3,2,3,3,2,3,2,3,2,3,2,3,3,2,3,2,3,2,3,3,2,3,2,3,2,3,2,1417,626,623,624,621,622,623,624,625,626,623,624,621,622,623,624,625,626,623,624,621,622,623,624,625,626,623,624,621,622,623,624,595,601,593,594,591,592,593,594,595,601,593,594,591,592,593,594,595,601,593,594,591,592,593,594,595,601,593,594,591,592,593,594,537,538,539,540,541,542,543,597,625,626,623,624,621,622,623,624,625,626,623,624,621,622,623,624,625,613,610,611,608,609,610,611,650,613,610,611,608,609,610,611,650,613,610,611,608,609,610,611,625,626,623,624,621,622,623,624,625,626,623,624,621,622,623,624,625,626,623,624,621,622,623,624,947,980,945,946,944,658,945,946,947,980,945,946,944,658,945,946,947,980,945,946,944,658,945,946,947,980,945,946,638,639,640,641,642,643,640,641,638,639,640,641,642,643,640,641,638,639,640,641,642,643,640,641,638,639,640,641,661,662,659,660,657,658,659,660,661,662,659,660,657,658,568,569,570,571,572,573,574,575,659,660,661,662,659,660,657,658,659,660,2,2,2,2,2,2,2,2,2,2,2,2,2,2,2,2,2,2,2,2,2,2,2,2,2,2,2,2,2,2,2,2,1322,643,640,641,638,639,640,641,642,643,640,641,638,639,640,641,642,643,640,641,638,639,640,641,642,643,640,641,638,639,640,641,612,613,610,611,608,609,610,611,612,613,610,611,608,609,610,611,612,613,610,611,608,609,610,611,612,613,610,611,608,609,610,611,568,569,570,571,572,573,574,575,661,662,659,660,657,658,659,660,661,662,659,660,657,658,659,660,661,662,659,660,657,658,659,660,661,662,659,660,657,658,659,660,661,662,659,660,657,658,659,660,642,643,640,641,638,639,640,641,642,643,640,641,638,639,640,641,642,643,640,641,638,639,640,641,3,2,3,2,3,2,3,2,3,3,2,3,2,3,2,3,3,2,3,2,3,2,3,2,3,3,2,3,608,609,610,611,650,613,610,611,608,609,610,611,650,613,610,611,608,609,610,611,650,613,610,611,608,609,610,611,625,626,623,624,621,622,623,624,625,626,623,624,621,622,537,538,539,540,541,542,543,597,623,624,625,626,623,624,621,622,623,624,3,3,2,3,2,3,2,3,3,2,3,2,3,2,3,2,3,3,2,3,2,3,2,3,3,2,3,2,3,2,3,2,1417,613,610,611,608,609,610,611,650,613,610,611,608,609,610,611,650,613,610,611,608,609,610,611,650,613,610,611,608,609,610,611,625,626,623,624,621,622,623,624,625,626,623,624,621,622,623,624,625,626,623,624,621,622,623,624,625,626,623,624,621,622,623,624,537,538,539,540,541,542,543,597,625,626,623,624,621,622,623,624,625,626,623,624,621,622,623,624,625,613,610,611,608,609,610,611,899,613,610,611,608,609,610,611,899,613,610,611,608,609,610,611,650,613,610,611,608,609,610,611,650,613,610,611,608,609,610,611,650,613,610,611,608,609,610,611,2,2,2,2,2,2,2,2,2,2,2,2,2,2,2,2,2,2,2,2,2,2,2,2,2,2,2,2,657,658,659,660,661,662,659,660,657,658,659,660,661,662,659,660,657,658,659,660,661,662,659,660,657,658,659,660,642,643,640,641,638,639,640,641,642,643,640,641,638,639,568,569,570,571,572,573,574,575,640,641,642,643,640,641,638,639,640,641,581,582,564,565,562,563,564,565,581,582,564,565,562,563,564,565,581,582,564,565,562,563,564,565,581,582,564,565,562,563,564,565,581,662,659,660,657,658,659,660,661,662,659,660,657,658,659,660,661,662,659,660,657,658,659,660,661,662,659,660,657,658,659,660,642,643,640,641,638,639,640,641,642,643,640,641,638,639,640,641,642,643,640,641,638,639,640,641,642,643,640,641,638,639,640,641,568,569,570,571,572,573,574,575,642,643,640,641,638,639,640,641,642,643,640,641,638,639,640,641,642,980,945,946,944,658,945,946,947,980,945,946,944,658,945,946,947,980,945,946,944,658,945,946,661,662,659,660,657,658,659,660,661,662,659,660,657,658,659,660,661,662,659,660,657,658,659,660,3,2,3,2,3,2,3,2,3,3,2,3,2,3,2,3,3,2,3,2,3,2,3,2,3,3,2,3,621,622,623,624,625,626,623,624,621,622,623,624,625,626,623,624,621,622,623,624,625,626,623,624,621,622,623,624,650,613,610,611,608,609,610,611,650,613,610,611,608,609,537,538,539,540,541,542,543,597,610,611,650,613,610,611,608,609,610,611,595,601,593,594,591,592,593,594,595,601,593,594,591,592,593,594,595,601,593,594,591,592,593,594,595,601,593,594,591,592,593,594,595,626,623,624,621,622,623,624,625,626,623,624,621,622,623,624,625,626,623,624,621,622,623,624,625,626,623,624,621,622,623,624,650,613,610,611,608,609,610,611,650,613,610,611,608,609,610,611,650,613,610,611,608,609,610,611,650,613,610,611,608,609,610,611,537,538,539,540,541,542,543,597,650,613,610,611,608,609,610,611,650,613,610,611,608,609,610,611,650,2,3,2,3,2,3,2,3,3,2,3,2,3,2,3,3,2,3,2,3,2,3,2,625,626,623,624,621,622,623,624,625,626,623,624,621,622,623,624,625,626,623,624,621,622,623,624,2,2,2,2,2,2,2,2,2,2,2,2,2,2,2,2,2,2,2,2,2,2,2,2,2,2,2,2,657,658,659,660,661,662,659,660,657,658,659,660,661,662,659,660,657,658,659,660,661,662,659,660,657,658,659,660,661,662,659,660,657,658,659,660,661,662,659,660,657,658,568,569,570,571,572,573,574,575,659,660,661,662,659,660,657,658,659,660,612,613,610,611,608,609,610,611,612,613,610,611,608,609,610,611,612,613,610,611,608,609,610,611,612,613,610,611,608,609,610,611,612,662,659,660,657,658,659,660,661,662,659,660,657,658,659,660,661,662,659,660,657,658,659,660,661,662,659,660,657,658,659,660,661,662,659,660,657,658,659,660,661,662,659,660,657,658,659,660,661,662,659,660,657,658,659,660,661,662,659,660,657,658,659,660,568,569,570,571,572,573,574,575,661,662,659,660,657,658,659,660,661,662,659,660,657,658,659,660,661,2,2,2,2,2,2,2,2,2,2,2,2,2,2,2,2,2,2,2,2,2,2,2,661,662,659,660,657,658,659,660,661,662,659,660,657,658,659,660,661,662,659,660,657,658,659,660,2,2,2,2,2,2,2,2,2,2,2,2,2,2,2,2,2,2,2,2,2,2,2,2,2,2,2,2,621,622,623,624,625,626,623,624,621,622,623,624,625,626,623,624,621,622,623,624,625,626,623,624,621,622,623,624,625,626,623,624,621,622,623,624,625,626,623,624,621,622,537,538,539,540,541,542,543,597,623,624,625,626,623,624,621,622,623,624,625,626,623,624,621,622,623,624,625,626,623,624,621,622,623,624,625,626,623,624,621,622,623,624,625,626,623,624,621,622,623,624,625,626,623,624,621,622,623,624,625,626,623,624,621,622,623,624,625,626,623,624,621,622,623,624,625,626,623,624,621,622,623,624,625,626,623,624,621,622,623,624,625,626,623,624,621,622,623,624,625,626,623,624,621,622,623,624,625,626,623,624,621,622,623,624,537,538,539,540,541,542,543,597,625,626,623,624,621,622,623,624,625,626,623,624,621,622,623,624,625,2,2,2,2,2,2,2,2,2,2,2,2,2,2,2,2,2,2,2,2,2,2,2,625,626,623,624,621,622,623,624,625,626,623,624,621,622,623,624,625,626,623,624,621,622,623,624,3,2,3,2,3,2,3,2,3,3,2,3,2,3,2,3,3,2,3,2,3,2,3,2,3,3,2,3,638,639,640,641,642,643,640,641,638,639,640,641,642,643,640,641,638,639,640,641,642,643,640,641,638,639,640,641,661,662,659,660,657,658,659,660,661,662,659,660,657,658,568,569,570,571,572,573,574,575,659,660,661,662,659,660,657,658,659,660,642,643,640,641,638,639,640,641,642,643,640,641,638,639,640,641,642,643,640,641,638,639,640,641,642,643,640,641,638,639,640,641,642,643,640,641,638,639,640,641,642,643,640,641,638,639,640,641,642,643,640,641,638,639,640,641,642,643,640,641,638,639,640,641,661,662,659,660,657,658,659,660,661,662,659,660,657,658,659,660,661,662,659,660,657,658,659,660,661,662,659,660,657,658,659,660,568,569,570,571,572,573,574,575,661,662,659,660,657,658,659,660,661,662,659,660,657,658,659,660,661,2,3,2,3,2,3,2,3,3,2,3,2,3,2,3,3,2,3,2,3,2,3,2,642,643,640,641,638,639,640,641,642,643,640,641,638,639,640,641,642,643,640,641,638,639,640,641,2,2,2,2,2,2,2,2,2,2,2,2,2,2,2,2,2,2,2,2,2,2,2,2,2,2,2,2,608,609,610,611,650,613,610,611,608,609,610,611,650,613,610,611,608,609,610,611,650,613,610,611,608,609,610,611,625,626,623,624,621,622,623,624,625,626,623,624,621,622,537,538,539,540,541,542,543,597,623,624,625,626,623,624,621,622,623,624,650,613,610,611,608,609,610,611,650,613,610,611,608,609,610,611,650,613,610,611,608,609,610,611,650,613,610,611,608,609,610,611,650,613,610,611,608,609,610,611,650,613,610,611,608,609,610,611,650,613,610,611,608,609,610,611,650,613,610,611,608,609,610,611,625,626,623,624,621,622,623,624,625,626,623,624,621,622,623,624,625,626,623,624,621,622,623,624,625,626,623,624,621,622,623,624,537,538,539,540,541,542,543,597,625,626,623,624,621,622,623,624,625,626,623,624,621,622,623,624,625,2,2,2,2,2,2,2,2,2,2,2,2,2,2,2,2,2,2,2,2,2,2,2,650,613,610,611,608,609,610,611,650,613,610,611,608,609,610,611,650,613,610,611,608,609,610,611,3,2,3,2,3,2,3,2,3,3,2,3,2,3,2,3,3,2,3,2,3,2,3,2,3,3,2,3,657,658,659,660,661,662,659,660,657,658,659,660,661,662,659,660,657,658,659,660,661,662,659,660,657,658,659,660,642,643,640,641,638,639,640,641,642,643,640,641,638,639,568,569,570,571,572,573,574,575,640,641,642,643,640,641,638,639,640,641,661,662,659,660,657,658,659,660,661,662,659,660,657,658,659,660,661,662,659,660,657,658,659,660,661,662,659,660,657,658,659,660,661,662,659,660,657,658,659,660,661,662,659,660,657,658,659,660,661,662,659,660,657,658,659,660,661,662,659,660,657,658,659,660,642,643,640,641,638,639,640,641,642,643,640,641,638,639,640,641,642,643,640,641,638,639,640,641,642,643,640,641,638,639,640,641,568,569,570,571,572,573,574,575,642,643,640,641,638,639,640,641,642,643,640,641,638,639,640,641,642,2,3,2,3,2,3,2,3,3,2,3,2,3,2,3,3,2,3,2,3,2,3,2,661,662,659,660,657,658,659,660,661,662,659,660,657,658,659,660,661,662,659,660,657,658,659,660,2,2,2,2,2,2,2,2,2,2,2,2,2,2,2,2,2,2,2,2,2,2,2,2,2,2,2,2,608,609,610,611,899,613,610,611,608,609,610,611,899,613,610,611,608,609,610,611,899,613,610,611,608,609,610,611,650,613,610,611,608,609,610,611,650,613,610,611,608,609,537,538,539,540,541,542,543,597,610,611,650,613,610,611,608,609,610,611,625,626,623,624,621,622,623,624,625,626,623,624,621,622,623,624,625,626,623,624,621,622,623,624,625,626,623,624,621,622,623,624,625,626,623,624,621,622,623,624,625,626,623,624,621,622,623,624,625,626,623,624,621,622,623,624,625,626,623,624,621,622,623,624,650,613,610,611,608,609,610,611,650,613,610,611,608,609,610,611,650,613,610,611,608,609,610,611,650,613,610,611,608,609,610,611,537,538,539,540,541,542,543,597,650,613,610,611,608,609,610,611,650,613,610,611,608,609,610,611,650,2,2,2,2,2,2,2,2,2,2,2,2,2,2,2,2,2,2,2,2,2,2,2,899,613,610,611,608,609,610,611,899,613,610,611,608,609,610,611,899,613,610,611,608,609,610,611,3,2,3,2,3,2,3,2,3,3,2,3,2,3,2,3,3,2,3,2,3,2,3,2,3,3,2,3,944,658,945,946,947,980,945,946,944,658,945,946,947,980,945,946,944,658,945,946,947,980,945,946,944,658,945,946,661,662,659,660,657,658,659,660,661,662,659,660,657,658,568,569,570,571,572,573,574,575,659,660,661,662,659,660,657,658,659,660,661,662,659,660,657,658,659,660,661,662,659,660,657,658,659,660,661,662,659,660,657,658,659,660,661,662,659,660,657,658,659,660,661,662,659,660,657,658,659,660,661,662,659,660,657,658,659,660,661,662,659,660,657,658,659,660,661,662,659,660,657,658,659,660,661,662,659,660,657,658,659,660,661,662,659,660,657,658,659,660,661,662,659,660,657,658,659,660,661,662,659,660,657,658,659,660,568,569,570,571,572,573,574,575,661,662,659,660,657,658,659,660,661,662,659,660,657,658,659,660,661,2,3,2,3,2,3,2,3,3,2,3,2,3,2,3,3,2,3,2,3,2,3,2,947,980,945,946,944,658,945,946,947,980,945,946,944,658,945,946,947,980,945,946,944,658,945,946,2,2,2,2,2,2,2,2,2,2,2,2,2,2,2,2,2,2,2,2,2,2,2,2,2,2,2,2,2,2,2,2,2,2,2,2,2,2,2,2,2,2,2,2,2,2,2,2,2,2,2,2,2,2,2,2,625,626,623,624,621,622,623,624,625,626,623,624,621,622,537,538,539,540,541,542,543,597,623,624,625,626,623,624,621,622,623,624,625,626,623,624,621,622,623,624,625,626,623,624,621,622,623,624,625,626,623,624,621,622,623,624,625,626,623,624,621,622,623,624,625,626,623,624,621,622,623,624,625,626,623,624,621,622,623,624,625,626,623,624,621,622,623,624,625,626,623,624,621,622,623,624,625,626,623,624,621,622,623,624,625,626,623,624,621,622,623,624,625,626,623,624,621,622,623,624,625,626,623,624,621,622,623,624,537,538,539,540,541,542,543,597,625,626,623,624,621,622,623,624,625,626,623,624,621,622,623,624,625,2,2,2,2,2,2,2,2,2,2,2,2,2,2,2,2,2,2,2,2,2,2,2,2,2,2,2,2,2,2,2,2,2,2,2,2,2,2,2,2,2,2,2,2,2,2,2,2,2,2,2,2,2,2,2,2,2,2,2,2,2,2,2,2,2,2,2,2,2,2,2,2,2,2,2,2,2,2,2,2,2,2,2,2,2,2,2,2,2,2,2,2,2,2,2,2,2,2,2,2,2,2,2,661,662,659,660,657,658,659,660,661,662,659,660,657,658,568,569,570,571,572,573,574,575,659,660,661,662,659,660,657,658,659,660,642,643,640,641,638,639,640,641,642,643,640,641,638,639,640,641,642,643,640,641,638,639,640,641,642,643,640,641,638,639,640,641,642,643,640,641,638,639,640,641,642,643,640,641,638,639,640,641,642,643,640,641,638,639,640,641,642,643,640,641,638,639,640,641,661,662,659,660,657,658,659,660,661,662,659,660,657,658,659,660,661,662,659,660,657,658,659,660,661,662,659,660,657,658,659,660,568,569,570,571,572,573,574,575,661,662,659,660,657,658,659,660,661,662,659,660,657,658,659,660,661,2,2,2,2,2,2,2,2,2,2,2,2,2,2,2,2,2,2,2,2,2,2,2,2,2,2,2,2,2,2,2,2,2,2,2,2,2,2,2,2,2,2,2,2,2,2,2,3,2,3,2,3,2,3,2,3,3,2,3,2,3,2,3,3,2,3,2,3,2,3,2,3,3,2,3,2,3,2,3,3,2,3,2,3,2,3,2,3,3,2,3,2,3,2,3,3,2,3,2,3,2,3,2,625,626,623,624,621,622,623,624,625,626,623,624,621,622,537,538,539,540,541,542,543,597,623,624,625,626,623,624,621,622,623,624,650,613,610,611,608,609,610,611,650,613,610,611,608,609,610,611,650,613,610,611,608,609,610,611,650,613,610,611,608,609,610,611,650,613,610,611,608,609,610,611,650,613,610,611,608,609,610,611,650,613,610,611,608,609,610,611,650,613,610,611,608,609,610,611,625,626,623,624,621,622,623,624,625,626,623,624,621,622,623,624,625,626,623,624,621,622,623,624,625,626,623,624,621,622,623,624,537,538,539,540,541,542,543,597,625,626,623,624,621,622,623,624,625,626,623,624,621,622,623,624,625,2,3,2,3,2,3,2,3,3,2,3,2,3,2,3,3,2,3,2,3,2,3,2,3,3,2,3,2,3,2,3,3,2,3,2,3,2,3,2,3,3,2,3,2,3,2,3,2,2,2,2,2,2,2,2,2,2,2,2,2,2,2,2,2,2,2,2,2,2,2,2,2,2,2,2,2,2,2,2,2,2,2,2,2,2,2,2,2,2,2,2,2,2,2,2,2,2,2,2,2,2,2,2,642,643,640,641,638,639,640,641,642,643,640,641,638,639,568,569,570,571,572,573,574,575,640,641,642,643,640,641,638,639,640,641,661,662,659,660,657,658,659,660,661,662,659,660,657,658,659,660,661,662,659,660,657,658,659,660,661,662,659,660,657,658,659,660,661,662,659,660,657,658,659,660,661,662,659,660,657,658,659,660,661,662,659,660,657,658,659,660,661,662,659,660,657,658,659,660,642,643,640,641,638,639,640,641,642,643,640,641,638,639,640,641,642,643,640,641,638,639,640,641,642,643,640,641,638,639,640,641,568,569,570,571,572,573,574,575,642,643,640,641,638,639,640,641,642,643,640,641,638,639,640,641,642,2,2,2,2,2,2,2,2,2,2,2,2,2,2,2,2,2,2,2,2,2,2,2,2,2,2,2,2,2,2,2,2,2,2,2,2,2,2,2,2,2,2,2,2,2,2,2,3,2,3,2,3,2,3,2,3,3,2,3,2,3,2,3,3,2,3,2,3,2,3,2,3,3,2,3,2,3,2,3,3,2,3,2,3,2,3,2,3,3,2,3,2,3,2,3,3,2,3,2,3,2,3,2,650,613,610,611,608,609,610,611,650,613,610,611,608,609,537,538,539,540,541,542,543,597,610,611,650,613,610,611,608,609,610,611,625,626,623,624,621,622,623,624,625,626,623,624,621,622,623,624,625,626,623,624,621,622,623,624,625,626,623,624,621,622,623,624,625,626,623,624,621,622,623,624,625,626,623,624,621,622,623,624,625,626,623,624,621,622,623,624,625,626,623,624,621,622,623,624,650,613,610,611,608,609,610,611,650,613,610,611,608,609,610,611,650,613,610,611,608,609,610,611,650,613,610,611,608,609,610,611,537,538,539,540,541,542,543,597,650,613,610,611,608,609,610,611,650,613,610,611,608,609,610,611,650,2,3,2,3,2,3,2,3,3,2,3,2,3,2,3,3,2,3,2,3,2,3,2,3,3,2,3,2,3,2,3,3,2,3,2,3,2,3,2,3,3,2,3,2,3,2,3,2,2,2,2,2,2,2,2,2,2,2,2,2,2,2,2,2,2,2,2,2,2,2,2,2,2,2,2,2,2,2,2,2,2,2,2,2,2,2,2,2,2,2,2,2,2,2,2,2,2,2,2,2,2,2,2,661,662,659,660,657,658,659,660,661,662,659,660,657,658,568,569,570,571,572,573,574,575,659,660,661,662,659,660,657,658,659,660,661,662,659,660,657,658,659,660,661,662,659,660,657,658,659,660,661,662,659,660,657,658,659,660,661,662,659,660,657,658,659,660,661,662,659,660,657,658,659,660,661,662,659,660,657,658,659,660,661,662,659,660,657,658,659,660,661,662,659,660,657,658,659,660,661,662,659,660,657,658,659,660,661,662,659,660,657,658,659,660,661,662,659,660,657,658,659,660,661,662,659,660,657,658,659,660,568,569,570,571,572,573,574,575,661,662,659,660,657,658,659,660,661,662,659,660,657,658,659,660,661,2,2,2,2,2,2,2,2,2,2,2,2,2,2,2,2,2,2,2,2,2,2,2,2,2,2,2,2,2,2,2,2,2,2,2,2,2,2,2,2,2,2,2,2,2,2,2,3,2,3,2,3,2,3,2,3,3,2,3,2,3,2,3,3,2,3,2,3,2,3,2,3,3,2,3,2,3,2,3,3,2,3,2,3,2,3,2,3,3,2,3,2,3,2,3,3,2,3,2,3,2,3,2,625,626,623,624,621,622,623,624,625,626,623,624,621,622,537,538,539,540,541,542,543,597,623,624,625,626,623,624,621,622,623,624,625,626,623,624,621,622,623,624,625,626,623,624,621,622,623,624,625,626,623,624,621,622,623,624,625,626,623,624,621,622,623,624,625,626,623,624,621,622,623,624,625,626,623,624,621,622,623,624,625,626,623,624,621,622,623,624,625,626,623,624,621,622,623,624,625,626,623,624,621,622,623,624,625,626,623,624,621,622,623,624,625,626,623,624,621,622,623,624,625,626,623,624,621,622,623,624,537,538,539,540,541,542,543,597,899,613,610,611,608,609,610,611,899,613,610,611,608,609,610,611,899,2,3,2,3,2,3,2,3,3,2,3,2,3,2,3,3,2,3,2,3,2,3,2,3,3,2,3,2,3,2,3,3,2,3,2,3,2,3,2,3,3,2,3,2,3,2,3,2,2,2,2,2,2,2,2,2,2,2,2,2,2,2,2,2,2,2,2,2,2,2,2,2,2,2,2,2,2,2,2,2,2,2,2,2,2,2,2,2,2,2,2,2,2,2,2,2,2,2,2,2,2,2,2,661,662,659,660,657,658,659,660,661,662,659,660,657,658,568,569,570,571,572,573,574,575,659,660,661,662,659,660,657,658,659,660,642,643,640,641,638,639,640,641,642,643,640,641,638,639,640,641,642,643,640,641,638,639,640,641,642,643,640,641,638,639,640,641,642,643,640,641,638,639,640,641,642,643,640,641,638,639,640,641,642,643,640,641,638,639,640,641,642,643,640,641,638,639,640,641,661,662,659,660,657,658,659,660,661,662,659,660,657,658,659,660,661,662,659,660,657,658,659,660,661,662,659,660,657,658,659,660,568,569,570,571,572,573,574,949,947,980,945,946,944,658,945,946,947,980,945,946,944,658,945,946,947,2,2,2,2,2,2,2,2,2,2,2,2,2,2,2,2,2,2,2,2,2,2,2,2,2,2,2,2,2,2,2,2,2,2,2,2,2,2,2,2,2,2,2,2,2,2,2,3,2,3,2,3,2,3,2,3,3,2,3,2,3,2,3,3,2,3,2,3,2,3,2,3,3,2,3,2,3,2,3,3,2,3,2,3,2,3,2,3,3,2,3,2,3,2,3,3,2,3,2,3,2,3,2,625,626,623,624,621,622,623,624,625,626,623,624,621,622,537,538,539,540,541,542,543,597,623,624,625,626,623,624,621,622,623,624,650,613,610,611,608,609,610,611,650,613,610,611,608,609,610,611,650,613,610,611,608,609,610,611,650,613,610,611,608,609,610,611,650,613,610,611,608,609,610,611,650,613,610,611,608,609,610,611,650,613,610,611,608,609,610,611,650,613,610,611,608,609,610,611,625,626,623,624,621,622,623,624,625,626,623,624,621,622,623,624,625,626,623,624,621,622,623,624,625,626,623,624,621,622,623,624,999,1000,1001,1002,1003,1004,1005,1006,3,2,3,2,3,2,3,2,3,3,2,3,2,3,2,3,3,2,3,2,3,2,3,2,3,3,2,3,2,3,2,3,3,2,3,2,3,2,3,2,3,3,2,3,2,3,2,3,3,2,3,2,3,2,3,2,3,3,2,3,2,3,2,3,2,2,2,2,2,2,2,2,2,2,2,2,2,2,2,2,2,2,2,2,2,2,2,2,2,2,2,2,2,2,2,2,2,2,2,2,2,2,2,2,2,2,2,2,2,2,2,2,2,2,2,2,2,2,2,2,642,643,640,641,638,639,640,641,642,643,640,641,638,639,568,569,570,571,572,573,574,575,640,641,642,643,640,641,638,639,640,641,661,662,659,660,657,658,659,660,661,662,659,660,657,658,659,660,661,662,659,660,657,658,659,660,661,662,659,660,657,658,659,660,661,662,659,660,657,658,659,660,661,662,659,660,657,658,659,660,661,662,659,660,657,658,659,660,661,662,659,660,657,658,659,660,642,643,640,641,638,639,640,641,642,643,640,641,638,639,640,641,642,643,640,641,638,639,640,641,642,643,640,641,638,639,640,641,642,76,69,69,69,69,69,1131,2,2,2,2,2,2,2,2,2,2,2,2,2,2,2,2,2,2,2,2,2,2,2,2,2,2,2,2,2,2,2,2,2,2,2,2,2,2,2,2,2,2,2,2,2,2,2,2,2,2,2,2,2,2,2,2,2,2,2,2,2,2,2,2,2,2,2,2,2,2,2,2,2,2,2,2,2,2,2,2,2,2,2,2,2,2,2,2,2,2,2,2,2,2,2,2,2,2,2,2,2,2,2,2,2,2,2,2,2,2,2,2,2,2,2,2,2,2,2,2,650,613,610,611,608,609,610,611,650,613,610,611,608,609,537,538,539,540,541,542,543,597,610,611,650,613,610,611,608,609,610,611,625,626,623,624,621,622,623,624,625,626,623,624,621,622,623,624,625,626,623,624,621,622,623,624,625,626,623,624,621,622,623,624,625,613,610,611,608,609,610,611,899,613,610,611,608,609,610,611,899,613,610,611,608,609,610,611,899,613,610,611,608,609,610,611,650,613,610,611,608,609,610,611,650,613,610,611,608,609,610,611,650,613,610,611,608,609,610,611,650,613,610,611,608,609,610,611,650,85,69,69,69,69,69,1636,2,2,2,2,2,2,2,2,2,2,2,2,2,2,2,2,2,2,2,2,2,2,2,2,2,2,2,2,2,2,2,2,2,2,2,2,2,2,2,2,2,2,2,2,2,2,2,2,2,2,2,2,2,2,2,2,2,2,2,2,2,2,2,2,3,2,3,2,3,2,3,2,3,3,2,3,2,3,2,3,3,2,3,2,3,2,3,2,3,3,2,3,2,3,2,3,3,2,3,2,3,2,3,2,3,3,2,3,2,3,2,3,3,2,3,2,3,2,3,2,661,662,659,660,657,658,659,660,661,662,659,660,657,658,568,569,570,571,572,573,574,575,659,660,661,662,659,660,657,658,659,660,661,662,659,660,657,658,659,660,661,662,659,660,657,658,659,660,661,662,659,660,657,658,659,660,661,662,659,660,657,658,659,660,661,980,945,946,944,658,945,946,947,980,945,946,944,658,945,946,947,980,945,946,944,658,945,946,947,980,945,946,944,658,945,946,661,662,659,660,657,658,659,660,661,662,659,660,657,658,659,660,661,662,659,660,657,658,659,660,661,662,659,660,657,658,659,660,661,1646,69,69,69,69,69,1647,3,2,3,2,3,2,3,2,3,3,2,3,2,3,2,3,3,2,3,2,3,2,3,2,3,3,2,3,2,3,2,3,3,2,3,2,3,2,3,2,3,3,2,3,2,3,2,3,3,2,3,2,3,2,3,2,3,3,2,3,2,3,2,3,2,2,2,2,2,2,2,2,2,2,2,2,2,2,2,2,2,2,2,2,2,2,2,2,2,2,2,2,2,2,2,2,2,2,2,2,2,2,2,2,2,2,2,2,2,2,2,2,2,2,2,2,2,2,2,2,899,613,610,611,608,609,610,611,899,613,610,611,608,609,537,538,539,540,541,542,543,597,610,611,899,613,610,611,608,609,610,611,625,626,623,624,621,622,623,624,625,626,623,624,621,622,623,624,625,626,623,624,621,622,623,624,625,626,623,624,621,622,623,624,625,2,2,2,2,2,2,2,2,2,2,2,2,2,2,2,2,2,2,2,2,2,2,2,2,2,2,2,2,2,2,2,625,626,623,624,621,622,623,624,625,626,623,624,621,622,623,624,625,626,623,624,621,622,623,624,625,626,623,624,621,622,623,624,625,1659,69,69,69,69,69,184,2,2,2,2,2,2,2,2,2,2,2,2,2,2,2,2,2,2,2,2,2,2,2,2,2,2,2,2,2,2,2,2,2,2,2,2,2,2,2,2,2,2,2,2,2,2,2,2,2,2,2,2,2,2,2,2,2,2,2,2,2,2,2,2,3,2,3,2,3,2,3,2,3,3,2,3,2,3,2,3,3,2,3,2,3,2,3,2,3,3,2,3,2,3,2,3,3,2,3,2,3,2,3,2,3,3,2,3,2,3,2,3,3,2,3,2,3,2,3,2,947,980,945,946,944,658,945,946,947,980,945,946,944,658,568,569,570,571,572,573,574,949,945,946,947,980,945,946,944,658,945,946,642,643,640,641,638,639,640,641,642,643,640,641,638,639,640,641,642,643,640,641,638,639,640,641,642,643,640,641,638,639,640,641,642,3,2,3,2,3,2,3,3,2,3,2,3,2,3,2,3,3,2,3,2,3,2,3,3,2,3,2,3,2,3,2,661,662,659,660,657,658,659,660,661,662,659,660,657,658,659,660,661,662,659,660,657,658,659,660,661,662,659,660,657,658,659,660,661,1668,69,69,69,69,69,1669,3,2,3,2,3,2,3,2,3,3,2,3,2,3,2,3,3,2,3,2,3,2,3,2,3,3,2,3,2,3,2,3,3,2,3,2,3,2,3,2,3,3,2,3,2,3,2,3,3,2,3,2,3,2,3,2,3,3,2,3,2,3,2,3,2,2,2,2,2,2,2,2,2,2,2,2,2,2,2,2,2,2,2,2,2,2,2,2,2,2,2,2,2,2,2,2,2,2,2,2,2,2,2,2,2,2,2,2,2,2,2,2,2,2,2,2,2,2,2,2,2,2,2,2,2,2,2,2,2,2,2,2,2,2,999,1000,1001,1002,1003,1004,1005,1006,2,2,2,2,2,2,2,2,2,2,650,613,610,611,608,609,610,611,650,613,610,611,608,609,610,611,650,613,610,611,608,609,610,611,650,613,610,611,608,609,610,611,650,2,2,2,2,2,2,2,2,2,2,2,2,2,2,2,2,2,2,2,2,2,2,2,2,2,2,2,2,2,2,2,625,626,623,624,621,622,623,624,625,626,623,624,621,622,623,624,625,626,623,624,621,622,623,624,625,626,623,624,621,622,623,624,625,2,1677,69,69,69,69,69,1678,2,2,2,2,2,2,2,2,2,2,2,2,2,2,2,2,2,2,2,2,2,2,2,2,2,2,2,2,2,2,2,2,2,2,2,2,2,2,2,2,2,2,2,2,2,2,2,2,2,2,2,2,2,2,2,2,2,2,2,2,2,2,2,3,2,3,2,3,2,3,2,3,3,2,3,2,3,2,3,3,2,3,2,3,2,3,2,3,3,2,3,2,3,2,3,3,2,3,2,3,2,3,2,3,3,2,3,2,3,2,3,3,2,3,2,3,2,3,2,3,3,2,3,2,3,2,3,3,2,3,2,3,2,3,282,69,69,69,69,69,345,1685,3,3,2,3,2,3,2,3,2,661,662,659,660,657,658,659,660,661,662,659,660,657,658,659,660,661,662,659,660,657,658,659,660,661,662,659,660,657,658,659,660,661,3,2,3,2,3,2,3,3,2,3,2,3,2,3,2,3,3,2,3,2,3,2,3,3,2,3,2,3,2,3,2,642,643,640,641,638,639,640,641,642,643,640,641,638,639,640,641,642,643,640,641,638,639,640,641,642,643,640,641,638,639,640,641,642,3,1688,69,69,69,69,69,1689,2,3,2,3,2,3,2,3,3,2,3,2,3,2,3,3,2,3,2,3,2,3,2,3,3,2,3,2,3,2,3,3,2,3,2,3,2,3,2,3,3,2,3,2,3,2,3,3,2,3,2,3,2,3,2,3,3,2,3,2,3,2,3,2,2,2,2,2,2,2,2,2,2,2,2,2,2,2,2,2,2,2,2,2,2,2,2,2,2,2,2,2,2,2,2,2,2,2,2,2,2,2,2,2,2,2,2,2,2,2,2,2,2,2,2,2,2,2,2,2,2,2,2,2,2,2,2,2,2,2,2,2,2,2,1698,362,69,69,69,69,69,332,2,2,2,2,2,2,2,2,2,625,626,623,624,621,622,623,624,625,626,623,624,621,622,623,624,625,626,623,624,621,622,623,624,625,626,623,624,621,622,623,624,625,2,2,2,2,2,2,2,2,2,2,2,2,2,2,2,2,2,2,2,2,2,2,2,2,2,2,2,2,2,2,2,650,613,610,611,608,609,610,611,650,613,610,611,608,609,610,611,650,613,610,611,608,609,610,611,650,613,610,611,608,609,610,611,650,2,1223,69,69,69,69,69,1701,2,2,2,2,2,2,2,2,2,2,2,2,2,2,2,2,2,2,2,2,2,2,2,2,2,2,2,2,2,2,2,2,2,2,2,2,2,2,2,2,2,2,2,2,2,2,2,2,2,2,2,2,2,2,2,2,2,2,2,2,2,2,2,2,2,2,2,2,2,2,2,2,2,2,2,2,2,2,2,2,2,2,2,2,2,2,2,2,2,2,2,2,2,2,2,2,2,2,2,2,2,2,2,2,2,2,2,2,2,2,2,2,2,2,2,2,2,2,2,2,2,2,2,2,2,2,2,2,2,2,2,2,2,2,2,1708,69,69,69,69,69,345,1685,2,2,2,2,2,2,2,2,661,662,659,660,657,658,659,660,661,662,659,660,657,658,659,660,661,662,659,660,657,658,659,660,661,662,659,660,657,658,659,660,661,2,2,2,2,2,2,2,2,2,2,2,2,2,2,2,2,2,2,2,2,2,2,2,2,2,2,2,2,2,2,2,661,662,659,660,657,658,659,660,661,662,659,660,657,658,659,660,661,662,659,660,657,658,659,660,661,662,659,660,657,658,659,660,661,2,1713,69,69,69,69,69,1714,2,2,2,2,2,2,2,2,2,2,2,2,2,2,2,2,2,2,2,2,2,2,2,2,2,2,2,2,2,2,2,2,2,2,2,2,2,2,2,2,2,2,2,2,2,2,2,2,2,2,2,2,2,2,2,2,2,2,2,2,2,2,2,3,2,3,2,3,2,3,2,3,3,2,3,2,3,2,3,3,2,3,2,3,2,3,2,3,3,2,3,2,3,2,3,3,2,3,2,3,2,3,2,3,3,2,3,2,3,2,3,3,2,3,2,3,2,3,2,3,3,2,3,2,3,2,3,3,2,3,2,3,2,3,2,1723,1724,69,69,69,69,69,1725,3,2,3,2,3,2,3,2,625,626,623,624,621,622,623,624,625,626,623,624,621,622,623,624,625,626,623,624,621,622,623,624,625,626,623,624,621,622,623,624,625,3,2,3,2,3,2,3,3,2,3,2,3,2,3,2,3,3,2,3,2,3,2,3,3,2,3,2,3,2,3,2,899,613,610,611,608,609,610,611,899,613,610,611,608,609,610,611,899,613,610,611,608,609,610,611,899,613,610,611,608,609,610,611,899,3,202,203,69,69,69,69,377,281,3,2,3,2,3,2,3,3,2,3,2,3,2,3,3,2,3,2,3,2,3,2,3,3,2,3,2,3,2,3,3,2,3,2,3,2,3,2,3,3,2,3,2,3,2,3,3,2,3,2,3,2,3,2,3,3,2,3,2,3,2,3,2,2,2,2,2,2,2,2,2,2,2,2,2,2,2,2,2,2,2,2,2,2,2,2,2,2,2,2,2,2,2,2,2,2,2,2,2,2,2,2,2,2,2,2,2,2,2,2,2,2,2,2,2,2,2,2,2,2,2,2,2,2,2,2,2,2,2,2,2,2,2,2,2,1708,69,69,69,69,69,345,1685,2,2,2,2,2,2,2,642,643,640,641,638,639,640,641,642,643,640,641,638,639,640,641,642,643,640,641,638,639,640,641,642,643,640,641,638,639,640,641,642,2,2,2,2,2,2,2,2,2,2,2,2,2,2,2,2,2,2,2,2,2,2,2,2,2,2,2,2,2,2,2,947,980,945,946,944,658,945,946,947,980,945,946,944,658,945,946,947,980,945,946,944,658,945,946,947,980,945,946,944,658,945,946,947,2,2,1738,69,69,69,69,69,1636,2,2,2,2,2,2,2,2,2,2,2,2,2,2,2,2,2,2,2,2,2,2,2,2,2,2,2,2,2,2,2,2,2,2,2,2,2,2,2,2,2,2,2,2,2,2,2,2,2,2,2,2,2,2,2,2,2,2,2,2,2,2,3,2,3,2,3,2,3,2,3,3,2,3,2,3,2,3,3,2,3,2,3,2,3,2,3,3,2,3,2,3,2,3,3,2,3,2,3,2,3,2,3,3,2,3,2,3,2,3,3,2,3,2,3,2,3,2,3,3,2,3,2,3,2,3,3,2,3,2,3,2,3,2,3,1723,362,69,69,69,69,69,1725,2,3,2,3,2,3,2,650,613,610,611,608,609,610,611,650,613,610,611,608,609,610,611,650,613,610,611,608,609,610,611,650,613,610,611,608,609,610,611,650,3,2,3,2,3,2,3,3,2,3,2,3,2,3,2,3,3,2,3,2,3,2,3,3,2,3,2,3,2,3,2,3,3,2,3,2,3,2,3,3,2,3,2,3,2,3,2,3,3,2,3,2,3,2,3,3,2,3,2,3,2,3,2,3,3,2,1750,69,69,69,69,69,1751,3,2,3,2,3,2,3,3,2,3,2,3,2,3,3,2,3,2,3,2,3,2,3,3,2,3,2,3,2,3,3,2,3,2,3,2,3,2,3,3,2,3,2,3,2,3,3,2,3,2,3,2,3,2,3,3,2,3,2,3,2,3,2,2,2,2,2,2,2,2,2,2,2,2,2,2,2,2,2,2,2,2,2,2,2,2,2,2,2,2,2,2,2,2,2,2,2,2,2,2,2,2,2,2,2,2,2,2,2,2,2,2,2,2,2,2,2,2,2,2,2,2,2,2,2,2,2,2,2,2,2,2,2,2,2,2,1708,69,69,69,69,69,345,1685,2,2,2,2,2,2,661,662,659,660,657,658,659,660,661,662,659,660,657,658,659,660,661,662,659,660,657,658,659,660,661,662,659,660,657,658,659,660,661,2,2,2,2,2,2,2,2,2,2,2,2,2,2,2,2,2,2,2,2,2,2,2,2,2,2,2,2,2,2,2,2,2,2,2,2,2,2,2,2,2,2,2,2,2,2,2,2,2,2,2,2,2,2,2,2,2,2,2,2,2,2,2,2,2,2,1659,69,69,69,69,69,184,2,2,2,2,2,2,2,2,2,2,2,2,2,2,2,2,2,2,2,2,2,2,2,2,2,2,2,2,2,2,2,2,2,2,2,2,2,2,2,2,2,2,2,2,2,2,2,2,2,2,2,2,2,2,2,2,2,2,2,2,2,2,3,2,3,2,3,2,3,2,3,3,2,3,2,3,2,3,3,2,3,2,3,2,3,2,3,3,2,3,2,3,2,3,3,2,3,2,3,2,3,2,3,3,2,3,2,3,2,3,3,2,3,2,3,2,3,2,3,3,2,3,2,3,2,3,3,2,3,2,3,2,3,2,3,3,1698,1724,69,69,69,69,69,332,3,2,3,2,3,2,899,613,610,611,608,609,610,611,899,613,610,611,608,609,610,611,899,613,610,611,608,609,610,611,899,613,610,611,608,609,610,611,899,3,2,3,2,3,2,3,3,2,3,2,3,2,3,2,3,3,2,3,2,3,2,3,3,2,3,2,3,2,3,2,3,3,2,3,2,3,2,3,3,2,3,2,3,2,3,2,3,3,2,3,2,3,2,3,3,2,3,2,3,2,3,2,3,3,2,1668,69,69,69,69,69,1774,3,2,3,2,3,2,3,3,2,3,2,3,2,3,3,2,3,2,3,2,3,2,3,3,2,3,2,3,2,3,3,2,3,2,3,2,3,2,3,3,2,3,2,3,2,3,3,2,3,2,3,2,3,2,3,3,2,3,2,3,2,3,2,2,2,2,2,2,2,2,2,2,2,2,2,2,2,2,2,2,2,2,2,2,2,2,2,2,2,2,2,2,2,2,2,2,2,2,2,2,2,2,2,2,2,2,2,2,2,2,2,2,2,2,2,2,2,2,2,2,2,2,2,2,2,2,2,2,2,2,2,2,2,2,2,2,2,1708,69,69,69,69,69,345,1685,2,2,2,2,2,947,980,945,946,944,658,945,946,947,980,945,946,944,658,945,946,947,980,945,946,944,658,945,946,947,980,945,946,944,658,945,946,947,2,2,2,2,2,2,2,2,2,2,2,2,2,2,2,2,2,2,2,2,2,2,2,2,2,2,2,2,2,2,2,2,2,2,2,2,2,2,2,2,2,2,2,2,2,2,2,2,2,2,2,2,2,2,2,2,2,2,2,2,2,2,2,2,2,2,2,1677,69,69,69,69,69,1678,2,2,2,2,2,2,2,2,2,2,2,2,2,2,2,2,2,2,2,2,2,2,2,2,2,2,2,2,2,2,2,2,2,2,2,2,2,2,2,2,2,2,2,2,2,2,2,2,2,2,2,2,2,2,2,2,2,2,2,2,2,3,2,3,2,3,2,3,2,3,3,2,3,2,3,2,3,3,2,3,2,3,2,3,2,3,3,2,3,2,3,2,3,3,2,3,2,3,2,3,2,3,3,2,3,2,3,2,3,3,2,3,2,3,2,3,2,3,3,2,3,2,3,2,3,3,2,3,2,3,2,3,2,3,3,2,1723,362,69,69,69,69,69,185,2,3,2,3,2,3,3,2,3,2,3,2,3,3,2,3,2,3,2,3,2,3,3,2,3,2,3,2,3,3,2,3,2,3,2,3,2,3,3,2,3,2,3,2,3,3,2,3,2,3,2,3,2,3,3,2,3,2,3,2,3,3,2,3,2,3,2,3,2,3,3,2,3,2,3,2,3,3,2,3,2,3,2,3,2,3,3,2,3,2,3,2,3,3,2,3,2,3,2,3,2,3,3,2,3,1688,69,69,69,69,69,1689,2,3,2,3,2,3,3,2,3,2,3,2,3,3,2,3,2,3,2,3,2,3,3,2,3,2,3,2,3,3,2,3,2,3,2,3,2,3,3,2,3,2,3,2,3,3,2,3,2,3,2,3,2,3,3,2,3,2,3,2,3,2,2,2,2,2,2,2,2,2,2,2,2,2,2,2,2,2,2,2,2,2,2,2,2,2,2,2,2,2,2,2,2,2,2,2,2,2,2,2,2,2,2,2,2,2,2,2,2,2,2,2,2,2,2,2,2,2,2,2,2,2,2,2,2,2,2,2,2,2,2,2,2,2,2,2,2,1708,69,69,69,69,69,69,1131,2,2,2,2,2,2,2,2,2,2,2,2,2,2,2,2,2,2,2,2,2,2,2,2,2,2,2,2,2,2,2,2,2,2,2,2,2,2,2,2,2,2,2,2,2,2,2,2,2,2,2,2,2,2,2,2,2,2,2,2,2,2,2,2,2,2,2,2,2,2,2,2,2,2,2,2,2,2,2,2,2,2,2,2,2,2,2,2,2,2,2,2,2,2,2,2,2,2,2,2,2,2,2,2,1223,69,69,69,69,69,1701,2,2,2,2,2,2,2,2,2,2,2,2,2,2,2,2,2,2,2,2,2,2,2,2,2,2,2,2,2,2,2,2,2,2,2,2,2,2,2,2,2,2,2,2,2,2,2,2,2,2,2,2,2,2,2,2,2,2,2,2,2,2,2,2,2,2,2,2,2,2,2,2,2,2,2,2,2,2,2,2,2,2,2,2,2,2,2,2,2,2,2,2,2,2,2,2,2,2,2,2,2,2,2,2,2,2,2,2,2,2,2,2,2,2,2,2,2,2,2,2,2,2,2,2,2,2,2,2,2,2,2,2,2,2,2,2,2,1698,362,69,69,69,69,69,1831,2,2,2,2,2,2,2,2,2,2,2,2,2,2,2,2,2,2,2,2,2,2,2,2,2,2,2,2,2,2,2,2,2,2,2,2,2,2,2,2,2,2,2,2,2,2,2,2,2,2,2,2,2,2,2,2,2,2,2,2,2,2,2,2,2,2,2,2,2,2,2,2,2,2,2,2,2,2,2,2,2,2,2,2,2,2,2,2,2,2,2,2,2,2,2,2,2,2,2,2,2,2,2,2,1713,69,69,69,69,69,1714,2,2,2,2,2,2,2,2,2,2,2,2,2,2,2,2,2,2,2,2,2,2,2,2,2,2,2,2,2,2,2,2,2,2,2,2,2,2,2,2,2,2,2,2,2,2,2,2,2,2,2,2,2,2,2,2,2,2,2,2,2,3,2,3,2,3,2,3,2,3,3,2,3,2,3,2,3,3,2,3,2,3,2,3,2,3,3,2,3,2,3,2,3,3,2,3,2,3,2,3,2,3,3,2,3,2,3,2,3,3,2,3,2,3,2,3,2,3,3,2,3,2,3,2,3,3,2,3,2,3,2,3,2,3,3,2,3,2,615,69,69,69,69,69,1848,3,2,3,2,3,3,2,3,2,3,2,3,3,2,3,2,3,2,3,2,3,3,2,3,2,3,2,3,3,2,3,2,3,2,3,2,3,3,2,3,2,3,2,3,3,2,3,2,3,2,3,2,3,3,2,3,2,3,2,3,3,2,3,2,3,2,3,2,3,3,2,3,2,3,2,3,3,2,3,2,3,2,3,2,3,3,2,3,2,3,2,3,3,2,3,2,3,2,3,2,3,3,2,3,202,69,69,69,69,69,69,195,3,2,3,2,3,3,2,3,2,3,2,3,3,2,3,2,3,2,3,2,3,3,2,3,2,3,2,3,3,2,3,2,3,2,3,2,3,3,2,3,2,3,2,3,3,2,3,2,3,2,3,2,3,3,2,3,2,3,2,3,2,2,2,2,2,2,2,2,2,2,2,2,2,2,2,2,2,2,2,2,2,2,2,2,2,2,2,2,2,2,2,2,2,2,2,2,2,2,2,2,2,2,2,2,2,2,2,2,2,2,2,2,2,2,2,2,2,2,2,2,2,2,2,2,2,2,2,2,2,2,2,2,2,2,2,2,2,69,69,69,69,69,69,2,2,2,2,2,2,2,2,2,2,2,2,2,2,2,2,2,2,2,2,2,2,2,2,2,2,2,2,2,2,2,2,2,2,2,2,2,2,2,2,2,2,2,2,2,2,2,2,2,2,2,2,2,2,2,2,2,2,2,2,2,2,2,2,2,2,2,2,2,2,2,2,2,2,2,2,2,2,2,2,2,2,2,2,2,2,2,2,2,2,2,2,2,2,2,2,2,2,2,2,2,2,2,2,2,2,85,69,69,69,69,69,1892,2,2,2,2,2,2,2,2,2,2,2,2,2,2,2,2,2,2,2,2,2,2,2,2,2,2,2,2,2,2,2,2,2,2,2,2,2,2,2,2,2,2,2,2,2,2,2,2,2,2,2,2,2,2,2,2,2,2,2,2,3,2,3,2,3,2,3,2,3,3,2,3,2,3,2,3,3,2,3,2,3,2,3,2,3,3,2,3,2,3,2,3,3,2,3,2,3,2,3,2,3,3,2,3,2,3,2,3,3,2,3,2,3,2,3,2,3,3,2,3,2,3,2,3,3,2,3,2,3,2,3,2,3,3,2,3,1279,69,69,69,69,69,629,2,3,2,3,2,3,3,2,3,2,3,2,3,3,2,3,2,3,2,3,2,3,3,2,3,2,3,2,3,3,2,3,2,3,2,3,2,3,3,2,3,2,3,2,3,3,2,3,2,3,2,3,2,3,3,2,3,2,3,2,3,3,2,3,2,3,2,3,2,3,3,2,3,2,3,2,3,3,2,3,2,3,2,3,2,3,3,2,3,2,3,2,3,3,2,3,2,3,2,3,2,3,3,2,3,2,1922,69,69,69,69,69,377,1925,2,3,2,3,3,2,3,2,3,2,3,3,2,3,2,3,2,3,2,3,3,2,3,2,3,2,3,3,2,3,2,3,2,3,2,3,3,2,3,2,3,2,3,3,2,3,2,3,2,3,2,3,3,2,3,2,3,2,3,2,2,2,2,2,2,2,2,2,2,2,2,2,2,2,2,2,2,2,2,2,2,2,2,2,2,2,2,2,2,2,2,2,2,2,2,2,2,2,2,2,2,2,2,2,2,2,2,2,2,2,2,2,2,2,2,2,2,2,2,2,2,2,2,2,2,2,2,2,2,2,2,2,2,2,2,1931,69,69,69,69,69,1932,2,2,2,2,2,2,2,2,2,2,2,2,2,2,2,2,2,2,2,2,2,2,2,2,2,2,2,2,2,2,2,2,2,2,2,2,2,2,2,2,2,2,2,2,2,2,2,2,2,2,2,2,2,2,2,2,2,2,2,2,2,2,2,2,2,2,2,2,2,2,2,2,2,2,2,2,2,2,2,2,2,2,2,2,2,2,2,2,2,2,2,2,2,2,2,2,2,2,2,2,2,2,2,2,2,2,1698,203,69,69,69,69,69,332,2,2,2,2,2,2,2,2,2,2,2,2,2,2,2,2,2,2,2,2,2,2,2,2,2,2,2,2,2,2,2,2,2,2,2,2,2,2,2,2,2,2,2,2,2,2,2,2,2,2,2,2,2,2,2,2,2,2,2,3,2,3,2,3,2,3,2,3,3,2,3,2,3,2,3,3,2,3,2,3,2,3,2,3,3,2,3,2,3,2,3,3,2,3,2,3,2,3,2,3,3,2,3,2,3,2,3,3,2,3,2,3,2,3,2,3,3,2,3,2,3,2,3,3,2,3,2,3,2,3,2,3,3,2,3,1931,69,69,69,69,69,1963,2,3,2,3,2,3,3,2,3,2,3,2,3,3,2,3,2,3,2,3,2,3,3,2,3,2,3,2,3,3,2,3,2,3,2,3,2,3,3,2,3,2,3,2,3,3,2,3,2,3,2,3,2,3,3,2,3,2,3,2,3,3,2,3,2,3,2,3,2,3,3,2,3,2,3,2,3,3,2,3,2,3,2,3,2,3,3,2,3,2,3,2,3,3,2,3,2,3,2,3,2,3,3,2,3,2,3,1980,69,69,69,69,69,1981,315,3,2,3,3,2,3,2,3,2,3,3,2,3,2,3,2,3,2,3,3,2,3,2,3,2,3,3,2,3,2,3,2,3,2,3,3,2,3,2,3,2,3,3,2,3,2,3,2,3,2,3,3,2,3,2,3,2,3,2,2,2,2,2,2,2,2,2,2,2,2,2,2,2,2,2,2,2,2,2,2,2,2,2,2,2,2,2,2,2,2,2,2,2,2,2,2,2,2,2,2,2,2,2,2,2,2,2,2,2,2,2,2,2,2,2,2,2,2,2,2,2,2,2,2,2,2,2,2,2,2,2,2,2,2,1989,69,69,69,69,69,1990,2,2,2,2,2,2,2,2,2,2,2,2,2,2,2,2,2,2,2,2,2,2,2,2,2,2,2,2,2,2,2,2,2,2,2,2,2,2,2,2,2,2,2,2,2,2,2,2,2,2,2,2,2,2,2,2,2,2,2,2,2,2,2,2,2,2,2,2,2,2,2,2,2,2,2,2,2,2,2,2,2,2,2,2,2,2,2,2,2,2,2,2,2,2,2,2,2,2,2,2,2,2,2,2,2,2,2,331,69,69,69,69,69,69,2004,2,2,2,2,2,2,2,2,2,2,2,2,2,2,2,2,2,2,2,2,2,2,2,2,2,2,2,2,2,2,2,2,2,2,2,2,2,2,2,2,2,2,2,2,2,2,2,2,2,2,2,2,2,2,2,2,2,2,2,2,2,2,2,2,2,2,2,2,2,2,2,2,2,2,2,2,2,2,2,2,2,2,2,2,2,2,2,2,2,2,2,2,2,2,2,2,2,2,2,2,2,2,2,2,2,2,2,2,2,2,2,2,2,2,2,2,2,2,2,2,2,2,2,2,2,2,2,2,2,2,2,2,2,2,2015,69,69,69,69,69,2016,2,2,2,2,2,2,2,2,2,2,2,2,2,2,2,2,2,2,2,2,2,2,2,2,2,2,2,2,2,2,2,2,2,2,2,2,2,2,2,2,2,2,2,2,2,2,2,2,2,2,2,2,2,2,2,2,2,2,2,2,2,2,2,2,2,2,2,2,2,2,2,2,2,2,2,2,2,2,2,2,2,2,2,2,2,2,2,2,2,2,2,2,2,2,2,2,2,2,2,2,2,2,2,2,2,2,2,2,2025,69,69,69,69,69,2026,231,2,2,2,2,2,2,2,2,2,2,2,2,2,2,2,2,2,2,2,2,2,2,2,2,2,2,2,2,2,2,2,2,2,2,2,2,2,2,2,2,2,2,2,2,2,2,2,2,2,2,2,2,2,2,2,2,2,3,2,3,2,3,2,3,2,3,3,2,3,2,3,2,3,3,2,3,2,3,2,3,2,3,3,2,3,2,3,2,3,3,2,3,2,3,2,3,2,3,3,2,3,2,3,2,3,3,2,3,2,3,2,3,2,3,3,2,3,2,3,2,3,3,2,3,2,3,2,3,2,3,3,2,3,2036,69,69,69,69,69,2037,2,3,2,3,2,3,3,2,3,2,3,2,3,3,2,3,2,3,2,3,2,3,3,2,3,2,3,2,3,3,2,3,2,3,2,3,2,3,3,2,3,2,3,2,3,3,2,3,2,3,2,3,2,3,3,2,3,2,3,2,3,3,2,3,2,3,2,3,2,3,3,2,3,2,3,2,3,3,2,3,2,3,2,3,2,3,3,2,3,2,3,2,3,3,2,3,2,3,2,3,2,3,3,2,3,2,3,2,2044,69,69,69,69,69,69,2045,2,3,3,2,3,2,3,2,3,3,2,3,2,3,2,3,2,3,3,2,3,2,3,2,3,3,2,3,2,3,2,3,2,3,3,2,3,2,3,2,3,3,2,3,2,3,2,3,2,3,3,2,3,2,3,2,3,2,2,2,2,2,2,2,2,2,2,2,2,2,2,2,2,2,2,2,2,2,2,2,2,2,2,2,2,2,2,2,2,2,2,2,2,2,2,2,2,2,2,2,2,2,2,2,2,2,2,2,2,2,2,2,2,2,2,2,2,2,2,2,2,2,2,2,2,2,2,2,2,2,2,2,2,2051,69,69,69,69,69,2055,2,2,2,2,2,2,2,2,2,2,2,2,2,2,2,2,2,2,2,2,2,2,2,2,2,2,2,2,2,2,2,2,2,2,2,2,2,2,2,2,2,2,2,2,2,2,2,2,2,2,2,2,2,2,2,2,2,2,2,2,2,2,2,2,2,2,2,2,2,2,2,2,2,2,2,2,2,2,2,2,2,2,2,2,2,2,2,2,2,2,2,2,2,2,2,2,2,2,2,2,2,2,2,2,2,2,2,2,2,279,69,69,69,69,69,230,2,2,2,2,2,2,2,2,2,2,2,2,2,2,2,2,2,2,2,2,2,2,2,2,2,2,2,2,2,2,2,2,2,2,2,2,2,2,2,2,2,2,2,2,2,2,2,2,2,2,2,2,2,2,2,2,2,3,2,3,2,3,2,3,2,3,3,2,3,2,3,2,3,3,2,3,2,3,2,3,2,3,3,2,3,2,3,2,3,3,2,3,2,3,2,3,2,3,3,2,3,2,3,2,3,3,2,3,2,3,2,3,2,3,3,2,3,2,3,2,3,3,2,3,2,3,2,3,2,3,3,2,3,2051,69,69,69,69,69,2074,2,3,2,3,2,3,3,2,3,2,3,2,3,3,2,3,2,3,2,3,2,3,3,2,3,2,3,2,3,3,2,3,2,3,2,3,2,3,3,2,3,2,3,2,3,3,2,3,2,3,2,3,2,3,3,2,3,2,3,2,3,3,2,3,2,3,2,3,2,3,3,2,3,2,3,2,3,3,2,3,2,3,2,3,2,3,3,2,3,2,3,2,3,3,2,3,2,3,2,3,2,3,3,2,3,2,3,2,3,2078,69,69,69,69,69,69,2084,3,3,2,3,2,3,2,3,3,2,3,2,3,2,3,2,3,3,2,3,2,3,2,3,3,2,3,2,3,2,3,2,3,3,2,3,2,3,2,3,3,2,3,2,3,2,3,2,3,3,2,3,2,3,2,3,2,2,2,2,2,2,2,2,2,2,2,2,2,2,2,2,2,2,2,2,2,2,2,2,2,2,2,2,2,2,2,2,2,2,2,2,2,2,2,2,2,2,2,2,2,2,2,2,2,2,2,2,2,2,2,2,2,2,2,2,2,2,2,2,2,2,2,2,2,2,2,2,2,2,2,2,2085,69,69,69,69,69,2088,2,2,2,2,2,2,2,2,2,2,2,2,2,2,2,2,2,2,2,2,2,2,2,2,2,2,2,2,2,2,2,2,2,2,2,2,2,2,2,2,2,2,2,2,2,2,2,2,2,2,2,2,2,2,2,2,2,2,2,2,2,2,2,2,2,2,2,2,2,2,2,2,2,2,2,2,2,2,2,2,2,2,2,2,2,2,2,2,2,2,2,2,2,2,2,2,2,2,2,2,2,2,2,2,2,2,2,2,2,278,2096,69,69,69,69,69,2098,2,2,2,2,2,2,2,2,2,2,2,2,2,2,2,2,2,2,2,2,2,2,2,2,2,2,2,2,2,2,2,2,2,2,2,2,2,2,2,2,2,2,2,2,2,2,2,2,2,2,2,2,2,2,2,2,3,2,3,2,3,2,3,2,3,3,2,3,2,3,2,3,3,2,3,2,3,2,3,2,3,3,2,3,2,3,2,3,3,2,3,2,3,2,3,2,3,3,2,3,2,3,2,3,3,2,3,2,3,2,3,2,3,3,2,3,2,3,2,3,3,2,3,2,3,2,3,2,3,3,2,3,2099,69,69,69,69,69,2100,2,3,2,3,2,3,3,2,3,2,3,2,3,3,2,3,2,3,2,3,2,3,3,2,3,2,3,2,3,3,2,3,2,3,2,3,2,3,3,2,3,2,3,2,3,3,2,3,2,3,2,3,2,3,3,2,3,2,3,2,3,3,2,3,2,3,2,3,2,3,3,2,3,2,3,2,3,3,2,3,2,3,2,3,2,3,3,2,3,2,3,2,3,3,2,3,2,3,2,3,2,3,3,2,3,2,3,2,3,3,2106,69,69,69,69,69,69,2107,3,2,3,2,3,2,3,3,2,3,2,3,2,3,2,3,3,2,3,2,3,2,3,3,2,3,2,3,2,3,2,3,3,2,3,2,3,2,3,3,2,3,2,3,2,3,2,3,3,2,3,2,3,2,3,2,2,2,2,2,2,2,2,2,2,2,2,2,2,2,2,2,2,2,2,2,2,2,2,2,2,2,2,2,2,2,2,2,2,2,2,2,2,2,2,2,2,2,2,2,2,2,2,2,2,2,2,2,2,2,2,2,2,2,2,2,2,2,2,2,2,2,2,2,2,2,2,2,2,2,2,2108,69,69,69,69,69,2109,2,2,2,2,2,2,2,2,2,2,2,2,2,2,2,2,2,2,2,2,2,2,2,2,2,2,2,2,2,2,2,2,2,2,2,2,2,2,2,2,2,2,2,2,2,2,2,2,2,2,2,2,2,2,2,2,2,2,2,2,2,2,2,2,2,2,2,2,2,2,2,2,2,2,2,2,2,2,2,2,2,2,2,2,2,2,2,2,2,2,2,2,2,2,2,2,2,2,2,2,2,2,2,2,2,2,2,2,2,2,415,2117,69,69,69,69,69,1892,2,2,2,2,2,2,2,2,2,2,2,2,2,2,2,2,2,2,2,2,2,2,2,2,2,2,2,2,2,2,2,2,2,2,2,2,2,2,2,2,2,2,2,2,2,2,2,2,2,2,2,2,2,2,2,3,2,3,2,3,2,3,2,3,3,2,3,2,3,2,3,3,2,3,2,3,2,3,2,3,3,2,3,2,3,2,3,3,2,3,2,3,2,3,2,3,3,2,3,2,3,2,3,3,2,3,2,3,2,3,2,3,3,2,3,2,3,2,3,3,2,3,2,3,2,3,2,3,3,2,3,2118,69,69,69,69,69,2119,2,3,2,3,2,3,3,2,3,2,3,2,3,3,2,3,2,3,2,3,2,3,3,2,3,2,3,2,3,3,2,3,2,3,2,3,2,3,3,2,3,2,3,2,3,3,2,3,2,3,2,3,2,3,3,2,3,2,3,2,3,3,2,3,2,3,2,3,2,3,3,2,3,2,3,2,3,3,2,3,2,3,2,3,2,3,3,2,3,2,3,2,3,3,2,3,2,3,2,3,2,3,3,2,3,2,3,2,3,3,2,2127,69,69,69,69,69,377,1925,2,3,2,3,2,3,3,2,3,2,3,2,3,2,3,3,2,3,2,3,2,3,3,2,3,2,3,2,3,2,3,3,2,3,2,3,2,3,3,2,3,2,3,2,3,2,3,3,2,3,2,3,2,3,2,2,2,2,2,2,2,2,2,2,2,2,2,2,2,2,2,2,2,2,2,2,2,2,2,2,2,2,2,2,2,2,2,2,2,2,2,2,2,2,2,2,2,2,2,2,2,2,2,2,2,2,2,2,2,2,2,2,2,2,2,2,2,2,2,2,2,2,2,2,2,2,2,2,2,2,2118,69,69,69,69,69,1182,2,2,2,2,2,2,2,2,2,2,2,2,2,2,2,2,2,2,2,2,2,2,2,2,2,2,2,2,2,2,2,2,2,2,2,2,2,2,2,2,2,2,2,2,2,2,2,2,2,2,2,2,2,2,2,2,2,2,2,2,2,2,2,2,2,2,2,2,2,2,2,2,2,2,2,2,2,2,2,2,2,2,2,2,2,2,2,2,2,2,2,2,2,2,2,2,2,2,2,2,2,2,2,2,2,2,2,2,2,2,2,1698,203,69,69,69,69,69,332,2,2,2,2,2,2,2,2,2,2,2,2,2,2,2,2,2,2,2,2,2,2,2,2,2,2,2,2,2,2,2,2,2,2,2,2,2,2,2,2,2,2,2,2,2,2,2,2,2,2,2,2,2,2,2,2,2,2,2,2,2,2,2,2,2,2,2,2,2,2,2,2,2,2,2,2,2,2,2,2,2,2,2,2,2,2,2,2,2,2,2,2,2,2,2,2,2,2,2,2,2,2,2,2,2,2,2,2,2,2,2,2,2,2,2,2,2,2,2,2,2,2,2,2,2,2,2,2,2,2,2134,69,69,69,69,69,478,2,2,2,2,2,2,2,2,2,2,2,2,2,2,2,2,2,2,2,2,2,2,2,2,2,2,2,2,2,2,2,2,2,2,2,2,2,2,2,2,2,2,2,2,2,2,2,2,2,2,2,2,2,2,2,2,2,2,2,2,2,2,2,2,2,2,2,2,2,2,2,2,2,2,2,2,2,2,2,2,2,2,2,2,2,2,2,2,2,2,2,2,2,2,2,2,2,2,2,2,2,2,2,2,2,2,2,2,2,2,2,2,1980,69,69,69,69,69,314,315,2,2,2,2,2,2,2,2,2,2,2,2,2,2,2,2,2,2,2,2,2,2,2,2,2,2,2,2,2,2,2,2,2,2,2,2,2,2,2,2,2,2,2,2,2,2,2,2,2,2,2,2,2,3,2,3,2,3,2,3,2,3,3,2,3,2,3,2,3,3,2,3,2,3,2,3,2,3,3,2,3,2,3,2,3,3,2,3,2,3,2,3,2,3,3,2,3,2,3,2,3,3,2,3,2,3,2,3,2,3,3,2,3,2,3,2,3,3,2,3,2,3,2,3,2,3,3,2,3,2137,69,69,69,69,69,2139,2,3,2,3,2,3,3,2,3,2,3,2,3,3,2,3,2,3,2,3,2,3,3,2,3,2,3,2,3,3,2,3,2,3,2,3,2,3,3,2,3,2,3,2,3,3,2,3,2,3,2,3,2,3,3,2,3,2,3,2,3,3,2,3,2,3,2,3,2,3,3,2,3,2,3,2,3,3,2,3,2,3,2,3,2,3,3,2,3,2,3,2,3,3,2,3,2,3,2,3,2,3,3,2,3,2,3,2,3,3,2,3,331,69,69,69,69,69,69,2004,3,2,3,2,3,3,2,3,2,3,2,3,2,3,3,2,3,2,3,2,3,3,2,3,2,3,2,3,2,3,3,2,3,2,3,2,3,3,2,3,2,3,2,3,2,3,3,2,3,2,3,2,3,2,2,2,2,2,2,2,2,2,2,2,2,2,2,2,2,2,2,2,2,2,2,2,2,2,2,2,2,2,2,2,2,2,2,2,2,2,2,2,2,2,2,2,2,2,2,2,2,2,2,2,2,2,2,2,2,2,2,2,2,2,2,2,2,2,2,2,2,2,2,2,2,2,2,2,2,2142,69,69,69,69,69,2145,2,2,2,2,2,2,2,2,2,2,2,2,2,2,2,2,2,2,2,2,2,2,2,2,2,2,2,2,2,2,2,2,2,2,2,2,2,2,2,2,2,2,2,2,2,2,2,2,2,2,2,2,2,2,2,2,2,2,2,2,2,2,2,2,2,2,2,2,2,2,2,2,2,2,2,2,2,2,2,2,2,2,2,2,2,2,2,2,2,2,2,2,2,2,2,2,2,2,2,2,2,2,2,2,2,2,2,2,2,2,2,2,2,2025,69,69,69,69,69,2026,231,2,2,2,2,2,2,2,2,2,2,2,2,2,2,2,2,2,2,2,2,2,2,2,2,2,2,2,2,2,2,2,2,2,2,2,2,2,2,2,2,2,2,2,2,2,2,2,2,2,2,2,2,3,2,3,2,3,2,3,2,3,3,2,3,2,3,2,3,3,2,3,2,3,2,3,2,3,3,2,3,2,3,2,3,3,2,3,2,3,2,3,2,3,3,2,3,2,3,2,3,3,2,3,2,3,2,3,2,3,3,2,3,2,3,2,3,3,2,3,2,3,2,3,2,3,3,2,3,2147,69,69,69,69,69,2148,2,3,2,3,2,3,3,2,3,2,3,2,3,3,2,3,2,3,2,3,2,3,3,2,3,2,3,2,3,3,2,3,2,3,2,3,2,3,3,2,3,2,3,2,3,3,2,3,2,3,2,3,2,3,3,2,3,2,3,2,3,3,2,3,2,3,2,3,2,3,3,2,3,2,3,2,3,3,2,3,2,3,2,3,2,3,3,2,3,2,3,2,3,3,2,3,2,3,2,3,2,3,3,2,3,2,3,2,3,3,2,3,2,2044,69,69,69,69,69,69,2045,2,3,2,3,3,2,3,2,3,2,3,2,3,3,2,3,2,3,2,3,3,2,3,2,3,2,3,2,3,3,2,3,2,3,2,3,3,2,3,2,3,2,3,2,3,3,2,3,2,3,2,3,2,2,2,2,2,2,2,2,2,2,2,2,2,2,2,2,2,2,2,2,2,2,2,2,2,2,2,2,2,2,2,2,2,2,2,2,2,2,2,2,2,2,2,2,2,2,2,2,2,2,2,2,2,2,2,2,2,2,2,2,2,2,2,2,2,2,2,2,2,2,2,2,2,2,2,2,2147,69,69,69,69,69,1831,2,2,2,2,2,2,2,2,2,2,2,2,2,2,2,2,2,2,2,2,2,2,2,2,2,2,2,2,2,2,2,2,2,2,2,2,2,2,2,2,2,2,2,2,2,2,2,2,2,2,2,2,2,2,2,2,2,2,2,2,2,2,2,2,2,2,2,2,2,2,2,2,2,2,2,2,2,2,2,2,2,2,2,2,2,2,2,2,2,2,2,2,2,2,2,2,2,2,2,2,2,2,2,2,2,2,2,2,2,2,2,2,2,2,279,69,69,69,69,69,230,2,2,2,2,2,2,2,2,2,2,2,2,2,2,2,2,2,2,2,2,2,2,2,2,2,2,2,2,2,2,2,2,2,2,2,2,2,2,2,2,2,2,2,2,2,2,2,2,2,2,2,2,3,2,3,2,3,2,3,2,3,3,2,3,2,3,2,3,3,2,3,2,3,2,3,2,3,3,2,3,2,3,2,3,3,2,3,2,3,2,3,2,3,3,2,3,2,3,2,3,3,2,3,2,3,2,3,2,3,3,2,3,2,3,2,3,3,2,3,2,3,2,3,2,3,3,2,3,615,69,69,69,69,69,2155,2,3,2,3,2,3,3,2,3,2,3,2,3,3,2,3,2,3,2,3,2,3,3,2,3,2,3,2,3,3,2,3,2,3,2,3,2,3,3,2,3,2,3,2,3,3,2,3,2,3,2,3,2,3,3,2,3,2,3,2,3,3,2,3,2,3,2,3,2,3,3,2,3,2,3,2,3,3,2,3,2,3,2,3,2,3,3,2,3,2,3,2,3,3,2,3,2,3,2,3,2,3,3,2,3,2,3,2,3,3,2,3,2,3,2160,69,69,69,69,69,69,985,60,59,60,60,59,60,59,60,59,60,59,60,60,59,60,59,60,59,60,60,59,60,59,60,59,60,59,60,60,59,60,59,60,59,60,60,59,60,59,60,59,60,59,60,60,59,60,59,60,59,61,2,2,2,2,2,2,2,2,2,2,2,2,2,2,2,2,2,2,2,2,2,2,2,2,2,2,2,2,2,2,2,2,2,2,2,2,2,2,2,2,2,2,2,2,2,2,2,2,2,2,2,2,2,2,2,2,2,2,2,2,2,2,2,2,2,2,2,2,2,2,2,2,2,2,2,2,69,69,69,69,69,69,2,2,2,2,2,2,2,2,2,2,2,2,2,2,2,2,2,2,2,2,2,2,2,2,2,2,2,2,2,2,2,2,2,2,2,2,2,2,2,2,2,2,2,2,2,2,2,2,2,2,2,2,2,2,2,2,2,2,2,2,2,2,2,2,2,2,2,2,2,2,2,2,2,2,2,2,2,2,2,2,2,2,2,2,2,2,2,2,2,2,2,2,2,2,2,2,2,2,2,2,2,2,2,2,2,2,2,2,2,2,2,2,2,2,2,278,2096,69,69,69,69,69,69,69,69,69,69,69,69,69,69,69,69,69,69,69,69,69,69,69,69,69,69,69,69,69,69,69,69,69,69,69,69,69,69,69,69,69,69,69,69,69,69,69,69,69,69,69,69,69,69,69,69,69,2,2,2,2,2,2,2,2,2,2,2,2,2,2,2,2,2,2,2,2,2,2,2,2,2,2,2,2,2,2,2,2,2,2,2,2,2,2,2,2,2,2,2,2,2,2,2,2,2,2,2,2,2,2,2,2,2,2,2,2,2,2,2,2,2,2,2,2,2,2,2,2,2,2,2,1279,69,69,69,69,69,629,2,2,2,2,2,2,2,2,2,2,2,2,2,2,2,2,2,2,2,2,2,2,2,2,2,2,2,2,2,2,2,2,2,2,2,2,2,2,2,2,2,2,2,2,2,2,2,2,2,2,2,2,2,2,2,2,2,2,2,2,2,2,2,2,2,2,2,2,2,2,2,2,2,2,2,2,2,2,2,2,2,2,2,2,2,2,2,2,2,2,2,2,2,2,2,2,2,2,2,2,2,2,2,2,2,2,2,2,2,2,2,2,2,2,2,2,2106,69,69,69,69,69,69,69,69,69,69,69,69,69,69,69,69,69,69,69,69,69,69,69,69,69,69,69,69,69,69,69,69,69,69,69,69,69,69,69,69,69,69,69,69,69,69,69,69,69,69,69,69,69,69,69,69,69,3,2,3,2,3,2,3,2,3,3,2,3,2,3,2,3,3,2,3,2,3,2,3,2,3,3,2,3,2,3,2,3,3,2,3,2,3,2,3,2,3,3,2,3,2,3,2,3,3,2,3,2,3,2,3,2,3,3,2,3,2,3,2,3,3,2,3,2,3,2,3,2,3,3,2,2169,69,69,69,69,69,1932,3,2,3,2,3,2,3,3,2,3,2,3,2,3,3,2,3,2,3,2,3,2,3,3,2,3,2,3,2,3,3,2,3,2,3,2,3,2,3,3,2,3,2,3,2,3,3,2,3,2,3,2,3,2,3,3,2,3,2,3,2,3,3,2,3,2,3,2,3,2,3,3,2,3,2,3,2,3,3,2,3,2,3,2,3,2,3,3,2,3,2,3,2,3,3,2,3,2,3,2,3,2,3,3,2,3,2,3,2,3,3,2,3,2,3,2,2172,85,69,69,69,69,69,69,69,69,69,69,69,69,69,69,69,69,69,69,69,69,69,69,69,69,69,69,69,69,69,69,69,69,69,69,69,69,69,69,69,69,69,69,69,69,69,69,69,69,69,69,69,69,69,69,69,69,2,2,2,2,2,2,2,2,2,2,2,2,2,2,2,2,2,2,2,2,2,2,2,2,2,2,2,2,2,2,2,2,2,2,2,2,2,2,2,2,2,2,2,2,2,2,2,2,2,2,2,2,2,2,2,2,2,2,2,2,2,2,2,2,2,2,2,2,2,2,2,2,2,2,2,1931,69,69,69,69,69,1932,2,2,2,2,2,2,2,2,2,2,2,2,2,2,2,2,2,2,2,2,2,2,2,2,2,2,2,2,2,2,2,2,2,2,2,2,2,2,2,2,2,2,2,2,2,2,2,2,2,2,2,2,2,2,2,2,2,2,2,2,2,2,2,2,2,2,2,2,2,2,2,2,2,2,2,2,2,2,2,2,2,2,2,2,2,2,2,2,2,2,2,2,2,2,2,2,2,2,2,2,2,2,2,2,2,2,2,2,2,2,2,2,2,2,2,2,2,282,69,69,69,69,69,69,69,69,69,69,69,69,69,69,69,69,69,69,69,69,69,69,69,69,69,69,69,69,69,69,69,69,69,69,69,69,69,69,69,69,69,69,69,69,69,69,69,69,69,69,69,69,69,69,69,69,3,2,3,2,3,2,3,2,3,3,2,3,2,3,2,3,3,2,3,2,3,2,3,2,3,3,2,3,2,3,2,3,3,2,3,2,3,2,3,2,3,3,2,3,2,3,2,3,3,2,3,2,3,2,3,2,3,3,2,3,2,3,2,3,3,2,3,2,3,2,3,2,3,3,2,2174,69,69,69,69,69,1990,3,2,3,2,3,2,3,3,2,3,2,3,2,3,3,2,3,2,3,2,3,2,3,3,2,3,2,3,2,3,3,2,3,2,3,2,3,2,3,3,2,3,2,3,2,3,3,2,3,2,3,2,3,2,3,3,2,3,2,3,2,3,3,2,3,2,3,2,3,2,3,3,2,3,2,3,2,3,3,2,3,2,3,2,3,2,3,3,2,3,2,3,2,3,3,2,3,2,3,2,3,2,3,3,2,3,2,3,2,3,3,2,3,2,3,2,3,460,2176,69,69,69,69,69,69,69,69,69,69,69,69,69,69,69,69,69,69,69,69,69,69,69,69,69,69,69,69,69,69,69,69,69,69,69,69,69,69,69,69,69,69,69,69,69,69,69,69,69,69,69,69,69,69,69,2,2,2,2,2,2,2,2,2,2,2,2,2,2,2,2,2,2,2,2,2,2,2,2,2,2,2,2,2,2,2,2,2,2,2,2,2,2,2,2,2,2,2,2,2,2,2,2,2,2,2,2,2,2,2,2,2,2,2,2,2,2,2,2,2,2,2,2,2,2,2,2,2,2,2,2015,69,69,69,69,69,2016,2,2,2,2,2,2,2,2,2,2,2,2,2,2,2,2,2,2,2,2,2,2,2,2,2,2,2,2,2,2,2,2,2,2,2,2,2,2,2,2,2,2,2,2,2,2,2,2,2,2,2,2,2,2,2,2,2,2,2,2,2,2,2,2,2,2,2,2,2,2,2,2,2,2,2,2,2,2,2,2,2,2,2,2,2,2,2,2,2,2,2,2,2,2,2,2,2,2,2,2,2,2,2,2,2,2,2,2,2,2,2,2,2,2,2,2,2,2,2,316,130,130,130,130,130,130,130,130,130,130,130,130,130,130,130,130,130,130,130,130,130,130,130,130,130,130,130,130,130,130,130,130,130,130,130,130,130,130,130,130,130,130,130,130,130,130,130,130,130,130,130,130,130,130,3,2,3,2,3,2,3,2,3,3,2,3,2,3,2,3,3,2,3,2,3,2,3,2,3,3,2,3,2,3,2,3,3,2,3,2,3,2,3,2,3,3,2,3,2,3,2,3,3,2,3,2,3,2,3,2,3,3,2,3,2,3,2,3,3,2,3,2,3,2,3,2,3,3,2,2181,69,69,69,69,69,2182,3,2,3,2,3,2,3,3,2,3,2,3,2,3,3,2,3,2,3,2,3,2,3,3,2,3,2,3,2,3,3,2,3,2,3,2,3,2,3,3,2,3,2,3,2,3,3,2,3,2,3,2,3,2,3,3,2,3,2,3,2,3,3,2,3,2,3,2,3,2,3,3,2,3,2,3,2,3,3,2,3,2,3,2,3,2,3,3,2,3,2,3,2,3,3,2,3,2,3,2,3,2,3,3,2,3,2,3,2,3,3,2,3,2,3,2,3,2,3,3,2,3,2,3,2,3,3,2,3,2,3,2,3,2,3,3,2,3,2,3,2,3,3,2,3,2,3,2,3,2,3,3,2,3,2,3,2,3,3,2,3,2,3,2,3,2,3,3,2,3,2,3,2,3,2,2,2,2,2,2,2,2,2,2,2,2,2,2,2,2,2,2,2,2,2,2,2,2,2,2,2,2,2,2,2,2,2,2,2,2,2,2,2,2,2,2,2,2,2,2,2,2,2,2,2,2,2,2,2,2,2,2,2,2,2,2,2,2,2,2,2,2,2,2,2,2,2,2,2,2051,69,69,69,69,69,2055,2,2,2,2,2,2,2,2,2,2,2,2,2,2,2,2,2,2,2,2,2,2,2,2,2,2,2,2,2,2,2,2,2,2,2,2,2,2,2,2,2,2,2,2,2,2,2,2,2,2,2,2,2,2,2,2,2,2,2,2,2,2,2,2,2,2,2,2,2,2,2,2,2,2,2,2,2,2,2,2,2,2,2,2,2,2,2,2,2,2,2,2,2,2,2,2,2,2,2,2,2,2,2,2,2,2,2,2,2,2,2,2,2,2,2,2,2,2,2,2,2,2,2,2,2,2,2,2,2,2,2,2,2,2,2,2,2,2,2,2,2,2,2,2,2,2,2,2,2,2,2,2,2,2,2,2,2,2,2,2,2,2,2,2,2,2,2,2,2,2,2,2,2,2,3,2,3,2,3,2,3,2,3,3,2,3,2,3,2,3,3,2,3,2,3,2,3,2,3,3,2,3,2,3,2,3,3,2,3,2,3,2,3,2,3,3,2,3,2,3,2,3,3,2,3,2,3,2,3,2,3,3,2,3,2,3,2,3,3,2,3,2,3,2,3,2,3,3,2,2191,69,69,69,69,69,2055,3,2,3,2,3,2,3,3,2,3,2,3,2,3,3,2,3,2,3,2,3,2,3,3,2,3,2,3,2,3,3,2,3,2,3,2,3,2,3,3,2,3,2,3,2,3,3,2,3,2,3,2,3,2,3,3,2,3,2,3,2,3,3,2,3,2,3,2,3,2,3,3,2,3,2,3,2,3,3,2,3,2,3,2,3,2,3,3,2,3,2,3,2,3,3,2,3,2,3,2,3,2,3,3,2,3,2,3,2,3,3,2,3,2,3,2,3,2,3,3,2,3,2,3,2,3,3,2,3,2,3,2,3,2,3,3,2,3,2,3,2,3,3,2,3,2,3,2,3,2,3,3,2,3,2,3,2,3,3,2,3,2,3,2,3,2,3,3,2,3,2,3,2,3,2,2,2,2,2,2,2,2,2,2,2,2,2,2,2,2,2,2,2,2,2,2,2,2,2,2,2,2,2,2,2,2,2,2,2,2,2,2,2,2,2,2,2,2,2,2,2,2,2,2,2,2,2,2,2,2,2,2,2,2,2,2,2,2,2,2,2,2,2,2,2,2,2,2,2,2085,69,69,69,69,69,2088,2,2,2,2,2,2,2,2,2,2,2,2,2,2,2,2,2,2,2,2,2,2,2,2,2,2,2,2,2,2,2,2,2,2,2,2,2,2,2,2,2,2,2,2,2,2,2,2,2,2,2,2,2,2,2,2,2,2,2,2,2,2,2,2,2,2,2,2,2,2,2,2,2,2,2,2,2,2,2,2,2,2,2,2,2,2,2,2,2,2,2,2,2,2,2,2,2,2,2,2,2,2,2,2,2,2,2,2,2,2,2,2,2,2,2,2,2,2,2,2,2,2,2,2,2,2,2,2,2,2,2,2,2,2,2,2,2,2,2,2,2,2,2,2,2,2,2,2,2,2,2,2,2,2,2,2,2,2,2,2,2,2,2,2,2,2,2,2,2,2,2,2,2,2,2,2,2,2,2,2,2,2,2,2,2,2,2,2,2,2,2,2,2,2,2,2,2,2,2,2,2,2,2,2,2,2,2,2,2,2,2,2,2,2,2,2,2,2,2,2,2,2,2,2,2,2,2,2,2,2,2,2,2,2,2,2,2,2,2,2,2,2,2,2,2,2,2,2,2,2099,69,69,69,69,69,1191,2,2,2,2,2,2,2,2,2,2,2,2,2,2,2,2,2,2,2,2,2,2,2,2,2,2,2,2,2,2,2,2,2,2,2,2,2,2,2,2,2,2,2,2,2,2,2,2,2,2,2,2,2,2,2,2,2,2,2,2,2,2,2,2,2,2,2,2,2,2,2,2,2,2,2,2,2,2,2,2,2,2,2,2,2,2,2,2,2,2,2,2,2,2,2,2,2,2,2,2,2,2,2,2,2,2,2,2,2,2,2,2,2,2,2,2,2,2,2,2,2,2,2,2,2,2,2,2,2,2,2,2,2,2,2,2,2,2,2,2,2,2,2,2,2,2,2,2,2,2,2,2,2,2,2,2,2,2,2,2,2,2,2,2,2,2,2,2,2,2,2,2,2,2,3,2,3,2,3,2,3,2,3,3,2,3,2,3,2,3,3,2,3,2,3,2,3,2,3,3,2,3,2,3,2,3,3,2,3,2,3,2,3,2,3,3,2,3,2,3,2,3,3,2,3,2,3,2,3,2,3,3,2,3,2,3,2,3,3,2,3,2,3,2,3,2,3,3,2,2208,69,69,69,69,69,2109,3,2,3,2,3,2,3,3,2,3,2,3,2,3,3,2,3,2,3,2,3,2,3,3,2,3,2,3,2,3,3,2,3,2,3,2,3,2,3,3,2,3,2,3,2,3,3,2,3,2,3,2,3,2,3,3,2,3,2,3,2,3,3,2,3,2,3,2,3,2,3,3,2,3,2,3,2,3,3,2,3,2,3,2,3,2,3,3,2,3,2,3,2,3,3,2,3,2,3,2,3,2,3,3,2,3,2,3,2,3,3,2,3,2,3,2,3,2,3,3,2,3,2,3,2,3,3,2,3,2,3,2,3,2,3,3,2,3,2,3,2,3,3,2,3,2,3,2,3,2,3,3,2,3,2,3,2,3,3,2,3,2,3,2,3,2,3,3,2,3,2,3,2,3,2,2,2,2,2,2,2,2,2,2,2,2,2,2,2,2,2,2,2,2,2,2,2,2,2,2,2,2,2,2,2,2,2,2,2,2,2,2,2,2,2,2,2,2,2,2,2,2,2,2,2,2,2,2,2,2,2,2,2,2,2,2,2,2,2,2,2,2,2,2,2,2,2,2,2,2118,69,69,69,69,69,1182,2,2,2,2,2,2,2,2,2,2,2,2,2,2,2,2,2,2,2,2,2,2,2,2,2,2,2,2,2,2,2,2,2,2,2,2,2,2,2,2,2,2,2,2,2,2,2,2,2,2,2,2,2,2,2,2,2,2,2,2,2,2,2,2,2,2,2,2,2,2,2,2,2,2,2,2,2,2,2,2,2,2,2,2,2,2,2,2,2,2,2,2,2,2,2,2,2,2,2,2,2,2,2,2,2,2,2,2,2,2,2,2,2,2,2,2,2,2,2,2,2,2,2,2,2,2,2,2,2,2,2,2,2,2,2,2,2,2,2,2,2,2,2,2,2,2,2,2,2,2,2,2,2,2,2,2,2,2,2,2,2,2,2,2,2,2,2,2,2,2,2,2,2,2,3,2,3,2,3,2,3,2,3,3,2,3,2,3,2,3,3,2,3,2,3,2,3,2,3,3,2,3,2,3,2,3,3,2,3,2,3,2,3,2,3,3,2,3,2,3,2,3,3,2,3,2,3,2,3,2,3,3,2,3,2,3,2,3,3,2,3,2,3,2,3,2,3,3,2,2220,69,69,69,69,69,1182,3,2,3,2,3,2,3,3,2,3,2,3,2,3,3,2,3,2,3,2,3,2,3,3,2,3,2,3,2,3,3,2,3,2,3,2,3,2,3,3,2,3,2,3,2,3,3,2,3,2,3,2,3,2,3,3,2,3,2,3,2,3,3,2,3,2,3,2,3,2,3,3,2,3,2,3,2,3,3,2,3,2,3,2,3,2,3,3,2,3,2,3,2,3,3,2,3,2,3,2,3,2,3,3,2,3,2,3,2,3,3,2,3,2,3,2,3,2,3,3,2,3,2,3,2,3,3,2,3,2,3,2,3,2,3,3,2,3,2,3,2,3,3,2,3,2,3,2,3,2,3,3,2,3,2,3,2,3,3,2,3,2,3,2,3,2,3,3,2,3,2,3,2,3,2,2,2,2,2,2,2,2,2,2,2,2,2,2,2,2,2,2,2,2,2,2,2,2,2,2,2,2,2,2,2,2,2,2,2,2,2,2,2,2,2,2,2,2,2,2,2,2,2,2,2,2,2,2,2,2,2,2,2,2,2,2,2,2,2,2,2,2,2,2,2,2,2,2,2,2134,69,69,69,69,69,478,2,2,2,2,2,2,2,2,2,2,2,2,2,2,2,2,2,2,2,2,2,2,2,2,2,2,2,2,2,2,2,2,2,2,2,2,2,2,2,2,2,2,2,2,2,2,2,2,2,2,2,2,2,2,2,2,2,2,2,2,2,2,2,2,2,2,2,2,2,2,2,2,2,2,2,2,2,2,2,2,2,2,2,2,2,2,2,2,2,2,2,2,2,2,2,2,2,2,2,2,2,2,2,2,2,2,2,2,2,2,2,2,2,2,2,2,2,2,2,2,2,2,2,2,2,2,2,2,2,2,2,2,2,2,2,2,2,2,2,2,2,2,2,2,2,2,2,2,2,2,2,2,2,2,2,2,2,2,2,2,2,2,2,2,2,2,2,2,2,2,2,2,2,2,69,69,69,69,69,69,69,69,69,69,69,69,69,69,69,69,69,69,69,69,69,69,69,69,69,69,69,69,69,69,69,69,69,69,69,69,69,69,69,69,69,69,69,69,69,69,69,69,69,69,69,69,69,69,69,69,69,69,69,69,69,69,69,69,69,69,69,69,69,69,69,69,69,69,69,69,69,69,69,69,69,2232,3,2,3,2,3,2,3,3,2,3,2,3,2,3,3,2,3,2,3,2,3,2,3,3,2,3,2,3,2,3,3,2,3,2,3,2,3,2,3,3,2,3,2,3,2,3,3,2,3,2,3,2,3,2,3,3,2,3,2,3,2,3,3,2,3,2,3,2,3,2,3,3,2,3,2,3,2,3,3,2,3,2,3,2,3,2,3,3,2,3,2,3,2,3,3,2,3,2,3,2,3,2,3,3,2,3,2,3,2,3,3,2,3,2,3,2,3,2,3,3,2,3,2,3,2,3,3,2,3,2,3,2,3,2,3,3,2,3,2,3,2,3,3,2,3,2,3,2,3,2,3,3,2,3,2,3,2,3,3,2,3,2,3,2,3,2,3,3,2,3,2,3,2,3,69,69,69,69,69,69,69,69,69,69,69,69,69,69,69,69,69,69,69,69,69,69,69,69,69,69,69,69,69,69,69,69,69,69,69,69,69,69,69,69,69,69,69,69,69,69,69,69,69,69,69,69,69,69,69,69,69,69,69,69,69,69,69,69,69,69,69,69,69,69,69,69,69,69,69,69,69,69,69,69,69,2145,2,2,2,2,2,2,2,2,2,2,2,2,2,2,2,2,2,2,2,2,2,2,2,2,2,2,2,2,2,2,2,2,2,2,2,2,2,2,2,2,2,2,2,2,2,2,2,2,2,2,2,2,2,2,2,2,2,2,2,2,2,2,2,2,2,2,2,2,2,2,2,2,2,2,2,2,2,2,2,2,2,2,2,2,2,2,2,2,2,2,2,2,2,2,2,2,2,2,2,2,2,2,2,2,2,2,2,2,2,2,2,2,2,2,2,2,2,2,2,2,2,2,2,2,2,2,2,2,2,2,2,2,2,2,2,2,2,2,2,2,2,2,2,2,2,2,2,2,2,2,2,2,2,2,2,2,2,2,2,2,2,2,2,2,2,2,2,2,2,2,2,2,2,2,69,69,69,69,69,69,69,69,69,69,69,69,69,69,69,69,69,69,69,69,69,69,69,69,69,69,69,69,69,69,69,69,69,69,69,69,69,69,69,69,69,69,69,69,69,69,69,69,69,69,69,69,69,69,69,69,69,69,69,69,69,69,69,69,69,69,69,69,69,69,69,69,69,69,69,69,69,69,69,69,69,1831,2,2,2,2,2,2,2,2,2,2,2,2,2,2,2,2,2,2,2,2,2,2,2,2,2,2,2,2,2,2,2,2,2,2,2,2,2,2,2,2,2,2,2,2,2,2,2,2,2,2,2,2,2,2,2,2,2,2,2,2,2,2,2,2,2,2,2,2,2,2,2,2,2,2,2,2,2,2,2,2,2,2,2,2,2,2,2,2,2,2,2,2,2,2,2,2,2,2,2,2,2,2,2,2,2,2,2,2,2,2,2,2,2,2,2,2,2,2,2,2,2,2,2,2,2,2,2,2,2,2,2,2,2,2,2,2,2,2,2,2,2,2,2,2,2,2,2,2,2,2,2,2,2,2,2,2,2,2,2,2,2,2,2,2,2,2,2,2,2,2,2,2,2,2,69,69,69,69,69,69,69,69,69,69,69,69,69,69,69,69,69,69,69,69,69,69,69,69,69,69,69,69,69,69,69,69,69,69,69,69,69,69,69,69,69,69,69,69,69,69,69,69,69,69,69,69,69,69,69,69,69,69,69,69,69,69,69,69,69,69,69,69,69,69,69,69,69,69,69,69,69,69,69,69,69,385,3,2,3,2,3,2,3,3,2,3,2,3,2,3,3,2,3,2,3,2,3,2,3,3,2,3,2,3,2,3,3,2,3,2,3,2,3,2,3,3,2,3,2,3,2,3,3,2,3,2,3,2,3,2,3,3,2,3,2,3,2,3,3,2,3,2,3,2,3,2,3,3,2,3,2,3,2,3,3,2,3,2,3,2,3,2,3,3,2,3,2,3,2,3,3,2,3,2,3,2,3,2,3,3,2,3,2,3,2,3,3,2,3,2,3,2,3,2,3,3,2,3,2,3,2,3,3,2,3,2,3,2,3,2,3,3,2,3,2,3,2,3,3,2,3,2,3,2,3,2,3,3,2,3,2,3,2,3,3,2,3,2,3,2,3,2,3,3,2,3,2,3,2,3,69,69,69,69,69,69,69,69,69,69,69,69,69,69,69,69,69,69,69,69,69,69,69,69,69,69,69,69,69,69,69,69,69,69,69,69,69,69,69,69,69,69,69,69,69,69,69,69,69,69,69,69,69,69,69,69,69,69,69,69,69,69,69,69,69,69,69,69,69,69,69,69,69,69,69,69,69,69,69,69,930,2,2,2,2,2,2,2,2,2,2,2,2,2,2,2,2,2,2,2,2,2,2,2,2,2,2,2,2,2,2,2,2,2,2,2,2,2,2,2,2,2,2,2,2,2,2,2,2,2,2,2,2,2,2,2,2,2,2,2,2,2,2,2,2,2,2,2,2,2,2,2,2,2,2,2,2,2,2,2,2,2,2,2,2,2,2,2,2,2,2,2,2,2,2,2,2,2,2,2,2,2,2,2,2,2,2,2,2,2,2,2,2,2,2,2,2,2,2,2,2,2,2,2,2,2,2,2,2,2,2,2,2,2,2,2,2,2,2,2,2,2,2,2,2,2,2,2,2,2,2,2,2,2,2,2,2,2,2,2,2,2,2,2,2,2,2,2,2,2,2,2,2,2,2,2,69,69,69,69,69,69,69,69,69,69,69,69,69,69,69,69,69,69,69,69,69,69,69,69,69,69,69,69,69,69,69,69,69,69,69,69,69,69,69,69,69,69,69,69,69,69,69,69,69,69,69,69,69,69,69,69,69,69,69,69,69,69,69,69,69,69,69,69,69,69,69,69,69,69,69,69,69,69,69,1436,982,2,3,2,3,2,3,2,3,3,2,3,2,3,2,3,3,2,3,2,3,2,3,2,3,3,2,3,2,3,2,3,3,2,3,2,3,2,3,2,3,3,2,3,2,3,2,3,3,2,3,2,3,2,3,2,3,3,2,3,2,3,2,3,3,2,3,2,3,2,3,2,3,3,2,3,2,3,2,3,3,2,3,2,3,2,3,2,3,3,2,3,2,3,2,3,3,2,3,2,3,2,3,2,3,3,2,3,2,3,2,3,3,2,3,2,3,2,3,2,3,3,2,3,2,3,2,3,3,2,3,2,3,2,3,2,3,3,2,3,2,3,2,3,3,2,3,2,3,2,3,2,3,3,2,3,2,3,2,3,3,2,3,2,3,2,3,2,3,3,2,3,2,3,2,3,317,2,2,2,2,2,2,2,2,2,2,2,2,2,2,2,2,2,2,2,2,2,2,2,2,2,2,2,2,2,2,2,2,2,2,2,2,2,2,2,2,2,2,2,2,2,2,2,2,2,2,2,2,2,2,2,2,2,2,2,2,2,2,2,2,2,2,2,2,2,2,2,2,2,2,2,2,316,317,2,2,2,2,2,2,2,2,2,2,2,2,2,2,2,2,2,2,2,2,2,2,2,2,2,2,2,2,2,2,2,2,2,2,2,2,2,2,2,2,2,2,2,2,2,2,2,2,2,2,2,2,2,2,2,2,2,2,2,2,2,2,2,2,2,2,2,2,2,2,2,2,2,2,2,2,2,2,2,2,2,2,2,2,2,2,2,2,2,2,2,2,2,2,2,2,2,2,2,2,2,2,2,2,2,2,2,2,2,2,2,2,2,2,2,2,2,2,2,2,2,2,2,2,2,2,2,2,2,2,2,2,2,2,2,2,2,2,2,2,2,2,2,2,2,2,2,2,2,2,2,2,2,2,2,2,2,2,2,2,2,2,2,2,2,2,2,2,2,2,2,2,2,2,2,2,2,3,2,3,2,3,2,3,2,3,3,2,3,2,3,2,3,3,2,3,2,3,2,3,2,3,3,2,3,2,3,2,3,3,2,3,2,3,2,3,2,3,3,2,3,2,3,2,3,3,2,3,2,3,2,3,2,3,3,2,3,2,3,2,3,3,2,3,2,3,2,3,2,3,3,2,3,2,3,2,3,3,2,3,2,3,2,3,2,3,3,2,3,2,3,2,3,3,2,3,2,3,2,3,2,3,3,2,3,2,3,2,3,3,2,3,2,3,2,3,2,3,3,2,3,2,3,2,3,3,2,3,2,3,2,3,2,3,3,2,3,2,3,2,3,3,2,3,2,3,2,3,2,3,3,2,3,2,3,2,3,3,2,3,2,3,2,3,2,3,3,2,3,2,3,2,3,3,2,3,2,3,2,3,2,3,3,2,3,2,3,2,3,3,2,3,2,3,2,3,2,3,3,2,3,2,3,2,3,3,2,3,2,3,2,3,2,3,3,2,3,2,3,2,3,3,2,3,2,3,2,3,2,3,3,2,3,2,3,2,3,3,2,3,2,3,2,3,2,3,3,2,3,2,3,2,3,2,2,2,2,2,2,2,2,2,2,2,2,2,2,2,2,2,2,2,2,2,2,2,2,2,2,2,2,2,2,2,2,2,2,2,2,2,2,2,2,2,2,2,2,2,2,2,2,2,2,2,2,2,2,2,2,2,2,2,2,2,2,2,2,2,2,2,2,2,2,2,2,2,2,2,2,2,2,2,2,2,2,2,2,2,2,2,2,2,2,2,2,2,2,2,2,2,2,2,2,2,2,2,2,2,2,2,2,2,2,2,2,2,2,2,2,2,2,2,2,2,2,2,2,2,2,2,2,2,2,2,2,2,2,2,2,2,2,2,2,2,2,2,2,2,2,2,2,2,2,2,2,2,2,2,2,2,2,2,2,2,2,2,2,2,2,2,2,2,2,2,2,2,2,2,2,2,2,2,2,2,2,2,2,2,2,2,2,2,2,2,2,2,2,2,2,2,2,2,2,2,2,2,2,2,2,2,2,2,2,2,2,2,2,2,2,2,2,2,2,2,2,2,2,2,2,2,2,2,2,2,2,2,2,2,2,2,2,2,2,2,2,2,2,2,2,2,2,2,2,2,2,2,2,2,2,3,2,3,2,3,2,3,2,3,3,2,3,2,3,2,3,3,2,3,2,3,2,3,2,3,3,2,3,2,3,2,3,3,2,3,2,3,2,3,2,3,3,2,3,2,3,2,3,3,2,3,2,3,2,3,2,3,3,2,3,2,3,2,3,3,2,3,2,3,2,3,2,3,3,2,3,2,3,2,3,3,2,3,2,3,2,3,2,3,3,2,3,2,3,2,3,3,2,3,2,3,2,3,2,3,3,2,3,2,3,2,3,3,2,3,2,3,2,3,2,3,3,2,3,2,3,2,3,3,2,3,2,3,2,3,2,3,3,2,3,2,3,2,3,3,2,3,2,3,2,3,2,3,3,2,3,2,3,2,3,3,2,3,2,3,2,3,2,3,3,2,3,2,3,2,3,3,2,3,2,3,2,3,2,3,3,2,3,2,3,2,3,3,2,3,2,3,2,3,2,3,3,2,3,2,3,2,3,3,2,3,2,3,2,3,2,3,3,2,3,2,3,2,3,3,2,3,2,3,2,3,2,3,3,2,3,2,3,2,3,3,2,3,2,3,2,3,2,3,3,2,3,2,3,2,3,2,2,2,2,2,2,2,2,2,2,2,2,2,2,2,2,2,2,2,2,2,2,2,2,2,2,2,2,2,2,2,2,2,2,2,2,2,2,2,2,2,2,2,2,2,2,2,2,2,2,2,2,2,2,2,2,2,2,2,2,2,2,2,2,2,2,2,2,2,2,2,2,2,2,2,2,2,2,2,2,2,2,2,2,2,2,2,2,2,2,2,2,2,2,2,2,2,2,2,2,2,2,2,2,2,2,2,2,2,2,2,2,2,2,2,2,2,2,2,2,2,2,2,2,2,2,2,2,2,2,2,2,2,2,2,2,2,2,2,2,2,2,2,2,2,2,2,2,2,2,2,2,2,2,2,2,2,2,2,2,2,2,2,2,2,2,2,2,2,2,2,2,2,2,2,2,2,2,2,2,2,2,2,2,2,2,2,2,2,2,2,2,2,2,2,2,2,2,2,2,2,2,2,2,2,2,2,2,2,2,2,2,2,2,2,2,2,2,2,2,2,2,2,2,2,2,2,2,2,2,2,2,2,2,2,2,2,2,2,2,2,2,2,2,2,2,2,2,2,2,2,2,2,2,2,2,2,2,2,2,2,2,2,2,2,2,2,2,2,2,2,2,2,2,2,2,2,2,2,2,2,2,2,2,2,2,2,2,2,2,2,2,2,2,2,2,2,2,2,2,2,2,2,2,2,2,2,2,2,2,2,2,2,2,2,2,2,2,2,2,2,2,2,2,2,2,2,2,2,2,2,2,2,2,2,2,2,2,2,2,2,2,2,2,2,2,2,2,2,2,2,2,2,2,2,2,2,2,2,2,2,2,2,2,2,2,2,2,2,2,2,2,2,2,2,2,2,2,2,2,2,2,2,2,2,2,2,2,2,2,2,2,2,2,2,2,2,2,2,2,2,2,2,2,2,2,2,2,2,2,2,2,2,2,2,2,2,2,2,2,2,2,2,2,2,2,2,2,2,2,2,2,2,2,2,2,2,2,2,2,2,2,2,2,2,2,2,2,2,2,2,2,2,2,2,2,2,2,2,2,2,2,2,2,2,2,2,2,2,2,2,2,2,2,2,2,2,2,2,2,2,2,2,2,2,2,2,2,2,2,2,2,2,2,2,2,2,2,2,2,2,2,2,2,2,2,2,2,2,2,2,2,3,2,3,2,3,2,3,2,3,3,2,3,2,3,2,3,3,2,3,2,3,2,3,2,3,3,2,3,2,3,2,3,3,2,3,2,3,2,3,2,3,3,2,3,2,3,2,3,3,2,3,2,3,2,3,2,3,3,2,3,2,3,2,3,3,2,3,2,3,2,3,2,3,3,2,3,2,3,2,3,3,2,3,2,3,2,3,2,3,3,2,3,2,3,2,3,3,2,3,2,3,2,3,2,3,3,2,3,2,3,2,3,3,2,3,2,3,2,3,2,3,3,2,3,2,3,2,3,3,2,3,2,3,2,3,2,3,3,2,3,2,3,2,3,3,2,3,2,3,2,3,2,3,3,2,3,2,3,2,3,3,2,3,2,3,2,3,2,3,3,2,3,2,3,2,3,3,2,3,2,3,2,3,2,3,3,2,3,2,3,2,3,3,2,3,2,3,2,3,2,3,3,2,3,2,3,2,3,3,2,3,2,3,2,3,2,3,3,2,3,2,3,2,3,3,2,3,2,3,2,3,2,3,3,2,3,2,3,2,3,3,2,3,2,3,2,3,2,3,3,2,3,2,3,2,3,2,2,2,2,2,2,2,2,2,2,2,2,2,2,2,2,2,2,2,2,2,2,2,2,2,2,2,2,2,2,2,2,2,2,2,2,2,2,2,2,2,2,2,2,2,2,2,2,2,2,2,2,2,2,2,2,2,2,2,2,2,2,2,2,2,2,2,2,2,2,2,2,2,2,2,2,2,2,2,2,2,2,2,2,2,2,2,2,2,2,2,2,2,2,2,2,2,2,2,2,2,2,2,2,2,2,2,2,2,2,2,2,2,2,2,2,2,2,2,2,2,2,2,2,2,2,2,2,2,2,2,2,2,2,2,2,2,2,2,2,2,2,2,2,2,2,2,2,2,2,2,2,2,2,2,2,2,2,2,2,2,2,2,2,2,2,2,2,2,2,2,2,2,2,2,2,2,2,2,2,2,2,2,2,2,2,2,2,2,2,2,2,2,2,2,2,2,2,2,2,2,2,2,2,2,2,2,2,2,2,2,2,2,2,2,2,2,2,2,2,2,2,2,2,2,2,2,2,2,2,2,2,2,2,2,2,2,2,2,2,2,2,2,2,2,2,2,2,2,2,2,2,2,2,2,2,3,2,3,2,3,2,3,2,3,3,2,3,2,3,2,3,3,2,3,2,3,2,3,2,3,3,2,3,2,3,2,3,3,2,3,2,3,2,3,2,3,3,2,3,2,3,2,3,3,2,3,2,3,2,3,2,3,3,2,3,2,3,2,3,3,2,3,2,3,2,3,2,3,3,2,3,2,3,2,3,3,2,3,2,3,2,3,2,3,3,2,3,2,3,2,3,3,2,3,2,3,2,3,2,3,3,2,3,2,3,2,3,3,2,3,2,3,2,3,2,3,3,2,3,2,3,2,3,3,2,3,2,3,2,3,2,3,3,2,3,2,3,2,3,3,2,3,2,3,2,3,2,3,3,2,3,2,3,2,3,3,2,3,2,3,2,3,2,3,3,2,3,2,3,2,3,3,2,3,2,3,2,3,2,3,3,2,3,2,3,2,3,3,2,3,2,3,2,3,2,3,3,2,3,2,3,2,3,3,2,3,2,3,2,3,2,3,3,2,3,2,3,2,3,3,2,3,2,3,2,3,2,3,3,2,3,2,3,2,3,3,2,3,2,3,2,3,2,3,3,2,3,2,3,2,3,2,2,2,2,2,2,2,2,2,2,2,2,2,2,2,2,2,2,2,2,2,2,2,2,2,2,2,2,2,2,2,2,2,2,2,2,2,2,2,2,2,2,2,2,2,2,2,2,2,2,2,2,2,2,2,2,2,2,2,2,2,2,2,2,2,2,2,2,2,2,2,2,2,2,2,2,2,2,2,2,2,2,2,2,2,2,2,2,2,2,2,2,2,2,2,2,2,2,2,2,2,2,2,2,2,2,2,2,2,2,2,2,2,2,2,2,2,2,2,2,2,2,2,2,2,2,2,2,2,2,2,2,2,2,2,2,2,2,2,2,2,2,2,2,2,2,2,2,2,2,2,2,2,2,2,2,2,2,2,2,2,2,2,2,2,2,2,2,2,2,2,2,2,2,2,2,2,2,2,2,2,2,2,2,2,2,2,2,2,2,2,2,2,2,2,2,2,2,2,2,2,2,2,2,2,2,2,2,2,2,2,2,2,2,2,2,2,2,2,2,2,2,2,2,2,2,2,2,2,2,2,2,2,2,2,2,2,2,2,2,2,2,2,2,2,2,2,2,2,2,2,2,2,2,2,2,3,2,3,2,3,2,3,2,3,3,2,3,2,3,2,3,3,2,3,2,3,2,3,2,3,3,2,3,2,3,2,3,3,2,3,2,3,2,3,2,3,3,2,3,2,3,2,3,3,2,3,2,3,2,3,2,3,3,2,3,2,3,2,3,3,2,3,2,3,2,3,2,3,3,2,3,2,3,2,3,3,2,3,2,3,2,3,2,3,3,2,3,2,3,2,3,3,2,3,2,3,2,3,2,3,3,2,3,2,3,2,3,3,2,3,2,3,2,3,2,3,3,2,3,2,3,2,3,3,2,3,2,3,2,3,2,3,3,2,3,2,3,2,3,3,2,3,2,3,2,3,2,3,3,2,3,2,3,2,3,3,2,3,2,3,2,3,2,3,3,2,3,2,3,2,3,3,2,3,2,3,2,3,2,3,3,2,3,2,3,2,3,3,2,3,2,3,2,3,2,3,3,2,3,2,3,2,3,3,2,3,2,3,2,3,2,3,3,2,3,2,3,2,3,3,2,3,2,3,2,3,2,3,3,2,3,2,3,2,3,3,2,3,2,3,2,3,2,3,3,2,3,2,3,2,3]},{"id":2,"name":"Rivi\u00e8re et cascades anim\u00e9es","type":"tilelayer","x":0,"y":0,"width":256,"height":192,"opacity":1,"visible":true,"data":[0,0,0,0,0,0,0,0,0,0,0,0,0,0,0,0,0,0,0,0,0,0,0,0,0,0,0,0,0,0,0,0,0,0,0,0,0,0,0,0,0,0,0,0,0,0,0,0,0,0,0,0,0,0,0,0,0,0,0,0,0,0,0,0,0,0,0,0,0,0,0,0,0,0,0,0,0,0,0,0,0,0,0,0,0,0,0,0,0,0,0,0,0,0,0,0,0,0,0,0,0,0,0,0,0,0,0,0,0,0,0,0,0,0,0,0,0,0,0,0,0,0,0,0,0,0,0,0,0,0,0,0,0,0,0,0,0,0,0,0,0,0,0,0,0,0,0,0,0,0,0,0,0,0,0,0,0,0,0,0,0,0,0,0,0,0,0,0,0,0,0,0,0,0,0,0,0,0,0,0,0,0,0,0,0,0,0,0,0,0,0,0,0,0,0,0,0,0,0,0,0,0,0,0,0,0,0,0,0,0,0,0,0,0,0,0,0,0,0,0,0,0,0,0,0,0,0,0,0,0,0,0,0,0,0,0,0,0,0,0,0,0,0,0,0,0,0,0,0,0,0,0,0,0,0,0,0,0,0,0,0,0,0,0,0,0,0,0,0,0,0,0,0,0,0,0,0,0,0,0,0,0,0,0,0,0,0,0,0,0,0,0,0,0,0,0,0,0,0,0,0,0,0,0,0,0,0,0,0,0,0,0,0,0,0,0,0,0,0,0,0,0,0,0,0,0,0,0,0,0,0,0,0,0,0,0,0,0,0,0,0,0,0,0,0,0,0,0,0,0,0,0,0,0,0,0,0,0,0,0,0,0,0,0,0,0,0,0,0,0,0,0,0,0,0,0,0,0,0,0,0,0,0,0,0,0,0,0,0,0,0,0,0,0,0,0,0,0,0,0,0,0,0,0,0,0,0,0,0,0,0,0,0,0,0,0,0,0,0,0,0,0,0,0,0,0,0,0,0,0,0,0,0,0,0,0,0,0,0,0,0,0,0,0,0,0,0,0,0,0,0,0,0,0,0,0,0,0,0,0,0,0,0,0,0,0,0,0,0,0,0,0,0,0,0,0,0,0,0,0,0,0,0,0,0,0,0,0,0,0,0,0,0,0,0,0,0,0,0,0,0,0,0,0,0,0,0,0,0,0,0,0,0,0,0,0,0,0,0,0,0,0,0,0,0,0,0,0,0,0,0,0,0,0,0,0,0,0,0,0,0,0,0,0,0,0,0,0,0,0,0,0,0,0,0,0,0,0,0,0,0,0,0,0,0,0,0,0,0,0,0,0,0,0,0,0,0,0,0,0,0,0,0,0,0,0,0,0,0,0,0,0,0,0,0,0,0,0,0,0,0,0,0,0,0,0,0,0,0,0,0,0,0,0,0,0,0,0,0,0,0,0,0,0,0,0,0,0,0,0,0,0,0,0,0,0,0,0,0,0,0,0,0,0,0,0,0,0,0,0,0,0,0,0,0,0,0,0,0,0,0,0,0,0,0,0,0,0,0,0,0,0,0,0,0,0,0,0,0,0,0,0,0,0,0,0,0,0,0,0,0,0,0,0,0,0,0,0,0,0,0,0,0,0,0,0,0,0,0,0,0,0,0,0,0,0,0,0,0,0,0,0,0,0,0,0,0,0,0,0,0,0,0,0,0,0,0,0,0,0,0,0,0,0,0,0,0,0,0,0,0,0,0,0,0,0,0,0,0,0,0,0,0,0,0,0,0,0,0,0,0,0,0,0,0,0,0,0,0,0,0,0,0,0,0,0,0,0,0,0,0,0,0,0,0,0,0,0,0,0,0,0,0,0,0,0,0,0,0,0,0,0,0,0,0,0,0,0,0,0,0,0,0,0,0,0,0,0,0,0,0,0,0,0,0,0,0,0,0,0,0,0,0,0,0,0,0,0,0,0,0,0,0,0,0,0,0,0,0,0,0,0,0,0,0,0,0,0,0,0,0,0,0,0,0,0,0,0,0,0,0,0,0,0,0,0,0,0,0,0,0,0,0,0,0,0,0,0,0,0,0,0,0,0,0,0,0,0,0,0,0,0,0,0,0,0,0,0,0,0,0,0,0,0,0,0,0,0,0,0,0,0,0,0,0,0,0,0,0,0,0,0,0,0,0,0,0,0,0,0,0,0,0,0,0,0,0,0,0,0,0,0,0,0,0,0,0,0,0,0,0,0,0,0,0,0,0,0,0,0,0,0,0,0,0,0,0,0,0,0,0,0,0,0,0,0,0,0,0,0,0,0,0,0,0,0,0,0,0,0,0,0,0,0,0,0,0,0,0,0,0,0,0,0,0,0,0,0,0,0,0,0,0,0,0,0,0,0,0,0,0,0,0,0,0,0,0,0,0,0,0,0,0,0,0,0,0,0,0,0,0,0,0,0,0,0,0,0,0,0,0,0,0,0,0,0,0,0,0,0,0,0,0,0,0,0,0,0,0,0,0,0,0,0,0,0,0,0,0,0,0,0,0,0,0,0,0,0,0,0,0,0,0,0,0,0,0,0,0,0,0,0,0,0,0,0,0,0,0,0,0,0,0,0,0,0,0,0,0,0,0,0,0,0,0,0,0,0,0,0,0,0,0,0,0,0,0,0,0,0,0,0,0,0,0,0,0,0,0,0,0,0,0,0,0,0,0,0,0,0,0,0,0,0,0,0,0,0,0,0,0,0,0,0,0,0,0,0,0,0,0,0,0,0,0,0,0,0,0,0,0,0,0,0,0,0,0,0,0,0,0,0,0,0,0,0,0,0,0,0,0,0,0,0,0,0,0,0,0,0,0,0,0,0,0,0,0,0,0,0,0,0,0,0,0,0,0,0,0,0,0,0,0,0,0,0,0,0,0,0,0,0,0,0,0,0,0,0,0,0,0,0,0,0,0,0,0,0,0,0,0,0,0,0,0,0,0,0,0,0,0,0,0,0,0,0,0,0,0,0,0,0,0,0,0,0,0,0,0,0,0,0,0,0,0,0,0,0,0,0,0,0,0,0,0,0,0,0,0,0,0,0,0,0,0,0,0,0,0,0,0,0,0,0,0,0,0,0,0,0,0,0,0,0,0,0,0,0,0,0,0,0,0,0,0,0,0,0,0,0,0,0,0,0,0,0,0,0,0,0,0,0,0,0,0,0,0,0,0,0,0,0,0,0,0,0,0,0,0,0,0,0,0,0,0,0,0,0,0,0,0,0,0,0,0,0,0,0,0,0,0,0,0,0,0,0,0,0,0,0,0,0,0,0,0,0,0,0,0,0,0,0,0,0,0,0,0,0,0,0,0,0,0,0,0,0,0,0,0,0,0,0,0,0,0,0,0,0,0,0,0,0,0,0,0,0,0,0,0,0,0,0,0,0,0,0,0,0,0,0,0,0,0,0,0,0,0,0,0,0,0,0,0,0,0,0,0,0,0,0,0,0,0,0,0,0,0,0,0,0,0,0,0,0,0,0,0,0,0,0,0,0,0,0,0,0,0,0,0,0,0,0,0,0,0,0,0,0,0,0,0,0,0,0,0,0,0,0,0,0,0,0,0,0,0,0,0,0,0,0,0,0,0,0,0,0,0,0,0,0,0,0,0,0,0,0,0,0,0,0,0,0,0,0,0,0,0,0,0,0,0,0,0,0,0,0,0,0,0,0,0,0,0,0,0,0,0,0,0,0,0,0,0,0,0,0,0,0,0,0,0,0,0,0,0,0,0,0,0,0,0,0,0,0,0,0,0,0,0,0,0,0,0,0,0,0,0,0,0,0,0,0,0,0,0,0,0,0,0,0,0,0,0,0,0,0,0,0,0,0,0,0,0,0,0,0,0,0,0,0,0,0,0,0,0,0,0,0,0,0,0,0,0,0,0,0,0,0,0,0,0,0,0,0,0,0,0,0,0,0,0,0,0,0,0,0,0,0,0,0,0,0,0,0,0,0,0,0,0,0,0,0,0,0,0,0,0,0,0,0,0,0,0,0,0,0,0,0,0,0,0,0,0,0,0,0,0,0,0,0,0,0,0,0,0,0,0,0,0,0,0,0,0,0,0,0,0,0,0,0,0,0,0,0,0,0,0,0,0,0,0,0,0,0,0,0,0,0,0,0,0,0,0,0,0,0,0,0,0,0,0,0,0,0,0,0,0,0,0,0,0,0,0,0,0,0,0,0,0,0,0,0,0,0,0,0,0,0,0,0,0,0,0,0,0,0,0,0,0,0,0,0,0,0,0,0,0,0,0,0,0,0,0,0,0,0,0,0,0,0,0,0,0,0,0,0,0,0,0,0,0,0,0,0,0,0,0,0,0,0,0,0,0,0,0,0,0,0,0,0,0,0,0,0,0,0,0,0,0,0,0,0,0,0,0,0,0,0,0,0,0,0,0,0,0,0,0,0,0,0,0,0,0,0,0,0,0,0,0,0,0,0,0,0,0,0,0,0,0,0,0,0,0,0,0,0,0,0,0,0,0,0,0,0,0,0,0,0,0,0,0,0,0,0,0,0,0,0,0,0,0,0,0,0,0,0,0,0,0,0,0,0,0,0,0,0,0,0,0,0,0,0,0,0,0,0,0,0,0,0,0,0,0,0,0,0,0,0,0,0,0,0,0,0,0,0,0,0,0,0,0,0,0,0,0,0,0,0,0,0,0,0,0,0,0,0,0,0,0,0,0,0,0,0,0,0,0,0,0,0,0,0,0,0,0,0,0,0,0,0,0,0,0,0,0,0,0,0,0,0,0,0,0,0,0,0,0,0,0,0,0,0,0,0,0,0,0,0,0,0,0,0,0,0,0,0,0,0,0,0,0,0,0,0,0,0,0,0,0,0,0,0,0,0,0,0,0,0,0,0,0,0,0,0,0,0,0,0,0,0,0,0,0,0,0,0,0,0,0,0,0,0,0,0,0,0,0,0,0,0,0,0,0,0,0,0,0,0,0,0,0,0,0,0,0,0,0,0,0,0,0,0,0,0,0,0,0,0,0,0,0,0,0,0,0,0,0,0,0,0,0,0,0,0,0,0,0,0,0,0,0,0,0,0,0,0,0,0,0,0,0,0,0,0,0,0,0,0,0,0,0,0,0,0,0,0,0,0,0,0,0,0,0,0,0,0,0,0,0,0,0,0,0,0,0,0,0,0,0,0,0,0,0,0,0,0,0,0,0,0,0,0,0,0,0,0,0,0,0,0,0,0,0,0,0,0,0,0,0,0,0,0,0,0,0,0,0,0,0,0,0,0,0,0,0,0,0,0,0,0,0,0,0,0,0,0,0,0,0,0,0,0,0,0,0,0,0,0,0,0,0,0,0,0,0,0,0,0,0,0,0,0,0,0,0,0,0,0,0,0,0,0,0,0,0,0,0,0,0,0,0,0,0,0,0,0,0,0,0,0,0,0,0,0,0,0,0,0,0,0,0,0,0,0,0,0,0,0,0,0,0,0,0,0,0,0,0,0,0,0,0,0,0,0,0,0,0,0,0,0,0,0,0,0,0,0,0,0,0,0,0,0,0,0,0,0,0,0,0,0,0,0,0,0,0,0,0,0,0,0,0,0,0,0,0,0,0,0,0,0,0,0,0,0,0,0,0,0,0,0,0,0,0,0,0,0,0,0,0,0,0,0,0,0,0,0,0,0,0,0,0,0,0,0,0,0,0,0,0,0,0,0,0,0,0,0,0,0,0,0,0,0,0,0,0,0,0,0,0,0,0,0,0,0,0,0,0,0,0,0,0,0,0,0,0,0,0,0,0,0,0,0,0,0,0,0,0,0,0,0,0,0,0,0,0,0,0,0,0,0,0,0,0,0,0,0,0,0,0,0,0,0,0,0,0,0,0,0,0,0,0,0,0,0,0,0,0,0,0,0,0,0,0,0,0,0,0,0,0,0,0,0,0,0,0,0,0,0,0,0,0,0,0,0,0,0,0,0,0,0,0,0,0,0,0,0,0,0,0,0,0,0,0,0,0,0,0,0,0,0,0,0,0,0,0,0,0,0,0,0,0,0,0,0,0,0,0,0,0,0,0,0,0,0,0,0,0,0,0,0,0,0,0,0,0,0,0,0,0,0,0,0,0,0,0,0,0,0,0,0,0,0,0,0,0,0,0,0,0,0,0,0,0,0,0,0,0,0,0,0,0,0,0,0,0,0,0,0,0,0,0,0,0,0,0,0,0,0,0,0,0,0,0,0,0,0,0,0,0,0,0,0,0,0,0,0,0,0,0,0,0,0,0,0,0,0,0,0,0,0,0,0,0,0,0,0,0,0,0,0,0,0,0,0,0,0,0,0,0,0,0,0,0,0,0,0,0,0,0,0,0,0,0,0,0,0,0,0,0,0,0,0,0,0,0,0,0,0,0,0,0,0,0,0,0,0,0,0,0,0,0,0,0,0,0,0,0,0,0,0,0,0,0,0,0,0,0,0,0,0,0,0,0,0,0,0,0,0,0,0,0,0,0,0,0,0,0,0,0,0,0,0,0,0,0,0,0,0,0,0,0,0,0,0,0,0,0,0,0,0,0,0,0,0,0,0,0,0,0,0,0,0,0,0,0,0,0,0,0,0,0,0,0,0,0,0,0,0,0,0,0,0,0,0,0,0,0,0,0,0,0,0,0,0,0,0,0,0,0,0,0,0,0,0,0,0,0,0,0,0,0,0,0,0,0,0,0,0,0,0,0,0,0,0,0,0,0,0,0,0,0,0,0,0,0,0,0,0,0,0,0,0,0,0,0,0,0,0,0,0,0,0,0,0,0,0,0,0,0,0,0,0,0,0,0,0,0,0,0,0,0,0,0,0,0,0,0,0,0,0,0,0,0,0,0,0,0,0,0,0,0,0,0,0,0,0,0,0,0,0,0,0,0,0,0,0,0,0,0,0,0,0,0,0,0,0,0,0,0,0,0,0,0,0,0,0,0,0,0,0,0,0,0,0,0,0,0,0,0,0,0,0,0,0,0,0,0,0,0,0,0,0,0,0,0,0,0,0,0,0,0,0,0,0,0,0,0,0,0,0,0,0,0,0,0,0,0,0,0,0,0,0,0,0,0,0,0,0,0,0,0,0,0,0,0,0,0,0,0,0,0,0,0,0,0,0,0,0,0,0,0,0,0,0,0,0,0,0,0,0,0,0,0,0,0,0,0,0,0,0,0,0,0,0,0,0,0,0,0,0,0,0,0,0,0,0,0,0,0,0,0,0,0,0,0,0,0,0,0,0,0,0,0,0,0,0,0,0,0,0,0,0,0,0,0,0,0,0,0,0,0,0,0,0,0,0,0,0,0,0,0,0,0,0,0,0,0,0,0,0,0,0,0,0,0,0,0,0,0,0,0,0,0,0,0,0,0,0,0,0,0,0,0,0,0,0,0,0,0,0,0,0,0,0,0,0,0,0,0,0,0,0,0,0,0,0,0,0,0,0,0,0,0,0,0,0,0,0,0,0,0,0,0,0,0,0,0,0,0,0,0,0,0,0,0,0,0,0,0,0,0,0,0,0,0,0,0,0,0,0,0,0,0,0,0,0,0,0,0,0,0,0,0,0,0,0,0,0,0,0,0,0,0,0,0,0,0,0,0,0,0,0,0,0,0,0,0,0,0,0,0,0,0,0,0,0,0,0,0,0,0,0,0,0,0,0,0,0,0,0,0,0,0,0,0,0,0,0,0,0,0,0,0,0,0,0,0,0,0,0,0,0,0,0,0,0,0,0,0,0,0,0,0,0,0,0,0,0,0,0,0,0,0,0,0,0,0,0,0,0,0,0,0,0,0,0,0,0,0,0,0,0,0,0,0,0,0,0,0,0,0,0,0,0,0,0,0,0,0,0,0,0,0,0,0,0,0,0,0,0,0,0,0,0,0,0,0,0,0,0,0,0,0,0,0,0,0,0,0,0,0,0,0,0,0,0,0,0,0,0,0,0,0,0,0,0,0,0,0,0,0,0,0,0,0,0,0,0,0,0,0,0,0,0,0,0,0,0,0,0,0,0,0,0,0,0,0,0,0,0,0,0,0,0,0,0,0,0,0,0,0,0,0,0,0,0,0,0,0,0,0,0,0,0,0,0,0,0,0,0,0,0,0,0,0,0,0,0,0,0,0,0,0,0,0,0,0,0,0,0,0,0,0,0,0,0,0,0,0,0,0,0,0,0,0,0,0,0,0,0,0,0,0,0,0,0,0,0,0,0,0,0,0,0,0,0,0,0,0,0,0,0,0,0,0,0,0,0,0,0,0,0,0,0,0,0,0,0,0,0,0,0,0,0,0,0,0,0,0,0,0,0,0,0,0,0,0,0,0,0,0,0,0,0,0,0,0,0,0,0,0,0,0,0,0,0,0,0,0,0,0,0,0,0,0,0,0,0,0,0,0,0,0,0,0,0,0,0,0,0,0,0,0,0,0,0,0,0,0,0,0,0,0,0,0,0,0,0,0,0,0,0,0,0,0,0,0,0,0,0,0,0,0,0,0,0,0,0,0,0,0,0,0,0,0,0,0,0,0,0,0,0,0,0,0,0,0,0,0,0,0,0,0,0,0,0,0,0,0,0,0,0,0,0,0,0,0,0,0,0,0,0,0,0,0,0,0,0,0,0,0,0,0,0,0,0,0,0,0,0,0,0,0,0,0,0,0,0,0,0,0,0,0,0,0,0,0,0,0,0,0,0,0,0,0,0,0,0,0,0,0,0,0,0,0,0,0,0,0,0,0,0,0,0,0,0,0,0,0,0,0,0,0,0,0,0,0,0,0,0,0,0,0,0,0,0,0,0,0,0,0,0,0,0,0,0,0,0,0,0,0,0,0,0,0,0,0,0,0,0,0,0,0,0,0,0,0,0,0,0,0,0,0,0,0,0,0,0,0,0,0,0,0,0,0,0,0,0,0,0,0,0,0,0,0,0,0,0,0,0,0,0,0,0,0,0,0,0,0,0,0,0,0,0,0,0,0,0,0,0,0,0,0,0,0,0,0,0,0,0,0,0,0,0,0,0,0,0,0,0,0,0,0,0,0,0,0,0,0,0,0,0,0,0,0,0,0,0,0,0,0,0,0,0,0,0,0,0,0,0,0,0,0,0,0,0,0,0,0,0,0,0,0,0,0,0,0,0,0,0,0,0,0,0,0,0,0,0,0,0,0,0,0,0,0,0,0,0,0,0,0,0,0,0,0,0,0,0,0,0,0,0,0,0,0,0,0,0,0,0,0,0,0,0,0,0,0,0,0,0,0,0,0,0,0,0,0,0,0,0,0,0,0,0,0,0,0,0,0,0,0,0,0,0,0,0,0,0,0,0,0,0,0,0,0,0,0,0,0,0,0,0,0,0,0,0,0,0,0,0,0,0,0,0,0,0,0,0,0,0,0,0,0,0,0,0,0,0,0,0,0,0,0,0,0,0,0,0,0,0,0,0,0,0,0,0,0,0,0,0,0,0,0,0,0,0,0,0,0,0,0,0,0,0,0,0,0,0,0,0,0,0,0,0,0,0,0,0,0,0,0,0,0,0,0,0,0,0,0,0,0,0,79,80,80,80,80,81,0,0,0,0,0,0,0,0,0,0,0,0,0,0,0,0,0,0,0,0,0,0,0,0,0,0,0,0,0,0,0,0,0,0,0,0,0,0,0,0,0,0,0,0,0,0,0,0,0,0,0,0,0,0,0,0,0,0,0,0,0,0,0,0,0,0,0,0,0,0,0,0,0,0,0,0,0,0,0,0,0,0,0,0,0,0,0,0,0,0,0,0,0,0,0,0,0,0,0,0,0,0,0,0,0,0,0,0,0,0,0,0,0,0,0,0,0,0,0,0,0,0,0,0,0,0,0,0,0,0,0,0,0,0,0,0,0,0,0,0,0,0,0,0,0,0,0,0,0,0,0,0,0,0,0,0,0,0,0,0,0,0,0,0,0,0,0,0,0,0,0,0,0,0,0,0,0,0,0,0,0,0,0,0,0,0,0,0,0,0,0,0,0,0,0,0,0,0,0,0,0,0,0,0,0,0,0,0,0,0,0,0,0,0,0,0,0,0,0,0,0,0,0,0,0,0,0,0,0,0,0,0,0,0,0,0,0,0,0,0,0,0,0,0,0,88,89,90,91,92,93,94,95,95,95,96,97,98,99,100,101,0,0,0,0,0,0,0,0,0,0,0,0,0,0,0,0,0,0,0,0,0,0,0,0,0,0,0,0,0,0,0,0,0,0,0,0,0,0,0,0,0,0,0,0,0,0,0,0,0,0,0,0,0,0,0,0,0,0,0,0,0,0,0,0,0,0,0,0,0,0,0,0,0,0,0,0,0,0,0,0,0,0,0,0,0,0,0,0,0,0,0,0,0,0,0,0,0,0,0,0,0,0,0,0,0,0,0,0,0,0,0,0,0,0,0,0,0,0,0,0,0,0,0,0,0,0,0,0,0,0,0,0,0,0,0,0,0,0,0,0,0,0,0,0,0,0,0,0,0,0,0,0,0,0,0,0,0,0,0,0,0,0,0,0,0,0,0,0,0,0,0,0,0,0,0,0,0,0,0,0,0,0,0,0,0,0,0,0,0,0,0,0,0,0,0,0,0,0,0,0,0,0,0,0,0,0,0,0,0,0,0,0,0,0,0,0,0,0,0,0,0,0,0,0,0,0,0,0,0,0,0,0,0,0,0,0,0,0,106,107,108,109,110,111,111,111,111,111,111,111,111,111,111,111,112,113,114,115,116,0,0,0,0,0,0,0,0,0,0,0,0,0,0,0,0,0,0,0,0,0,0,0,0,0,0,0,0,0,0,0,0,0,0,0,0,0,0,0,0,0,0,0,0,0,0,0,0,0,0,0,0,0,0,0,0,0,0,0,0,0,0,0,0,0,0,0,0,0,0,0,0,0,0,0,0,0,0,0,0,0,0,0,0,0,0,0,0,0,0,0,0,0,0,0,0,0,0,0,0,0,0,0,0,0,0,0,0,0,0,0,0,0,0,0,0,0,0,0,0,0,0,0,0,0,0,0,0,0,0,0,0,0,0,0,0,0,0,0,0,0,0,0,0,0,0,0,0,0,0,0,0,0,0,0,0,0,0,0,0,0,0,0,0,0,0,0,0,0,0,0,0,0,0,0,0,0,0,0,0,0,0,0,0,0,0,0,0,0,0,0,0,0,0,0,0,0,0,0,0,0,0,0,0,0,0,0,0,0,0,0,0,0,0,0,0,0,0,0,0,0,0,0,0,0,0,0,0,0,0,0,0,0,0,120,121,122,111,111,111,111,111,111,111,111,111,111,111,111,111,111,111,111,123,124,125,126,0,0,0,0,0,0,0,0,0,0,0,0,0,0,0,0,0,0,0,0,0,0,0,0,0,0,0,0,0,0,0,0,0,0,0,0,0,0,0,0,0,0,0,0,0,0,0,0,0,0,0,0,0,0,0,0,0,0,0,0,0,0,0,0,0,0,0,0,0,0,0,0,0,0,0,0,0,0,0,0,0,0,0,0,0,0,0,0,0,0,0,0,0,0,0,0,0,0,0,0,0,0,0,0,0,0,0,0,0,0,0,0,0,0,0,0,0,0,0,0,0,0,0,0,0,0,0,0,0,0,0,0,0,0,0,0,0,0,0,0,0,0,0,0,0,0,0,0,0,0,0,0,0,0,0,0,0,0,0,0,0,0,0,0,0,0,0,0,0,0,0,0,0,0,0,0,0,0,0,0,0,0,0,0,0,0,0,0,0,0,0,0,0,0,0,0,0,0,0,0,0,0,0,0,0,0,0,0,0,0,0,0,0,0,0,0,0,0,0,0,0,0,0,0,0,0,0,0,0,0,0,0,132,133,111,111,111,111,111,111,111,111,111,111,111,111,111,111,111,111,111,111,111,111,123,134,135,136,0,0,0,0,0,0,0,0,0,0,0,0,0,0,0,0,0,0,0,0,0,0,0,0,0,0,0,0,0,0,0,0,0,0,0,0,0,0,0,0,0,0,0,0,0,0,0,0,0,0,0,0,0,0,0,0,0,0,0,0,0,0,0,0,0,0,0,0,0,0,0,0,0,0,0,0,0,0,0,0,0,0,0,0,0,0,0,0,0,0,0,0,0,0,0,0,0,0,0,0,0,0,0,0,0,0,0,0,0,0,0,0,0,0,0,0,0,0,0,0,0,0,0,0,0,0,0,0,0,0,0,0,0,0,0,0,0,0,0,0,0,0,0,0,0,0,0,0,0,0,0,0,0,0,0,0,0,0,0,0,0,0,0,0,0,0,0,0,0,0,0,0,0,0,0,0,0,0,0,0,0,0,0,0,0,0,0,0,0,0,0,0,0,0,0,0,0,0,0,0,0,0,0,0,0,0,0,0,0,0,0,0,0,0,0,0,0,0,0,0,0,0,0,0,0,0,0,0,0,0,141,142,111,111,111,111,111,144,111,111,111,111,111,111,111,111,111,144,111,111,111,111,111,111,145,146,147,0,0,0,0,0,0,0,0,0,0,0,0,0,0,0,0,0,0,0,0,0,0,0,0,0,0,0,0,0,0,0,0,0,0,0,0,0,0,0,0,0,0,0,0,0,0,0,0,0,0,0,0,0,0,0,0,0,0,0,0,0,0,0,0,0,0,0,0,0,0,0,0,0,0,0,0,0,0,0,0,0,0,0,0,0,0,0,0,0,0,0,0,0,0,0,0,0,0,0,0,0,0,0,0,0,0,0,0,0,0,0,0,0,0,0,0,0,0,0,0,0,0,0,0,0,0,0,0,0,0,0,0,0,0,0,0,0,0,0,0,0,0,0,0,0,0,0,0,0,0,0,0,0,0,0,0,0,0,0,0,0,0,0,0,0,0,0,0,0,0,0,0,0,0,0,0,0,0,0,0,0,0,0,0,0,0,0,0,0,0,0,0,0,0,0,0,0,0,0,0,0,0,0,0,0,0,0,0,0,0,0,0,0,0,0,0,0,0,0,0,0,0,0,0,0,0,0,0,155,156,111,111,111,111,158,161,164,167,169,111,111,111,111,111,158,161,164,167,169,111,111,111,111,111,170,171,172,0,0,0,0,0,0,0,0,0,0,0,0,0,0,0,0,0,0,0,0,0,0,0,0,0,0,0,0,0,0,0,0,0,0,0,0,0,0,0,0,0,0,0,0,0,0,0,0,0,0,0,0,0,0,0,0,0,0,0,0,0,0,0,0,0,0,0,0,0,0,0,0,0,0,0,0,0,0,0,0,0,0,0,0,0,0,0,0,0,0,0,0,0,0,0,0,0,0,0,0,0,0,0,0,0,0,0,0,0,0,0,0,0,0,0,0,0,0,0,0,0,0,0,0,0,0,0,0,0,0,0,0,0,0,0,0,0,0,0,0,0,0,0,0,0,0,0,0,0,0,0,0,0,0,0,0,0,0,0,0,0,0,0,0,0,0,0,0,0,0,0,0,0,0,0,0,0,0,0,0,0,0,0,0,0,0,0,0,0,0,0,0,0,0,0,0,0,0,0,0,0,0,0,0,0,0,0,0,0,0,0,0,0,0,0,0,0,0,0,0,0,0,0,0,0,0,0,179,180,111,111,111,111,111,111,111,111,111,111,111,111,111,111,111,111,111,111,111,111,111,111,111,111,111,111,181,182,0,0,0,0,0,0,0,0,0,0,0,0,0,0,0,0,0,0,0,0,0,0,0,0,0,0,0,0,0,0,0,0,0,0,0,0,0,0,0,0,0,0,0,0,0,0,0,0,0,0,0,0,0,0,0,0,0,0,0,0,0,0,0,0,0,0,0,0,0,0,0,0,0,0,0,0,0,0,0,0,0,0,0,0,0,0,0,0,0,0,0,0,0,0,0,0,0,0,0,0,0,0,0,0,0,0,0,0,0,0,0,0,0,0,0,0,0,0,0,0,0,0,0,0,0,0,0,0,0,0,0,0,0,0,0,0,0,0,0,0,0,0,0,0,0,0,0,0,0,0,0,0,0,0,0,0,0,0,0,0,0,0,0,0,0,0,0,0,0,0,0,0,0,0,0,0,0,0,0,0,0,0,0,0,0,0,0,0,0,0,0,0,0,0,0,0,0,0,0,0,0,0,0,0,0,0,0,0,0,0,0,0,0,0,0,0,0,0,0,0,0,0,0,0,0,0,189,190,111,111,111,111,111,111,111,111,111,111,111,111,111,111,111,111,111,111,111,111,111,111,111,111,111,111,111,191,192,0,0,0,0,0,0,0,0,0,0,0,0,0,0,0,0,0,0,0,0,0,0,0,0,0,0,0,0,0,0,0,0,0,0,0,0,0,0,0,0,0,0,0,0,0,0,0,0,0,0,0,0,0,0,0,0,0,0,0,0,0,0,0,0,0,0,0,0,0,0,0,0,0,0,0,0,0,0,0,0,0,0,0,0,0,0,0,0,0,0,0,0,0,0,0,0,0,0,0,0,0,0,0,0,0,0,0,0,0,0,0,0,0,0,0,0,0,0,0,0,0,0,0,0,0,0,0,0,0,0,0,0,0,0,0,0,0,0,0,0,0,0,0,0,0,0,0,0,0,0,0,0,0,0,0,0,0,0,0,0,0,0,0,0,0,0,0,0,0,0,0,0,0,0,0,0,0,0,0,0,0,0,0,0,0,0,0,0,0,0,0,0,0,0,0,0,0,0,0,0,0,0,0,0,0,0,0,0,0,0,0,0,0,0,0,0,0,0,0,0,0,0,0,0,0,198,111,111,111,111,111,111,111,111,111,111,111,111,111,111,111,111,111,111,111,111,111,111,111,111,111,111,111,111,199,200,201,0,0,0,0,0,0,0,0,0,0,0,0,0,0,0,0,0,0,0,0,0,0,0,0,0,0,0,0,0,0,0,0,0,0,0,0,0,0,0,0,0,0,0,0,0,0,0,0,0,0,0,0,0,0,0,0,0,0,0,0,0,0,0,0,0,0,0,0,0,0,0,0,0,0,0,0,0,0,0,0,0,0,0,0,0,0,0,0,0,0,0,0,0,0,0,0,0,0,0,0,0,0,0,0,0,0,0,0,0,0,0,0,0,0,0,0,0,0,0,0,0,0,0,0,0,0,0,0,0,0,0,0,0,0,0,0,0,0,0,0,0,0,0,0,0,0,0,0,0,0,0,0,0,0,0,0,0,0,0,0,0,0,0,0,0,0,0,0,0,0,0,0,0,0,0,0,0,0,0,0,0,0,0,0,0,0,0,0,0,0,0,0,0,0,0,0,0,0,0,0,0,0,0,0,0,0,0,0,0,0,0,0,0,0,0,0,0,0,0,0,0,0,0,0,207,111,111,111,111,111,111,111,111,111,111,111,111,111,111,111,111,111,111,111,111,111,111,111,111,111,111,111,111,111,208,209,0,0,0,0,0,0,0,0,0,0,0,0,0,0,0,0,0,0,0,0,0,0,0,0,0,0,0,0,0,0,0,0,0,0,0,0,0,0,0,0,0,0,0,0,0,0,0,0,0,0,0,0,0,0,0,0,0,0,0,0,0,0,0,0,0,0,0,0,0,0,0,0,0,0,0,0,0,0,0,0,0,0,0,0,0,0,0,0,0,0,0,0,0,0,0,0,0,0,0,0,0,0,0,0,0,0,0,0,0,0,0,0,0,0,0,0,0,0,0,0,0,0,0,0,0,0,0,0,0,0,0,0,0,0,0,0,0,0,0,0,0,0,0,0,0,0,0,0,0,0,0,0,0,0,0,0,0,0,0,0,0,0,0,0,0,0,0,0,0,0,0,0,0,0,0,0,0,0,0,0,0,0,0,0,0,0,0,0,0,0,0,0,0,0,0,0,0,0,0,0,0,0,0,0,0,0,0,0,0,0,0,0,0,0,0,0,0,0,0,0,0,0,0,0,215,111,111,111,111,111,111,111,111,111,111,144,111,111,111,111,111,111,111,111,111,144,111,111,111,111,111,111,111,111,111,216,0,0,0,0,0,0,0,0,0,0,0,0,0,0,0,0,0,0,0,0,0,0,0,0,0,0,0,0,0,0,0,0,0,0,0,0,0,0,0,0,0,0,0,0,0,0,0,0,0,0,0,0,0,0,0,0,0,0,0,0,0,0,0,220,221,222,223,224,225,226,227,228,229,0,0,0,0,0,0,0,0,0,0,0,0,0,0,0,0,0,0,0,0,0,0,0,0,0,0,0,0,0,0,0,0,0,0,0,0,0,0,0,0,0,0,0,0,0,0,0,0,0,0,0,0,0,0,0,0,0,0,0,0,0,0,0,0,0,0,0,0,0,0,0,0,0,0,0,0,0,0,0,0,0,0,0,0,0,0,0,0,0,0,0,0,0,0,0,0,0,0,0,0,0,0,0,0,0,0,0,0,0,0,0,0,0,0,0,0,0,0,0,0,0,0,0,0,0,0,0,0,0,0,0,0,0,0,0,0,0,0,0,0,0,0,0,0,0,0,0,0,0,0,0,215,111,111,111,111,111,233,167,169,158,161,234,111,111,111,111,233,167,169,158,161,234,111,111,111,111,233,167,169,158,235,236,237,0,0,0,0,0,0,0,0,0,0,0,0,0,0,0,0,0,0,0,0,0,0,0,0,0,0,0,0,0,0,0,0,0,0,0,0,0,0,0,0,0,0,0,0,0,0,0,0,0,0,0,0,0,0,0,0,0,0,0,0,241,242,243,246,250,169,158,235,251,252,253,254,255,256,228,116,0,0,0,0,0,0,0,0,0,0,0,0,0,0,0,0,0,0,0,0,0,0,0,0,0,0,0,0,0,0,0,0,0,0,0,0,0,0,0,0,0,0,0,0,0,0,0,0,0,0,0,0,0,0,0,0,0,0,0,0,0,0,0,0,0,0,0,0,0,0,0,0,0,0,0,0,0,0,0,0,0,0,0,0,0,0,0,0,0,0,0,0,0,0,0,0,0,0,0,0,0,0,0,0,0,0,0,0,0,0,0,0,0,0,0,0,0,0,0,0,0,0,0,0,0,0,0,0,0,0,0,0,0,0,0,0,0,0,0,0,0,0,0,0,0,0,0,264,111,111,111,111,111,111,111,111,111,111,111,111,111,111,111,111,111,111,111,111,111,111,111,111,111,111,111,111,111,111,265,266,0,0,0,0,0,0,0,0,0,0,0,0,0,0,0,0,0,0,0,0,0,0,0,0,0,0,0,0,0,0,0,0,0,0,0,0,0,0,0,0,0,0,0,0,0,0,0,0,0,0,0,0,0,0,0,0,0,0,270,271,272,111,111,111,111,111,111,111,111,111,111,111,111,273,274,275,276,277,0,0,0,0,0,0,0,0,0,0,0,0,0,0,0,0,0,0,0,0,0,0,0,0,0,0,0,0,0,0,0,0,0,0,0,0,0,0,0,0,0,0,0,0,0,0,0,0,0,0,0,0,0,0,0,0,0,0,0,0,0,0,0,0,0,0,0,0,0,0,0,0,0,0,0,0,0,0,0,0,0,0,0,0,0,0,0,0,0,0,0,0,0,0,0,0,0,0,0,0,0,0,0,0,0,0,0,0,0,0,0,0,0,0,0,0,0,0,0,0,0,0,0,0,0,0,0,0,0,0,0,0,0,0,0,0,0,0,0,0,0,0,0,0,0,286,111,111,111,111,111,111,111,111,111,111,111,111,111,111,111,111,111,111,111,111,111,111,111,111,111,111,111,111,111,111,287,288,0,0,0,0,0,0,0,0,0,0,0,0,0,0,0,0,0,0,0,0,0,0,0,0,0,0,0,0,0,0,0,0,0,0,0,0,0,0,0,0,0,0,0,0,0,0,0,0,0,0,0,0,0,0,0,0,0,270,290,291,111,111,111,111,111,111,111,111,111,111,111,111,111,111,111,111,292,125,293,0,0,0,0,0,0,0,0,0,0,0,0,0,0,0,0,0,0,0,0,0,0,0,0,0,0,0,0,0,0,0,0,0,0,0,0,0,0,0,0,0,0,0,0,0,0,0,0,0,0,0,0,0,0,0,0,0,0,0,0,0,0,0,0,0,0,0,0,0,0,0,0,0,0,0,0,0,0,0,0,0,0,0,0,0,0,0,0,0,0,0,0,0,0,0,0,0,0,0,0,0,0,0,0,0,0,0,0,0,0,0,0,0,0,0,0,0,0,0,0,0,0,0,0,0,0,0,0,0,0,0,0,0,0,0,0,0,0,0,0,0,0,0,0,303,304,111,111,111,111,111,111,111,111,111,111,111,111,111,111,111,111,111,111,111,111,111,111,111,111,111,111,111,111,111,305,306,0,0,0,0,0,0,0,0,0,0,0,0,0,0,0,0,0,0,0,0,0,0,0,0,0,0,0,0,0,0,0,0,0,0,0,0,0,0,0,0,0,0,0,0,0,0,0,0,0,0,0,0,0,0,0,0,0,309,310,111,111,111,111,111,111,111,111,111,111,111,111,111,111,111,111,111,111,123,311,312,0,0,0,0,0,0,0,0,0,0,0,0,0,0,0,0,0,0,0,0,0,0,0,0,0,0,0,0,0,0,0,0,0,0,0,0,0,0,0,0,0,0,0,0,0,0,0,0,0,0,0,0,0,0,0,0,0,0,0,0,0,0,0,0,0,0,0,0,0,0,0,0,0,0,0,0,0,0,0,0,0,0,0,0,0,0,0,0,0,0,0,0,0,0,0,0,0,0,0,0,0,0,0,0,0,0,0,0,0,0,0,0,0,0,0,0,0,0,0,0,0,0,0,0,0,0,0,0,0,0,0,0,0,0,0,0,0,0,0,0,0,0,0,320,321,111,111,111,111,111,111,111,111,111,111,111,111,111,111,111,111,111,111,111,111,111,111,111,111,111,111,111,111,111,322,323,0,0,0,0,0,0,0,0,0,0,0,0,0,0,0,0,0,0,0,0,0,0,0,0,0,0,0,0,0,0,0,0,0,0,0,0,0,0,0,0,0,0,0,0,0,0,0,0,0,0,0,0,0,0,0,0,326,327,111,111,111,111,111,111,111,111,111,111,111,111,111,111,111,111,111,111,111,111,111,328,329,330,0,0,0,0,0,0,0,0,0,0,0,0,0,0,0,0,0,0,0,0,0,0,0,0,0,0,0,0,0,0,0,0,0,0,0,0,0,0,0,0,0,0,0,0,0,0,0,0,0,0,0,0,0,0,0,0,0,0,0,0,0,0,0,0,0,0,0,0,0,0,0,0,0,0,0,0,0,0,0,0,0,0,0,0,0,0,0,0,0,0,0,0,0,0,0,0,0,0,0,0,0,0,0,0,0,0,0,0,0,0,0,0,0,0,0,0,0,0,0,0,0,0,0,0,0,0,0,0,0,0,0,0,0,0,0,0,0,0,0,0,0,335,336,111,111,111,111,111,111,111,144,111,111,111,111,111,111,111,111,111,144,111,111,111,111,111,111,111,111,111,144,111,337,0,0,0,0,0,0,0,0,0,0,0,0,0,0,0,0,0,0,0,0,0,0,0,0,0,0,0,0,0,0,0,0,0,0,0,0,0,0,0,0,0,0,0,0,0,0,0,0,0,0,0,0,0,0,0,0,0,340,341,111,111,111,111,111,111,111,111,144,111,111,111,111,111,111,111,111,111,144,111,111,111,342,343,277,0,0,0,0,0,0,0,0,0,0,0,0,0,0,0,0,0,0,0,0,0,0,0,0,0,0,0,0,0,0,0,0,0,0,0,0,0,0,0,0,0,0,0,0,0,0,0,0,0,0,0,0,0,0,0,0,0,0,0,0,0,0,0,0,0,0,0,0,0,0,0,0,0,0,0,0,0,0,0,0,0,0,0,0,0,0,0,0,0,0,0,0,0,0,0,0,0,0,0,0,0,0,0,0,0,0,0,0,0,0,0,0,0,0,0,0,0,0,0,0,0,0,0,0,0,0,0,0,0,0,0,0,0,0,0,0,0,0,0,0,0,350,111,111,111,111,111,158,161,164,167,169,111,111,111,111,111,158,161,164,167,169,111,111,111,111,111,158,161,164,353,354,0,0,0,0,0,0,0,0,0,0,0,0,0,0,0,0,0,0,0,0,0,0,0,0,0,0,0,0,0,0,0,0,0,0,0,0,0,0,0,0,0,0,0,0,0,0,0,0,0,0,0,0,0,0,0,0,356,357,358,169,111,111,111,111,111,158,161,164,167,169,111,111,111,111,111,158,161,164,167,169,111,111,359,360,0,0,0,0,0,0,0,0,0,0,0,0,0,0,0,0,0,0,0,0,0,0,0,0,0,0,0,0,0,0,0,0,0,0,0,0,0,0,0,0,0,0,0,0,0,0,0,0,0,0,0,0,0,0,0,0,0,0,0,364,365,366,367,368,369,370,371,372,373,374,375,376,0,0,0,0,0,0,0,0,0,0,0,0,0,0,0,0,0,0,0,0,0,0,0,0,0,0,0,0,0,0,0,0,0,0,0,0,0,0,0,0,0,0,0,0,0,0,0,0,0,0,0,0,0,0,0,0,0,0,0,0,0,0,0,0,0,0,0,0,0,380,381,111,111,111,111,111,111,111,111,111,111,111,111,111,111,111,111,111,111,111,111,111,111,111,111,111,111,111,382,383,0,0,0,0,0,0,0,0,0,0,0,0,0,0,0,0,0,0,0,0,0,0,0,0,0,0,0,0,0,0,0,0,0,0,0,0,0,0,0,0,0,0,0,0,0,0,0,0,0,0,0,0,0,0,0,0,386,387,111,111,111,111,111,111,111,111,111,111,111,111,111,111,111,111,111,111,111,111,111,111,111,111,111,388,389,0,0,0,0,0,0,0,0,0,0,0,0,0,0,0,0,0,0,0,0,0,0,0,0,0,0,0,0,0,0,0,0,0,0,0,0,0,0,0,0,0,0,0,0,0,0,0,0,0,0,0,0,0,0,391,392,393,394,395,396,397,111,111,111,111,111,111,111,111,398,399,400,401,0,0,0,0,0,0,0,0,0,0,0,0,0,0,0,0,0,0,0,0,0,0,0,0,0,0,0,0,0,0,0,0,0,0,0,0,0,0,0,0,0,0,0,0,0,0,0,0,0,0,0,0,0,0,0,0,0,0,0,0,0,0,0,0,0,0,0,405,406,304,111,111,111,111,111,111,111,111,111,111,111,111,111,111,111,111,111,111,111,111,111,111,111,111,111,407,408,409,0,0,0,0,0,0,0,0,0,0,0,0,0,0,0,0,0,0,0,0,0,0,0,0,0,0,0,0,0,0,0,0,0,0,0,0,0,0,0,0,0,0,0,0,0,0,0,0,0,0,0,0,0,0,0,0,412,111,111,111,111,111,111,111,111,111,111,111,111,111,111,111,111,111,111,111,111,111,111,111,111,111,111,170,413,414,0,0,0,0,0,0,0,0,0,0,0,0,0,0,0,0,0,0,0,0,0,0,0,0,0,0,0,0,0,0,0,0,0,0,0,0,0,0,0,0,0,0,0,0,0,0,0,0,0,0,416,417,418,419,420,421,111,111,111,111,111,111,111,111,111,111,111,111,111,111,422,423,424,0,0,0,0,0,0,0,0,0,0,0,0,0,0,0,0,0,0,0,0,0,0,0,0,0,0,0,0,0,0,0,0,0,0,0,0,0,0,0,0,0,0,0,0,0,0,0,0,0,0,0,0,0,0,0,0,0,0,0,0,0,0,0,0,0,0,0,429,430,111,111,111,111,111,111,111,111,111,111,111,111,111,111,111,111,111,111,111,111,111,111,111,111,111,431,432,0,0,0,0,0,0,0,0,0,0,0,0,0,0,0,0,0,0,0,0,0,0,0,0,0,0,0,0,0,0,0,0,0,0,0,0,0,0,0,0,0,0,0,0,0,0,0,0,0,0,0,0,0,0,0,0,435,436,111,111,111,111,111,111,111,111,111,111,111,111,111,111,111,111,111,111,111,111,111,111,111,111,111,111,111,437,438,0,0,0,0,0,0,0,0,0,0,0,0,0,0,0,0,0,0,0,0,0,0,0,0,0,0,0,0,0,0,0,0,0,0,0,0,0,0,0,0,0,0,0,0,0,0,0,0,440,441,442,443,111,111,111,111,111,111,111,111,111,111,111,111,111,111,111,111,111,111,111,170,444,445,0,0,0,0,0,0,0,0,0,0,0,0,0,0,0,0,0,0,0,0,0,0,0,0,0,0,0,0,0,0,0,0,0,0,0,0,0,0,0,0,0,0,0,0,0,0,0,0,0,0,0,0,0,0,0,0,0,0,0,0,0,0,0,0,0,0,0,450,451,111,111,111,111,111,111,111,111,111,111,111,111,111,111,111,111,111,111,111,111,111,111,111,452,453,0,0,0,0,0,0,0,0,0,0,0,0,0,0,0,0,0,0,0,0,0,0,0,0,0,0,0,0,0,0,0,0,0,0,0,0,0,0,0,0,0,0,0,0,0,0,0,0,0,0,0,0,0,0,0,0,0,456,457,111,111,111,111,111,111,111,111,111,111,111,111,111,111,111,111,111,111,111,111,111,111,111,111,111,111,111,111,458,459,0,0,0,0,0,0,0,0,0,0,0,0,0,0,0,0,0,0,0,0,0,0,0,0,0,0,0,0,0,0,0,0,0,0,0,0,0,0,0,0,0,0,0,0,0,0,463,464,465,111,111,111,111,111,144,111,111,111,111,111,111,111,111,111,144,111,111,111,111,111,111,111,466,467,330,0,0,0,0,0,0,0,0,0,0,0,0,0,0,0,0,0,0,0,0,0,0,0,0,0,0,0,0,0,0,0,0,0,0,0,0,0,0,0,0,0,0,0,0,0,0,0,0,0,0,0,0,0,0,0,0,0,0,0,0,0,0,0,0,0,0,472,473,111,111,111,111,111,111,111,111,111,111,111,144,111,111,111,111,111,111,111,111,474,475,476,409,0,0,0,0,0,0,0,0,0,0,0,0,0,0,0,0,0,0,0,0,0,0,0,0,0,0,0,0,0,0,0,0,0,0,0,0,0,0,0,0,0,0,0,0,0,0,0,0,0,0,0,0,0,0,0,0,0,479,480,111,111,111,111,111,111,111,111,144,111,111,111,111,111,111,111,111,111,144,111,111,111,111,111,111,111,111,111,483,484,0,0,0,0,0,0,0,0,0,0,0,0,0,0,0,0,0,0,0,0,0,0,0,0,0,0,0,0,0,0,0,0,0,0,0,0,0,0,0,0,0,0,0,0,0,326,486,489,235,111,111,111,111,490,164,167,169,158,235,111,111,111,111,490,164,167,169,158,235,111,111,111,111,342,491,0,0,0,0,0,0,0,0,0,0,0,0,0,0,0,0,0,0,0,0,0,0,0,0,0,0,0,0,0,0,0,0,0,0,0,0,0,0,0,0,0,0,0,0,0,0,0,0,0,0,0,0,0,0,0,0,0,0,0,0,0,0,0,0,0,0,0,496,497,498,358,169,158,235,111,111,111,111,490,164,167,169,158,235,111,111,111,499,500,501,0,0,0,0,0,0,0,0,0,0,0,0,0,0,0,0,0,0,0,0,0,0,0,0,0,0,0,0,0,0,0,0,0,0,0,0,0,0,0,0,0,0,0,0,0,0,0,0,0,0,0,0,0,0,0,0,0,0,0,303,358,169,158,235,111,111,111,111,490,164,167,169,158,235,111,111,111,111,490,164,167,169,158,235,111,111,111,111,490,234,504,0,0,0,0,0,0,0,0,0,0,0,0,0,0,0,0,0,0,0,0,0,0,0,0,0,0,0,0,0,0,0,0,0,0,0,0,0,0,0,0,0,0,0,0,0,505,506,111,111,111,111,111,111,111,111,111,111,111,111,111,111,111,111,111,111,111,111,111,111,111,111,111,111,111,507,508,0,0,0,0,0,0,0,0,0,0,0,0,0,0,0,0,0,0,0,0,0,0,0,0,0,0,0,0,0,0,0,0,0,0,0,0,0,0,0,0,0,0,0,0,0,0,0,0,0,0,0,0,0,0,0,0,0,0,0,0,0,0,0,0,0,0,0,519,520,521,522,111,111,111,111,111,111,111,111,111,111,111,111,523,524,525,526,527,0,0,0,0,0,0,0,0,0,0,0,0,0,0,0,0,0,0,0,0,0,0,0,0,0,0,0,0,0,0,0,0,0,0,0,0,0,0,0,0,0,0,0,0,0,0,0,0,0,0,0,0,0,0,0,0,0,0,0,0,303,111,111,111,111,111,111,111,111,111,111,111,111,111,111,111,111,111,111,111,111,111,111,111,111,111,111,111,111,111,111,530,0,0,0,0,0,0,0,0,0,0,0,0,0,0,0,0,0,0,0,0,0,0,0,0,0,0,0,0,0,0,0,0,0,0,0,0,0,0,0,0,0,0,0,0,531,532,111,111,111,111,111,111,111,111,111,111,111,111,111,111,111,111,111,111,111,111,111,111,111,111,111,111,111,111,170,533,534,0,0,0,0,0,0,0,0,0,0,0,0,0,0,0,0,0,0,0,0,0,0,0,0,0,0,0,0,0,0,0,0,0,0,0,0,0,0,0,0,0,0,0,0,0,0,0,0,0,0,0,0,0,0,0,0,0,0,0,0,0,0,0,0,0,0,0,0,545,546,547,548,549,111,111,111,111,111,111,550,551,552,553,554,0,0,0,0,0,0,0,0,0,0,0,0,0,0,0,0,0,0,0,0,0,0,0,0,0,0,0,0,0,0,0,0,0,0,0,0,0,0,0,0,0,0,0,0,0,0,0,0,0,0,0,0,0,0,0,0,0,0,0,0,0,0,0,303,304,111,111,111,111,111,111,111,111,111,111,111,111,111,111,111,111,111,111,111,111,111,111,111,111,111,111,111,111,111,557,0,0,0,0,0,0,0,0,0,0,0,0,0,0,0,0,0,0,0,0,0,0,0,0,0,0,0,0,0,0,0,0,0,0,0,0,0,0,0,0,0,0,0,0,558,559,111,111,111,111,111,111,111,111,111,111,111,111,111,111,111,111,111,111,111,111,111,111,111,111,111,111,111,111,111,560,561,0,0,0,0,0,0,0,0,0,0,0,0,0,0,0,0,0,0,0,0,0,0,0,0,0,0,0,0,0,0,0,0,0,0,0,0,0,0,0,0,0,0,0,0,0,0,0,0,0,0,0,0,0,0,0,0,0,0,0,0,0,0,0,0,0,0,0,0,0,0,576,577,578,111,111,111,111,111,111,579,580,0,0,0,0,0,0,0,0,0,0,0,0,0,0,0,0,0,0,0,0,0,0,0,0,0,0,0,0,0,0,0,0,0,0,0,0,0,0,0,0,0,0,0,0,0,0,0,0,0,0,0,0,0,0,0,0,0,0,0,0,0,0,0,0,0,0,320,321,111,111,111,111,111,111,111,111,111,111,111,111,111,111,111,111,111,111,111,111,111,111,111,111,111,111,111,111,585,586,0,0,0,0,0,0,0,0,0,0,0,0,0,0,0,0,0,0,0,0,0,0,0,0,0,0,0,0,0,0,0,0,0,0,0,0,0,0,0,0,0,0,0,0,587,111,111,111,111,111,111,111,111,111,111,111,111,111,111,111,111,111,111,111,111,111,111,111,111,111,111,111,111,111,111,111,588,589,0,0,0,0,0,0,0,0,0,0,0,0,0,0,0,0,0,0,0,0,0,0,0,0,0,0,0,0,0,0,0,0,0,0,0,0,0,0,0,0,0,0,0,0,0,0,0,0,0,0,0,0,0,0,0,0,0,0,0,0,0,0,0,0,0,0,0,0,0,0,0,598,111,111,111,111,111,111,579,599,0,0,0,0,0,0,0,0,0,0,0,0,0,0,0,0,0,0,0,0,0,0,0,0,0,0,0,0,0,0,0,0,0,0,0,0,0,0,0,0,0,0,0,0,0,0,0,0,0,0,0,0,0,0,0,0,0,0,0,0,0,0,0,0,0,0,335,336,111,111,111,111,111,111,111,111,111,111,111,111,111,111,111,111,111,111,111,111,111,111,111,111,111,111,111,111,604,605,0,0,0,0,0,0,0,0,0,0,0,0,0,0,0,0,0,0,0,0,0,0,0,0,0,0,0,0,0,0,0,0,0,0,0,0,0,0,0,0,0,0,0,0,215,111,111,144,111,111,111,111,111,111,111,111,111,144,111,111,111,111,111,111,111,111,111,144,111,111,111,111,111,111,111,111,606,607,0,0,0,0,0,0,0,0,0,0,0,0,0,0,0,0,0,0,0,0,0,0,0,0,0,0,0,0,0,0,0,0,0,0,0,0,0,0,0,0,0,0,0,0,0,0,0,0,0,0,0,0,0,0,0,0,0,0,0,0,0,0,0,0,0,0,0,0,0,0,0,598,111,111,111,111,111,111,579,599,0,0,0,0,0,0,0,0,0,0,0,0,0,0,0,0,0,0,0,0,0,0,0,0,0,0,0,0,0,0,0,0,0,0,0,0,0,0,0,0,0,0,0,0,0,0,0,0,0,0,0,0,0,0,0,0,0,0,0,0,0,0,0,0,0,0,0,617,111,144,111,111,111,111,111,111,111,111,111,144,111,111,111,111,111,111,111,111,111,144,111,111,111,111,111,111,618,0,0,0,0,0,0,0,0,0,0,0,0,0,0,0,0,0,0,0,0,0,0,0,0,0,0,0,0,0,0,0,0,0,0,0,0,0,0,0,0,0,0,0,0,0,215,158,161,164,619,111,111,111,111,358,169,158,161,164,619,111,111,111,111,358,169,158,161,164,619,111,111,111,111,358,169,158,235,620,0,0,0,0,0,0,0,0,0,0,0,0,0,0,0,0,0,0,0,0,0,0,0,0,0,0,0,0,0,0,0,0,0,0,0,0,0,0,0,0,0,0,0,0,0,0,0,0,0,0,0,0,0,0,0,0,0,0,0,0,0,0,0,0,0,0,0,0,0,0,0,598,111,111,111,358,169,158,628,599,0,0,0,0,0,0,0,0,0,0,0,0,0,0,0,0,0,0,0,0,0,0,0,0,0,0,0,0,0,0,0,0,0,0,0,0,0,0,0,0,0,0,0,0,0,0,0,0,0,0,0,0,0,0,0,0,0,0,0,0,0,0,0,0,0,0,0,631,634,164,619,111,111,111,111,358,169,158,161,164,619,111,111,111,111,358,169,158,161,164,619,111,111,111,111,635,636,0,0,0,0,0,0,0,0,0,0,0,0,0,0,0,0,0,0,0,0,0,0,0,0,0,0,0,0,0,0,0,0,0,0,0,0,0,0,0,0,0,0,0,0,0,215,111,111,111,111,111,111,111,111,111,111,111,111,111,111,111,111,111,111,111,111,111,111,111,111,111,111,111,111,111,111,111,111,637,0,0,0,0,0,0,0,0,0,0,0,0,0,0,0,0,0,0,0,0,0,0,0,0,0,0,0,0,0,0,0,0,0,0,0,0,0,0,0,0,0,0,0,0,0,0,0,0,0,0,0,0,0,0,0,0,0,0,0,0,0,0,0,0,0,0,0,0,0,0,0,598,111,111,111,111,111,111,579,599,0,0,0,0,0,0,0,0,0,0,0,0,0,0,0,0,0,0,0,0,0,0,0,0,0,0,0,0,0,0,0,0,0,0,0,0,0,0,0,0,0,0,0,0,0,0,0,0,0,0,0,0,0,0,0,0,0,0,0,0,0,0,0,0,0,0,0,645,646,111,111,111,111,111,111,111,111,111,111,111,111,111,111,111,111,111,111,111,111,111,111,111,111,111,474,647,648,0,0,0,0,0,0,0,0,0,0,0,0,0,0,0,0,0,0,0,0,0,0,0,0,0,0,0,0,0,0,0,0,0,0,0,0,0,0,0,0,0,0,0,0,0,649,111,111,111,111,111,111,111,111,111,111,111,111,111,111,111,111,111,111,111,111,111,111,111,111,111,111,111,111,111,111,111,111,637,0,0,0,0,0,0,0,0,0,0,0,0,0,0,0,0,0,0,0,0,0,0,0,0,0,0,0,0,0,0,0,0,0,0,0,0,0,0,0,0,0,0,0,0,0,0,0,0,0,0,0,0,0,0,0,0,0,0,0,0,0,0,0,0,0,0,0,0,0,0,0,598,111,111,111,111,111,111,579,599,0,0,0,0,0,0,0,0,0,0,0,0,0,0,0,0,0,0,0,0,0,0,0,0,0,0,0,0,0,0,0,0,0,0,0,0,0,0,0,0,0,0,0,0,0,0,0,0,0,0,0,0,0,0,0,0,0,0,0,0,0,0,0,0,0,0,0,0,651,652,111,111,111,111,111,111,111,111,111,111,111,111,111,111,111,111,111,111,111,111,111,111,111,111,653,654,0,0,0,0,0,0,0,0,0,0,0,0,0,0,0,0,0,0,0,0,0,0,0,0,0,0,0,0,0,0,0,0,0,0,0,0,0,0,0,0,0,0,0,0,0,0,655,111,111,111,111,111,111,111,111,111,111,111,111,111,111,111,111,111,111,111,111,111,111,111,111,111,111,111,111,111,111,111,111,656,0,0,0,0,0,0,0,0,0,0,0,0,0,0,0,0,0,0,0,0,0,0,0,0,0,0,0,0,0,0,0,0,0,0,0,0,0,0,0,0,0,0,0,0,0,0,0,0,0,0,0,0,0,0,0,0,0,0,0,0,0,0,0,0,0,0,0,0,0,0,0,598,111,111,111,111,111,111,579,599,0,0,0,0,0,0,0,0,0,0,0,0,0,0,0,0,0,0,0,0,0,0,0,0,0,0,0,0,0,0,0,0,0,0,0,0,0,0,0,0,0,0,0,0,0,0,0,0,0,0,0,0,0,0,0,0,0,0,0,0,0,0,0,0,0,0,0,0,664,665,111,111,111,111,111,111,111,111,111,111,111,111,111,111,111,111,111,111,111,111,111,111,111,666,667,0,0,0,0,0,0,0,0,0,0,0,0,0,0,0,0,0,0,0,0,0,0,0,0,0,0,0,0,0,0,0,0,0,0,0,0,0,0,0,0,0,0,0,0,0,0,0,668,669,111,111,111,111,111,111,111,111,111,111,111,111,111,111,111,111,111,111,111,111,111,111,111,111,111,111,111,111,111,111,111,670,0,0,0,0,0,0,0,0,0,0,0,0,0,0,0,0,0,0,0,0,0,0,0,0,0,0,0,0,0,0,0,0,0,0,0,0,0,0,0,0,0,0,0,0,0,0,0,0,0,0,0,0,0,0,0,0,0,0,0,0,0,0,0,0,0,0,0,0,0,0,0,598,111,111,111,111,111,111,579,599,0,0,0,0,0,0,0,0,0,0,0,0,0,0,0,0,0,0,0,0,0,0,0,0,0,0,0,0,0,0,0,0,0,0,0,0,0,0,0,0,0,0,0,0,0,0,0,0,0,0,0,0,0,0,0,0,0,0,0,0,0,0,0,0,0,0,0,0,0,672,673,111,111,111,111,111,111,111,111,111,111,111,111,111,111,111,111,111,111,111,111,111,674,675,676,0,0,0,0,0,0,0,0,0,0,0,0,0,0,0,0,0,0,0,0,0,0,0,0,0,0,0,0,0,0,0,0,0,0,0,0,0,0,0,0,0,0,0,0,0,0,0,677,678,111,111,111,111,111,111,111,111,111,144,111,111,111,111,111,111,111,111,111,144,111,111,111,111,111,111,111,111,111,144,679,680,0,0,0,0,0,0,0,0,0,0,0,0,0,0,0,0,0,0,0,0,0,0,0,0,0,0,0,0,0,0,0,0,0,0,0,0,0,0,0,0,0,0,0,0,0,0,0,0,0,0,0,0,0,0,0,0,0,0,0,0,0,0,0,0,0,0,0,0,0,0,0,681,111,111,111,111,111,144,579,599,0,0,0,0,0,0,0,0,0,0,0,0,0,0,0,0,0,0,0,0,0,0,0,0,0,0,0,0,0,0,0,0,0,0,0,0,0,0,0,0,0,0,0,0,0,0,0,0,0,0,0,0,0,0,0,0,0,0,0,0,0,0,0,0,0,0,0,0,0,682,683,684,111,111,111,111,111,144,111,111,111,111,111,111,111,111,111,144,111,111,111,685,686,687,0,0,0,0,0,0,0,0,0,0,0,0,0,0,0,0,0,0,0,0,0,0,0,0,0,0,0,0,0,0,0,0,0,0,0,0,0,0,0,0,0,0,0,0,0,0,0,0,0,688,690,169,111,111,111,111,111,158,161,164,167,169,111,111,111,111,111,158,161,164,167,169,111,111,111,111,111,158,161,234,691,692,0,0,0,0,0,0,0,0,0,0,0,0,0,0,0,0,0,0,0,0,0,0,0,0,0,0,0,0,0,0,0,0,0,0,0,0,0,0,0,0,0,0,0,0,0,0,0,0,0,0,0,0,0,0,0,0,0,0,0,0,0,0,0,0,0,0,0,0,0,0,0,693,111,111,111,158,161,164,695,599,0,0,0,0,0,0,0,0,0,0,0,0,0,0,0,0,0,0,0,0,0,0,0,0,0,0,0,0,0,0,0,0,0,0,0,0,0,0,0,0,0,0,0,0,0,0,0,0,0,0,0,0,0,0,0,0,0,0,0,0,0,0,0,0,0,0,0,0,0,0,696,697,698,111,111,158,161,164,167,169,111,111,111,111,111,158,161,164,167,169,699,700,701,0,0,0,0,0,0,0,0,0,0,0,0,0,0,0,0,0,0,0,0,0,0,0,0,0,0,0,0,0,0,0,0,0,0,0,0,0,0,0,0,0,0,0,0,0,0,0,0,0,0,702,703,111,111,111,111,111,111,111,111,111,111,111,111,111,111,111,111,111,111,111,111,111,111,111,111,111,111,111,111,111,704,0,0,0,0,0,0,0,0,0,0,0,0,0,0,0,0,0,0,0,0,0,0,0,0,0,0,0,0,0,0,0,0,0,0,0,0,0,0,0,0,0,0,0,0,0,0,0,0,0,0,0,0,0,0,0,0,0,0,0,0,0,0,0,0,0,0,0,0,0,0,0,0,707,712,713,713,713,713,718,721,599,0,0,0,0,0,0,0,0,0,0,0,0,0,0,0,0,0,0,0,0,0,0,0,0,0,0,0,0,0,0,0,0,0,0,0,0,0,0,0,0,0,0,0,0,0,0,0,0,0,0,0,0,0,0,0,0,0,0,0,0,0,0,0,0,0,0,0,0,0,0,0,722,723,698,111,111,111,111,111,111,111,111,111,111,111,111,111,111,111,724,725,726,0,0,0,0,0,0,0,0,0,0,0,0,0,0,0,0,0,0,0,0,0,0,0,0,0,0,0,0,0,0,0,0,0,0,0,0,0,0,0,0,0,0,0,0,0,0,0,0,0,0,0,0,727,728,111,111,111,111,111,111,111,111,111,111,111,111,111,111,111,111,111,111,111,111,111,111,111,111,111,111,111,729,730,0,0,0,0,0,0,0,0,0,0,0,0,0,0,0,0,0,0,0,0,0,0,0,0,0,0,0,0,0,0,0,0,0,0,0,0,0,0,0,0,0,0,0,0,0,0,0,0,0,0,0,0,0,0,0,0,0,0,0,0,0,0,0,0,0,0,0,0,0,0,0,0,734,739,742,745,742,745,750,754,755,0,0,0,0,0,0,0,0,0,0,0,0,0,0,0,0,0,0,0,0,0,0,0,0,0,0,0,0,0,0,0,0,0,0,0,0,0,0,0,0,0,0,0,0,0,0,0,0,0,0,0,0,0,0,0,0,0,0,0,0,0,0,0,0,0,0,0,0,0,0,0,0,757,758,759,111,111,111,111,111,111,111,111,111,111,111,111,111,111,760,761,0,0,0,0,0,0,0,0,0,0,0,0,0,0,0,0,0,0,0,0,0,0,0,0,0,0,0,0,0,0,0,0,0,0,0,0,0,0,0,0,0,0,0,0,0,0,0,0,0,0,0,0,0,682,762,763,111,111,111,111,111,111,111,111,111,111,111,111,111,111,111,111,111,111,111,111,111,111,111,111,111,474,647,648,0,0,0,0,0,0,0,0,0,0,0,0,0,0,0,0,0,0,0,0,0,0,0,0,0,0,0,0,0,0,0,0,0,0,0,0,0,0,0,0,0,0,0,0,0,0,0,0,0,0,0,0,0,0,0,0,0,0,0,0,0,0,0,0,0,0,0,0,0,0,0,0,768,773,778,783,788,783,793,798,0,0,0,0,0,0,0,0,0,0,0,0,0,0,0,0,0,0,0,0,0,0,0,0,0,0,0,0,0,0,0,0,0,0,0,0,0,0,0,0,0,0,0,0,0,0,0,0,0,0,0,0,0,0,0,0,0,0,0,0,0,0,0,0,0,0,0,0,0,0,0,0,0,0,800,801,802,803,804,805,806,805,807,808,809,111,111,111,111,111,810,811,0,0,0,0,0,0,0,0,0,0,0,0,0,0,0,0,0,0,0,0,0,0,0,0,0,0,0,0,0,0,0,0,0,0,0,0,0,0,0,0,0,0,0,0,0,0,0,0,0,0,0,0,0,0,664,812,813,111,111,111,111,111,111,111,111,111,111,111,111,111,111,111,111,111,111,111,111,111,111,111,111,814,815,0,0,0,0,0,0,0,0,0,0,0,0,0,0,0,0,0,0,0,0,0,0,0,0,0,0,0,0,0,0,0,0,0,0,0,0,0,0,0,0,0,0,0,0,0,0,0,0,0,0,0,0,0,0,0,0,0,0,0,0,0,0,0,0,0,0,0,0,0,0,0,0,0,820,825,830,835,840,835,830,845,0,0,0,0,0,0,0,0,0,0,0,0,0,0,0,0,0,0,0,0,0,0,0,0,0,0,0,0,0,0,0,0,0,0,0,0,0,0,0,0,0,0,0,0,0,0,0,0,0,0,0,0,0,0,0,0,0,0,0,0,0,0,0,0,0,0,0,0,0,0,0,0,0,0,0,0,0,848,849,850,851,852,853,854,855,111,111,111,111,111,856,857,0,0,0,0,0,0,0,0,0,0,0,0,0,0,0,0,0,0,0,0,0,0,0,0,0,0,0,0,0,0,0,0,0,0,0,0,0,0,0,0,0,0,0,0,0,0,0,0,0,0,0,0,0,0,0,858,859,860,111,111,111,111,111,111,111,144,111,111,111,111,111,111,111,111,111,144,111,111,111,111,452,861,0,0,0,0,0,0,0,0,0,0,0,0,0,0,0,0,0,0,0,0,0,0,0,0,0,0,0,0,0,0,0,0,0,0,0,0,0,0,0,0,0,0,0,0,0,0,0,0,0,0,0,0,0,0,0,0,0,0,0,0,0,0,0,0,0,0,0,0,0,0,0,0,0,0,866,871,876,881,886,881,876,891,0,0,0,0,0,0,0,0,0,0,0,0,0,0,0,0,0,0,0,0,0,0,0,0,0,0,0,0,0,0,0,0,0,0,0,0,0,0,0,0,0,0,0,0,0,0,0,0,0,0,0,0,0,0,0,0,0,0,0,0,0,0,0,0,0,0,0,0,0,0,0,0,0,0,0,0,0,0,0,0,0,0,0,0,893,111,111,111,111,111,111,894,0,0,0,0,0,0,0,0,0,0,0,0,0,0,0,0,0,0,0,0,0,0,0,0,0,0,0,0,0,0,0,0,0,0,0,0,0,0,0,0,0,0,0,0,0,0,0,0,0,0,0,0,0,0,0,0,895,896,897,111,233,167,169,158,161,234,111,111,111,111,233,167,169,158,161,234,111,111,111,898,476,409,0,0,0,0,0,0,0,0,0,0,0,0,0,0,0,0,0,0,0,0,0,0,0,0,0,0,0,0,0,0,0,0,0,0,0,0,0,0,0,0,0,0,0,0,0,0,0,0,0,0,0,0,0,0,0,0,0,0,0,0,0,0,0,0,0,0,0,0,0,0,0,0,0,0,904,909,914,919,924,919,914,929,0,0,0,0,0,0,0,0,0,0,0,0,0,0,0,0,0,0,0,0,0,0,0,0,0,0,0,0,0,0,0,0,0,0,0,0,0,0,0,0,0,0,0,0,0,0,0,0,0,0,0,0,0,0,0,0,0,0,0,0,0,0,0,0,0,0,0,0,0,0,0,0,0,0,0,0,0,0,0,0,0,0,0,0,931,111,233,167,169,158,235,932,0,0,0,0,0,0,0,0,0,0,0,0,0,0,0,0,0,0,0,0,0,0,0,0,0,0,0,0,0,0,0,0,0,0,0,0,0,0,0,0,0,0,0,0,0,0,0,0,0,0,0,0,0,0,0,0,0,940,762,941,111,111,111,111,111,111,111,111,111,111,111,111,111,111,111,111,111,685,942,943,409,0,0,0,0,0,0,0,0,0,0,0,0,0,0,0,0,0,0,0,0,0,0,0,0,0,0,0,0,0,0,0,0,0,0,0,0,0,0,0,0,0,0,0,0,0,0,0,0,0,0,0,0,0,0,0,0,0,0,0,0,0,0,0,0,0,0,0,0,0,0,0,0,0,0,0,954,959,964,969,974,969,964,979,0,0,0,0,0,0,0,0,0,0,0,0,0,0,0,0,0,0,0,0,0,0,0,0,0,0,0,0,0,0,0,0,0,0,0,0,0,0,0,0,0,0,0,0,0,0,0,0,0,0,0,0,0,0,0,0,0,0,0,0,0,0,0,0,0,0,0,0,0,0,0,0,0,0,0,0,0,0,0,0,0,0,0,0,983,111,111,111,111,111,407,984,0,0,0,0,0,0,0,0,0,0,0,0,0,0,0,0,0,0,0,0,0,0,0,0,0,0,0,0,0,0,0,0,0,0,0,0,0,0,0,0,0,0,0,0,0,0,0,0,0,0,0,0,0,0,0,0,0,0,940,991,992,304,111,111,111,111,111,111,111,111,111,111,111,111,111,993,994,995,996,0,0,0,0,0,0,0,0,0,0,0,0,0,0,0,0,0,0,0,0,0,0,0,0,0,0,0,0,0,0,0,0,0,0,0,0,0,0,0,0,0,0,0,0,0,0,0,0,0,0,0,0,0,0,0,0,0,0,0,0,0,0,0,0,0,0,0,0,0,0,0,0,0,0,0,0,0,1011,1016,1021,1026,1031,1026,1021,1036,0,0,0,0,0,0,0,0,0,0,0,0,0,0,0,0,0,0,0,0,0,0,0,0,0,0,0,0,0,0,0,0,0,0,0,0,0,0,0,0,0,0,0,0,0,0,0,0,0,0,0,0,0,0,0,0,0,0,0,0,0,0,0,0,0,0,0,0,0,0,0,0,0,0,0,0,0,0,0,0,0,0,0,270,1039,111,111,111,111,111,1040,1041,0,0,0,0,0,0,0,0,0,0,0,0,0,0,0,0,0,0,0,0,0,0,0,0,0,0,0,0,0,0,0,0,0,0,0,0,0,0,0,0,0,0,0,0,0,0,0,0,0,0,0,0,0,0,0,0,0,0,0,0,1043,1044,1045,111,111,111,111,111,111,111,111,111,111,1046,1047,1048,1049,0,0,0,0,0,0,0,0,0,0,0,0,0,0,0,0,0,0,0,0,0,0,0,0,0,0,0,0,0,0,0,0,0,0,0,0,0,0,0,0,0,0,0,0,0,0,0,0,0,0,0,0,0,0,0,0,0,0,0,0,0,0,0,0,0,0,0,0,0,0,0,0,0,0,0,0,0,0,0,1056,1061,1066,1071,1076,1071,1066,1081,0,0,0,0,0,0,0,0,0,0,0,0,0,0,0,0,0,0,0,0,0,0,0,0,0,0,0,0,0,0,0,0,0,0,0,0,0,0,0,0,0,0,0,0,0,0,0,0,0,0,0,0,0,0,0,0,0,0,0,0,0,0,0,0,0,0,0,0,0,0,0,0,0,0,0,0,0,0,0,0,0,0,0,1083,1084,111,111,111,111,111,1085,1086,0,0,0,0,0,0,0,0,0,0,0,0,0,0,0,0,0,0,0,0,0,0,0,0,0,0,0,0,0,0,0,0,0,0,0,0,0,0,0,0,0,0,0,0,0,0,0,0,0,0,0,0,0,0,0,0,0,0,0,0,0,940,1087,111,111,111,111,111,111,993,1088,1089,1090,1091,1092,0,0,0,0,0,0,0,0,0,0,0,0,0,0,0,0,0,0,0,0,0,0,0,0,0,0,0,0,0,0,0,0,0,0,0,0,0,0,0,0,0,0,0,0,0,0,0,0,0,0,0,0,0,0,0,0,0,0,0,0,0,0,0,0,0,0,0,0,0,0,0,0,0,0,0,0,0,0,0,0,0,1100,1105,1110,1115,1120,1115,1110,1125,0,0,0,0,0,0,0,0,0,0,0,0,0,0,0,0,0,0,0,0,0,0,0,0,0,0,0,0,0,0,0,0,0,0,0,0,0,0,0,0,0,0,0,0,0,0,0,0,0,0,0,0,0,0,0,0,0,0,0,0,0,0,0,0,0,0,0,0,0,0,0,0,0,0,0,0,0,0,0,0,0,0,0,1127,1128,111,111,111,111,111,1129,1130,0,0,0,0,0,0,0,0,0,0,0,0,0,0,0,0,0,0,0,0,0,0,0,0,0,0,0,0,0,0,0,0,0,0,0,0,0,0,0,0,0,0,0,0,0,0,0,0,0,0,0,0,0,0,0,0,0,0,0,0,0,1132,1133,111,111,111,111,111,1134,1135,1136,854,409,0,0,0,0,0,0,0,0,0,0,0,0,0,0,0,0,0,0,0,0,0,0,0,0,0,0,0,0,0,0,0,0,0,0,0,0,0,0,0,0,0,0,0,0,0,0,0,0,0,0,0,0,0,0,0,0,0,0,0,0,0,0,0,0,0,0,0,0,0,0,0,0,0,0,0,0,0,0,0,0,0,0,0,954,959,964,969,974,969,964,979,0,0,0,0,0,0,0,0,0,0,0,0,0,0,0,0,0,0,0,0,0,0,0,0,0,0,0,0,0,0,0,0,0,0,0,0,0,0,0,0,0,0,0,0,0,0,0,0,0,0,0,0,0,0,0,0,0,0,0,0,0,0,0,0,0,0,0,0,0,0,0,0,0,0,0,0,0,0,0,0,0,0,270,1141,111,111,111,111,111,144,1142,0,0,0,0,0,0,0,0,0,0,0,0,0,0,0,0,0,0,0,0,0,0,0,0,0,0,0,0,0,0,0,0,0,0,0,0,0,0,0,0,0,0,0,0,0,0,0,0,0,0,0,0,0,0,0,0,0,0,0,0,0,0,1144,1145,233,167,169,111,111,1146,1147,0,0,0,0,0,0,0,0,0,0,0,0,0,0,0,0,0,0,0,0,0,0,0,0,0,0,0,0,0,0,0,0,0,0,0,0,0,0,0,0,0,0,0,0,0,0,0,0,0,0,0,0,0,0,0,0,0,0,0,0,0,0,0,0,0,0,0,0,0,0,0,0,0,0,0,0,0,0,0,0,0,0,0,0,0,0,1011,1016,1021,1026,1031,1026,1021,1036,0,0,0,0,0,0,0,0,0,0,0,0,0,0,0,0,0,0,0,0,0,0,0,0,0,0,0,0,0,0,0,0,0,0,0,0,0,0,0,0,0,0,0,0,0,0,0,0,0,0,0,0,0,0,0,0,0,0,0,0,0,0,0,0,0,0,0,0,0,0,0,0,0,0,0,0,0,0,0,0,0,0,1152,1153,111,111,111,158,161,1156,1157,0,0,0,0,0,0,0,0,0,0,0,0,0,0,0,0,0,0,0,0,0,0,0,0,0,0,0,0,0,0,0,0,0,0,0,0,0,0,0,0,0,0,0,0,0,0,0,0,0,0,0,0,0,0,0,0,0,0,0,0,0,0,1167,1168,111,111,111,111,111,1169,0,0,0,0,0,0,0,0,0,0,0,0,0,0,0,0,0,0,0,0,0,0,0,0,0,0,0,0,0,0,0,0,0,0,0,0,0,0,0,0,0,0,0,0,0,0,0,0,0,0,0,0,0,0,0,0,0,0,0,0,0,0,0,0,0,0,0,0,0,0,0,0,0,0,0,0,0,0,0,0,0,0,0,0,0,0,0,1056,1061,1066,1071,1076,1071,1066,1081,0,0,0,0,0,0,0,0,0,0,0,0,0,0,0,0,0,0,0,0,0,0,0,0,0,0,0,0,0,0,0,0,0,0,0,0,0,0,0,0,0,0,0,0,0,0,0,0,0,0,0,0,0,0,0,0,0,0,0,0,0,0,0,0,0,0,0,0,0,0,0,0,0,0,0,0,0,0,0,0,0,0,1172,1173,111,111,111,111,111,1174,1175,0,0,0,0,0,0,0,0,0,0,0,0,0,0,0,0,0,0,0,0,0,0,0,0,0,0,0,0,0,0,0,0,0,0,0,0,0,0,0,0,0,0,0,0,0,0,0,0,0,0,0,0,0,0,0,0,0,0,0,0,0,0,1183,1184,111,111,111,111,111,1185,0,0,0,0,0,0,0,0,0,0,0,0,0,0,0,0,0,0,0,0,0,0,0,0,0,0,0,0,0,0,0,0,0,0,0,0,0,0,0,0,0,0,0,0,0,0,0,0,0,0,0,0,0,0,0,0,0,0,0,0,0,0,0,0,0,0,0,0,0,0,0,0,0,0,0,0,0,0,0,0,0,0,0,0,0,0,0,1100,1105,1110,1115,1120,1115,1110,1125,0,0,0,0,0,0,0,0,0,0,0,0,0,0,0,0,0,0,0,0,0,0,0,0,0,0,0,0,0,0,0,0,0,0,0,0,0,0,0,0,0,0,0,0,0,0,0,0,0,0,0,0,0,0,0,0,0,0,0,0,0,0,0,0,0,0,0,0,0,0,0,0,0,0,0,0,0,0,0,0,0,435,1188,111,111,111,111,111,1189,1190,0,0,0,0,0,0,0,0,0,0,0,0,0,0,0,0,0,0,0,0,0,0,0,0,0,0,0,0,0,0,0,0,0,0,0,0,0,0,0,0,0,0,0,0,0,0,0,0,0,0,0,0,0,0,0,0,0,0,0,0,0,0,0,1192,1193,111,111,111,111,111,1194,0,0,0,0,0,0,0,0,0,0,0,0,0,0,0,0,0,0,0,0,0,0,0,0,0,0,0,0,0,0,0,0,0,0,0,0,0,0,0,0,0,0,0,0,0,0,0,0,0,0,0,0,0,0,0,0,0,0,0,0,0,0,0,0,0,0,0,0,0,0,0,0,0,0,0,0,0,0,0,0,0,0,0,0,0,0,0,1198,1203,1207,1211,1215,1211,1207,1218,0,0,0,0,0,0,0,0,0,0,0,0,0,0,0,0,0,0,0,0,0,0,0,0,0,0,0,0,0,0,0,0,0,0,0,0,0,0,0,0,0,0,0,0,0,0,0,0,0,0,0,0,0,0,0,0,0,0,0,0,0,0,0,0,0,0,0,0,0,0,0,0,0,0,0,0,0,0,0,0,0,1219,1220,111,111,111,111,111,1221,1222,0,0,0,0,0,0,0,0,0,0,0,0,0,0,0,0,0,0,0,0,0,0,0,0,0,0,0,0,0,0,0,0,0,0,0,0,0,0,0,0,0,0,0,0,0,0,0,0,0,0,0,0,0,0,0,0,0,0,0,0,0,0,0,1225,1226,111,111,111,111,111,1227,0,0,0,0,0,0,0,0,0,0,0,0,0,0,0,0,0,0,0,0,0,0,0,0,0,0,0,0,0,0,0,0,0,0,0,0,0,0,0,0,0,0,0,0,0,0,0,0,0,0,0,0,0,0,0,0,0,0,0,0,0,0,0,0,0,0,0,0,0,0,0,0,0,0,0,0,0,0,0,0,0,0,0,0,0,0,0,1234,1239,1243,1246,1250,1246,1243,1254,0,0,0,0,0,0,0,0,0,0,0,0,0,0,0,0,0,0,0,0,0,0,0,0,0,0,0,0,0,0,0,0,0,0,0,0,0,0,0,0,0,0,0,0,0,0,0,0,0,0,0,0,0,0,0,0,0,0,0,0,0,0,0,0,0,0,0,0,0,0,0,0,0,0,0,0,0,0,0,0,0,1255,111,111,111,111,111,111,1256,755,0,0,0,0,0,0,0,0,0,0,0,0,0,0,0,0,0,0,0,0,0,0,0,0,0,0,0,0,0,0,0,0,0,0,0,0,0,0,0,0,0,0,0,0,0,0,0,0,0,0,0,0,0,0,0,0,0,0,0,0,0,0,0,1259,1260,111,111,111,111,111,1261,1262,0,0,0,0,0,0,0,0,0,0,0,0,0,0,0,0,0,0,0,0,0,0,0,0,0,0,0,0,0,0,0,0,0,0,0,0,0,0,0,0,0,0,0,0,0,0,0,0,0,0,0,0,0,0,0,0,0,0,0,0,0,0,0,0,0,0,0,0,0,0,0,0,0,0,0,0,0,0,0,0,0,0,0,0,0,0,1265,1266,111,111,111,144,111,1267,343,277,0,0,0,0,0,0,0,0,0,0,0,0,0,0,0,0,0,0,0,0,0,0,0,0,0,0,0,0,0,0,0,0,0,0,0,0,0,0,0,0,0,0,0,0,0,0,0,0,0,0,0,0,0,0,0,0,0,0,0,0,0,0,0,0,0,0,0,0,0,0,0,0,0,0,0,0,0,0,1268,1269,111,111,111,111,111,1271,1272,0,0,0,0,0,0,0,0,0,0,0,0,0,0,0,0,0,0,0,0,0,0,0,0,0,0,0,0,0,0,0,0,0,0,0,0,0,0,0,0,0,0,0,0,0,0,0,0,0,0,0,0,0,0,0,0,0,0,0,0,0,0,0,0,1275,1276,111,158,235,111,111,1277,1278,0,0,0,0,0,0,0,0,0,0,0,0,0,0,0,0,0,0,0,0,0,0,0,0,0,0,0,0,0,0,0,0,0,0,0,0,0,0,0,0,0,0,0,0,0,0,0,0,0,0,0,0,0,0,0,0,0,0,0,0,0,0,0,0,0,0,0,0,0,0,0,0,0,0,0,0,0,0,0,0,0,0,0,0,0,0,693,111,111,111,490,164,167,169,1282,1283,1284,0,0,0,0,0,0,0,0,0,0,0,0,0,0,0,0,0,0,0,0,0,0,0,0,0,0,0,0,0,0,0,0,0,0,0,0,0,0,0,0,0,0,0,0,0,0,0,0,0,0,0,0,0,0,0,0,0,0,0,0,0,0,0,0,0,0,0,0,0,0,0,0,0,0,0,0,0,1183,1184,111,111,111,111,490,1287,1288,0,0,0,0,0,0,0,0,0,0,0,0,0,0,0,0,0,0,0,0,0,0,0,0,0,0,0,0,0,0,0,0,0,0,0,0,0,0,0,0,0,0,0,0,0,0,0,0,0,0,0,0,0,0,0,0,0,0,0,0,0,0,0,0,682,1291,111,111,111,111,111,1292,1293,0,0,0,0,0,0,0,0,0,0,0,0,0,0,0,0,0,0,0,0,0,0,0,0,0,0,0,0,0,0,0,0,0,0,0,0,0,0,0,0,0,0,0,0,0,0,0,0,0,0,0,0,0,0,0,0,0,0,0,0,0,0,0,0,0,0,0,0,0,0,0,0,0,0,0,0,0,0,0,0,0,0,0,0,0,0,1297,111,111,111,111,111,111,111,111,1298,1299,1300,0,0,0,0,0,0,0,0,0,0,0,0,0,0,0,0,0,0,0,0,0,0,0,0,0,0,0,0,0,0,0,0,0,0,0,0,0,0,0,0,0,0,0,0,0,0,0,0,0,0,0,0,0,0,0,0,0,0,0,0,0,0,0,0,0,0,0,0,0,0,0,0,0,0,0,0,707,712,713,713,713,713,718,721,0,0,0,0,0,0,0,0,0,0,0,0,0,0,0,0,0,0,0,0,0,0,0,0,0,0,0,0,0,0,0,0,0,0,0,0,0,0,0,0,0,0,0,0,0,0,0,0,0,0,0,0,0,0,0,0,0,0,0,0,0,0,0,0,0,0,1302,1303,111,111,111,111,111,1304,0,0,0,0,0,0,0,0,0,0,0,0,0,0,0,0,0,0,0,0,0,0,0,0,0,0,0,0,0,0,0,0,0,0,0,0,0,0,0,0,0,0,0,0,0,0,0,0,0,0,0,0,0,0,0,0,0,0,0,0,0,0,0,0,0,0,0,0,0,0,0,0,0,0,0,0,0,0,0,0,0,0,0,0,0,0,1308,111,111,111,111,111,111,111,111,111,199,1309,1284,0,0,0,0,0,0,0,0,0,0,0,0,0,0,0,0,0,0,0,0,0,0,0,0,0,0,0,0,0,0,0,0,0,0,0,0,0,0,0,0,0,0,0,0,0,0,0,0,0,0,0,0,0,0,0,0,0,0,0,0,0,0,0,0,0,0,0,0,0,0,0,0,0,0,0,734,739,742,745,742,745,750,754,0,0,0,0,0,0,0,0,0,0,0,0,0,0,0,0,0,0,0,0,0,0,0,0,0,0,0,0,0,0,0,0,0,0,0,0,0,0,0,0,0,0,0,0,0,0,0,0,0,0,0,0,0,0,0,0,0,0,0,0,0,0,0,0,0,0,1313,1314,111,111,111,111,111,1315,1316,0,0,0,0,0,0,0,0,0,0,0,0,0,0,0,0,0,0,0,0,0,0,0,0,0,0,0,0,0,0,0,0,0,0,0,0,0,0,0,0,0,0,0,0,0,0,0,0,0,0,0,0,0,0,0,0,0,0,0,0,0,0,0,0,0,0,0,0,0,0,0,0,0,0,0,0,0,0,0,0,0,0,0,0,0,1319,1320,111,111,111,111,111,111,111,111,111,1298,1321,0,0,0,0,0,0,0,0,0,0,0,0,0,0,0,0,0,0,0,0,0,0,0,0,0,0,0,0,0,0,0,0,0,0,0,0,0,0,0,0,0,0,0,0,0,0,0,0,0,0,0,0,0,0,0,0,0,0,0,0,0,0,0,0,0,0,0,0,0,0,0,0,0,0,0,768,773,778,783,788,783,793,798,0,0,0,0,0,0,0,0,0,0,0,0,0,0,0,0,0,0,0,0,0,0,0,0,0,0,0,0,0,0,0,0,0,0,0,0,0,0,0,0,0,0,0,0,0,0,0,0,0,0,0,0,0,0,0,0,0,0,0,0,0,0,0,0,0,0,1325,1326,111,111,111,111,111,1327,1328,0,0,0,0,0,0,0,0,0,0,0,0,0,0,0,0,0,0,0,0,0,0,0,0,0,0,0,0,0,0,0,0,0,0,0,0,0,0,0,0,0,0,0,0,0,0,0,0,0,0,0,0,0,0,0,0,0,0,0,0,0,0,0,0,0,0,0,0,0,0,0,0,0,0,0,0,0,0,0,0,0,0,0,0,0,0,1331,1332,698,111,111,111,111,111,111,111,111,1333,1334,0,0,0,0,0,0,0,0,0,0,0,0,0,0,0,0,0,0,0,0,0,0,0,0,0,0,0,0,0,0,0,0,0,0,0,0,0,0,0,0,0,0,0,0,0,0,0,0,0,0,0,0,0,0,0,0,0,0,0,0,0,0,0,0,0,0,0,0,0,0,0,0,0,0,820,825,830,835,840,835,830,845,0,0,0,0,0,0,0,0,0,0,0,0,0,0,0,0,0,0,0,0,0,0,0,0,0,0,0,0,0,0,0,0,0,0,0,0,0,0,0,0,0,0,0,0,0,0,0,0,0,0,0,0,0,0,0,0,0,0,0,0,0,0,0,0,0,0,0,1338,111,111,111,111,111,111,1339,0,0,0,0,0,0,0,0,0,0,0,0,0,0,0,0,0,0,0,0,0,0,0,0,0,0,0,0,0,0,0,0,0,0,0,0,0,0,0,0,0,0,0,0,0,0,0,0,0,0,0,0,0,0,0,0,0,0,0,0,0,0,0,0,0,0,0,0,0,0,0,0,0,0,0,0,0,0,0,0,0,0,0,0,0,0,0,1343,1344,1345,111,111,111,144,111,111,111,1346,1347,0,0,0,0,0,0,0,0,0,0,0,0,0,0,0,0,0,0,0,0,0,0,0,0,0,0,0,0,0,0,0,0,0,0,0,0,0,0,0,0,0,0,0,0,0,0,0,0,0,0,0,0,0,0,0,0,0,0,0,0,0,0,0,0,0,0,0,0,0,0,0,0,0,0,866,871,876,881,886,881,876,891,0,0,0,0,0,0,0,0,0,0,0,0,0,0,0,0,0,0,0,0,0,0,0,0,0,0,0,0,0,0,0,0,0,0,0,0,0,0,0,0,0,0,0,0,0,0,0,0,0,0,0,0,0,0,0,0,0,0,0,0,0,0,0,0,0,0,0,1351,1352,111,111,111,111,111,1353,1354,0,0,0,0,0,0,0,0,0,0,0,0,0,0,0,0,0,0,0,0,0,0,0,0,0,0,0,0,0,0,0,0,0,0,0,0,0,0,0,0,0,0,0,0,0,0,0,0,0,0,0,0,0,0,0,0,0,0,0,0,0,0,0,0,0,0,0,0,0,0,0,0,0,0,0,0,0,0,0,0,0,0,0,0,0,0,0,1357,1358,1359,158,161,164,619,111,111,111,1360,330,0,0,0,0,0,0,0,0,0,0,0,0,0,0,0,0,0,0,0,0,0,0,0,0,0,0,0,0,0,0,0,0,0,0,0,0,0,0,0,0,0,0,0,0,0,0,0,0,0,0,0,0,0,0,0,0,0,0,0,0,0,0,0,0,0,0,0,0,0,0,0,0,0,904,909,914,919,924,919,914,929,0,0,0,0,0,0,0,0,0,0,0,0,0,0,0,0,0,0,0,0,0,0,0,0,0,0,0,0,0,0,0,0,0,0,0,0,0,0,0,0,0,0,0,0,0,0,0,0,0,0,0,0,0,0,0,0,0,0,0,0,0,0,0,0,0,0,0,1364,1365,111,111,111,111,111,1366,484,0,0,0,0,0,0,0,0,0,0,0,0,0,0,0,0,0,0,0,0,0,0,0,0,0,0,0,0,0,0,0,0,0,0,0,0,0,0,0,0,0,0,0,0,0,0,0,0,0,0,0,0,0,0,0,0,0,0,0,0,0,0,0,0,0,0,0,0,0,0,0,0,0,0,0,0,0,0,0,0,0,0,0,0,0,0,0,0,682,1370,1371,111,111,111,111,111,111,1372,599,0,0,0,0,0,0,0,0,0,0,0,0,0,0,0,0,0,0,0,0,0,0,0,0,0,0,0,0,0,0,0,0,0,0,0,0,0,0,0,0,0,0,0,0,0,0,0,0,0,0,0,0,0,0,0,0,0,0,0,0,0,0,0,0,0,0,0,0,0,0,0,0,0,954,959,964,969,974,969,964,979,0,0,0,0,0,0,0,0,0,0,0,0,0,0,0,0,0,0,0,0,0,0,0,0,0,0,0,0,0,0,0,0,0,0,0,0,0,0,0,0,0,0,0,0,0,0,0,0,0,0,0,0,0,0,0,0,0,0,0,0,0,0,0,0,0,0,0,0,1376,111,111,111,111,111,111,894,0,0,0,0,0,0,0,0,0,0,0,0,0,0,0,0,0,0,0,0,0,0,0,0,0,0,0,0,0,0,0,0,0,0,0,0,0,0,0,0,0,0,0,0,0,0,0,0,0,0,0,0,0,0,0,0,0,0,0,0,0,0,0,0,0,0,0,0,0,0,0,0,0,0,0,0,0,0,0,0,0,0,0,0,0,0,0,0,0,1379,1380,111,111,111,111,111,111,1381,599,0,0,0,0,0,0,0,0,0,0,0,0,0,0,0,0,0,0,0,0,0,0,0,0,0,0,0,0,0,0,0,0,0,0,0,0,0,0,0,0,0,0,0,0,0,0,0,0,0,0,0,0,0,0,0,0,0,0,0,0,0,0,0,0,0,0,0,0,0,0,0,0,0,1011,1016,1021,1026,1031,1026,1021,1036,0,0,0,0,0,0,0,0,0,0,0,0,0,0,0,0,0,0,0,0,0,0,0,0,0,0,0,0,0,0,0,0,0,0,0,0,0,0,0,0,0,0,0,0,0,0,0,0,0,0,0,0,0,0,0,0,0,0,0,0,0,0,0,0,0,0,0,0,707,712,713,713,713,713,718,721,0,0,0,0,0,0,0,0,0,0,0,0,0,0,0,0,0,0,0,0,0,0,0,0,0,0,0,0,0,0,0,0,0,0,0,0,0,0,0,0,0,0,0,0,0,0,0,0,0,0,0,0,0,0,0,0,0,0,0,0,0,0,0,0,0,0,0,0,0,0,0,0,0,0,0,0,0,0,0,0,0,0,0,0,0,0,0,0,0,1386,1168,111,111,111,111,111,111,1387,755,0,0,0,0,0,0,0,0,0,0,0,0,0,0,0,0,0,0,0,0,0,0,0,0,0,0,0,0,0,0,0,0,0,0,0,0,0,0,0,0,0,0,0,0,0,0,0,0,0,0,0,0,0,0,0,0,0,0,0,0,0,0,0,0,0,0,0,0,0,0,0,0,0,1056,1061,1066,1071,1076,1071,1066,1081,0,0,0,0,0,0,0,0,0,0,0,0,0,0,0,0,0,0,0,0,0,0,0,0,0,0,0,0,0,0,0,0,0,0,0,0,0,0,0,0,0,0,0,0,0,0,0,0,0,0,0,0,0,0,0,0,0,0,0,0,0,0,0,0,0,0,0,0,734,739,742,745,742,745,750,754,0,0,0,0,0,0,0,0,0,0,0,0,0,0,0,0,0,0,0,0,0,0,0,0,0,0,0,0,0,0,0,0,0,0,0,0,0,0,0,0,0,0,0,0,0,0,0,0,0,0,0,0,0,0,0,0,0,0,0,0,0,0,0,0,0,0,0,0,0,0,0,0,0,0,0,0,0,0,0,0,0,0,0,0,0,0,0,0,270,1391,1266,111,111,111,111,111,111,1392,0,0,0,0,0,0,0,0,0,0,0,0,0,0,0,0,0,0,0,0,0,0,0,0,0,0,0,0,0,0,0,0,0,0,0,0,0,0,0,0,0,0,0,0,0,0,0,0,0,0,0,0,0,0,0,0,0,0,0,0,0,0,0,0,0,0,0,0,0,0,0,0,0,0,1100,1105,1110,1115,1120,1115,1110,1125,0,0,0,0,0,0,0,0,0,0,0,0,0,0,0,0,0,0,0,0,0,0,0,0,0,0,0,0,0,0,0,0,0,0,0,0,0,0,0,0,0,0,0,0,0,0,0,0,0,0,0,0,0,0,0,0,0,0,0,0,0,0,0,0,0,0,0,0,768,773,778,783,788,783,793,798,0,0,0,0,0,0,0,0,0,0,0,0,0,0,0,0,0,0,0,0,0,0,0,0,0,0,0,0,0,0,0,0,0,0,0,0,0,0,0,0,0,0,0,0,0,0,0,0,0,0,0,0,0,0,0,0,0,0,0,0,0,0,0,0,0,0,0,0,0,0,0,0,0,0,0,0,0,0,0,0,0,0,0,0,0,0,0,0,1400,1401,144,111,111,111,111,111,1402,1403,0,0,0,0,0,0,0,0,0,0,0,0,0,0,0,0,0,0,0,0,0,0,0,0,0,0,0,0,0,0,0,0,0,0,0,0,0,0,0,0,0,0,0,0,0,0,0,0,0,0,0,0,0,0,0,0,0,0,0,0,0,0,0,0,0,0,0,0,0,0,0,0,0,0,954,959,964,969,974,969,964,979,0,0,0,0,0,0,0,0,0,0,0,0,0,0,0,0,0,0,0,0,0,0,0,0,0,0,0,0,0,0,0,0,0,0,0,0,0,0,0,0,0,0,0,0,0,0,0,0,0,0,0,0,0,0,0,0,0,0,0,0,0,0,0,0,0,0,0,0,820,825,830,835,840,835,830,845,0,0,0,0,0,0,0,0,0,0,0,0,0,0,0,0,0,0,0,0,0,0,0,0,0,0,0,0,0,0,0,0,0,0,0,0,0,0,0,0,0,0,0,0,0,0,0,0,0,0,0,0,0,0,0,0,0,0,0,0,0,0,0,0,0,0,0,0,0,0,0,0,0,0,0,0,0,0,0,0,0,0,0,0,0,0,0,270,1414,490,164,167,169,111,111,111,1415,1416,0,0,0,0,0,0,0,0,0,0,0,0,0,0,0,0,0,0,0,0,0,0,0,0,0,0,0,0,0,0,0,0,0,0,0,0,0,0,0,0,0,0,0,0,0,0,0,0,0,0,0,0,0,0,0,0,0,0,0,0,0,0,0,0,0,0,0,0,0,0,0,0,0,0,1011,1016,1021,1026,1031,1026,1021,1036,0,0,0,0,0,0,0,0,0,0,0,0,0,0,0,0,0,0,0,0,0,0,0,0,0,0,0,0,0,0,0,0,0,0,0,0,0,0,0,0,0,0,0,0,0,0,0,0,0,0,0,0,0,0,0,0,0,0,0,0,0,0,0,0,0,0,0,0,866,871,876,881,886,881,876,891,0,0,0,0,0,0,0,0,0,0,0,0,0,0,0,0,0,0,0,0,0,0,0,0,0,0,0,0,0,0,0,0,0,0,0,0,0,0,0,0,0,0,0,0,0,0,0,0,0,0,0,0,0,0,0,0,0,0,0,0,0,0,0,0,0,0,0,0,0,0,0,0,0,0,0,0,0,0,0,0,0,0,0,0,0,0,0,1400,1425,111,111,111,111,111,111,474,1426,409,0,0,0,0,0,0,0,0,0,0,0,0,0,0,0,0,0,0,0,0,0,0,0,0,0,0,0,0,0,0,0,0,0,0,0,0,0,0,0,0,0,0,0,0,0,0,0,0,0,0,0,0,0,0,0,0,0,0,0,0,0,0,0,0,0,0,0,0,0,0,0,0,0,0,1056,1061,1066,1071,1076,1071,1066,1081,0,0,0,0,0,0,0,0,0,0,0,0,0,0,0,0,0,0,0,0,0,0,0,0,0,0,0,0,0,0,0,0,0,0,0,0,0,0,0,0,0,0,0,0,0,0,0,0,0,0,0,0,0,0,0,0,0,0,0,0,0,0,0,0,0,0,0,0,904,909,914,919,924,919,914,929,0,0,0,0,0,0,0,0,0,0,0,0,0,0,0,0,0,0,0,0,0,0,0,0,0,0,0,0,0,0,0,0,0,0,0,0,0,0,0,0,0,0,0,0,0,0,0,0,0,0,0,0,0,0,0,0,0,0,0,0,0,0,0,0,0,0,0,0,0,0,0,0,0,0,0,0,0,0,0,0,0,0,0,0,0,0,1437,1438,111,111,111,111,111,111,111,1439,1440,0,0,0,0,0,0,0,0,0,0,0,0,0,0,0,0,0,0,0,0,0,0,0,0,0,0,0,0,0,0,0,0,0,0,0,0,0,0,0,0,0,0,0,0,0,0,0,0,0,0,0,0,0,0,0,0,0,0,0,0,0,0,0,0,0,0,0,0,0,0,0,0,0,0,0,1100,1105,1110,1115,1120,1115,1110,1125,0,0,0,0,0,0,0,0,0,0,0,0,0,0,0,0,0,0,0,0,0,0,0,0,0,0,0,0,0,0,0,0,0,0,0,0,0,0,0,0,0,0,0,0,0,0,0,0,0,0,0,0,0,0,0,0,0,0,0,0,0,0,0,0,0,0,0,0,954,959,964,969,974,969,964,979,0,0,0,0,0,0,0,0,0,0,0,0,0,0,0,0,0,0,0,0,0,0,0,0,0,0,0,0,0,0,0,0,0,0,0,0,0,0,0,0,0,0,0,0,0,0,0,0,0,0,0,0,0,0,0,0,0,0,0,0,0,0,0,0,0,0,0,0,0,0,0,0,0,0,0,0,0,0,0,0,0,0,0,0,0,0,1449,1450,111,111,111,111,111,111,474,408,0,0,0,0,0,0,0,0,0,0,0,0,0,0,0,0,0,0,0,0,0,0,0,0,0,0,0,0,0,0,0,0,0,0,0,0,0,0,0,0,0,0,0,0,0,0,0,0,0,0,0,0,0,0,0,0,0,0,0,0,0,0,0,0,0,0,0,0,0,0,0,0,0,0,0,0,954,959,964,969,974,969,964,979,0,0,0,0,0,0,0,0,0,0,0,0,0,0,0,0,0,0,0,0,0,0,0,0,0,0,0,0,0,0,0,0,0,0,0,0,0,0,0,0,0,0,0,0,0,0,0,0,0,0,0,0,0,0,0,0,0,0,0,0,0,0,0,0,0,0,0,0,1011,1016,1021,1026,1031,1026,1021,1036,0,0,0,0,0,0,0,0,0,0,0,0,0,0,0,0,0,0,0,0,0,0,0,0,0,0,0,0,0,0,0,0,0,0,0,0,0,0,0,0,0,0,0,0,0,0,0,0,0,0,0,0,0,0,0,0,0,0,0,0,0,0,0,0,0,0,0,0,0,0,0,0,0,0,0,0,0,0,0,0,0,0,0,0,0,1459,1460,111,111,111,111,111,111,111,1461,1440,0,0,0,0,0,0,0,0,0,0,0,0,0,0,0,0,0,0,0,0,0,0,0,0,0,0,0,0,0,0,0,0,0,0,0,0,0,0,0,0,0,0,0,0,0,0,0,0,0,0,0,0,0,0,0,0,0,0,0,0,0,0,0,0,0,0,0,0,0,0,0,0,0,0,0,0,1011,1016,1021,1026,1031,1026,1021,1036,0,0,0,0,0,0,0,0,0,0,0,0,0,0,0,0,0,0,0,0,0,0,0,0,0,0,0,0,0,0,0,0,0,0,0,0,0,0,0,0,0,0,0,0,0,0,0,0,0,0,0,0,0,0,0,0,0,0,0,0,0,0,0,0,0,0,0,0,1056,1061,1066,1071,1076,1071,1066,1081,0,0,0,0,0,0,0,0,0,0,0,0,0,0,0,0,0,0,0,0,0,0,0,0,0,0,0,0,0,0,0,0,0,0,0,0,0,0,0,0,0,0,0,0,0,0,0,0,0,0,0,0,0,0,0,0,0,0,0,0,0,0,0,0,0,0,0,0,0,0,0,0,0,0,0,0,0,0,0,0,0,0,0,0,0,1476,1477,111,111,111,111,111,111,1479,1480,409,0,0,0,0,0,0,0,0,0,0,0,0,0,0,0,0,0,0,0,0,0,0,0,0,0,0,0,0,0,0,0,0,0,0,0,0,0,0,0,0,0,0,0,0,0,0,0,0,0,0,0,0,0,0,0,0,0,0,0,0,0,0,0,0,0,0,0,0,0,0,0,0,0,0,0,0,1056,1061,1066,1071,1076,1071,1066,1081,0,0,0,0,0,0,0,0,0,0,0,0,0,0,0,0,0,0,0,0,0,0,0,0,0,0,0,0,0,0,0,0,0,0,0,0,0,0,0,0,0,0,0,0,0,0,0,0,0,0,0,0,0,0,0,0,0,0,0,0,0,0,0,0,0,0,0,0,1100,1105,1110,1115,1120,1115,1110,1125,0,0,0,0,0,0,0,0,0,0,0,0,0,0,0,0,0,0,0,0,0,0,0,0,0,0,0,0,0,0,0,0,0,0,0,0,0,0,0,0,0,0,0,0,0,0,0,0,0,0,0,0,0,0,0,0,0,0,0,0,0,0,0,0,0,0,0,0,0,0,0,0,0,0,0,0,0,0,0,0,0,0,0,0,1488,1489,111,111,233,167,169,158,161,1492,1493,0,0,0,0,0,0,0,0,0,0,0,0,0,0,0,0,0,0,0,0,0,0,0,0,0,0,0,0,0,0,0,0,0,0,0,0,0,0,0,0,0,0,0,0,0,0,0,0,0,0,0,0,0,0,0,0,0,0,0,0,0,0,0,0,0,0,0,0,0,0,0,0,0,0,0,0,0,1100,1105,1110,1115,1120,1115,1110,1125,0,0,0,0,0,0,0,0,0,0,0,0,0,0,0,0,0,0,0,0,0,0,0,0,0,0,0,0,0,0,0,0,0,0,0,0,0,0,0,0,0,0,0,0,0,0,0,0,0,0,0,0,0,0,0,0,0,0,0,0,0,0,0,0,0,0,0,0,954,959,964,969,974,969,964,979,0,0,0,0,0,0,0,0,0,0,0,0,0,0,0,0,0,0,0,0,0,0,0,0,0,0,0,0,0,0,0,0,0,0,0,0,0,0,0,0,0,0,0,0,0,0,0,0,0,0,0,0,0,0,0,0,0,0,0,0,0,0,0,0,0,0,0,0,0,0,0,0,0,0,0,0,0,0,0,0,0,0,0,0,1265,1266,111,111,111,111,111,111,1501,1502,0,0,0,0,0,0,0,0,0,0,0,0,0,0,0,0,0,0,0,0,0,0,0,0,0,0,0,0,0,0,0,0,0,0,0,0,0,0,0,0,0,0,0,0,0,0,0,0,0,0,0,0,0,0,0,0,0,0,0,0,0,0,0,0,0,0,0,0,0,0,0,0,0,0,0,0,0,0,954,959,964,969,974,969,964,979,0,0,0,0,0,0,0,0,0,0,0,0,0,0,0,0,0,0,0,0,0,0,0,0,0,0,0,0,0,0,0,0,0,0,0,0,0,0,0,0,0,0,0,0,0,0,0,0,0,0,0,0,0,0,0,0,0,0,0,0,0,0,0,0,0,0,0,0,1011,1016,1021,1026,1031,1026,1021,1036,0,0,0,0,0,0,0,0,0,0,0,0,0,0,0,0,0,0,0,0,0,0,0,0,0,0,0,0,0,0,0,0,0,0,0,0,0,0,0,0,0,0,0,0,0,0,0,0,0,0,0,0,0,0,0,0,0,0,0,0,0,0,0,0,0,0,0,0,0,0,0,0,0,0,0,0,0,0,0,0,0,0,0,0,693,111,111,111,111,111,111,111,1511,1512,0,0,0,0,0,0,0,0,0,0,0,0,0,0,0,0,0,0,0,0,0,0,0,0,0,0,0,0,0,0,0,0,0,0,0,0,0,0,0,0,0,0,0,0,0,0,0,0,0,0,0,0,0,0,0,0,0,0,0,0,0,0,0,0,0,0,0,0,0,0,0,0,0,0,0,0,0,0,1011,1016,1021,1026,1031,1026,1021,1036,0,0,0,0,0,0,0,0,0,0,0,0,0,0,0,0,0,0,0,0,0,0,0,0,0,0,0,0,0,0,0,0,0,0,0,0,0,0,0,0,0,0,0,0,0,0,0,0,0,0,0,0,0,0,0,0,0,0,0,0,0,0,0,0,0,0,0,0,1056,1061,1066,1071,1076,1071,1066,1081,0,0,0,0,0,0,0,0,0,0,0,0,0,0,0,0,0,0,0,0,0,0,0,0,0,0,0,0,0,0,0,0,0,0,0,0,0,0,0,0,0,0,0,0,0,0,0,0,0,0,0,0,0,0,0,0,0,0,0,0,0,0,0,0,0,0,0,0,0,0,0,0,0,0,0,0,0,0,0,0,0,0,0,0,707,712,713,713,713,713,718,721,1520,0,0,0,0,0,0,0,0,0,0,0,0,0,0,0,0,0,0,0,0,0,0,0,0,0,0,0,0,0,0,0,0,0,0,0,0,0,0,0,0,0,0,0,0,0,0,0,0,0,0,0,0,0,0,0,0,0,0,0,0,0,0,0,0,0,0,0,0,0,0,0,0,0,0,0,0,0,0,0,1056,1061,1066,1071,1076,1071,1066,1081,0,0,0,0,0,0,0,0,0,0,0,0,0,0,0,0,0,0,0,0,0,0,0,0,0,0,0,0,0,0,0,0,0,0,0,0,0,0,0,0,0,0,0,0,0,0,0,0,0,0,0,0,0,0,0,0,0,0,0,0,0,0,0,0,0,0,0,0,1100,1105,1110,1115,1120,1115,1110,1125,0,0,0,0,0,0,0,0,0,0,0,0,0,0,0,0,0,0,0,0,0,0,0,0,0,0,0,0,0,0,0,0,0,0,0,0,0,0,0,0,0,0,0,0,0,0,0,0,0,0,0,0,0,0,0,0,0,0,0,0,0,0,0,0,0,0,0,0,0,0,0,0,0,0,0,0,0,0,0,0,0,0,0,0,734,739,742,745,742,745,750,754,1529,0,0,0,0,0,0,0,0,0,0,0,0,0,0,0,0,0,0,0,0,0,0,0,0,0,0,0,0,0,0,0,0,0,0,0,0,0,0,0,0,0,0,0,0,0,0,0,0,0,0,0,0,0,0,0,0,0,0,0,0,0,0,0,0,0,0,0,0,0,0,0,0,0,0,0,0,0,0,0,1100,1105,1110,1115,1120,1115,1110,1125,0,0,0,0,0,0,0,0,0,0,0,0,0,0,0,0,0,0,0,0,0,0,0,0,0,0,0,0,0,0,0,0,0,0,0,0,0,0,0,0,0,0,0,0,0,0,0,0,0,0,0,0,0,0,0,0,0,0,0,0,0,0,0,0,0,0,0,0,954,959,964,969,974,969,964,979,0,0,0,0,0,0,0,0,0,0,0,0,0,0,0,0,0,0,0,0,0,0,0,0,0,0,0,0,0,0,0,0,0,0,0,0,0,0,0,0,0,0,0,0,0,0,0,0,0,0,0,0,0,0,0,0,0,0,0,0,0,0,0,0,0,0,0,0,0,0,0,0,0,0,0,0,0,0,0,0,0,0,0,0,768,773,778,783,788,783,793,798,0,0,0,0,0,0,0,0,0,0,0,0,0,0,0,0,0,0,0,0,0,0,0,0,0,0,0,0,0,0,0,0,0,0,0,0,0,0,0,0,0,0,0,0,0,0,0,0,0,0,0,0,0,0,0,0,0,0,0,0,0,0,0,0,0,0,0,0,0,0,0,0,0,0,0,0,0,0,0,0,954,959,964,969,974,969,964,979,0,0,0,0,0,0,0,0,0,0,0,0,0,0,0,0,0,0,0,0,0,0,0,0,0,0,0,0,0,0,0,0,0,0,0,0,0,0,0,0,0,0,0,0,0,0,0,0,0,0,0,0,0,0,0,0,0,0,0,0,0,0,0,0,0,0,0,0,1011,1016,1021,1026,1031,1026,1021,1036,0,0,0,0,0,0,0,0,0,0,0,0,0,0,0,0,0,0,0,0,0,0,0,0,0,0,0,0,0,0,0,0,0,0,0,0,0,0,0,0,0,0,0,0,0,0,0,0,0,0,0,0,0,0,0,0,0,0,0,0,0,0,0,0,0,0,0,0,0,0,0,0,0,0,0,0,0,0,0,0,0,0,0,0,820,825,830,835,840,835,830,845,0,0,0,0,0,0,0,0,0,0,0,0,0,0,0,0,0,0,0,0,0,0,0,0,0,0,0,0,0,0,0,0,0,0,0,0,0,0,0,0,0,0,0,0,0,0,0,0,0,0,0,0,0,0,0,0,0,0,0,0,0,0,0,0,0,0,0,0,0,0,0,0,0,0,0,0,0,0,0,0,1011,1016,1021,1026,1031,1026,1021,1036,0,0,0,0,0,0,0,0,0,0,0,0,0,0,0,0,0,0,0,0,0,0,0,0,0,0,0,0,0,0,0,0,0,0,0,0,0,0,0,0,0,0,0,0,0,0,0,0,0,0,0,0,0,0,0,0,0,0,0,0,0,0,0,0,0,0,0,0,1056,1061,1066,1071,1076,1071,1066,1081,0,0,0,0,0,0,0,0,0,0,0,0,0,0,0,0,0,0,0,0,0,0,0,0,0,0,0,0,0,0,0,0,0,0,0,0,0,0,0,0,0,0,0,0,0,0,0,0,0,0,0,0,0,0,0,0,0,0,0,0,0,0,0,0,0,0,0,0,0,0,0,0,0,0,0,0,0,0,0,0,0,0,0,0,866,871,876,881,886,881,876,891,0,0,0,0,0,0,0,0,0,0,0,0,0,0,0,0,0,0,0,0,0,0,0,0,0,0,0,0,0,0,0,0,0,0,0,0,0,0,0,0,0,0,0,0,0,0,0,0,0,0,0,0,0,0,0,0,0,0,0,0,0,0,0,0,0,0,0,0,0,0,0,0,0,0,0,0,0,0,0,0,1056,1061,1066,1071,1076,1071,1066,1081,0,0,0,0,0,0,0,0,0,0,0,0,0,0,0,0,0,0,0,0,0,0,0,0,0,0,0,0,0,0,0,0,0,0,0,0,0,0,0,0,0,0,0,0,0,0,0,0,0,0,0,0,0,0,0,0,0,0,0,0,0,0,0,0,0,0,0,0,1100,1105,1110,1115,1120,1115,1110,1125,0,0,0,0,0,0,0,0,0,0,0,0,0,0,0,0,0,0,0,0,0,0,0,0,0,0,0,0,0,0,0,0,0,0,0,0,0,0,0,0,0,0,0,0,0,0,0,0,0,0,0,0,0,0,0,0,0,0,0,0,0,0,0,0,0,0,0,0,0,0,0,0,0,0,0,0,0,0,0,0,0,0,0,0,904,909,914,919,924,919,914,929,0,0,0,0,0,0,0,0,0,0,0,0,0,0,0,0,0,0,0,0,0,0,0,0,0,0,0,0,0,0,0,0,0,0,0,0,0,0,0,0,0,0,0,0,0,0,0,0,0,0,0,0,0,0,0,0,0,0,0,0,0,0,0,0,0,0,0,0,0,0,0,0,0,0,0,0,0,0,0,0,1100,1105,1110,1115,1120,1115,1110,1125,0,0,0,0,0,0,0,0,0,0,0,0,0,0,0,0,0,0,0,0,0,0,0,0,0,0,0,0,0,0,0,0,0,0,0,0,0,0,0,0,0,0,0,0,0,0,0,0,0,0,0,0,0,0,0,0,0,0,0,0,0,0,0,0,0,0,0,0,954,959,964,969,974,969,964,979,0,0,0,0,0,0,0,0,0,0,0,0,0,0,0,0,0,0,0,0,0,0,0,0,0,0,0,0,0,0,0,0,0,0,0,0,0,0,0,0,0,0,0,0,0,0,0,0,0,0,0,0,0,0,0,0,0,0,0,0,0,0,0,0,0,0,0,0,0,0,0,0,0,0,0,0,0,0,0,0,0,0,0,0,954,959,964,969,974,969,964,979,0,0,0,0,0,0,0,0,0,0,0,0,0,0,0,0,0,0,0,0,0,0,0,0,0,0,0,0,0,0,0,0,0,0,0,0,0,0,0,0,0,0,0,0,0,0,0,0,0,0,0,0,0,0,0,0,0,0,0,0,0,0,0,0,0,0,0,0,0,0,0,0,0,0,0,0,0,0,0,0,954,959,964,969,974,969,964,979,0,0,0,0,0,0,0,0,0,0,0,0,0,0,0,0,0,0,0,0,0,0,0,0,0,0,0,0,0,0,0,0,0,0,0,0,0,0,0,0,0,0,0,0,0,0,0,0,0,0,0,0,0,0,0,0,0,0,0,0,0,0,0,0,0,0,0,0,1011,1016,1021,1026,1031,1026,1021,1036,0,0,0,0,0,0,0,0,0,0,0,0,0,0,0,0,0,0,0,0,0,0,0,0,0,0,0,0,0,0,0,0,0,0,0,0,0,0,0,0,0,0,0,0,0,0,0,0,0,0,0,0,0,0,0,0,0,0,0,0,0,0,0,0,0,0,0,0,0,0,0,0,0,0,0,0,0,0,0,0,0,0,0,0,1011,1016,1021,1026,1031,1026,1021,1036,0,0,0,0,0,0,0,0,0,0,0,0,0,0,0,0,0,0,0,0,0,0,0,0,0,0,0,0,0,0,0,0,0,0,0,0,0,0,0,0,0,0,0,0,0,0,0,0,0,0,0,0,0,0,0,0,0,0,0,0,0,0,0,0,0,0,0,0,0,0,0,0,0,0,0,0,0,0,0,0,1011,1016,1021,1026,1031,1026,1021,1036,0,0,0,0,0,0,0,0,0,0,0,0,0,0,0,0,0,0,0,0,0,0,0,0,0,0,0,0,0,0,0,0,0,0,0,0,0,0,0,0,0,0,0,0,0,0,0,0,0,0,0,0,0,0,0,0,0,0,0,0,0,0,0,0,0,0,0,0,1056,1061,1066,1071,1076,1071,1066,1081,0,0,0,0,0,0,0,0,0,0,0,0,0,0,0,0,0,0,0,0,0,0,0,0,0,0,0,0,0,0,0,0,0,0,0,0,0,0,0,0,0,0,0,0,0,0,0,0,0,0,0,0,0,0,0,0,0,0,0,0,0,0,0,0,0,0,0,0,0,0,0,0,0,0,0,0,0,0,0,0,0,0,0,0,1056,1061,1066,1071,1076,1071,1066,1081,0,0,0,0,0,0,0,0,0,0,0,0,0,0,0,0,0,0,0,0,0,0,0,0,0,0,0,0,0,0,0,0,0,0,0,0,0,0,0,0,0,0,0,0,0,0,0,0,0,0,0,0,0,0,0,0,0,0,0,0,0,0,0,0,0,0,0,0,0,0,0,0,0,0,0,0,0,0,0,0,1056,1061,1066,1071,1076,1071,1066,1081,0,0,0,0,0,0,0,0,0,0,0,0,0,0,0,0,0,0,0,0,0,0,0,0,0,0,0,0,0,0,0,0,0,0,0,0,0,0,0,0,0,0,0,0,0,0,0,0,0,0,0,0,0,0,0,0,0,0,0,0,0,0,0,0,0,0,0,0,1100,1105,1110,1115,1120,1115,1110,1125,0,0,0,0,0,0,0,0,0,0,0,0,0,0,0,0,0,0,0,0,0,0,0,0,0,0,0,0,0,0,0,0,0,0,0,0,0,0,0,0,0,0,0,0,0,0,0,0,0,0,0,0,0,0,0,0,0,0,0,0,0,0,0,0,0,0,0,0,0,0,0,0,0,0,0,0,0,0,0,0,0,0,0,0,1100,1105,1110,1115,1120,1115,1110,1125,0,0,0,0,0,0,0,0,0,0,0,0,0,0,0,0,0,0,0,0,0,0,0,0,0,0,0,0,0,0,0,0,0,0,0,0,0,0,0,0,0,0,0,0,0,0,0,0,0,0,0,0,0,0,0,0,0,0,0,0,0,0,0,0,0,0,0,0,0,0,0,0,0,0,0,0,0,0,0,0,1100,1105,1110,1115,1120,1115,1110,1125,0,0,0,0,0,0,0,0,0,0,0,0,0,0,0,0,0,0,0,0,0,0,0,0,0,0,0,0,0,0,0,0,0,0,0,0,0,0,0,0,0,0,0,0,0,0,0,0,0,0,0,0,0,0,0,0,0,0,0,0,0,0,0,0,0,0,0,0,954,959,964,969,974,969,964,979,0,0,0,0,0,0,0,0,0,0,0,0,0,0,0,0,0,0,0,0,0,0,0,0,0,0,0,0,0,0,0,0,0,0,0,0,0,0,0,0,0,0,0,0,0,0,0,0,0,0,0,0,0,0,0,0,0,0,0,0,0,0,0,0,0,0,0,0,0,0,0,0,0,0,0,0,0,0,0,0,0,0,0,0,954,959,964,969,974,969,964,979,0,0,0,0,0,0,0,0,0,0,0,0,0,0,0,0,0,0,0,0,0,0,0,0,0,0,0,0,0,0,0,0,0,0,0,0,0,0,0,0,0,0,0,0,0,0,0,0,0,0,0,0,0,0,0,0,0,0,0,0,0,0,0,0,0,0,0,0,0,0,0,0,0,0,0,0,0,0,0,1534,1198,1203,1207,1211,1215,1211,1207,1218,1535,0,0,0,0,0,0,0,0,0,0,0,0,0,0,0,0,0,0,0,0,0,0,0,0,0,0,0,0,0,0,0,0,0,0,0,0,0,0,0,0,0,0,0,0,0,0,0,0,0,0,0,0,0,0,0,0,0,0,0,0,0,0,0,0,0,0,0,1011,1016,1021,1026,1031,1026,1021,1036,0,0,0,0,0,0,0,0,0,0,0,0,0,0,0,0,0,0,0,0,0,0,0,0,0,0,0,0,0,0,0,0,0,0,0,0,0,0,0,0,0,0,0,0,0,0,0,0,0,0,0,0,0,0,0,0,0,0,0,0,0,0,0,0,0,0,0,0,0,0,0,0,0,0,0,0,0,0,0,0,0,0,0,0,1011,1016,1021,1026,1031,1026,1021,1036,0,0,0,0,0,0,0,0,0,0,0,0,0,0,0,0,0,0,0,0,0,0,0,0,0,0,0,0,0,0,0,0,0,0,0,0,0,0,0,0,0,0,0,0,0,0,0,0,0,0,0,0,0,0,0,0,0,0,0,0,0,0,0,0,0,0,0,0,0,0,0,0,0,0,0,0,0,0,0,1536,1234,1239,1243,1246,1250,1246,1243,1254,1537,0,0,0,0,0,0,0,0,0,0,0,0,0,0,0,0,0,0,0,0,0,0,0,0,0,0,0,0,0,0,0,0,0,0,0,0,0,0,0,0,0,0,0,0,0,0,0,0,0,0,0,0,0,0,0,0,0,0,0,0,0,0,0,0,0,0,0,1056,1061,1066,1071,1076,1071,1066,1081,0,0,0,0,0,0,0,0,0,0,0,0,0,0,0,0,0,0,0,0,0,0,0,0,0,0,0,0,0,0,0,0,0,0,0,0,0,0,0,0,0,0,0,0,0,0,0,0,0,0,0,0,0,0,0,0,0,0,0,0,0,0,0,0,0,0,0,0,0,0,0,0,0,0,0,0,0,0,0,0,0,0,0,0,1056,1061,1066,1071,1076,1071,1066,1081,0,0,0,0,0,0,0,0,0,0,0,0,0,0,0,0,0,0,0,0,0,0,0,0,0,0,0,0,0,0,0,0,0,0,0,0,0,0,0,0,0,0,0,0,0,0,0,0,0,0,0,0,0,0,0,0,0,0,0,0,0,0,0,0,0,0,0,0,0,0,0,0,0,0,0,0,0,0,0,1538,1539,111,111,111,111,111,111,111,1540,0,0,0,0,0,0,0,0,0,0,0,0,0,0,0,0,0,0,0,0,0,0,0,0,0,0,0,0,0,0,0,0,0,0,0,0,0,0,0,0,0,0,0,0,0,0,0,0,0,0,0,0,0,0,0,0,0,0,0,0,0,0,0,0,0,0,0,1100,1105,1110,1115,1120,1115,1110,1125,0,0,0,0,0,0,0,0,0,0,0,0,0,0,0,0,0,0,0,0,0,0,0,0,0,0,0,0,0,0,0,0,0,0,0,0,0,0,0,0,0,0,0,0,0,0,0,0,0,0,0,0,0,0,0,0,0,0,0,0,0,0,0,0,0,0,0,0,0,0,0,0,0,0,0,0,0,0,0,0,0,0,0,0,1100,1105,1110,1115,1120,1115,1110,1125,0,0,0,0,0,0,0,0,0,0,0,0,0,0,0,0,0,0,0,0,0,0,0,0,0,0,0,0,0,0,0,0,0,0,0,0,0,0,0,0,0,0,0,0,0,0,0,0,0,0,0,0,0,0,0,0,0,0,0,0,0,0,0,0,0,0,0,0,0,0,0,0,0,0,0,0,0,0,0,303,1303,111,111,111,111,111,111,111,1541,0,0,0,0,0,0,0,0,0,0,0,0,0,0,0,0,0,0,0,0,0,0,0,0,0,0,0,0,0,0,0,0,0,0,0,0,0,0,0,0,0,0,0,0,0,0,0,0,0,0,0,0,0,0,0,0,0,0,0,0,0,0,0,0,0,0,0,954,959,964,969,974,969,964,979,0,0,0,0,0,0,0,0,0,0,0,0,0,0,0,0,0,0,0,0,0,0,0,0,0,0,0,0,0,0,0,0,0,0,0,0,0,0,0,0,0,0,0,0,0,0,0,0,0,0,0,0,0,0,0,0,0,0,0,0,0,0,0,0,0,0,0,0,0,0,0,0,0,0,0,0,0,0,0,0,0,0,0,0,954,959,964,969,974,969,964,979,0,0,0,0,0,0,0,0,0,0,0,0,0,0,0,0,0,0,0,0,0,0,0,0,0,0,0,0,0,0,0,0,0,0,0,0,0,0,0,0,0,0,0,0,0,0,0,0,0,0,0,0,0,0,0,0,0,0,0,0,0,0,0,0,0,0,0,0,0,0,0,0,0,0,0,0,0,0,0,1542,1543,111,111,111,111,111,111,111,1544,1545,0,0,0,0,0,0,0,0,0,0,0,0,0,0,0,0,0,0,0,0,0,0,0,0,0,0,0,0,0,0,0,0,0,0,0,0,0,0,0,0,0,0,0,0,0,0,0,0,0,0,0,0,0,0,0,0,0,0,0,0,0,0,0,0,0,0,1011,1016,1021,1026,1031,1026,1021,1036,0,0,0,0,0,0,0,0,0,0,0,0,0,0,0,0,0,0,0,0,0,0,0,0,0,0,0,0,0,0,0,0,0,0,0,0,0,0,0,0,0,0,0,0,0,0,0,0,0,0,0,0,0,0,0,0,0,0,0,0,0,0,0,0,0,0,0,0,0,0,0,0,0,0,0,0,0,0,0,0,0,0,0,0,1011,1016,1021,1026,1031,1026,1021,1036,0,0,0,0,0,0,0,0,0,0,0,0,0,0,0,0,0,0,0,0,0,0,0,0,0,0,0,0,0,0,0,0,0,0,0,0,0,0,0,0,0,0,0,0,0,0,0,0,0,0,0,0,0,0,0,0,0,0,0,0,0,0,0,0,0,0,0,0,0,0,0,0,0,0,0,0,0,0,0,1546,1547,111,111,111,111,111,358,169,1548,1549,0,0,0,0,0,0,0,0,0,0,0,0,0,0,0,0,0,0,0,0,0,0,0,0,0,0,0,0,0,0,0,0,0,0,0,0,0,0,0,0,0,0,0,0,0,0,0,0,0,0,0,0,0,0,0,0,0,0,0,0,0,0,0,0,0,0,1056,1061,1066,1071,1076,1071,1066,1081,0,0,0,0,0,0,0,0,0,0,0,0,0,0,0,0,0,0,0,0,0,0,0,0,0,0,0,0,0,0,0,0,0,0,0,0,0,0,0,0,0,0,0,0,0,0,0,0,0,0,0,0,0,0,0,0,0,0,0,0,0,0,0,0,0,0,0,0,0,0,0,0,0,0,0,0,0,0,0,0,0,0,0,0,1056,1061,1066,1071,1076,1071,1066,1081,0,0,0,0,0,0,0,0,0,0,0,0,0,0,0,0,0,0,0,0,0,0,0,0,0,0,0,0,0,0,0,0,0,0,0,0,0,0,0,0,0,0,0,0,0,0,0,0,0,0,0,0,0,0,0,0,0,0,0,0,0,0,0,0,0,0,0,0,0,0,0,0,0,0,0,0,0,0,0,0,1550,111,111,111,111,111,111,111,1551,288,0,0,0,0,0,0,0,0,0,0,0,0,0,0,0,0,0,0,0,0,0,0,0,0,0,0,0,0,0,0,0,0,0,0,0,0,0,0,0,0,0,0,0,0,0,0,0,0,0,0,0,0,0,0,0,0,0,0,0,0,0,0,0,0,0,0,1100,1105,1110,1115,1120,1115,1110,1125,0,0,0,0,0,0,0,0,0,0,0,0,0,0,0,0,0,0,0,0,0,0,0,0,0,0,0,0,0,0,0,0,0,0,0,0,0,0,0,0,0,0,0,0,0,0,0,0,0,0,0,0,0,0,0,0,0,0,0,0,0,0,0,0,0,0,0,0,0,0,0,0,0,0,0,0,0,0,0,0,0,0,0,0,1100,1105,1110,1115,1120,1115,1110,1125,0,0,0,0,0,0,0,0,0,0,0,0,0,0,0,0,0,0,0,0,0,0,0,0,0,0,0,0,0,0,0,0,0,0,0,0,0,0,0,0,0,0,0,0,0,0,0,0,0,0,0,0,0,0,0,0,0,0,0,0,0,0,0,0,0,0,0,0,0,0,0,0,0,0,0,0,0,0,0,0,1552,111,111,111,111,111,111,111,1553,1554,0,0,0,0,0,0,0,0,0,0,0,0,0,0,0,0,0,0,0,0,0,0,0,0,0,0,0,0,0,0,0,0,0,0,0,0,0,0,0,0,0,0,0,0,0,0,0,0,0,0,0,0,0,0,0,0,0,0,0,0,0,0,0,0,0,1534,1198,1203,1207,1211,1215,1211,1207,1218,1284,0,0,0,0,0,0,0,0,0,0,0,0,0,0,0,0,0,0,0,0,0,0,0,0,0,0,0,0,0,0,0,0,0,0,0,0,0,0,0,0,0,0,0,0,0,0,0,0,0,0,0,0,0,0,0,0,0,0,0,0,0,0,0,0,0,0,0,0,0,0,0,0,0,0,0,0,0,0,0,0,0,0,0,954,959,964,969,974,969,964,979,0,0,0,0,0,0,0,0,0,0,0,0,0,0,0,0,0,0,0,0,0,0,0,0,0,0,0,0,0,0,0,0,0,0,0,0,0,0,0,0,0,0,0,0,0,0,0,0,0,0,0,0,0,0,0,0,0,0,0,0,0,0,0,0,0,0,0,0,0,0,0,0,0,0,0,0,0,0,0,1534,1555,111,111,111,111,111,111,111,1381,599,0,0,0,0,0,0,0,0,0,0,0,0,0,0,0,0,0,0,0,0,0,0,0,0,0,0,0,0,0,0,0,0,0,0,0,0,0,0,0,0,0,0,0,0,0,0,0,0,0,0,0,0,0,0,0,0,0,0,0,0,0,0,0,0,0,1536,1234,1239,1243,1246,1250,1246,1243,1254,1556,1557,0,0,0,0,0,0,0,0,0,0,0,0,0,0,0,0,0,0,0,0,0,0,0,0,0,0,0,0,0,0,0,0,0,0,0,0,0,0,0,0,0,0,0,0,0,0,0,0,0,0,0,0,0,0,0,0,0,0,0,0,0,0,0,0,0,0,0,0,0,0,0,0,0,0,0,0,0,0,0,0,0,0,1011,1016,1021,1026,1031,1026,1021,1036,0,0,0,0,0,0,0,0,0,0,0,0,0,0,0,0,0,0,0,0,0,0,0,0,0,0,0,0,0,0,0,0,0,0,0,0,0,0,0,0,0,0,0,0,0,0,0,0,0,0,0,0,0,0,0,0,0,0,0,0,0,0,0,0,0,0,0,0,0,0,0,0,0,0,0,0,0,0,0,1536,1558,111,111,111,111,111,111,111,1559,755,0,0,0,0,0,0,0,0,0,0,0,0,0,0,0,0,0,0,0,0,0,0,0,0,0,0,0,0,0,0,0,0,0,0,0,0,0,0,0,0,0,0,0,0,0,0,0,0,0,0,0,0,0,0,0,0,0,0,0,0,0,0,0,0,0,1538,1539,111,111,111,111,111,111,111,1562,1563,330,0,0,0,0,0,0,0,0,0,0,0,0,0,0,0,0,0,0,0,0,0,0,0,0,0,0,0,0,0,0,0,0,0,0,0,0,0,0,0,0,0,0,0,0,0,0,0,0,0,0,0,0,0,0,0,0,0,0,0,0,0,0,0,0,0,0,0,0,0,0,0,0,0,0,0,0,0,0,0,0,0,1056,1061,1066,1071,1076,1071,1066,1081,0,0,0,0,0,0,0,0,0,0,0,0,0,0,0,0,0,0,0,0,0,0,0,0,0,0,0,0,0,0,0,0,0,0,0,0,0,0,0,0,0,0,0,0,0,0,0,0,0,0,0,0,0,0,0,0,0,0,0,0,0,0,0,0,0,0,0,0,0,0,0,0,0,0,0,0,0,0,0,1538,1539,111,111,111,111,111,111,111,1564,0,0,0,0,0,0,0,0,0,0,0,0,0,0,0,0,0,0,0,0,0,0,0,0,0,0,0,0,0,0,0,0,0,0,0,0,0,0,0,0,0,0,0,0,0,0,0,0,0,0,0,0,0,0,0,0,0,0,0,0,0,0,0,0,0,0,303,1303,111,111,111,111,111,158,161,164,1567,1568,0,0,0,0,0,0,0,0,0,0,0,0,0,0,0,0,0,0,0,0,0,0,0,0,0,0,0,0,0,0,0,0,0,0,0,0,0,0,0,0,0,0,0,0,0,0,0,0,0,0,0,0,0,0,0,0,0,0,0,0,0,0,0,0,0,0,0,0,0,0,0,0,0,0,0,0,0,0,0,0,0,1100,1105,1110,1115,1120,1115,1110,1125,0,0,0,0,0,0,0,0,0,0,0,0,0,0,0,0,0,0,0,0,0,0,0,0,0,0,0,0,0,0,0,0,0,0,0,0,0,0,0,0,0,0,0,0,0,0,0,0,0,0,0,0,0,0,0,0,0,0,0,0,0,0,0,0,0,0,0,0,0,0,0,0,0,0,0,0,0,0,0,1569,111,111,111,111,111,111,158,235,1570,0,0,0,0,0,0,0,0,0,0,0,0,0,0,0,0,0,0,0,0,0,0,0,0,0,0,0,0,0,0,0,0,0,0,0,0,0,0,0,0,0,0,0,0,0,0,0,0,0,0,0,0,0,0,0,0,0,0,0,0,0,0,0,0,0,0,1542,1571,111,111,111,111,111,111,111,111,111,1572,1573,0,0,0,0,0,0,0,0,0,0,0,0,0,0,0,0,0,0,0,0,0,0,0,0,0,0,0,0,0,0,0,0,0,0,0,0,0,0,0,0,0,0,0,0,0,0,0,0,0,0,0,0,0,0,0,0,0,0,0,0,0,0,0,0,0,0,0,0,0,0,0,0,0,0,0,0,0,0,0,0,954,959,964,969,974,969,964,979,0,0,0,0,0,0,0,0,0,0,0,0,0,0,0,0,0,0,0,0,0,0,0,0,0,0,0,0,0,0,0,0,0,0,0,0,0,0,0,0,0,0,0,0,0,0,0,0,0,0,0,0,0,0,0,0,0,0,0,0,0,0,0,0,0,0,0,0,0,0,0,0,0,0,0,0,0,0,0,1574,111,111,111,111,111,111,111,407,1575,0,0,0,0,0,0,0,0,0,0,0,0,0,0,0,0,0,0,0,0,0,0,0,0,0,0,0,0,0,0,0,0,0,0,0,0,0,0,0,0,0,0,0,0,0,0,0,0,0,0,0,0,0,0,0,0,0,0,0,0,0,0,0,0,0,0,405,1576,698,111,111,111,111,111,111,111,111,111,181,1577,0,0,0,0,0,0,0,0,0,0,0,0,0,0,0,0,0,0,0,0,0,0,0,0,0,0,0,0,0,0,0,0,0,0,0,0,0,0,0,0,0,0,0,0,0,0,0,0,0,0,0,0,0,0,0,0,0,0,0,0,0,0,0,0,0,0,0,0,0,0,0,0,0,0,0,0,0,0,0,1011,1016,1021,1026,1031,1026,1021,1036,0,0,0,0,0,0,0,0,0,0,0,0,0,0,0,0,0,0,0,0,0,0,0,0,0,0,0,0,0,0,0,0,0,0,0,0,0,0,0,0,0,0,0,0,0,0,0,0,0,0,0,0,0,0,0,0,0,0,0,0,0,0,0,0,0,0,0,0,0,0,0,0,0,0,0,0,0,0,0,1578,111,111,111,111,111,111,111,1579,1580,0,0,0,0,0,0,0,0,0,0,0,0,0,0,0,0,0,0,0,0,0,0,0,0,0,0,0,0,0,0,0,0,0,0,0,0,0,0,0,0,0,0,0,0,0,0,0,0,0,0,0,0,0,0,0,0,0,0,0,0,0,0,0,0,0,0,0,1581,1582,304,111,111,111,111,111,111,111,111,111,1583,1584,0,0,0,0,0,0,0,0,0,0,0,0,0,0,0,0,0,0,0,0,0,0,0,0,0,0,0,0,0,0,0,0,0,0,0,0,0,0,0,0,0,0,0,0,0,0,0,0,0,0,0,0,0,0,0,0,0,0,0,0,0,0,0,0,0,0,0,0,0,0,0,0,0,0,0,0,0,0,1056,1061,1066,1071,1076,1071,1066,1081,0,0,0,0,0,0,0,0,0,0,0,0,0,0,0,0,0,0,0,0,0,0,0,0,0,0,0,0,0,0,0,0,0,0,0,0,0,0,0,0,0,0,0,0,0,0,0,0,0,0,0,0,0,0,0,0,0,0,0,0,0,0,0,0,0,0,0,0,0,0,0,0,0,0,0,0,0,0,1534,1585,111,111,111,111,111,111,111,1586,1587,0,0,0,0,0,0,0,0,0,0,0,0,0,0,0,0,0,0,0,0,0,0,0,0,0,0,0,0,0,0,0,0,0,0,0,0,0,0,0,0,0,0,0,0,0,0,0,0,0,0,0,0,0,0,0,0,0,0,0,0,0,0,0,0,0,0,0,0,1588,1589,111,111,111,111,111,111,111,111,111,170,1590,1591,0,0,0,0,0,0,0,0,0,0,0,0,0,0,0,0,0,0,0,0,0,0,0,0,0,0,0,0,0,0,0,0,0,0,0,0,0,0,0,0,0,0,0,0,0,0,0,0,0,0,0,0,0,0,0,0,0,0,0,0,0,0,0,0,0,0,0,0,0,0,0,0,0,0,0,0,0,1100,1105,1110,1115,1120,1115,1110,1125,0,0,0,0,0,0,0,0,0,0,0,0,0,0,0,0,0,0,0,0,0,0,0,0,0,0,0,0,0,0,0,0,0,0,0,0,0,0,0,0,0,0,0,0,0,0,0,0,0,0,0,0,0,0,0,0,0,0,0,0,0,0,0,0,0,0,0,0,0,0,0,0,0,0,0,0,0,0,1592,1593,111,111,111,1594,1595,1596,111,1597,1598,0,0,0,0,0,0,0,0,0,0,0,0,0,0,0,0,0,0,0,0,0,0,0,0,0,0,0,0,0,0,0,0,0,0,0,0,0,0,0,0,0,0,0,0,0,0,0,0,0,0,0,0,0,0,0,0,0,0,0,0,0,0,0,0,0,0,0,0,0,1599,1600,111,111,111,111,111,111,111,144,111,170,1601,1602,0,0,0,0,0,0,0,0,0,0,0,0,0,0,0,0,0,0,0,0,0,0,0,0,0,0,0,0,0,0,0,0,0,0,0,0,0,0,0,0,0,0,0,0,0,0,0,0,0,0,0,0,0,0,0,0,0,0,0,0,0,0,0,0,0,0,0,0,0,0,0,0,0,0,0,0,954,959,964,969,974,969,964,979,0,0,0,0,0,0,0,0,0,0,0,0,0,0,0,0,0,0,0,0,0,0,0,0,0,0,0,0,0,0,0,0,0,0,0,0,0,0,0,0,0,0,0,0,0,0,0,0,0,0,0,0,0,0,0,0,0,0,0,0,0,0,0,0,0,0,0,0,0,0,0,0,0,0,0,0,0,0,1603,1604,111,144,111,111,111,111,111,1605,0,0,0,0,0,0,0,0,0,0,0,0,0,0,0,0,0,0,0,0,0,0,0,0,0,0,0,0,0,0,0,0,0,0,0,0,0,0,0,0,0,0,0,0,0,0,0,0,0,0,0,0,0,0,0,0,0,0,0,0,0,0,0,0,0,0,0,0,0,0,0,1606,1607,111,233,167,169,158,161,234,111,111,199,1608,1284,0,0,0,0,0,0,0,0,0,0,0,0,0,0,0,0,0,0,0,0,0,0,0,0,0,0,0,0,0,0,0,0,0,0,0,0,0,0,0,0,0,0,0,0,0,0,0,0,0,0,0,0,0,0,0,0,0,0,0,0,0,0,0,0,0,0,0,0,0,0,0,0,0,0,0,1011,1016,1021,1026,1031,1026,1021,1036,0,0,0,0,0,0,0,0,0,0,0,0,0,0,0,0,0,0,0,0,0,0,0,0,0,0,0,0,0,0,0,0,0,0,0,0,0,0,0,0,0,0,0,0,0,0,0,0,0,0,0,0,0,0,0,0,0,0,0,0,0,0,0,0,0,0,0,0,0,0,0,0,0,0,0,0,0,0,1609,1610,490,234,111,111,111,111,111,1611,0,0,0,0,0,0,0,0,0,0,0,0,0,0,0,0,0,0,0,0,0,0,0,0,0,0,0,0,0,0,0,0,0,0,0,0,0,0,0,0,0,0,0,0,0,0,0,0,0,0,0,0,0,0,0,0,0,0,0,0,0,0,0,0,0,0,0,0,0,0,0,682,1612,813,111,111,111,111,111,111,111,111,111,1298,1613,534,0,0,0,0,0,0,0,0,0,0,0,0,0,0,0,0,0,0,0,0,0,0,0,0,0,0,0,0,0,0,0,0,0,0,0,0,0,0,0,0,0,0,0,0,0,0,0,0,0,0,0,0,0,0,0,0,0,0,0,0,0,0,0,0,0,0,0,0,0,0,0,0,0,0,1056,1061,1066,1071,1076,1071,1066,1081,0,0,0,0,0,0,0,0,0,0,0,0,0,0,0,0,0,0,0,0,0,0,0,0,0,0,0,0,0,0,0,0,0,0,0,0,0,0,0,0,0,0,0,0,0,0,0,0,0,0,0,0,0,0,0,0,0,0,0,0,0,0,0,0,0,0,0,0,0,0,0,0,0,0,0,0,0,0,1614,1615,111,111,111,111,111,111,111,1616,0,0,0,0,0,0,0,0,0,0,0,0,0,0,0,0,0,0,0,0,0,0,0,0,0,0,0,0,0,0,0,0,0,0,0,0,0,0,0,0,0,0,0,0,0,0,0,0,0,0,0,0,0,0,0,0,0,0,0,0,0,0,0,0,0,0,0,0,0,0,0,0,858,1617,1618,111,111,111,111,111,111,111,111,111,560,1619,277,0,0,0,0,0,0,0,0,0,0,0,0,0,0,0,0,0,0,0,0,0,0,0,0,0,0,0,0,0,0,0,0,0,0,0,0,0,0,0,0,0,0,0,0,0,0,0,0,0,0,0,0,0,0,0,0,0,0,0,0,0,0,0,0,0,0,0,0,0,0,0,0,270,1100,1105,1110,1115,1120,1115,1110,1125,1620,0,0,0,0,0,0,0,0,0,0,0,0,0,0,0,0,0,0,0,0,0,0,0,0,0,0,0,0,0,0,0,0,0,0,0,0,0,0,0,0,0,0,0,0,0,0,0,0,0,0,0,0,0,0,0,0,0,0,0,0,0,0,0,0,0,0,0,0,0,0,0,0,0,0,0,0,0,1621,111,111,111,111,111,111,111,1622,1623,0,0,0,0,0,0,0,0,0,0,0,0,0,0,0,0,0,0,0,0,0,0,0,0,0,0,0,0,0,0,0,0,0,0,0,0,0,0,0,0,0,0,0,0,0,0,0,0,0,0,0,0,0,0,0,0,0,0,0,0,0,0,0,0,0,0,0,0,0,0,0,0,0,858,1624,860,111,111,111,111,111,111,111,111,111,1625,1626,0,0,0,0,0,0,0,0,0,0,0,0,0,0,0,0,0,0,0,0,0,0,0,0,0,0,0,0,0,0,0,0,0,0,0,0,0,0,0,0,0,0,0,0,0,0,0,0,0,0,0,0,0,0,0,0,0,0,0,0,0,0,0,0,0,0,0,0,0,0,0,0,1627,1198,1203,1207,1211,1215,1211,1207,1218,1628,0,0,0,0,0,0,0,0,0,0,0,0,0,0,0,0,0,0,0,0,0,0,0,0,0,0,0,0,0,0,0,0,0,0,0,0,0,0,0,0,0,0,0,0,0,0,0,0,0,0,0,0,0,0,0,0,0,0,0,0,0,0,0,0,0,0,0,0,0,0,0,0,0,0,0,0,0,1629,111,111,111,111,111,111,111,1630,1580,0,0,0,0,0,0,0,0,0,0,0,0,0,0,0,0,0,0,0,0,0,0,0,0,0,0,0,0,0,0,0,0,0,0,0,0,0,0,0,0,0,0,0,0,0,0,0,0,0,0,0,0,0,0,0,0,0,0,0,0,0,0,0,0,0,0,0,0,0,0,0,0,0,0,895,1631,860,111,111,111,111,111,111,111,111,111,1632,1633,0,0,0,0,0,0,0,0,0,0,0,0,0,0,0,0,0,0,0,0,0,0,0,0,0,0,0,0,0,0,0,0,0,0,0,0,0,0,0,0,0,0,0,0,0,0,0,0,0,0,0,0,0,0,0,0,0,0,0,0,0,0,0,0,0,0,0,0,0,0,0,1634,1234,1239,1243,1246,1250,1246,1243,1254,1635,330,0,0,0,0,0,0,0,0,0,0,0,0,0,0,0,0,0,0,0,0,0,0,0,0,0,0,0,0,0,0,0,0,0,0,0,0,0,0,0,0,0,0,0,0,0,0,0,0,0,0,0,0,0,0,0,0,0,0,0,0,0,0,0,0,0,0,0,0,0,0,0,0,0,0,0,1637,1638,111,111,111,111,111,111,111,1639,1554,0,0,0,0,0,0,0,0,0,0,0,0,0,0,0,0,0,0,0,0,0,0,0,0,0,0,0,0,0,0,0,0,0,0,0,0,0,0,0,0,0,0,0,0,0,0,0,0,0,0,0,0,0,0,0,0,0,0,0,0,0,0,0,0,0,0,0,0,0,0,0,0,0,0,0,895,1640,698,111,111,111,111,111,111,111,111,111,1642,1643,0,0,0,0,0,0,0,0,0,0,0,0,0,0,0,0,0,0,0,0,0,0,0,0,0,0,0,0,0,0,0,0,0,0,0,0,0,0,0,0,0,0,0,0,0,0,0,0,0,0,0,0,0,0,0,0,0,0,0,0,0,0,0,0,0,0,0,0,0,1644,1645,111,111,111,111,111,111,111,144,1372,599,0,0,0,0,0,0,0,0,0,0,0,0,0,0,0,0,0,0,0,0,0,0,0,0,0,0,0,0,0,0,0,0,0,0,0,0,0,0,0,0,0,0,0,0,0,0,0,0,0,0,0,0,0,0,0,0,0,0,0,0,0,0,0,0,0,0,0,0,0,0,0,0,0,0,0,1648,1649,111,111,111,111,111,111,111,1650,323,0,0,0,0,0,0,0,0,0,0,0,0,0,0,0,0,0,0,0,0,0,0,0,0,0,0,0,0,0,0,0,0,0,0,0,0,0,0,0,0,0,0,0,0,0,0,0,0,0,0,0,0,0,0,0,0,0,0,0,0,0,0,0,0,0,0,0,0,0,0,0,0,0,0,0,0,1581,1582,1652,169,111,111,111,111,111,158,161,1654,1655,1656,0,0,0,0,0,0,0,0,0,0,0,0,0,0,0,0,0,0,0,0,0,0,0,0,0,0,0,0,0,0,0,0,0,0,0,0,0,0,0,0,0,0,0,0,0,0,0,0,0,0,0,0,0,0,0,0,0,0,0,0,0,0,0,0,0,0,0,0,1657,1658,111,111,111,111,111,158,161,234,1381,599,0,0,0,0,0,0,0,0,0,0,0,0,0,0,0,0,0,0,0,0,0,0,0,0,0,0,0,0,0,0,0,0,0,0,0,0,0,0,0,0,0,0,0,0,0,0,0,0,0,0,0,0,0,0,0,0,0,0,0,0,0,0,0,0,0,0,0,0,0,0,0,0,0,0,0,1660,1661,233,167,169,111,111,111,111,1662,0,0,0,0,0,0,0,0,0,0,0,0,0,0,0,0,0,0,0,0,0,0,0,0,0,0,0,0,0,0,0,0,0,0,0,0,0,0,0,0,0,0,0,0,0,0,0,0,0,0,0,0,0,0,0,0,0,0,0,0,0,0,0,0,0,0,0,0,0,0,0,0,0,0,0,0,0,0,1588,1663,111,111,111,111,111,111,111,111,111,1664,1665,1557,0,0,0,0,0,0,0,0,0,0,0,0,0,0,0,0,0,0,0,0,0,0,0,0,0,0,0,0,0,0,0,0,0,0,0,0,0,0,0,0,0,0,0,0,0,0,0,0,0,0,0,0,0,0,0,0,0,0,0,0,0,0,0,0,0,0,0,1666,111,111,111,111,111,111,111,111,111,1667,755,0,0,0,0,0,0,0,0,0,0,0,0,0,0,0,0,0,0,0,0,0,0,0,0,0,0,0,0,0,0,0,0,0,0,0,0,0,0,0,0,0,0,0,0,0,0,0,0,0,0,0,0,0,0,0,0,0,0,0,0,0,0,0,0,0,0,0,0,0,0,0,0,0,0,0,1670,111,111,111,111,111,111,111,111,1671,0,0,0,0,0,0,0,0,0,0,0,0,0,0,0,0,0,0,0,0,0,0,0,0,0,0,0,0,0,0,0,0,0,0,0,0,0,0,0,0,0,0,0,0,0,0,0,0,0,0,0,0,0,0,0,0,0,0,0,0,0,0,0,0,0,0,0,0,0,0,0,0,0,0,0,0,0,0,0,1672,1673,111,111,111,111,111,111,111,111,111,1561,1563,330,0,0,0,0,0,0,0,0,0,0,0,0,0,0,0,0,0,0,0,0,0,0,0,0,0,0,0,0,0,0,0,0,0,0,0,0,0,0,0,0,0,0,0,0,0,0,0,0,0,0,0,0,0,0,0,0,0,0,0,0,0,0,0,0,0,1674,1675,111,111,111,111,111,111,111,111,351,1676,0,0,0,0,0,0,0,0,0,0,0,0,0,0,0,0,0,0,0,0,0,0,0,0,0,0,0,0,0,0,0,0,0,0,0,0,0,0,0,0,0,0,0,0,0,0,0,0,0,0,0,0,0,0,0,0,0,0,0,0,0,0,0,0,0,0,0,0,0,0,0,0,0,0,0,1679,1645,111,111,111,111,111,111,111,1680,1681,0,0,0,0,0,0,0,0,0,0,0,0,0,0,0,0,0,0,0,0,0,0,0,0,0,0,0,0,0,0,0,0,0,0,0,0,0,0,0,0,0,0,0,0,0,0,0,0,0,0,0,0,0,0,0,0,0,0,0,0,0,0,0,0,0,0,0,0,0,0,0,0,0,0,0,0,0,0,0,0,1682,1683,111,111,111,111,111,111,111,111,111,1565,1684,330,0,0,0,0,0,0,0,0,0,0,0,0,0,0,0,0,0,0,0,0,0,0,0,0,0,0,0,0,0,0,0,0,0,0,0,0,0,0,0,0,0,0,0,0,0,0,0,0,0,0,0,0,0,0,0,0,0,0,0,0,0,0,0,0,1686,1128,111,111,111,111,111,111,111,111,1687,383,0,0,0,0,0,0,0,0,0,0,0,0,0,0,0,0,0,0,0,0,0,0,0,0,0,0,0,0,0,0,0,0,0,0,0,0,0,0,0,0,0,0,0,0,0,0,0,0,0,0,0,0,0,0,0,0,0,0,0,0,0,0,0,0,0,0,0,0,0,0,0,0,0,0,0,1690,1691,111,111,111,111,111,111,111,1692,1693,0,0,0,0,0,0,0,0,0,0,0,0,0,0,0,0,0,0,0,0,0,0,0,0,0,0,0,0,0,0,0,0,0,0,0,0,0,0,0,0,0,0,0,0,0,0,0,0,0,0,0,0,0,0,0,0,0,0,0,0,0,0,0,0,0,0,0,0,0,0,0,0,0,0,0,0,0,0,0,0,682,1694,1695,111,111,111,111,111,111,111,111,111,1696,1697,0,0,0,0,0,0,0,0,0,0,0,0,0,0,0,0,0,0,0,0,0,0,0,0,0,0,0,0,0,0,0,0,0,0,0,0,0,0,0,0,0,0,0,0,0,0,0,0,0,0,0,0,0,0,0,0,0,0,0,0,0,0,0,1637,1699,111,111,111,111,111,111,111,111,111,1700,0,0,0,0,0,0,0,0,0,0,0,0,0,0,0,0,0,0,0,0,0,0,0,0,0,0,0,0,0,0,0,0,0,0,0,0,0,0,0,0,0,0,0,0,0,0,0,0,0,0,0,0,0,0,0,0,0,0,0,0,0,0,0,0,0,0,0,0,0,0,0,0,0,0,0,1702,1703,111,111,111,111,111,111,111,111,1704,0,0,0,0,0,0,0,0,0,0,0,0,0,0,0,0,0,0,0,0,0,0,0,0,0,0,0,0,0,0,0,0,0,0,0,0,0,0,0,0,0,0,0,0,0,0,0,0,0,0,0,0,0,0,0,0,0,0,0,0,0,0,0,0,0,0,0,0,0,0,0,0,0,0,0,0,0,0,0,0,0,0,405,1617,1705,111,111,144,111,111,111,111,111,111,1706,1707,0,0,0,0,0,0,0,0,0,0,0,0,0,0,0,0,0,0,0,0,0,0,0,0,0,0,0,0,0,0,0,0,0,0,0,0,0,0,0,0,0,0,0,0,0,0,0,0,0,0,0,0,0,0,0,0,0,0,0,0,0,0,1709,1710,111,111,111,111,111,111,111,144,1711,1712,0,0,0,0,0,0,0,0,0,0,0,0,0,0,0,0,0,0,0,0,0,0,0,0,0,0,0,0,0,0,0,0,0,0,0,0,0,0,0,0,0,0,0,0,0,0,0,0,0,0,0,0,0,0,0,0,0,0,0,0,0,0,0,0,0,0,0,0,0,0,0,0,0,0,0,1715,1716,144,111,111,111,111,111,111,1717,1718,0,0,0,0,0,0,0,0,0,0,0,0,0,0,0,0,0,0,0,0,0,0,0,0,0,0,0,0,0,0,0,0,0,0,0,0,0,0,0,0,0,0,0,0,0,0,0,0,0,0,0,0,0,0,0,0,0,0,0,0,0,0,0,0,0,0,0,0,0,0,0,0,0,0,0,0,0,0,0,0,0,0,0,1719,1720,304,490,164,167,169,158,235,111,111,111,1721,1722,330,0,0,0,0,0,0,0,0,0,0,0,0,0,0,0,0,0,0,0,0,0,0,0,0,0,0,0,0,0,0,0,0,0,0,0,0,0,0,0,0,0,0,0,0,0,0,0,0,0,0,0,0,0,0,0,0,0,0,0,0,1726,1615,158,235,111,111,111,111,490,234,1727,1728,0,0,0,0,0,0,0,0,0,0,0,0,0,0,0,0,0,0,0,0,0,0,0,0,0,0,0,0,0,0,0,0,0,0,0,0,0,0,0,0,0,0,0,0,0,0,0,0,0,0,0,0,0,0,0,0,0,0,0,0,0,0,0,0,0,0,0,0,0,0,0,0,0,0,1729,1730,490,164,167,169,158,235,111,111,1731,1175,0,0,0,0,0,0,0,0,0,0,0,0,0,0,0,0,0,0,0,0,0,0,0,0,0,0,0,0,0,0,0,0,0,0,0,0,0,0,0,0,0,0,0,0,0,0,0,0,0,0,0,0,0,0,0,0,0,0,0,0,0,0,0,0,0,0,0,0,0,0,0,0,0,0,0,0,0,0,0,0,0,0,0,0,1732,1733,111,111,111,111,111,111,111,111,111,111,1734,467,116,0,0,0,0,0,0,0,0,0,0,0,0,0,0,0,0,0,0,0,0,0,0,0,0,0,0,0,0,0,0,0,0,0,0,0,0,0,0,0,0,0,0,0,0,0,0,0,0,0,0,0,0,0,0,0,0,0,0,1735,1736,111,111,111,111,111,111,111,111,474,1737,0,0,0,0,0,0,0,0,0,0,0,0,0,0,0,0,0,0,0,0,0,0,0,0,0,0,0,0,0,0,0,0,0,0,0,0,0,0,0,0,0,0,0,0,0,0,0,0,0,0,0,0,0,0,0,0,0,0,0,0,0,0,0,0,0,0,0,0,0,0,0,0,0,0,1459,1739,1266,111,111,111,111,111,111,111,474,1740,0,0,0,0,0,0,0,0,0,0,0,0,0,0,0,0,0,0,0,0,0,0,0,0,0,0,0,0,0,0,0,0,0,0,0,0,0,0,0,0,0,0,0,0,0,0,0,0,0,0,0,0,0,0,0,0,0,0,0,0,0,0,0,0,0,0,0,0,0,0,0,0,0,0,0,0,0,0,0,0,0,0,0,0,0,0,1741,1742,111,111,111,111,111,111,111,111,111,111,1743,1744,1745,0,0,0,0,0,0,0,0,0,0,0,0,0,0,0,0,0,0,0,0,0,0,0,0,0,0,0,0,0,0,0,0,0,0,0,0,0,0,0,0,0,0,0,0,0,0,0,0,0,0,0,0,0,0,0,0,0,1746,1747,111,111,111,111,111,111,111,111,1748,1749,0,0,0,0,0,0,0,0,0,0,0,0,0,0,0,0,0,0,0,0,0,0,0,0,0,0,0,0,0,0,0,0,0,0,0,0,0,0,0,0,0,0,0,0,0,0,0,0,0,0,0,0,0,0,0,0,0,0,0,0,0,0,0,0,0,0,0,0,0,0,0,0,0,1752,1753,1477,111,111,111,111,111,111,111,111,1754,1755,0,0,0,0,0,0,0,0,0,0,0,0,0,0,0,0,0,0,0,0,0,0,0,0,0,0,0,0,0,0,0,0,0,0,0,0,0,0,0,0,0,0,0,0,0,0,0,0,0,0,0,0,0,0,0,0,0,0,0,0,0,0,0,0,0,0,0,0,0,0,0,0,0,0,0,0,0,0,0,0,0,0,0,0,0,0,0,1756,1757,111,111,111,111,111,111,111,111,111,111,1758,1759,1602,0,0,0,0,0,0,0,0,0,0,0,0,0,0,0,0,0,0,0,0,0,0,0,0,0,0,0,0,0,0,0,0,0,0,0,0,0,0,0,0,0,0,0,0,0,0,0,0,0,0,0,0,0,0,0,0,1760,1266,111,111,111,111,111,111,111,111,1761,1762,0,0,0,0,0,0,0,0,0,0,0,0,0,0,0,0,0,0,0,0,0,0,0,0,0,0,0,0,0,0,0,0,0,0,0,0,0,0,0,0,0,0,0,0,0,0,0,0,0,0,0,0,0,0,0,0,0,0,0,0,0,0,0,0,0,0,0,0,0,0,0,0,1763,1764,122,111,111,111,111,111,111,111,111,1765,1766,755,0,0,0,0,0,0,0,0,0,0,0,0,0,0,0,0,0,0,0,0,0,0,0,0,0,0,0,0,0,0,0,0,0,0,0,0,0,0,0,0,0,0,0,0,0,0,0,0,0,0,0,0,0,0,0,0,0,0,0,0,0,0,0,0,0,0,0,0,0,0,0,0,0,0,0,0,0,0,0,0,0,0,0,0,0,0,0,682,1767,1768,111,111,111,111,111,111,111,111,111,111,199,1769,1770,1771,0,0,0,0,0,0,0,0,0,0,0,0,0,0,0,0,0,0,0,0,0,0,0,0,0,0,0,0,0,0,0,0,0,0,0,0,0,0,0,0,0,0,0,0,0,0,0,0,0,0,0,0,0,1637,1772,111,111,111,111,111,111,111,111,407,1773,0,0,0,0,0,0,0,0,0,0,0,0,0,0,0,0,0,0,0,0,0,0,0,0,0,0,0,0,0,0,0,0,0,0,0,0,0,0,0,0,0,0,0,0,0,0,0,0,0,0,0,0,0,0,0,0,0,0,0,0,0,0,0,0,0,0,0,0,0,0,0,1775,1776,1777,111,111,111,111,111,111,111,111,111,111,1778,1779,0,0,0,0,0,0,0,0,0,0,0,0,0,0,0,0,0,0,0,0,0,0,0,0,0,0,0,0,0,0,0,0,0,0,0,0,0,0,0,0,0,0,0,0,0,0,0,0,0,0,0,0,0,0,0,0,0,0,0,0,0,0,0,0,0,0,0,0,0,0,0,0,0,0,0,0,0,0,0,0,0,0,0,0,0,0,0,0,0,682,1780,1781,111,111,111,111,111,111,111,111,111,111,144,1782,1783,1784,330,0,0,0,0,0,0,0,0,0,0,0,0,0,0,0,0,0,0,0,0,0,0,0,0,0,0,0,0,0,0,0,0,0,0,0,0,0,0,0,0,0,0,0,0,0,0,0,0,0,0,0,1785,1649,111,111,144,111,111,111,111,111,1786,1787,0,0,0,0,0,0,0,0,0,0,0,0,0,0,0,0,0,0,0,0,0,0,0,0,0,0,0,0,0,0,0,0,0,0,0,0,0,0,0,0,0,0,0,0,0,0,0,0,0,0,0,0,0,0,0,0,0,0,0,0,0,0,0,0,0,0,0,0,0,1788,1789,1790,1793,111,111,111,111,111,111,111,111,111,144,1794,1795,0,0,0,0,0,0,0,0,0,0,0,0,0,0,0,0,0,0,0,0,0,0,0,0,0,0,0,0,0,0,0,0,0,0,0,0,0,0,0,0,0,0,0,0,0,0,0,0,0,0,0,0,0,0,0,0,0,0,0,0,0,0,0,0,0,0,0,0,0,0,0,0,0,0,0,0,0,0,0,0,0,0,0,0,0,0,0,0,0,0,0,940,1358,1796,111,111,111,111,111,358,169,158,161,164,619,170,1797,1798,1799,1771,0,0,0,0,0,0,0,0,0,0,0,0,0,0,0,0,0,0,0,0,0,0,0,0,0,0,0,0,0,0,0,0,0,0,0,0,0,0,0,0,0,0,0,0,0,0,0,0,0,1800,1801,158,161,164,619,111,111,111,111,1802,1147,0,0,0,0,0,0,0,0,0,0,0,0,0,0,0,0,0,0,0,0,0,0,0,0,0,0,0,0,0,0,0,0,0,0,0,0,0,0,0,0,0,0,0,0,0,0,0,0,0,0,0,0,0,0,0,0,0,0,0,0,0,0,0,0,0,0,270,1803,1804,1805,1807,161,164,619,111,111,111,111,358,169,158,161,1809,1810,1811,0,0,0,0,0,0,0,0,0,0,0,0,0,0,0,0,0,0,0,0,0,0,0,0,0,0,0,0,0,0,0,0,0,0,0,0,0,0,0,0,0,0,0,0,0,0,0,0,0,0,0,0,0,0,0,0,0,0,0,0,0,0,0,0,0,0,0,0,0,0,0,0,0,0,0,0,0,0,0,0,0,0,0,0,0,0,0,0,0,0,0,0,682,1812,1813,111,111,111,111,111,111,111,111,111,111,111,111,111,1782,1814,1815,1816,0,0,0,0,0,0,0,0,0,0,0,0,0,0,0,0,0,0,0,0,0,0,0,0,0,0,0,0,0,0,0,0,0,0,0,0,0,0,0,0,0,0,0,0,0,0,0,1817,111,111,111,111,111,111,111,111,111,1818,0,0,0,0,0,0,0,0,0,0,0,0,0,0,0,0,0,0,0,0,0,0,0,0,0,0,0,0,0,0,0,0,0,0,0,0,0,0,0,0,0,0,0,0,0,0,0,0,0,0,0,0,0,0,0,0,0,0,0,0,0,0,0,0,0,1819,1820,1821,1822,247,111,111,111,111,111,111,111,111,111,111,111,111,407,1823,687,0,0,0,0,0,0,0,0,0,0,0,0,0,0,0,0,0,0,0,0,0,0,0,0,0,0,0,0,0,0,0,0,0,0,0,0,0,0,0,0,0,0,0,0,0,0,0,0,0,0,0,0,0,0,0,0,0,0,0,0,0,0,0,0,0,0,0,0,0,0,0,0,0,0,0,0,0,0,0,0,0,0,0,0,0,0,0,0,0,0,0,0,0,0,682,1824,1825,111,111,111,111,111,111,111,111,111,111,111,111,111,111,273,1826,1827,1828,1829,1830,0,0,0,0,0,0,0,0,0,0,0,0,0,0,0,0,0,0,0,0,0,0,0,0,0,0,0,0,0,0,0,0,0,0,0,0,0,0,0,0,0,0,0,693,111,111,111,111,111,111,111,111,1832,1833,0,0,0,0,0,0,0,0,0,0,0,0,0,0,0,0,0,0,0,0,0,0,0,0,0,0,0,0,0,0,0,0,0,0,0,0,0,0,0,0,0,0,0,0,0,0,0,0,0,0,0,0,0,0,0,0,0,0,0,0,0,0,440,1834,1835,1836,1837,111,111,111,111,111,111,111,111,111,111,111,111,111,111,474,1838,1839,0,0,0,0,0,0,0,0,0,0,0,0,0,0,0,0,0,0,0,0,0,0,0,0,0,0,0,0,0,0,0,0,0,0,0,0,0,0,0,0,0,0,0,0,0,0,0,0,0,0,0,0,0,0,0,0,0,0,0,0,0,0,0,0,0,0,0,0,0,0,0,0,0,0,0,0,0,0,0,0,0,0,0,0,0,0,0,0,0,0,0,0,0,0,0,0,0,1840,1841,1842,111,111,111,111,111,111,111,111,111,111,111,111,111,111,111,273,1843,1844,1845,1846,1847,0,0,0,0,0,0,0,0,0,0,0,0,0,0,0,0,0,0,0,0,0,0,1849,365,1850,1851,1852,1853,1854,372,372,1855,1856,372,1857,1858,1859,1860,1861,1862,1863,111,111,111,111,111,111,111,111,1553,1554,0,0,0,0,0,0,0,0,0,0,0,0,0,0,0,0,0,0,0,0,0,0,0,0,0,0,0,0,0,0,0,0,0,0,0,0,0,0,0,0,0,0,0,0,0,0,0,0,0,0,0,0,0,0,0,0,0,0,0,270,1864,393,1865,1866,110,111,111,111,111,111,111,111,111,111,111,111,111,111,111,111,1867,1868,1869,0,0,0,0,0,0,0,0,0,0,0,0,0,0,0,0,0,0,0,0,0,0,0,0,0,0,0,0,0,0,0,0,0,0,0,0,0,0,0,0,0,0,0,0,0,0,0,0,0,0,0,0,0,0,0,0,0,0,0,0,0,0,0,0,0,0,0,0,0,0,0,0,0,0,0,0,0,0,0,0,0,0,0,0,0,0,0,0,0,0,0,0,0,0,0,0,0,0,0,1870,1871,1872,111,111,111,111,111,111,111,111,111,111,111,111,111,111,111,111,111,170,1873,1874,1875,1876,1877,1847,0,0,0,0,0,0,0,0,0,0,0,0,0,0,270,1878,1879,1880,1881,1882,1883,111,111,111,111,111,111,111,111,111,111,111,111,111,170,1883,1884,111,111,111,111,111,111,111,111,1885,1886,0,0,0,0,0,0,0,0,0,0,0,0,0,0,0,0,0,0,0,0,0,0,0,0,0,0,0,0,0,0,0,0,0,0,0,0,0,0,0,0,0,0,0,0,0,0,0,0,0,0,0,0,0,0,0,0,79,1887,1888,1889,1890,1891,111,111,111,111,111,111,111,111,111,111,111,111,111,111,111,111,474,1893,1894,1895,0,0,0,0,0,0,0,0,0,0,0,0,0,0,0,0,0,0,0,0,0,0,0,0,0,0,0,0,0,0,0,0,0,0,0,0,0,0,0,0,0,0,0,0,0,0,0,0,0,0,0,0,0,0,0,0,0,0,0,0,0,0,0,0,0,0,0,0,0,0,0,0,0,0,0,0,0,0,0,0,0,0,0,0,0,0,0,0,0,0,0,0,0,0,0,0,0,0,0,0,0,1896,1897,1898,1899,111,111,111,111,111,111,111,111,111,111,144,111,111,111,111,111,111,111,111,123,1901,1902,1903,1904,1905,1906,0,0,0,0,0,0,0,0,1819,1907,1908,1822,1909,111,144,111,111,111,111,111,111,111,111,111,144,111,111,111,111,111,111,111,111,111,144,111,111,111,111,111,111,1910,1911,1912,1915,1916,100,1917,1918,1830,0,0,0,0,0,0,0,0,0,0,0,0,0,0,0,0,0,0,0,0,0,0,0,0,0,0,0,0,0,0,0,0,0,0,0,0,0,0,0,0,0,0,0,0,0,0,1919,1920,1921,1923,1924,1891,111,111,144,111,111,111,111,111,111,111,111,111,144,111,111,111,111,111,1926,1927,1928,409,0,0,0,0,0,0,0,0,0,0,0,0,0,0,0,0,0,0,0,0,0,0,0,0,0,0,0,0,0,0,0,0,0,0,0,0,0,0,0,0,0,0,0,0,0,0,0,0,0,0,0,0,0,0,0,0,0,0,0,0,0,0,0,0,0,0,0,0,0,0,0,0,0,0,0,0,0,0,0,0,0,0,0,0,0,0,0,0,0,0,0,0,0,0,0,0,0,0,0,0,0,0,0,0,1929,1930,759,358,169,111,111,111,111,111,158,161,164,167,169,111,111,111,111,111,158,161,164,167,169,111,1933,1934,1935,1936,1937,1938,116,0,1939,1940,1941,1942,111,111,158,161,164,167,169,111,111,111,111,111,158,161,164,167,169,111,111,111,111,111,158,161,164,167,169,111,111,111,111,111,158,161,164,167,1945,1946,1947,1948,1911,1949,1950,1951,222,1952,1953,1938,1830,0,0,0,0,0,0,0,0,0,0,0,0,0,0,0,0,0,0,0,0,0,0,0,0,0,0,0,0,0,0,0,0,0,0,1954,1820,1955,1956,1957,247,111,111,111,158,161,164,167,169,111,111,111,111,111,158,161,164,167,169,111,685,1958,1959,1960,0,0,0,0,0,0,0,0,0,0,0,0,0,0,0,0,0,0,0,0,0,0,0,0,0,0,0,0,0,0,0,0,0,0,0,0,0,0,0,0,0,0,0,0,0,0,0,0,0,0,0,0,0,0,0,0,0,0,0,0,0,0,0,0,0,0,0,0,0,0,0,0,0,0,0,0,0,0,0,0,0,0,0,0,0,0,0,0,0,0,0,0,0,0,0,0,0,0,0,0,0,0,0,0,0,0,0,800,801,1961,1962,111,111,111,111,111,111,111,111,111,111,111,111,111,111,111,111,111,111,111,111,111,111,111,111,170,1946,1964,1965,1966,1967,1968,111,111,111,111,111,111,111,111,111,111,111,111,111,111,111,111,111,111,111,111,111,111,111,111,111,111,111,111,111,111,111,111,111,111,111,111,111,111,111,111,111,111,111,111,111,111,123,1883,1969,1970,1948,1971,1972,1973,1974,1953,1918,80,330,0,0,0,0,0,0,0,0,0,0,0,0,0,0,0,0,0,0,0,0,0,0,440,1975,1976,1977,1978,1979,111,111,111,111,111,111,111,111,111,111,111,111,111,111,111,111,111,111,111,111,111,1982,1983,1984,1985,0,0,0,0,0,0,0,0,0,0,0,0,0,0,0,0,0,0,0,0,0,0,0,0,0,0,0,0,0,0,0,0,0,0,0,0,0,0,0,0,0,0,0,0,0,0,0,0,0,0,0,0,0,0,0,0,0,0,0,0,0,0,0,0,0,0,0,0,0,0,0,0,0,0,0,0,0,0,0,0,0,0,0,0,0,0,0,0,0,0,0,0,0,0,0,0,0,0,0,0,0,0,0,0,0,0,0,0,0,0,0,800,1986,1987,1988,304,111,111,111,111,111,111,111,111,111,111,111,111,111,111,111,111,111,111,111,111,111,111,111,111,111,111,111,111,111,111,111,111,111,111,111,111,111,111,111,111,111,111,111,111,111,111,111,111,111,111,111,111,111,111,111,111,111,111,111,111,111,111,111,111,111,111,111,111,111,111,111,111,111,111,111,111,111,111,111,111,111,111,1991,1969,1992,1993,1971,1994,1995,1996,1997,1998,0,0,0,0,0,0,0,0,0,0,0,0,0,0,270,1999,2000,2001,2002,2003,111,111,111,111,111,111,111,111,111,111,111,111,111,111,111,111,111,111,111,111,111,111,2005,2006,2007,2008,0,0,0,0,0,0,0,0,0,0,0,0,0,0,0,0,0,0,0,0,0,0,0,0,0,0,0,0,0,0,0,0,0,0,0,0,0,0,0,0,0,0,0,0,0,0,0,0,0,0,0,0,0,0,0,0,0,0,0,0,0,0,0,0,0,0,0,0,0,0,0,0,0,0,0,0,0,0,0,0,0,0,0,0,0,0,0,0,0,0,0,0,0,0,0,0,0,0,0,0,0,0,0,0,0,0,0,0,0,0,0,0,0,0,0,2009,2010,2011,2012,2013,2014,111,111,111,111,111,111,111,111,111,111,111,111,111,111,111,111,111,111,111,111,111,111,111,111,111,111,111,111,111,111,111,111,111,111,111,111,111,111,111,111,111,111,111,111,111,111,111,111,111,111,111,111,111,111,111,111,111,111,111,111,111,111,111,111,111,111,111,111,111,111,111,111,111,111,111,111,111,111,111,111,111,111,111,111,111,111,251,2017,2018,1994,2019,1877,2020,0,0,0,0,0,0,0,440,2021,2022,2023,2024,247,111,111,111,111,111,111,111,111,111,111,111,111,111,111,111,111,111,111,111,111,111,111,2027,2028,2029,2030,527,0,0,0,0,0,0,0,0,0,0,0,0,0,0,0,0,0,0,0,0,0,0,0,0,0,0,0,0,0,0,0,0,0,0,0,0,0,0,0,0,0,0,0,0,0,0,0,0,0,0,0,0,0,0,0,0,0,0,0,0,0,0,0,0,0,0,0,0,0,0,0,0,0,0,0,0,0,0,0,0,0,0,0,0,0,0,0,0,0,0,0,0,0,0,0,0,0,0,0,0,0,0,0,0,0,0,0,0,0,0,0,0,0,0,0,0,0,0,0,0,2031,2032,2033,2034,2035,1899,111,111,111,111,111,111,111,111,111,111,111,111,111,111,111,111,111,111,111,111,111,111,111,111,111,111,111,111,111,111,111,111,111,111,111,111,111,111,111,111,111,111,111,111,111,111,111,111,111,111,111,111,111,111,111,111,111,111,111,111,111,111,111,111,111,111,111,111,111,111,111,111,111,111,111,111,111,111,111,111,111,111,111,111,111,111,111,123,2038,2039,2040,2041,2042,0,0,0,463,464,2043,110,111,111,111,111,111,111,111,111,111,111,111,111,111,111,111,111,111,111,111,111,111,111,685,2046,2047,2048,1092,0,0,0,0,0,0,0,0,0,0,0,0,0,0,0,0,0,0,0,0,0,0,0,0,0,0,0,0,0,0,0,0,0,0,0,0,0,0,0,0,0,0,0,0,0,0,0,0,0,0,0,0,0,0,0,0,0,0,0,0,0,0,0,0,0,0,0,0,0,0,0,0,0,0,0,0,0,0,0,0,0,0,0,0,0,0,0,0,0,0,0,0,0,0,0,0,0,0,0,0,0,0,0,0,0,0,0,0,0,0,0,0,0,0,0,0,0,0,0,0,0,0,0,0,0,0,2009,2049,2050,2052,2053,2054,111,111,111,111,111,111,111,111,144,111,111,111,111,111,111,111,111,111,144,111,111,111,111,111,111,111,111,111,144,111,111,111,111,111,111,111,111,111,144,111,111,111,111,111,111,111,111,111,144,111,111,111,111,111,111,111,111,111,144,111,111,111,111,111,111,111,111,111,144,111,111,111,111,111,111,111,111,111,144,111,111,111,111,111,111,111,111,111,2058,2059,2060,2061,2062,2063,487,111,111,111,144,111,111,111,111,111,111,111,111,111,144,111,111,111,111,111,111,111,2064,2065,2066,2067,2068,409,0,0,0,0,0,0,0,0,0,0,0,0,0,0,0,0,0,0,0,0,0,0,0,0,0,0,0,0,0,0,0,0,0,0,0,0,0,0,0,0,0,0,0,0,0,0,0,0,0,0,0,0,0,0,0,0,0,0,0,0,0,0,0,0,0,0,0,0,0,0,0,0,0,0,0,0,0,0,0,0,0,0,0,0,0,0,0,0,0,0,0,0,0,0,0,0,0,0,0,0,0,0,0,0,0,0,0,0,0,0,0,0,0,0,0,0,0,0,0,0,0,0,0,0,0,0,0,0,0,0,0,682,2069,2070,2071,2072,2073,2054,358,169,158,161,234,111,111,111,111,233,167,169,158,161,234,111,111,111,111,233,167,169,158,161,234,111,111,111,111,233,167,169,158,161,234,111,111,111,111,233,167,169,158,161,234,111,111,111,111,233,167,169,158,161,234,111,111,111,111,233,167,169,158,161,234,111,111,111,111,233,167,169,158,161,234,111,111,111,111,233,167,169,158,161,234,111,111,2075,2076,2077,358,169,158,161,234,111,111,111,111,233,167,169,158,161,234,111,111,111,111,474,2079,2080,2081,2082,2083,0,0,0,0,0,0,0,0,0,0,0,0,0,0,0,0,0,0,0,0,0,0,0,0,0,0,0,0,0,0,0,0,0,0,0,0,0,0,0,0,0,0,0,0,0,0,0,0,0,0,0,0,0,0,0,0,0,0,0,0,0,0,0,0,0,0,0,0,0,0,0,0,0,0,0,0,0,0,0,0,0,0,0,0,0,0,0,0,0,0,0,0,0,0,0,0,0,0,0,0,0,0,0,0,0,0,0,0,0,0,0,0,0,0,0,0,0,0,0,0,0,0,0,0,0,0,0,0,0,0,0,0,0,0,0,0,0,0,2086,2087,2070,2089,2090,2091,2092,111,111,111,111,111,111,111,111,111,111,111,111,111,111,111,111,111,111,111,111,111,111,111,111,111,111,111,111,111,111,111,111,111,111,111,111,111,111,111,111,111,111,111,111,111,111,111,111,111,111,111,111,111,111,111,111,111,111,111,111,111,111,111,111,111,111,111,111,111,111,111,111,111,111,111,111,111,111,111,111,111,111,111,111,111,111,111,111,111,111,111,111,111,111,111,111,111,111,111,111,111,111,2064,2093,2094,2095,2097,527,0,0,0,0,0,0,0,0,0,0,0,0,0,0,0,0,0,0,0,0,0,0,0,0,0,0,0,0,0,0,0,0,0,0,0,0,0,0,0,0,0,0,0,0,0,0,0,0,0,0,0,0,0,0,0,0,0,0,0,0,0,0,0,0,0,0,0,0,0,0,0,0,0,0,0,0,0,0,0,0,0,0,0,0,0,0,0,0,0,0,0,0,0,0,0,0,0,0,0,0,0,0,0,0,0,0,0,0,0,0,0,0,0,0,0,0,0,0,0,0,0,0,0,0,0,0,0,0,0,0,0,0,0,0,0,0,0,0,0,0,0,0,0,0,270,2101,2102,111,111,111,111,111,111,111,111,111,111,111,111,111,111,111,111,111,111,111,111,111,111,111,111,111,111,111,111,111,111,111,111,111,111,111,111,111,111,111,111,111,111,111,111,111,111,111,111,111,111,111,111,111,111,111,111,111,111,111,111,111,111,111,111,111,111,111,111,111,111,111,111,111,111,111,111,111,111,111,111,111,111,111,111,111,111,111,111,111,111,111,111,111,111,111,111,111,111,111,111,2103,2046,2104,2105,2082,409,0,0,0,0,0,0,0,0,0,0,0,0,0,0,0,0,0,0,0,0,0,0,0,0,0,0,0,0,0,0,0,0,0,0,0,0,0,0,0,0,0,0,0,0,0,0,0,0,0,0,0,0,0,0,0,0,0,0,0,0,0,0,0,0,0,0,0,0,0,0,0,0,0,0,0,0,0,0,0,0,0,0,0,0,0,0,0,0,0,0,0,0,0,0,0,0,0,0,0,0,0,0,0,0,0,0,0,0,0,0,0,0,0,0,0,0,0,0,0,0,0,0,0,0,0,0,0,0,0,0,0,0,0,0,0,0,0,0,0,0,0,0,0,0,0,0,0,2110,2111,111,111,111,111,111,111,111,111,111,111,111,111,111,111,111,111,111,111,111,111,111,111,111,111,111,111,111,111,111,111,111,111,111,111,111,111,111,111,111,111,111,111,111,111,111,111,111,111,111,111,111,111,111,111,111,111,111,111,111,111,111,111,111,111,111,111,111,111,111,111,111,111,111,111,111,111,111,111,111,111,111,111,111,111,111,111,111,111,111,111,111,111,111,111,111,111,111,993,2112,2113,2114,2115,2116,409,0,0,0,0,0,0,0,0,0,0,0,0,0,0,0,0,0,0,0,0,0,0,0,0,0,0,0,0,0,0,0,0,0,0,0,0,0,0,0,0,0,0,0,0,0,0,0,0,0,0,0,0,0,0,0,0,0,0,0,0,0,0,0,0,0,0,0,0,0,0,0,0,0,0,0,0,0,0,0,0,0,0,0,0,0,0,0,0,0,0,0,0,0,0,0,0,0,0,0,0,0,0,0,0,0,0,0,0,0,0,0,0,0,0,0,0,0,0,0,0,0,0,0,0,0,0,0,0,0,0,0,0,0,0,0,0,0,0,0,0,0,0,0,0,0,0,0,0,0,2120,2121,111,111,111,111,111,111,111,111,111,111,111,111,111,111,111,111,111,111,111,111,111,111,111,111,111,111,111,111,111,111,111,111,111,111,111,111,111,111,111,111,111,111,111,111,111,111,111,111,111,111,111,111,111,111,111,111,111,111,111,111,111,111,111,111,111,111,111,111,111,111,111,111,111,111,111,111,111,111,111,111,111,111,111,111,111,111,111,111,111,111,111,111,111,111,111,2064,2122,2123,2124,2125,2126,0,0,0,0,0,0,0,0,0,0,0,0,0,0,0,0,0,0,0,0,0,0,0,0,0,0,0,0,0,0,0,0,0,0,0,0,0,0,0,0,0,0,0,0,0,0,0,0,0,0,0,0,0,0,0,0,0,0,0,0,0,0,0,0,0,0,0,0,0,0,0,0,0,0,0,0,0,0,0,0,0,0,0,0,0,0,0,0,0,0,0,0,0,0,0,0,0,0,0,0,0,0,0,0,0,0,0,0,0,0,0,0,0,0,0,0,0,0,0,0,0,0,0,0,0,0,0,0,0,0,0,0,0,0,0,0,0,0,0,0,0,0,0,0,0,0,0,0,0,0,0,0,2128,2129,111,111,144,111,111,111,111,111,111,111,111,111,144,111,111,111,111,111,111,111,111,111,144,111,111,111,111,111,111,111,111,111,144,111,111,111,111,111,111,111,111,111,144,111,111,111,111,111,111,111,111,111,144,111,111,111,111,111,111,111,111,111,144,111,111,111,111,111,111,111,111,111,144,111,111,111,111,111,111,111,111,111,144,111,111,111,111,111,111,111,111,111,144,111,111,2130,2131,2132,2133,0,0,0,0,0,0,0,0,0,0,0,0,0,0,0,0,0,0,0,0,0,0,0,0,0,0,0,0,0,0,0,0,0,0,0,0,0,0,0,0,0,0,0,0,0,0,0,0,0,0,0,0,0,0,0,0,0,0,0,0,0,0,0,0,0,0,0,0,0,0,0,0,0,0,0,0,0,0,0,0,0,0,0,0,0,0,0,0,0,0,0,0,0,0,0,0,0,0,0,0,0,0,0,0,0,0,0,0,0,0,0,0,0,0,0,0,0,0,0,0,0,0,0,0,0,0,0,0,0,0,0,0,0,0,0,0,0,0,0,0,0,0,0,0,0,0,0,0,0,0,0,0,0,0,0,2135,122,158,161,164,167,169,111,111,111,111,111,158,161,164,167,169,111,111,111,111,111,158,161,164,167,169,111,111,111,111,111,158,161,164,167,169,111,111,111,111,111,158,161,164,167,169,111,111,111,111,111,158,161,164,167,169,111,111,111,111,111,158,161,164,167,169,111,111,111,111,111,158,161,164,167,169,111,111,111,111,111,158,161,164,167,169,111,111,111,111,111,158,161,164,167,169,111,1298,2136,1557,0,0,0,0,0,0,0,0,0,0,0,0,0,0,0,0,0,0,0,0,0,0,0,0,0,0,0,0,0,0,0,0,0,0,0,0,0,0,0,0,0,0,0,0,0,0,0,0,0,0,0,0,0,0,0,0,0,0,0,0,0,0,0,0,0,0,0,0,0,0,0,0,0,0,0,0,0,0,0,0,0,0,0,0,0,0,0,0,0,0,0,0,0,0,0,0,0,0,0,0,0,0,0,0,0,0,0,0,0,0,0,0,0,0,0,0,0,0,0,0,0,0,0,0,0,0,0,0,0,0,0,0,0,0,0,0,0,0,0,0,0,0,0,0,0,0,0,0,0,0,0,0,0,0,531,2138,111,111,111,111,111,111,111,111,111,111,111,111,111,111,111,111,111,111,111,111,111,111,111,111,111,111,111,111,111,111,111,111,111,111,111,111,111,111,111,111,111,111,111,111,111,111,111,111,111,111,111,111,111,111,111,111,111,111,111,111,111,111,111,111,111,111,111,111,111,111,111,111,111,111,111,111,111,111,111,111,111,111,111,111,111,111,111,111,111,111,111,111,111,111,111,111,111,111,2140,2141,1557,0,0,0,0,0,0,0,0,0,0,0,0,0,0,0,0,0,0,0,0,0,0,0,0,0,0,0,0,0,0,0,0,0,0,0,0,0,0,0,0,0,0,0,0,0,0,0,0,0,0,0,0,0,0,0,0,0,0,0,0,0,0,0,0,0,0,0,0,0,0,0,0,0,0,0,0,0,0,0,0,0,0,0,0,0,0,0,0,0,0,0,0,0,0,0,0,0,0,0,0,0,0,0,0,0,0,0,0,0,0,0,0,0,0,0,0,0,0,0,0,0,0,0,0,0,0,0,0,0,0,0,0,0,0,0,0,0,0,0,0,0,0,0,0,0,0,0,0,0,0,0,0,0,2143,2144,111,111,111,111,111,111,111,111,111,111,111,111,111,111,111,111,111,111,111,111,111,111,111,111,111,111,111,111,111,111,111,111,111,111,111,111,111,111,111,111,111,111,111,111,111,111,111,111,111,111,111,111,111,111,111,111,111,111,111,111,111,111,111,111,111,111,111,111,111,111,111,111,111,111,111,111,111,111,111,111,111,111,111,111,111,111,111,111,111,111,111,111,111,111,111,111,111,111,111,1561,2146,0,0,0,0,0,0,0,0,0,0,0,0,0,0,0,0,0,0,0,0,0,0,0,0,0,0,0,0,0,0,0,0,0,0,0,0,0,0,0,0,0,0,0,0,0,0,0,0,0,0,0,0,0,0,0,0,0,0,0,0,0,0,0,0,0,0,0,0,0,0,0,0,0,0,0,0,0,0,0,0,0,0,0,0,0,0,0,0,0,0,0,0,0,0,0,0,0,0,0,0,0,0,0,0,0,0,0,0,0,0,0,0,0,0,0,0,0,0,0,0,0,0,0,0,0,0,0,0,0,0,0,0,0,0,0,0,0,0,0,0,0,0,0,0,0,0,0,0,0,0,0,0,0,2143,2144,111,111,111,111,111,111,111,111,111,111,111,111,111,111,111,111,111,111,111,111,111,111,111,111,111,111,111,111,111,111,111,111,111,111,111,111,111,111,111,111,111,111,111,111,111,111,111,111,111,111,111,111,111,111,111,111,111,111,111,111,111,111,111,111,111,111,111,111,111,111,111,111,111,111,111,111,111,111,111,111,111,111,111,111,111,111,111,111,111,111,111,111,111,111,111,111,111,111,111,111,2149,2150,0,0,0,0,0,0,0,0,0,0,0,0,0,0,0,0,0,0,0,0,0,0,0,0,0,0,0,0,0,0,0,0,0,0,0,0,0,0,0,0,0,0,0,0,0,0,0,0,0,0,0,0,0,0,0,0,0,0,0,0,0,0,0,0,0,0,0,0,0,0,0,0,0,0,0,0,0,0,0,0,0,0,0,0,0,0,0,0,0,0,0,0,0,0,0,0,0,0,0,0,0,0,0,0,0,0,0,0,0,0,0,0,0,0,0,0,0,0,0,0,0,0,0,0,0,0,0,0,0,0,0,0,0,0,0,0,0,0,0,0,0,0,0,0,0,0,0,0,0,0,0,0,2143,2151,111,111,111,111,111,111,111,111,111,111,111,111,111,111,111,111,111,111,111,111,111,111,111,111,111,111,111,111,111,111,111,111,111,111,111,111,111,111,111,111,111,111,111,111,111,111,111,111,111,111,111,111,111,111,111,111,111,111,111,111,111,111,111,111,111,111,111,111,111,111,111,111,111,111,111,111,111,111,111,111,111,111,111,111,111,111,111,111,111,111,111,111,111,111,111,111,111,111,111,111,170,2152,1545,0,0,0,0,0,0,0,0,0,0,0,0,0,0,0,0,0,0,0,0,0,0,0,0,0,0,0,0,0,0,0,0,0,0,0,0,0,0,0,0,0,0,0,0,0,0,0,0,0,0,0,0,0,0,0,0,0,0,0,0,0,0,0,0,0,0,0,0,0,0,0,0,0,0,0,0,0,0,0,0,0,0,0,0,0,0,0,0,0,0,0,0,0,0,0,0,0,0,0,0,0,0,0,0,0,0,0,0,0,0,0,0,0,0,0,0,0,0,0,0,0,0,0,0,0,0,0,0,0,0,0,0,0,0,0,0,0,0,0,0,0,0,0,0,0,0,0,0,0,0,0,2153,2154,111,144,111,111,111,111,111,111,111,111,111,144,111,111,111,111,111,111,111,111,111,144,111,111,111,111,111,111,111,111,111,144,111,111,111,111,111,111,111,111,111,144,111,111,111,111,111,111,111,111,111,144,111,111,111,111,111,111,111,111,111,144,111,111,111,111,111,111,111,111,111,144,111,111,111,111,111,111,111,111,111,144,111,111,111,111,111,111,111,111,111,144,111,111,111,111,111,111,111,111,111,2158,2159,0,0,0,0,0,0,0,0,0,0,0,0,0,0,0,0,0,0,0,0,0,0,0,0,0,0,0,0,0,0,0,0,0,0,0,0,0,0,0,0,0,0,0,0,0,0,0,0,0,0,0,0,0,0,0,0,0,0,0,0,0,0,0,0,0,0,0,0,0,0,0,0,0,0,0,0,0,0,0,0,0,0,0,0,0,0,0,0,0,0,0,0,0,0,0,0,0,0,0,0,0,0,0,0,0,0,0,0,0,0,0,0,0,0,0,0,0,0,0,0,0,0,0,0,0,0,0,0,0,0,0,0,0,0,0,0,0,0,0,0,0,0,0,0,0,0,0,0,0,0,0,0,380,2163,164,167,169,158,235,111,111,111,111,490,164,167,169,158,235,111,111,111,111,490,164,167,169,158,235,111,111,111,111,490,164,167,169,158,235,111,111,111,111,490,164,167,169,158,235,111,111,111,111,490,164,167,169,158,235,111,111,111,111,490,164,167,169,158,235,111,111,111,111,490,164,167,169,158,235,111,111,111,111,490,164,167,169,158,235,111,111,111,111,490,164,167,169,158,235,111,111,111,111,490,2166,504,0,0,0,0,0,0,0,0,0,0,0,0,0,0,0,0,0,0,0,0,0,0,0,0,0,0,0,0,0,0,0,0,0,0,0,0,0,0,0,0,0,0,0,0,0,0,0,0,0,0,0,0,0,0,0,0,0,0,0,0,0,0,0,0,0,0,0,0,0,0,0,0,0,0,0,0,0,0,0,0,0,0,0,0,0,0,0,0,0,0,0,0,0,0,0,0,0,0,0,0,0,0,0,0,0,0,0,0,0,0,0,0,0,0,0,0,0,0,0,0,0,0,0,0,0,0,0,0,0,0,0,0,0,0,0,0,0,0,0,0,0,0,0,0,0,0,0,0,0,0,0,0,940,2167,1705,111,111,111,111,111,111,111,111,111,111,111,111,111,111,111,111,111,111,111,111,111,111,111,111,111,111,111,111,111,111,111,111,111,111,111,111,111,111,111,111,111,111,111,111,111,111,111,111,111,111,111,111,111,111,111,111,111,111,111,111,111,111,111,111,111,111,111,111,111,111,111,111,111,111,111,111,111,111,111,111,111,111,111,111,111,111,111,111,111,111,111,111,111,111,111,111,111,111,111,111,2168,0,0,0,0,0,0,0,0,0,0,0,0,0,0,0,0,0,0,0,0,0,0,0,0,0,0,0,0,0,0,0,0,0,0,0,0,0,0,0,0,0,0,0,0,0,0,0,0,0,0,0,0,0,0,0,0,0,0,0,0,0,0,0,0,0,0,0,0,0,0,0,0,0,0,0,0,0,0,0,0,0,0,0,0,0,0,0,0,0,0,0,0,0,0,0,0,0,0,0,0,0,0,0,0,0,0,0,0,0,0,0,0,0,0,0,0,0,0,0,0,0,0,0,0,0,0,0,0,0,0,0,0,0,0,0,0,0,0,0,0,0,0,0,0,0,0,0,0,0,0,0,0,0,1719,2170,698,111,111,111,111,111,111,111,111,111,111,111,111,111,111,111,111,111,111,111,111,111,111,111,111,111,111,111,111,111,111,111,111,111,111,111,111,111,111,111,111,111,111,111,111,111,111,111,111,111,111,111,111,111,111,111,111,111,111,111,111,111,111,111,111,111,111,111,111,111,111,111,111,111,111,111,111,111,111,111,111,111,111,111,111,111,111,111,111,111,111,111,111,111,111,111,111,111,111,111,2171,0,0,0,0,0,0,0,0,0,0,0,0,0,0,0,0,0,0,0,0,0,0,0,0,0,0,0,0,0,0,0,0,0,0,0,0,0,0,0,0,0,0,0,0,0,0,0,0,0,0,0,0,0,0,0,0,0,0,0,0,0,0,0,0,0,0,0,0,0,0,0,0,0,0,0,0,0,0,0,0,0,0,0,0,0,0,0,0,0,0,0,0,0,0,0,0,0,0,0,0,0,0,0,0,0,0,0,0,0,0,0,0,0,0,0,0,0,0,0,0,0,0,0,0,0,0,0,0,0,0,0,0,0,0,0,0,0,0,0,0,0,0,0,0,0,0,0,0,0,0,0,0,0,0,1581,723,698,111,111,111,111,111,111,111,111,111,111,111,111,111,111,111,111,111,111,111,111,111,111,111,111,111,111,111,111,111,111,111,111,111,111,111,111,111,111,111,111,111,111,111,111,111,111,111,111,111,111,111,111,111,111,111,111,111,111,111,111,111,111,111,111,111,111,111,111,111,111,111,111,111,111,111,111,111,111,111,111,111,111,111,111,111,111,111,111,111,111,111,111,111,111,111,111,111,474,2173,0,0,0,0,0,0,0,0,0,0,0,0,0,0,0,0,0,0,0,0,0,0,0,0,0,0,0,0,0,0,0,0,0,0,0,0,0,0,0,0,0,0,0,0,0,0,0,0,0,0,0,0,0,0,0,0,0,0,0,0,0,0,0,0,0,0,0,0,0,0,0,0,0,0,0,0,0,0,0,0,0,0,0,0,0,0,0,0,0,0,0,0,0,0,0,0,0,0,0,0,0,0,0,0,0,0,0,0,0,0,0,0,0,0,0,0,0,0,0,0,0,0,0,0,0,0,0,0,0,0,0,0,0,0,0,0,0,0,0,0,0,0,0,0,0,0,0,0,0,0,0,0,0,0,0,1581,723,1842,111,111,111,111,111,111,111,111,111,111,111,111,111,111,111,111,111,111,111,111,111,111,111,111,111,111,111,111,111,111,111,111,111,111,111,111,111,111,111,111,111,111,111,111,111,111,111,111,111,111,111,111,111,111,111,111,111,111,111,111,111,111,111,111,111,111,111,111,111,111,111,111,111,111,111,111,111,111,111,111,111,111,111,111,111,111,111,111,111,111,111,111,111,111,111,111,1461,2175,0,0,0,0,0,0,0,0,0,0,0,0,0,0,0,0,0,0,0,0,0,0,0,0,0,0,0,0,0,0,0,0,0,0,0,0,0,0,0,0,0,0,0,0,0,0,0,0,0,0,0,0,0,0,0,0,0,0,0,0,0,0,0,0,0,0,0,0,0,0,0,0,0,0,0,0,0,0,0,0,0,0,0,0,0,0,0,0,0,0,0,0,0,0,0,0,0,0,0,0,0,0,0,0,0,0,0,0,0,0,0,0,0,0,0,0,0,0,0,0,0,0,0,0,0,0,0,0,0,0,0,0,0,0,0,0,0,0,0,0,0,0,0,0,0,0,0,0,0,0,0,0,0,0,0,0,2177,2178,1345,111,111,111,111,111,111,111,111,144,111,111,111,111,111,111,111,111,111,144,111,111,111,111,111,111,111,111,111,144,111,111,111,111,111,111,111,111,111,144,111,111,111,111,111,111,111,111,111,144,111,111,111,111,111,111,111,111,111,144,111,111,111,111,111,111,111,111,111,144,111,111,111,111,111,111,111,111,111,144,111,111,111,111,111,111,111,111,111,144,111,111,111,111,111,2179,2180,409,0,0,0,0,0,0,0,0,0,0,0,0,0,0,0,0,0,0,0,0,0,0,0,0,0,0,0,0,0,0,0,0,0,0,0,0,0,0,0,0,0,0,0,0,0,0,0,0,0,0,0,0,0,0,0,0,0,0,0,0,0,0,0,0,0,0,0,0,0,0,0,0,0,0,0,0,0,0,0,0,0,0,0,0,0,0,0,0,0,0,0,0,0,0,0,0,0,0,0,0,0,0,0,0,0,0,0,0,0,0,0,0,0,0,0,0,0,0,0,0,0,0,0,0,0,0,0,0,0,0,0,0,0,0,0,0,0,0,0,0,0,0,0,0,0,0,0,0,0,0,0,0,0,0,0,0,0,1357,2183,2184,304,111,111,358,169,158,161,164,619,111,111,111,111,358,169,158,161,164,619,111,111,111,111,358,169,158,161,164,619,111,111,111,111,358,169,158,161,164,619,111,111,111,111,358,169,158,161,164,619,111,111,111,111,358,169,158,161,164,619,111,111,111,111,358,169,158,161,164,619,111,111,111,111,358,169,158,161,164,619,111,111,111,111,358,169,158,161,164,619,111,111,111,111,2185,2186,0,0,0,0,0,0,0,0,0,0,0,0,0,0,0,0,0,0,0,0,0,0,0,0,0,0,0,0,0,0,0,0,0,0,0,0,0,0,0,0,0,0,0,0,0,0,0,0,0,0,0,0,0,0,0,0,0,0,0,0,0,0,0,0,0,0,0,0,0,0,0,0,0,0,0,0,0,0,0,0,0,0,0,0,0,0,0,0,0,0,0,0,0,0,0,0,0,0,0,0,0,0,0,0,0,0,0,0,0,0,0,0,0,0,0,0,0,0,0,0,0,0,0,0,0,0,0,0,0,0,0,0,0,0,0,0,0,0,0,0,0,0,0,0,0,0,0,0,0,0,0,0,0,0,0,0,0,0,0,0,2187,2188,498,111,111,111,111,111,111,111,111,111,111,111,111,111,111,111,111,111,111,111,111,111,111,111,111,111,111,111,111,111,111,111,111,111,111,111,111,111,111,111,111,111,111,111,111,111,111,111,111,111,111,111,111,111,111,111,111,111,111,111,111,111,111,111,111,111,111,111,111,111,111,111,111,111,111,111,111,111,111,111,111,111,111,111,111,111,111,111,111,111,111,2189,2190,0,0,0,0,0,0,0,0,0,0,0,0,0,0,0,0,0,0,0,0,0,0,0,0,0,0,0,0,0,0,0,0,0,0,0,0,0,0,0,0,0,0,0,0,0,0,0,0,0,0,0,0,0,0,0,0,0,0,0,0,0,0,0,0,0,0,0,0,0,0,0,0,0,0,0,0,0,0,0,0,0,0,0,0,0,0,0,0,0,0,0,0,0,0,0,0,0,0,0,0,0,0,0,0,0,0,0,0,0,0,0,0,0,0,0,0,0,0,0,0,0,0,0,0,0,0,0,0,0,0,0,0,0,0,0,0,0,0,0,0,0,0,0,0,0,0,0,0,0,0,0,0,0,0,0,0,0,0,0,0,0,0,519,2192,2193,304,111,111,111,111,111,111,111,111,111,111,111,111,111,111,111,111,111,111,111,111,111,111,111,111,111,111,111,111,111,111,111,111,111,111,111,111,111,111,111,111,111,111,111,111,111,111,111,111,111,111,111,111,111,111,111,111,111,111,111,111,111,111,111,111,111,111,111,111,111,111,111,111,111,111,111,111,111,111,111,111,111,111,111,111,111,111,111,2194,2195,0,0,0,0,0,0,0,0,0,0,0,0,0,0,0,0,0,0,0,0,0,0,0,0,0,0,0,0,0,0,0,0,0,0,0,0,0,0,0,0,0,0,0,0,0,0,0,0,0,0,0,0,0,0,0,0,0,0,0,0,0,0,0,0,0,0,0,0,0,0,0,0,0,0,0,0,0,0,0,0,0,0,0,0,0,0,0,0,0,0,0,0,0,0,0,0,0,0,0,0,0,0,0,0,0,0,0,0,0,0,0,0,0,0,0,0,0,0,0,0,0,0,0,0,0,0,0,0,0,0,0,0,0,0,0,0,0,0,0,0,0,0,0,0,0,0,0,0,0,0,0,0,0,0,0,0,0,0,0,0,0,0,0,0,0,2196,2197,2198,111,111,111,111,111,111,111,111,111,111,111,111,111,111,111,111,111,111,111,111,111,111,111,111,111,111,111,111,111,111,111,111,111,111,111,111,111,111,111,111,111,111,111,111,111,111,111,111,111,111,111,111,111,111,111,111,111,111,111,111,111,111,111,111,111,111,111,111,111,111,111,111,111,111,111,111,111,111,111,111,111,111,111,111,474,2199,2200,0,0,0,0,0,0,0,0,0,0,0,0,0,0,0,0,0,0,0,0,0,0,0,0,0,0,0,0,0,0,0,0,0,0,0,0,0,0,0,0,0,0,0,0,0,0,0,0,0,0,0,0,0,0,0,0,0,0,0,0,0,0,0,0,0,0,0,0,0,0,0,0,0,0,0,0,0,0,0,0,0,0,0,0,0,0,0,0,0,0,0,0,0,0,0,0,0,0,0,0,0,0,0,0,0,0,0,0,0,0,0,0,0,0,0,0,0,0,0,0,0,0,0,0,0,0,0,0,0,0,0,0,0,0,0,0,0,0,0,0,0,0,0,0,0,0,0,0,0,0,0,0,0,0,0,0,0,0,0,0,0,0,0,0,0,0,0,2201,2202,2203,2204,111,111,111,111,111,111,111,111,111,111,111,111,111,111,111,111,111,111,111,111,111,111,111,111,111,111,111,111,111,111,111,111,111,111,111,111,111,111,111,111,111,111,111,111,111,111,111,111,111,111,111,111,111,111,111,111,111,111,111,111,111,111,111,111,111,111,111,111,111,111,111,111,111,111,111,111,111,111,111,111,111,2205,2206,2207,0,0,0,0,0,0,0,0,0,0,0,0,0,0,0,0,0,0,0,0,0,0,0,0,0,0,0,0,0,0,0,0,0,0,0,0,0,0,0,0,0,0,0,0,0,0,0,0,0,0,0,0,0,0,0,0,0,0,0,0,0,0,0,0,0,0,0,0,0,0,0,0,0,0,0,0,0,0,0,0,0,0,0,0,0,0,0,0,0,0,0,0,0,0,0,0,0,0,0,0,0,0,0,0,0,0,0,0,0,0,0,0,0,0,0,0,0,0,0,0,0,0,0,0,0,0,0,0,0,0,0,0,0,0,0,0,0,0,0,0,0,0,0,0,0,0,0,0,0,0,0,0,0,0,0,0,0,0,0,0,0,0,0,0,0,0,0,0,0,0,2209,2210,2211,759,111,111,111,111,111,111,144,111,111,111,111,111,111,111,111,111,144,111,111,111,111,111,111,111,111,111,144,111,111,111,111,111,111,111,111,111,144,111,111,111,111,111,111,111,111,111,144,111,111,111,111,111,111,111,111,111,144,111,111,111,111,111,111,111,111,111,144,111,111,111,111,111,111,111,111,111,144,111,2212,2213,2214,0,0,0,0,0,0,0,0,0,0,0,0,0,0,0,0,0,0,0,0,0,0,0,0,0,0,0,0,0,0,0,0,0,0,0,0,0,0,0,0,0,0,0,0,0,0,0,0,0,0,0,0,0,0,0,0,0,0,0,0,0,0,0,0,0,0,0,0,0,0,0,0,0,0,0,0,0,0,0,0,0,0,0,0,0,0,0,0,0,0,0,0,0,0,0,0,0,0,0,0,0,0,0,0,0,0,0,0,0,0,0,0,0,0,0,0,0,0,0,0,0,0,0,0,0,0,0,0,0,0,0,0,0,0,0,0,0,0,0,0,0,0,0,0,0,0,0,0,0,0,0,0,0,0,0,0,0,0,0,0,0,0,0,0,0,0,0,0,0,0,0,0,0,800,801,2215,759,111,111,158,161,164,167,169,111,111,111,111,111,158,161,164,167,169,111,111,111,111,111,158,161,164,167,169,111,111,111,111,111,158,161,164,167,169,111,111,111,111,111,158,161,164,167,169,111,111,111,111,111,158,161,164,167,169,111,111,111,111,111,158,161,164,167,169,111,111,111,111,111,158,161,2217,2218,2219,1811,0,0,0,0,0,0,0,0,0,0,0,0,0,0,0,0,0,0,0,0,0,0,0,0,0,0,0,0,0,0,0,0,0,0,0,0,0,0,0,0,0,0,0,0,0,0,0,0,0,0,0,0,0,0,0,0,0,0,0,0,0,0,0,0,0,0,0,0,0,0,0,0,0,0,0,0,0,0,0,0,0,0,0,0,0,0,0,0,0,0,0,0,0,0,0,0,0,0,0,0,0,0,0,0,0,0,0,0,0,0,0,0,0,0,0,0,0,0,0,0,0,0,0,0,0,0,0,0,0,0,0,0,0,0,0,0,0,0,0,0,0,0,0,0,0,0,0,0,0,0,0,0,0,0,0,0,0,0,0,0,0,0,0,0,0,0,0,0,0,0,0,0,0,0,0,0,800,801,2221,2222,111,111,111,111,111,111,111,111,111,111,111,111,111,111,111,111,111,111,111,111,111,111,111,111,111,111,111,111,111,111,111,111,111,111,111,111,111,111,111,111,111,111,111,111,111,111,111,111,111,111,111,111,111,111,111,111,111,111,111,111,111,111,111,111,111,111,111,111,111,111,111,2223,2224,996,0,0,0,0,0,0,0,0,0,0,0,0,0,0,0,0,0,0,0,0,0,0,0,0,0,0,0,0,0,0,0,0,0,0,0,0,0,0,0,0,0,0,0,0,0,0,0,0,0,0,0,0,0,0,0,0,0,0,0,0,0,0,0,0,0,0,0,0,0,0,0,0,0,0,0,0,0,0,0,0,0,0,0,0,0,0,0,0,0,0,0,0,0,0,0,0,0,0,0,0,0,0,0,0,0,0,0,0,0,0,0,0,0,0,0,0,0,0,0,0,0,0,0,0,0,0,0,0,0,0,0,0,0,0,0,0,0,0,0,0,0,0,0,0,0,0,0,0,0,0,0,0,0,0,0,0,0,0,0,0,0,0,0,0,0,0,0,0,0,0,0,0,0,0,0,0,0,0,0,0,2201,2225,2226,2227,2228,111,111,111,111,111,111,111,111,111,111,111,111,111,111,111,111,111,111,111,111,111,111,111,111,111,111,111,111,111,111,111,111,111,111,111,111,111,111,111,111,111,111,111,111,111,111,111,111,111,111,111,111,111,111,111,111,111,111,111,111,111,111,111,111,111,111,2229,2230,2231,409,0,0,0,0,0,0,0,0,0,0,0,0,0,0,0,0,0,0,0,0,0,0,0,0,0,0,0,0,0,0,0,0,0,0,0,0,0,0,0,0,0,0,0,0,0,0,0,0,0,0,0,0,0,0,0,0,0,0,0,0,0,0,0,0,0,0,0,0,0,0,0,0,0,0,0,0,0,0,0,0,0,0,0,0,0,0,0,0,0,0,0,0,0,0,0,0,0,0,0,0,0,0,0,0,0,0,0,0,0,0,0,0,0,0,0,0,0,0,0,0,0,0,0,0,0,0,0,0,0,0,0,0,0,0,0,0,0,0,0,0,0,0,0,0,0,0,0,0,0,0,0,0,0,0,0,0,0,0,0,0,0,0,0,0,0,0,0,0,0,0,0,0,0,0,0,0,0,0,0,0,0,0,0,682,2233,2234,2235,2236,111,111,111,111,111,111,111,111,111,111,111,111,111,111,111,111,111,111,111,111,111,111,111,111,111,111,111,111,111,111,111,111,111,111,111,111,111,111,111,111,111,111,111,111,111,111,111,111,111,111,111,111,111,111,111,111,111,111,111,111,111,111,1046,2237,2238,2239,0,0,0,0,0,0,0,0,0,0,0,0,0,0,0,0,0,0,0,0,0,0,0,0,0,0,0,0,0,0,0,0,0,0,0,0,0,0,0,0,0,0,0,0,0,0,0,0,0,0,0,0,0,0,0,0,0,0,0,0,0,0,0,0,0,0,0,0,0,0,0,0,0,0,0,0,0,0,0,0,0,0,0,0,0,0,0,0,0,0,0,0,0,0,0,0,0,0,0,0,0,0,0,0,0,0,0,0,0,0,0,0,0,0,0,0,0,0,0,0,0,0,0,0,0,0,0,0,0,0,0,0,0,0,0,0,0,0,0,0,0,0,0,0,0,0,0,0,0,0,0,0,0,0,0,0,0,0,0,0,0,0,0,0,0,0,0,0,0,0,0,0,0,0,0,0,0,0,0,0,0,0,0,0,0,0,0,0,2240,2241,2242,2227,2228,111,111,111,111,111,111,111,111,111,111,111,111,111,111,111,111,111,111,111,111,111,111,111,111,111,111,111,111,111,111,111,111,111,111,111,111,111,111,111,111,111,111,111,111,111,111,111,111,111,111,111,111,111,111,111,111,111,2243,2244,2245,1895,0,0,0,0,0,0,0,0,0,0,0,0,0,0,0,0,0,0,0,0,0,0,0,0,0,0,0,0,0,0,0,0,0,0,0,0,0,0,0,0,0,0,0,0,0,0,0,0,0,0,0,0,0,0,0,0,0,0,0,0,0,0,0,0,0,0,0,0,0,0,0,0,0,0,0,0,0,0,0,0,0,0,0,0,0,0,0,0,0,0,0,0,0,0,0,0,0,0,0,0,0,0,0,0,0,0,0,0,0,0,0,0,0,0,0,0,0,0,0,0,0,0,0,0,0,0,0,0,0,0,0,0,0,0,0,0,0,0,0,0,0,0,0,0,0,0,0,0,0,0,0,0,0,0,0,0,0,0,0,0,0,0,0,0,0,0,0,0,0,0,0,0,0,0,0,0,0,0,0,0,0,0,0,0,0,0,0,0,0,0,0,0,682,2233,2246,2247,2013,111,111,111,111,111,144,111,111,111,111,111,111,111,111,111,144,111,111,111,111,111,111,111,111,111,144,111,111,111,111,111,111,111,111,111,144,111,111,111,111,111,111,111,111,111,144,111,111,111,111,111,111,523,2248,2249,2250,2239,0,0,0,0,0,0,0,0,0,0,0,0,0,0,0,0,0,0,0,0,0,0,0,0,0,0,0,0,0,0,0,0,0,0,0,0,0,0,0,0,0,0,0,0,0,0,0,0,0,0,0,0,0,0,0,0,0,0,0,0,0,0,0,0,0,0,0,0,0,0,0,0,0,0,0,0,0,0,0,0,0,0,0,0,0,0,0,0,0,0,0,0,0,0,0,0,0,0,0,0,0,0,0,0,0,0,0,0,0,0,0,0,0,0,0,0,0,0,0,0,0,0,0,0,0,0,0,0,0,0,0,0,0,0,0,0,0,0,0,0,0,0,0,0,0,0,0,0,0,0,0,0,0,0,0,0,0,0,0,0,0,0,0,0,0,0,0,0,0,0,0,0,0,0,0,0,0,0,0,0,0,0,0,0,0,0,0,0,0,0,0,0,0,0,0,0,0,2031,2251,2252,2255,2258,158,161,234,111,111,111,111,233,167,169,158,161,234,111,111,111,111,233,167,169,158,161,234,111,111,111,111,233,167,169,158,161,234,111,111,111,111,233,167,169,158,161,234,111,111,111,2103,2259,2260,2261,554,0,0,0,0,0,0,0,0,0,0,0,0,0,0,0,0,0,0,0,0,0,0,0,0,0,0,0,0,0,0,0,0,0,0,0,0,0,0,0,0,0,0,0,0,0,0,0,0,0,0,0,0,0,0,0,0,0,0,0,0,0,0,0,0,0,0,0,0,0,0,0,0,0,0,0,0,0,0,0,0,0,0,0,0,0,0,0,0,0,0,0,0,0,0,0,0,0,0,0,0,0,0,0,0,0,0,0,0,0,0,0,0,0,0,0,0,0,0,0,0,0,0,0,0,0,0,0,0,0,0,0,0,0,0,0,0,0,0,0,0,0,0,0,0,0,0,0,0,0,0,0,0,0,0,0,0,0,0,0,0,0,0,0,0,0,0,0,0,0,0,0,0,0,0,0,0,0,0,0,0,0,0,0,0,0,0,0,0,0,0,0,0,0,0,0,0,0,0,0,0,0,0,0,2262,2263,2264,2265,548,2228,111,111,111,111,111,111,111,111,111,111,111,111,111,111,111,111,111,111,111,111,111,111,111,111,111,111,111,111,111,111,111,111,111,111,111,111,111,111,2266,2267,2268,2269,2270,2271,409,0,0,0,0,0,0,0,0,0,0,0,0,0,0,0,0,0,0,0,0,0,0,0,0,0,0,0,0,0,0,0,0,0,0,0,0,0,0,0,0,0,0,0,0,0,0,0,0,0,0,0,0,0,0,0,0,0,0,0,0,0,0,0,0,0,0,0,0,0,0,0,0,0,0,0,0,0,0,0,0,0,0,0,0,0,0,0,0,0,0,0,0,0,0,0,0,0,0,0,0,0,0,0,0,0,0,0,0,0,0,0,0,0,0,0,0,0,0,0,0,0,0,0,0,0,0,0,0,0,0,0,0,0,0,0,0,0,0,0,0,0,0,0,0,0,0,0,0,0,0,0,0,0,0,0,0,0,0,0,0,0,0,0,0,0,0,0,0,0,0,0,0,0,0,0,0,0,0,0,0,0,0,0,0,0,0,0,0,0,0,0,0,0,0,0,0,0,0,0,0,0,0,0,0,0,0,0,0,2272,2273,2274,2052,2275,2256,111,111,111,111,111,111,111,111,111,111,111,111,111,111,111,111,111,111,111,111,111,111,111,111,111,111,111,111,111,474,2276,2267,2277,2278,2279,2280,2281,2282,0,0,0,0,0,0,0,0,0,0,0,0,0,0,0,0,0,0,0,0,0,0,0,0,0,0,0,0,0,0,0,0,0,0,0,0,0,0,0,0,0,0,0,0,0,0,0,0,0,0,0,0,0,0,0,0,0,0,0,0,0,0,0,0,0,0,0,0,0,0,0,0,0,0,0,0,0,0,0,0,0,0,0,0,0,0,0,0,0,0,0,0,0,0,0,0,0,0,0,0,0,0,0,0,0,0,0,0,0,0,0,0,0,0,0,0,0,0,0,0,0,0,0,0,0,0,0,0,0,0,0,0,0,0,0,0,0,0,0,0,0,0,0,0,0,0,0,0,0,0,0,0,0,0,0,0,0,0,0,0,0,0,0,0,0,0,0,0,0,0,0,0,0,0,0,0,0,0,0,0,0,0,0,0,0,0,0,0,0,0,0,0,0,0,0,0,0,0,0,0,0,0,0,0,0,0,0,0,0,0,0,0,0,0,0,0,2262,2283,2284,2285,2286,803,2287,2288,111,111,111,111,111,111,111,111,111,111,111,111,111,111,111,111,111,111,111,111,2289,2290,2291,2292,2293,2294,2282,0,0,0,0,0,0,0,0,0,0,0,0,0,0,0,0,0,0,0,0,0,0,0,0,0,0,0,0,0,0,0,0,0,0,0,0,0,0,0,0,0,0,0,0,0,0,0,0,0,0,0,0,0,0,0,0,0,0,0,0,0,0,0,0,0,0,0,0,0,0,0,0,0,0,0,0,0,0,0,0,0,0,0,0,0,0,0,0,0,0,0,0,0,0,0,0,0,0,0,0,0,0,0,0,0,0,0,0,0,0,0,0,0,0,0,0,0,0,0,0,0,0,0,0,0,0,0,0,0,0,0,0,0,0,0,0,0,0,0,0,0,0,0,0,0,0,0,0,0,0,0,0,0,0,0,0,0,0,0,0,0,0,0,0,0,0,0,0,0,0,0,0,0,0,0,0,0,0,0,0,0,0,0,0,0,0,0,0,0,0,0,0,0,0,0,0,0,0,0,0,0,0,0,0,0,0,0,0,0,0,0,0,0,0,0,0,0,0,0,0,0,0,0,0,0,0,848,2295,2296,2297,2298,2299,2300,2301,2301,2302,2303,111,111,111,111,111,111,111,111,111,111,111,111,111,2140,2304,1284,0,0,0,0,0,0,0,0,0,0,0,0,0,0,0,0,0,0,0,0,0,0,0,0,0,0,0,0,0,0,0,0,0,0,0,0,0,0,0,0,0,0,0,0,0,0,0,0,0,0,0,0,0,0,0,0,0,0,0,0,0,0,0,0,0,0,0,0,0,0,0,0,0,0,0,0,0,0,0,0,0,0,0,0,0,0,0,0,0,0,0,0,0,0,0,0,0,0,0,0,0,0,0,0,0,0,0,0,0,0,0,0,0,0,0,0,0,0,0,0,0,0,0,0,0,0,0,0,0,0,0,0,0,0,0,0,0,0,0,0,0,0,0,0,0,0,0,0,0,0,0,0,0,0,0,0,0,0,0,0,0,0,0,0,0,0,0,0,0,0,0,0,0,0,0,0,0,0,0,0,0,0,0,0,0,0,0,0,0,0,0,0,0,0,0,0,0,0,0,0,0,0,0,0,0,0,0,0,0,0,0,0,0,0,0,0,0,0,0,0,0,0,0,0,0,0,0,0,0,0,0,0,0,0,0,0,0,0,2305,2306,304,111,111,111,111,111,111,111,111,144,111,111,111,111,1298,1613,1284,0,0,0,0,0,0,0,0,0,0,0,0,0,0,0,0,0,0,0,0,0,0,0,0,0,0,0,0,0,0,0,0,0,0,0,0,0,0,0,0,0,0,0,0,0,0,0,0,0,0,0,0,0,0,0,0,0,0,0,0,0,0,0,0,0,0,0,0,0,0,0,0,0,0,0,0,0,0,0,0,0,0,0,0,0,0,0,0,0,0,0,0,0,0,0,0,0,0,0,0,0,0,0,0,0,0,0,0,0,0,0,0,0,0,0,0,0,0,0,0,0,0,0,0,0,0,0,0,0,0,0,0,0,0,0,0,0,0,0,0,0,0,0,0,0,0,0,0,0,0,0,0,0,0,0,0,0,0,0,0,0,0,0,0,0,0,0,0,0,0,0,0,0,0,0,0,0,0,0,0,0,0,0,0,0,0,0,0,0,0,0,0,0,0,0,0,0,0,0,0,0,0,0,0,0,0,0,0,0,0,0,0,0,0,0,0,0,0,0,0,0,0,0,0,0,0,0,0,0,0,0,0,0,0,0,0,0,0,1588,1663,111,111,111,111,111,111,158,161,164,167,169,111,111,111,1298,1613,1284,0,0,0,0,0,0,0,0,0,0,0,0,0,0,0,0,0,0,0,0,0,0,0,0,0,0,0,0,0,0,0,0,0,0,0,0,0,0,0,0,0,0,0,0,0,0,0,0,0,0,0,0,0,0,0,0,0,0,0,0,0,0,0,0,0,0,0,0,0,0,0,0,0,0,0,0,0,0,0,0,0,0,0,0,0,0,0,0,0,0,0,0,0,0,0,0,0,0,0,0,0,0,0,0,0,0,0,0,0,0,0,0,0,0,0,0,0,0,0,0,0,0,0,0,0,0,0,0,0,0,0,0,0,0,0,0,0,0,0,0,0,0,0,0,0,0,0,0,0,0,0,0,0,0,0,0,0,0,0,0,0,0,0,0,0,0,0,0,0,0,0,0,0,0,0,0,0,0,0,0,0,0,0,0,0,0,0,0,0,0,0,0,0,0,0,0,0,0,0,0,0,0,0,0,0,0,0,0,0,0,0,0,0,0,0,0,0,0,0,0,0,0,0,0,0,0,0,0,0,0,0,0,0,0,0,0,0,0,2307,473,111,111,111,111,111,111,111,111,111,111,111,111,111,111,1298,1613,2308,0,0,0,0,0,0,0,0,0,0,0,0,0,0,0,0,0,0,0,0,0,0,0,0,0,0,0,0,0,0,0,0,0,0,0,0,0,0,0,0,0,0,0,0,0,0,0,0,0,0,0,0,0,0,0,0,0,0,0,0,0,0,0,0,0,0,0,0,0,0,0,0,0,0,0,0,0,0,0,0,0,0,0,0,0,0,0,0,0,0,0,0,0,0,0,0,0,0,0,0,0,0,0,0,0,0,0,0,0,0,0,0,0,0,0,0,0,0,0,0,0,0,0,0,0,0,0,0,0,0,0,0,0,0,0,0,0,0,0,0,0,0,0,0,0,0,0,0,0,0,0,0,0,0,0,0,0,0,0,0,0,0,0,0,0,0,0,0,0,0,0,0,0,0,0,0,0,0,0,0,0,0,0,0,0,0,0,0,0,0,0,0,0,0,0,0,0,0,0,0,0,0,0,0,0,0,0,0,0,0,0,0,0,0,0,0,0,0,0,0,0,0,0,0,0,0,0,0,0,0,0,0,0,0,0,0,0,0,2309,473,111,111,111,111,111,111,111,111,111,111,111,111,111,111,2310,2311,2312,0,0,0,0,0,0,0,0,0,0,0,0,0,0,0,0,0,0,0,0,0,0,0,0,0,0,0,0,0,0,0,0,0,0,0,0,0,0,0,0,0,0,0,0,0,0,0,0,0,0,0,0,0,0,0,0,0,0,0,0,0,0,0,0,0,0,0,0,0,0,0,0,0,0,0,0,0,0,0,0,0,0,0,0,0,0,0,0,0,0,0,0,0,0,0,0,0,0,0,0,0,0,0,0,0,0,0,0,0,0,0,0,0,0,0,0,0,0,0,0,0,0,0,0,0,0,0,0,0,0,0,0,0,0,0,0,0,0,0,0,0,0,0,0,0,0,0,0,0,0,0,0,0,0,0,0,0,0,0,0,0,0,0,0,0,0,0,0,0,0,0,0,0,0,0,0,0,0,0,0,0,0,0,0,0,0,0,0,0,0,0,0,0,0,0,0,0,0,0,0,0,0,0,0,0,0,0,0,0,0,0,0,0,0,0,0,0,0,0,0,0,0,0,0,0,0,0,0,0,0,0,0,0,0,0,0,0,0,2309,2313,111,111,111,111,111,111,111,111,111,111,111,111,111,111,199,2314,2315,0,0,0,0,0,0,0,0,0,0,0,0,0,0,0,0,0,0,0,0,0,0,0,0,0,0,0,0,0,0,0,0,0,0,0,0,0,0,0,0,0,0,0,0,0,0,0,0,0,0,0,0,0,0,0,0,0,0,0,0,0,0,0,0,0,0,0,0,0,0,0,0,0,0,0,0,0,0,0,0,0,0,0,0,0,0,0,0,0,0,0,0,0,0,0,0,0,0,0,0,0,0,0,0,0,0,0,0,0,0,0,0,0,0,0,0,0,0,0,0,0,0,0,0,0,0,0,0,0,0,0,0,0,0,0,0,0,0,0,0,0,0,0,0,0,0,0,0,0,0,0,0,0,0,0,0,0,0,0,0,0,0,0,0,0,0,0,0,0,0,0,0,0,0,0,0,0,0,0,0,0,0,0,0,0,0,0,0,0,0,0,0,0,0,0,0,0,0,0,0,0,0,0,0,0,0,0,0,0,0,0,0,0,0,0,0,0,0,0,0,0,0,0,0,0,0,0,0,0,0,0,0,0,0,0,0,0,0,450,2316,111,111,111,111,111,111,111,111,111,111,111,111,111,111,170,2317,2318,0,0,0,0,0,0,0,0,0,0,0,0,0,0,0,0,0,0,0,0,0,0,0,0,0,0,0,0,0,0,0,0,0,0,0,0,0,0,0,0,0,0,0,0,0,0,0,0,0,0,0,0,0,0,0,0,0,0,0,0,0,0,0,0,0,0,0,0,0,0,0,0,0,0,0,0,0,0,0,0,0,0,0,0,0,0,0,0,0,0,0,0,0,0,0,0,0,0,0,0,0,0,0,0,0,0,0,0,0,0,0,0,0,0,0,0,0,0,0,0,0,0,0,0,0,0,0,0,0,0,0,0,0,0,0,0,0,0,0,0,0,0,0,0,0,0,0,0,0,0,0,0,0,0,0,0,0,0,0,0,0,0,0,0,0,0,0,0,0,0,0,0,0,0,0,0,0,0,0,0,0,0,0,0,0,0,0,0,0,0,0,0,0,0,0,0,0,0,0,0,0,0,0,0,0,0,0,0,0,0,0,0,0,0,0,0,0,0,0,0,0,0,0,0,0,0,0,0,0,0,0,0,0,0,0,0,0,0,2319,473,111,111,111,111,111,111,111,111,111,111,111,144,111,111,2320,2321,0,0,0,0,0,0,0,0,0,0,0,0,0,0,0,0,0,0,0,0,0,0,0,0,0,0,0,0,0,0,0,0,0,0,0,0,0,0,0,0,0,0,0,0,0,0,0,0,0,0,0,0,0,0,0,0,0,0,0,0,0,0,0,0,0,0,0,0,0,0,0,0,0,0,0,0,0,0,0,0,0,0,0,0,0,0,0,0,0,0,0,0,0,0,0,0,0,0,0,0,0,0,0,0,0,0,0,0,0,0,0,0,0,0,0,0,0,0,0,0,0,0,0,0,0,0,0,0,0,0,0,0,0,0,0,0,0,0,0,0,0,0,0,0,0,0,0,0,0,0,0,0,0,0,0,0,0,0,0,0,0,0,0,0,0,0,0,0,0,0,0,0,0,0,0,0,0,0,0,0,0,0,0,0,0,0,0,0,0,0,0,0,0,0,0,0,0,0,0,0,0,0,0,0,0,0,0,0,0,0,0,0,0,0,0,0,0,0,0,0,0,0,0,0,0,0,0,0,0,0,0,0,0,0,0,0,0,0,0,2309,473,233,167,169,158,235,111,111,111,111,490,164,167,169,111,2322,1545,0,0,0,0,0,0,0,0,0,0,0,0,0,0,0,0,0,0,0,0,0,0,0,0,0,0,0,0,0,0,0,0,0,0,0,0,0,0,0,0,0,0,0,0,0,0,0,0,0,0,0,0,0,0,0,0,0,0,0,0,0,0,0,0,0,0,0,0,0,0,0,0,0,0,0,0,0,0,0,0,0,0,0,0,0,0,0,0,0,0,0,0,0,0,0,0,0,0,0,0,0,0,0,0,0,0,0,0,0,0,0,0,0,0,0,0,0,0,0,0,0,0,0,0,0,0,0,0,0,0,0,0,0,0,0,0,0,0,0,0,0,0,0,0,0,0,0,0,0,0,0,0,0,0,0,0,0,0,0,0,0,0,0,0,0,0,0,0,0,0,0,0,0,0,0,0,0,0,0,0,0,0,0,0,0,0,0,0,0,0,0,0,0,0,0,0,0,0,0,0,0,0,0,0,0,0,0,0,0,0,0,0,0,0,0,0,0,0,0,0,0,0,0,0,0,0,0,0,0,0,0,0,0,0,0,0,0,0,0,2309,473,111,111,111,111,111,111,111,111,111,111,111,111,111,2323,599,0,0,0,0,0,0,0,0,0,0,0,0,0,0,0,0,0,0,0,0,0,0,0,0,0,0,0,0,0,0,0,0,0,0,0,0,0,0,0,0,0,0,0,0,0,0,0,0,0,0,0,0,0,0,0,0,0,0,0,0,0,0,0,0,0,0,0,0,0,0,0,0,0,0,0,0,0,0,0,0,0,0,0,0,0,0,0,0,0,0,0,0,0,0,0,0,0]}],"tilesets":[{"firstgid":1,"source":"../Falaises_V2_Decor.tsj"}]}