{"type":"map","version":"1.10","orientation":"orthogonal","renderorder":"right-down","width":256,"height":192,"tilewidth":8,"tileheight":8,"infinite":false,"nextlayerid":5,"nextobjectid":1,"layers":[{"id":1,"name":"herbe","type":"tilelayer","x":0,"y":0,"width":256,"height":192,"opacity":1,"visible":true,"data":[1,2,3,4,5,6,7,8,9,10,11,12,13,14,15,16,1,2,3,4,5,6,7,8,9,10,11,12,13,14,15,16,1,2,3,4,5,6,7,8,9,10,11,12,13,14,15,16,1,2,3,4,5,6,7,8,9,10,11,12,13,14,15,16,1,2,3,4,5,6,7,8,9,10,11,12,13,14,15,16,1,2,3,4,5,6,7,8,9,10,11,12,13,14,15,16,1,2,3,4,5,6,7,8,9,10,11,12,13,14,15,16,1,2,3,4,5,6,7,8,9,10,11,12,13,14,15,16,1,2,3,4,5,6,7,8,9,10,11,12,13,14,15,16,1,2,3,4,5,6,7,8,9,10,11,12,13,14,15,16,1,2,3,4,5,6,7,8,9,10,11,12,13,14,15,16,1,2,3,4,5,6,7,8,9,10,11,12,13,14,15,16,1,2,3,4,5,6,7,8,9,10,11,12,13,14,15,16,1,2,3,4,5,6,7,8,9,10,11,12,13,14,15,16,1,2,3,4,5,6,7,8,9,10,11,12,13,14,15,16,1,2,3,4,5,6,7,8,9,10,11,12,13,14,15,16,17,18,19,20,21,22,23,24,25,26,27,28,29,30,31,32,17,18,19,20,21,22,23,24,25,26,27,28,29,30,31,32,17,18,19,20,21,22,23,24,25,26,27,28,29,30,31,32,17,18,19,20,21,22,23,24,25,26,27,28,29,30,31,32,17,18,19,20,21,22,23,24,25,26,27,28,29,30,31,32,17,18,19,20,21,22,23,24,25,26,27,28,29,30,31,32,17,18,19,20,21,22,23,24,25,26,27,28,29,30,31,32,17,18,19,20,21,22,23,24,25,26,27,28,29,30,31,32,17,18,19,20,21,22,23,24,25,26,27,28,29,30,31,32,17,18,19,20,21,22,23,24,25,26,27,28,29,30,31,32,17,18,19,20,21,22,23,24,25,26,27,28,29,30,31,32,17,18,19,20,21,22,23,24,25,26,27,28,29,30,31,32,17,18,19,20,21,22,23,24,25,26,27,28,29,30,31,32,17,18,19,20,21,22,23,24,25,26,27,28,29,30,31,32,17,18,19,20,21,22,23,24,25,26,27,28,29,30,31,32,17,18,19,20,21,22,23,24,25,26,27,28,29,30,31,32,33,34,35,36,37,38,39,40,41,42,43,44,45,46,47,48,33,34,35,36,37,38,39,40,41,42,43,44,45,46,47,48,33,34,35,36,37,38,39,40,41,42,43,44,45,46,47,48,33,34,35,36,37,38,39,40,41,42,43,44,45,46,47,48,33,34,35,36,37,38,39,40,41,42,43,44,45,46,47,48,33,34,35,36,37,38,39,40,41,42,43,44,45,46,47,48,33,34,35,36,37,38,39,40,41,42,43,44,45,46,47,48,33,34,35,36,37,38,39,40,41,42,43,44,45,46,47,48,33,34,35,36,37,38,39,40,41,42,43,44,45,46,47,48,33,34,35,36,37,38,39,40,41,42,43,44,45,46,47,48,33,34,35,36,37,38,39,40,41,42,43,44,45,46,47,48,33,34,35,36,37,38,39,40,41,42,43,44,45,46,47,48,33,34,35,36,37,38,39,40,41,42,43,44,45,46,47,48,33,34,35,36,37,38,39,40,41,42,43,44,45,46,47,48,33,34,35,36,37,38,39,40,41,42,43,44,45,46,47,48,33,34,35,36,37,38,39,40,41,42,43,44,45,46,47,48,49,50,51,52,53,54,55,56,57,58,59,60,61,62,63,64,49,50,51,52,53,54,55,56,57,58,59,60,61,62,63,64,49,50,51,52,53,54,55,56,57,58,59,60,61,62,63,64,49,50,51,52,53,54,55,56,57,58,59,60,61,62,63,64,49,50,51,52,53,54,55,56,57,58,59,60,61,62,63,64,49,50,51,52,53,54,55,56,57,58,59,60,61,62,63,64,49,50,51,52,53,54,55,56,57,58,59,60,61,62,63,64,49,50,51,52,53,54,55,56,57,58,59,60,61,62,63,64,49,50,51,52,53,54,55,56,57,58,59,60,61,62,63,64,49,50,51,52,53,54,55,56,57,58,59,60,61,62,63,64,49,50,51,52,53,54,55,56,57,58,59,60,61,62,63,64,49,50,51,52,53,54,55,56,57,58,59,60,61,62,63,64,49,50,51,52,53,54,55,56,57,58,59,60,61,62,63,64,49,50,51,52,53,54,55,56,57,58,59,60,61,62,63,64,49,50,51,52,53,54,55,56,57,58,59,60,61,62,63,64,49,50,51,52,53,54,55,56,57,58,59,60,61,62,63,64,65,66,67,68,69,70,71,72,73,74,75,76,77,78,79,80,65,66,67,68,69,70,71,72,73,74,75,76,77,78,79,80,65,66,67,68,69,70,71,72,73,74,75,76,77,78,79,80,65,66,67,68,69,70,71,72,73,74,75,76,77,78,79,80,65,66,67,68,69,70,71,72,73,74,75,76,77,78,79,80,65,66,67,68,69,70,71,72,73,74,75,76,77,78,79,80,65,66,67,68,69,70,71,72,73,74,75,76,77,78,79,80,65,66,67,68,69,70,71,72,73,74,75,76,77,78,79,80,65,66,67,68,69,70,71,72,73,74,75,76,77,78,79,80,65,66,67,68,69,70,71,72,73,74,75,76,77,78,79,80,65,66,67,68,69,70,71,72,73,74,75,76,77,78,79,80,65,66,67,68,69,70,71,72,73,74,75,76,77,78,79,80,65,66,67,68,69,70,71,72,73,74,75,76,77,78,79,80,65,66,67,68,69,70,71,72,73,74,75,76,77,78,79,80,65,66,67,68,69,70,71,72,73,74,75,76,77,78,79,80,65,66,67,68,69,70,71,72,73,74,75,76,77,78,79,80,81,82,83,84,85,86,87,88,89,90,91,92,93,94,95,96,81,82,83,84,85,86,87,88,89,90,91,92,93,94,95,96,81,82,83,84,85,86,87,88,89,90,91,92,93,94,95,96,81,82,83,84,85,86,87,88,89,90,91,92,93,94,95,96,81,82,83,84,85,86,87,88,89,90,91,92,93,94,95,96,81,82,83,84,85,86,87,88,89,90,91,92,93,94,95,96,81,82,83,84,85,86,87,88,89,90,91,92,93,94,95,96,81,82,83,84,85,86,87,88,89,90,91,92,93,94,95,96,81,82,83,84,85,86,87,88,89,90,91,92,93,94,95,96,81,82,83,84,85,86,87,88,89,90,91,92,93,94,95,96,81,82,83,84,85,86,87,88,89,90,91,92,93,94,95,96,81,82,83,84,85,86,87,88,89,90,91,92,93,94,95,96,81,82,83,84,85,86,87,88,89,90,91,92,93,94,95,96,81,82,83,84,85,86,87,88,89,90,91,92,93,94,95,96,81,82,83,84,85,86,87,88,89,90,91,92,93,94,95,96,81,82,83,84,85,86,87,88,89,90,91,92,93,94,95,96,97,98,99,100,101,102,103,104,105,106,107,108,109,110,111,112,97,98,99,100,101,102,103,104,105,106,107,108,109,110,111,112,97,98,99,100,101,102,103,104,105,106,107,108,109,110,111,112,97,98,99,100,101,102,103,104,105,106,107,108,109,110,111,112,97,98,99,100,101,102,103,104,105,106,107,108,109,110,111,112,97,98,99,100,101,102,103,104,105,106,107,108,109,110,111,112,97,98,99,100,101,102,103,104,105,106,107,108,109,110,111,112,97,98,99,100,101,102,103,104,105,106,107,108,109,110,111,112,97,98,99,100,101,102,103,104,105,106,107,108,109,110,111,112,97,98,99,100,101,102,103,104,105,106,107,108,109,110,111,112,97,98,99,100,101,102,103,104,105,106,107,108,109,110,111,112,97,98,99,100,101,102,103,104,105,106,107,108,109,110,111,112,97,98,99,100,101,102,103,104,105,106,107,108,109,110,111,112,97,98,99,100,101,102,103,104,105,106,107,108,109,110,111,112,97,98,99,100,101,102,103,104,105,106,107,108,109,110,111,112,97,98,99,100,101,102,103,104,105,106,107,108,109,110,111,112,113,114,115,116,117,118,119,120,121,122,123,124,125,126,127,128,113,114,115,116,117,118,119,120,121,122,123,124,125,126,127,128,113,114,115,116,117,118,119,120,121,122,123,124,125,126,127,128,113,114,115,116,117,118,119,120,121,122,123,124,125,126,127,128,113,114,115,116,117,118,119,120,121,122,123,124,125,126,127,128,113,114,115,116,117,118,119,120,121,122,123,124,125,126,127,128,113,114,115,116,117,118,119,120,121,122,123,124,125,126,127,128,113,114,115,116,117,118,119,120,121,122,123,124,125,126,127,128,113,114,115,116,117,118,119,120,121,122,123,124,125,126,127,128,113,114,115,116,117,118,119,120,121,122,123,124,125,126,127,128,113,114,115,116,117,118,119,120,121,122,123,124,125,126,127,128,113,114,115,116,117,118,119,120,121,122,123,124,125,126,127,128,113,114,115,116,117,118,119,120,121,122,123,124,125,126,127,128,113,114,115,116,117,118,119,120,121,122,123,124,125,126,127,128,113,114,115,116,117,118,119,120,121,122,123,124,125,126,127,128,113,114,115,116,117,118,119,120,121,122,123,124,125,126,127,128,129,130,131,132,133,134,135,136,137,138,139,140,141,142,143,144,129,130,131,132,133,134,135,136,137,138,139,140,141,142,143,144,129,130,131,132,133,134,135,136,137,138,139,140,141,142,143,144,129,130,131,132,133,134,135,136,137,138,139,140,141,142,143,144,129,130,131,132,133,134,135,136,137,138,139,140,141,142,143,144,129,130,131,132,133,134,135,136,137,138,139,140,141,142,143,144,129,130,131,132,133,134,135,136,137,138,139,140,141,142,143,144,129,130,131,132,133,134,135,136,137,138,139,140,141,142,143,144,129,130,131,132,133,134,135,136,137,138,139,140,141,142,143,144,129,130,131,132,133,134,135,136,137,138,139,140,141,142,143,144,129,130,131,132,133,134,135,136,137,138,139,140,141,142,143,144,129,130,131,132,133,134,135,136,137,138,139,140,141,142,143,144,129,130,131,132,133,134,135,136,137,138,139,140,141,142,143,144,129,130,131,132,133,134,135,136,137,138,139,140,141,142,143,144,129,130,131,132,133,134,135,136,137,138,139,140,141,142,143,144,129,130,131,132,133,134,135,136,137,138,139,140,141,142,143,144,145,146,147,148,149,150,151,152,153,154,155,156,157,158,159,160,145,146,147,148,149,150,151,152,153,154,155,156,157,158,159,160,145,146,147,148,149,150,151,152,153,154,155,156,157,158,159,160,145,146,147,148,149,150,151,152,153,154,155,156,157,158,159,160,145,146,147,148,149,150,151,152,153,154,155,156,157,158,159,160,145,146,147,148,149,150,151,152,153,154,155,156,157,158,159,160,145,146,147,148,149,150,151,152,153,154,155,156,157,158,159,160,145,146,147,148,149,150,151,152,153,154,155,156,157,158,159,160,145,146,147,148,149,150,151,152,153,154,155,156,157,158,159,160,145,146,147,148,149,150,151,152,153,154,155,156,157,158,159,160,145,146,147,148,149,150,151,152,153,154,155,156,157,158,159,160,145,146,147,148,149,150,151,152,153,154,155,156,157,158,159,160,145,146,147,148,149,150,151,152,153,154,155,156,157,158,159,160,145,146,147,148,149,150,151,152,153,154,155,156,157,158,159,160,145,146,147,148,149,150,151,152,153,154,155,156,157,158,159,160,145,146,147,148,149,150,151,152,153,154,155,156,157,158,159,160,161,162,163,164,165,166,167,168,169,170,171,172,173,174,175,176,161,162,163,164,165,166,167,168,169,170,171,172,173,174,175,176,161,162,163,164,165,166,167,168,169,170,171,172,173,174,175,176,161,162,163,164,165,166,167,168,169,170,171,172,173,174,175,176,161,162,163,164,165,166,167,168,169,170,171,172,173,174,175,176,161,162,163,164,165,166,167,168,169,170,171,172,173,174,175,176,161,162,163,164,165,166,167,168,169,170,171,172,173,174,175,176,161,162,163,164,165,166,167,168,169,170,171,172,173,174,175,176,161,162,163,164,165,166,167,168,169,170,171,172,173,174,175,176,161,162,163,164,165,166,167,168,169,170,171,172,173,174,175,176,161,162,163,164,165,166,167,168,169,170,171,172,173,174,175,176,161,162,163,164,165,166,167,168,169,170,171,172,173,174,175,176,161,162,163,164,165,166,167,168,169,170,171,172,173,174,175,176,161,162,163,164,165,166,167,168,169,170,171,172,173,174,175,176,161,162,163,164,165,166,167,168,169,170,171,172,173,174,175,176,161,162,163,164,165,166,167,168,169,170,171,172,173,174,175,176,177,178,179,180,181,182,183,184,185,186,187,188,189,190,191,192,177,178,179,180,181,182,183,184,185,186,187,188,189,190,191,192,177,178,179,180,181,182,183,184,185,186,187,188,189,190,191,192,177,178,179,180,181,182,183,184,185,186,187,188,189,190,191,192,177,178,179,180,181,182,183,184,185,186,187,188,189,190,191,192,177,178,179,180,181,182,183,184,185,186,187,188,189,190,191,192,177,178,179,180,181,182,183,184,185,186,187,188,189,190,191,192,177,178,179,180,181,182,183,184,185,186,187,188,189,190,191,192,177,178,179,180,181,182,183,184,185,186,187,188,189,190,191,192,177,178,179,180,181,182,183,184,185,186,187,188,189,190,191,192,177,178,179,180,181,182,183,184,185,186,187,188,189,190,191,192,177,178,179,180,181,182,183,184,185,186,187,188,189,190,191,192,177,178,179,180,181,182,183,184,185,186,187,188,189,190,191,192,177,178,179,180,181,182,183,184,185,186,187,188,189,190,191,192,177,178,179,180,181,182,183,184,185,186,187,188,189,190,191,192,177,178,179,180,181,182,183,184,185,186,187,188,189,190,191,192,193,194,195,196,197,198,199,200,201,202,203,204,205,206,207,208,193,194,195,196,197,198,199,200,201,202,203,204,205,206,207,208,193,194,195,196,197,198,199,200,201,202,203,204,205,206,207,208,193,194,195,196,197,198,199,200,201,202,203,204,205,206,207,208,193,194,195,196,197,198,199,200,201,202,203,204,205,206,207,208,193,194,195,196,197,198,199,200,201,202,203,204,205,206,207,208,193,194,195,196,197,198,199,200,201,202,203,204,205,206,207,208,193,194,195,196,197,198,199,200,201,202,203,204,205,206,207,208,193,194,195,196,197,198,199,200,201,202,203,204,205,206,207,208,193,194,195,196,197,198,199,200,201,202,203,204,205,206,207,208,193,194,195,196,197,198,199,200,201,202,203,204,205,206,207,208,193,194,195,196,197,198,199,200,201,202,203,204,205,206,207,208,193,194,195,196,197,198,199,200,201,202,203,204,205,206,207,208,193,194,195,196,197,198,199,200,201,202,203,204,205,206,207,208,193,194,195,196,197,198,199,200,201,202,203,204,205,206,207,208,193,194,195,196,197,198,199,200,201,202,203,204,205,206,207,208,209,210,211,212,213,214,215,216,217,218,219,220,221,222,223,224,209,210,211,212,213,214,215,216,217,218,219,220,221,222,223,224,209,210,211,212,213,214,215,216,217,218,219,220,221,222,223,224,209,210,211,212,213,214,215,216,217,218,219,220,221,222,223,224,209,210,211,212,213,214,215,216,217,218,219,220,221,222,223,224,209,210,211,212,213,214,215,216,217,218,219,220,221,222,223,224,209,210,211,212,213,214,215,216,217,218,219,220,221,222,223,224,209,210,211,212,213,214,215,216,217,218,219,220,221,222,223,224,209,210,211,212,213,214,215,216,217,218,219,220,221,222,223,224,209,210,211,212,213,214,215,216,217,218,219,220,221,222,223,224,209,210,211,212,213,214,215,216,217,218,219,220,221,222,223,224,209,210,211,212,213,214,215,216,217,218,219,220,221,222,223,224,209,210,211,212,213,214,215,216,217,218,219,220,221,222,223,224,209,210,211,212,213,214,215,216,217,218,219,220,221,222,223,224,209,210,211,212,213,214,215,216,217,218,219,220,221,222,223,224,209,210,211,212,213,214,215,216,217,218,219,220,221,222,223,224,225,226,227,228,229,230,231,232,233,234,235,236,237,238,239,240,225,226,227,228,229,230,231,232,233,234,235,236,237,238,239,240,225,226,227,228,229,230,231,232,233,234,235,236,237,238,239,240,225,226,227,228,229,230,231,232,233,234,235,236,237,238,239,240,225,226,227,228,229,230,231,232,233,234,235,236,237,238,239,240,225,226,227,228,229,230,231,232,233,234,235,236,237,238,239,240,225,226,227,228,229,230,231,232,233,234,235,236,237,238,239,240,225,226,227,228,229,230,231,232,233,234,235,236,237,238,239,240,225,226,227,228,229,230,231,232,233,234,235,236,237,238,239,240,225,226,227,228,229,230,231,232,233,234,235,236,237,238,239,240,225,226,227,228,229,230,231,232,233,234,235,236,237,238,239,240,225,226,227,228,229,230,231,232,233,234,235,236,237,238,239,240,225,226,227,228,229,230,231,232,233,234,235,236,237,238,239,240,225,226,227,228,229,230,231,232,233,234,235,236,237,238,239,240,225,226,227,228,229,230,231,232,233,234,235,236,237,238,239,240,225,226,227,228,229,230,231,232,233,234,235,236,237,238,239,240,241,242,243,244,245,246,247,248,249,250,251,252,253,254,255,256,241,242,243,244,245,246,247,248,249,250,251,252,253,254,255,256,241,242,243,244,245,246,247,248,249,250,251,252,253,254,255,256,241,242,243,244,245,246,247,248,249,250,251,252,253,254,255,256,241,242,243,244,245,246,247,248,249,250,251,252,253,254,255,256,241,242,243,244,245,246,247,248,249,250,251,252,253,254,255,256,241,242,243,244,245,246,247,248,249,250,251,252,253,254,255,256,241,242,243,244,245,246,247,248,249,250,251,252,253,254,255,256,241,242,243,244,245,246,247,248,249,250,251,252,253,254,255,256,241,242,243,244,245,246,247,248,249,250,251,252,253,254,255,256,241,242,243,244,245,246,247,248,249,250,251,252,253,254,255,256,241,242,243,244,245,246,247,248,249,250,251,252,253,254,255,256,241,242,243,244,245,246,247,248,249,250,251,252,253,254,255,256,241,242,243,244,245,246,247,248,249,250,251,252,253,254,255,256,241,242,243,244,245,246,247,248,249,250,251,252,253,254,255,256,241,242,243,244,245,246,247,248,249,250,251,252,253,254,255,256,1,2,3,4,5,6,7,8,9,10,11,12,13,14,15,16,1,2,3,4,5,6,7,8,9,10,11,12,13,14,15,16,1,2,3,4,5,6,7,8,9,10,11,12,13,14,15,16,1,2,3,4,5,6,7,8,9,10,11,12,13,14,15,16,1,2,3,4,5,6,7,8,9,10,11,12,13,14,15,16,1,2,3,4,5,6,7,8,9,10,11,12,13,14,15,16,1,2,3,4,5,6,7,8,9,10,11,12,13,14,15,16,1,2,3,4,5,6,7,8,9,10,11,12,13,14,15,16,1,2,3,4,5,6,7,8,9,10,11,12,13,14,15,16,1,2,3,4,5,6,7,8,9,10,11,12,13,14,15,16,1,2,3,4,5,6,7,8,9,10,11,12,13,14,15,16,1,2,3,4,5,6,7,8,9,10,11,12,13,14,15,16,1,2,3,4,5,6,7,8,9,10,11,12,13,14,15,16,1,2,3,4,5,6,7,8,9,10,11,12,13,14,15,16,1,2,3,4,5,6,7,8,9,10,11,12,13,14,15,16,1,2,3,4,5,6,7,8,9,10,11,12,13,14,15,16,17,18,19,20,21,22,23,24,25,26,27,28,29,30,31,32,17,18,19,20,21,22,23,24,25,26,27,28,29,30,31,32,17,18,19,20,21,22,23,24,25,26,27,28,29,30,31,32,17,18,19,20,21,22,23,24,25,26,27,28,29,30,31,32,17,18,19,20,21,22,23,24,25,26,27,28,29,30,31,32,17,18,19,20,21,22,23,24,25,26,27,28,29,30,31,32,17,18,19,20,21,22,23,24,25,26,27,28,29,30,31,32,17,18,19,20,21,22,23,24,25,26,27,28,29,30,31,32,17,18,19,20,21,22,23,24,25,26,27,28,29,30,31,32,17,18,19,20,21,22,23,24,25,26,27,28,29,30,31,32,17,18,19,20,21,22,23,24,25,26,27,28,29,30,31,32,17,18,19,20,21,22,23,24,25,26,27,28,29,30,31,32,17,18,19,20,21,22,23,24,25,26,27,28,29,30,31,32,17,18,19,20,21,22,23,24,25,26,27,28,29,30,31,32,17,18,19,20,21,22,23,24,25,26,27,28,29,30,31,32,17,18,19,20,21,22,23,24,25,26,27,28,29,30,31,32,33,34,35,36,37,38,39,40,41,42,43,44,45,46,47,48,33,34,35,36,37,38,39,40,41,42,43,44,45,46,47,48,33,34,35,36,37,38,39,40,41,42,43,44,45,46,47,48,33,34,35,36,37,38,39,40,41,42,43,44,45,46,47,48,33,34,35,36,37,38,39,40,41,42,43,44,45,46,47,48,33,34,35,36,37,38,39,40,41,42,43,44,45,46,47,48,33,34,35,36,37,38,39,40,41,42,43,44,45,46,47,48,33,34,35,36,37,38,39,40,41,42,43,44,45,46,47,48,33,34,35,36,37,38,39,40,41,42,43,44,45,46,47,48,33,34,35,36,37,38,39,40,41,42,43,44,45,46,47,48,33,34,35,36,37,38,39,40,41,42,43,44,45,46,47,48,33,34,35,36,37,38,39,40,41,42,43,44,45,46,47,48,33,34,35,36,37,38,39,40,41,42,43,44,45,46,47,48,33,34,35,36,37,38,39,40,41,42,43,44,45,46,47,48,33,34,35,36,37,38,39,40,41,42,43,44,45,46,47,48,33,34,35,36,37,38,39,40,41,42,43,44,45,46,47,48,49,50,51,52,53,54,55,56,57,58,59,60,61,62,63,64,49,50,51,52,53,54,55,56,57,58,59,60,61,62,63,64,49,50,51,52,53,54,55,56,57,58,59,60,61,62,63,64,49,50,51,52,53,54,55,56,57,58,59,60,61,62,63,64,49,50,51,52,53,54,55,56,57,58,59,60,61,62,63,64,49,50,51,52,53,54,55,56,57,58,59,60,61,62,63,64,49,50,51,52,53,54,55,56,57,58,59,60,61,62,63,64,49,50,51,52,53,54,55,56,57,58,59,60,61,62,63,64,49,50,51,52,53,54,55,56,57,58,59,60,61,62,63,64,49,50,51,52,53,54,55,56,57,58,59,60,61,62,63,64,49,50,51,52,53,54,55,56,57,58,59,60,61,62,63,64,49,50,51,52,53,54,55,56,57,58,59,60,61,62,63,64,49,50,51,52,53,54,55,56,57,58,59,60,61,62,63,64,49,50,51,52,53,54,55,56,57,58,59,60,61,62,63,64,49,50,51,52,53,54,55,56,57,58,59,60,61,62,63,64,49,50,51,52,53,54,55,56,57,58,59,60,61,62,63,64,65,66,67,68,69,70,71,72,73,74,75,76,77,78,79,80,65,66,67,68,69,70,71,72,73,74,75,76,77,78,79,80,65,66,67,68,69,70,71,72,73,74,75,76,77,78,79,80,65,66,67,68,69,70,71,72,73,74,75,76,77,78,79,80,65,66,67,68,69,70,71,72,73,74,75,76,77,78,79,80,65,66,67,68,69,70,71,72,73,74,75,76,77,78,79,80,65,66,67,68,69,70,71,72,73,74,75,76,77,78,79,80,65,66,67,68,69,70,71,72,73,74,75,76,77,78,79,80,65,66,67,68,69,70,71,72,73,74,75,76,77,78,79,80,65,66,67,68,69,70,71,72,73,74,75,76,77,78,79,80,65,66,67,68,69,70,71,72,73,74,75,76,77,78,79,80,65,66,67,68,69,70,71,72,73,74,75,76,77,78,79,80,65,66,67,68,69,70,71,72,73,74,75,76,77,78,79,80,65,66,67,68,69,70,71,72,73,74,75,76,77,78,79,80,65,66,67,68,69,70,71,72,73,74,75,76,77,78,79,80,65,66,67,68,69,70,71,72,73,74,75,76,77,78,79,80,81,82,83,84,85,86,87,88,89,90,91,92,93,94,95,96,81,82,83,84,85,86,87,88,89,90,91,92,93,94,95,96,81,82,83,84,85,86,87,88,89,90,91,92,93,94,95,96,81,82,83,84,85,86,87,88,89,90,91,92,93,94,95,96,81,82,83,84,85,86,87,88,89,90,91,92,93,94,95,96,81,82,83,84,85,86,87,88,89,90,91,92,93,94,95,96,81,82,83,84,85,86,87,88,89,90,91,92,93,94,95,96,81,82,83,84,85,86,87,88,89,90,91,92,93,94,95,96,81,82,83,84,85,86,87,88,89,90,91,92,93,94,95,96,81,82,83,84,85,86,87,88,89,90,91,92,93,94,95,96,81,82,83,84,85,86,87,88,89,90,91,92,93,94,95,96,81,82,83,84,85,86,87,88,89,90,91,92,93,94,95,96,81,82,83,84,85,86,87,88,89,90,91,92,93,94,95,96,81,82,83,84,85,86,87,88,89,90,91,92,93,94,95,96,81,82,83,84,85,86,87,88,89,90,91,92,93,94,95,96,81,82,83,84,85,86,87,88,89,90,91,92,93,94,95,96,97,98,99,100,101,102,103,104,105,106,107,108,109,110,111,112,97,98,99,100,101,102,103,104,105,106,107,108,109,110,111,112,97,98,99,100,101,102,103,104,105,106,107,108,109,110,111,112,97,98,99,100,101,102,103,104,105,106,107,108,109,110,111,112,97,98,99,100,101,102,103,104,105,106,107,108,109,110,111,112,97,98,99,100,101,102,103,104,105,106,107,108,109,110,111,112,97,98,99,100,101,102,103,104,105,106,107,108,109,110,111,112,97,98,99,100,101,102,103,104,105,106,107,108,109,110,111,112,97,98,99,100,101,102,103,104,105,106,107,108,109,110,111,112,97,98,99,100,101,102,103,104,105,106,107,108,109,110,111,112,97,98,99,100,101,102,103,104,105,106,107,108,109,110,111,112,97,98,99,100,101,102,103,104,105,106,107,108,109,110,111,112,97,98,99,100,101,102,103,104,105,106,107,108,109,110,111,112,97,98,99,100,101,102,103,104,105,106,107,108,109,110,111,112,97,98,99,100,101,102,103,104,105,106,107,108,109,110,111,112,97,98,99,100,101,102,103,104,105,106,107,108,109,110,111,112,113,114,115,116,117,118,119,120,121,122,123,124,125,126,127,128,113,114,115,116,117,118,119,120,121,122,123,124,125,126,127,128,113,114,115,116,117,118,119,120,121,122,123,124,125,126,127,128,113,114,115,116,117,118,119,120,121,122,123,124,125,126,127,128,113,114,115,116,117,118,119,120,121,122,123,124,125,126,127,128,113,114,115,116,117,118,119,120,121,122,123,124,125,126,127,128,113,114,115,116,117,118,119,120,121,122,123,124,125,126,127,128,113,114,115,116,117,118,119,120,121,122,123,124,125,126,127,128,113,114,115,116,117,118,119,120,121,122,123,124,125,126,127,128,113,114,115,116,117,118,119,120,121,122,123,124,125,126,127,128,113,114,115,116,117,118,119,120,121,122,123,124,125,126,127,128,113,114,115,116,117,118,119,120,121,122,123,124,125,126,127,128,113,114,115,116,117,118,119,120,121,122,123,124,125,126,127,128,113,114,115,116,117,118,119,120,121,122,123,124,125,126,127,128,113,114,115,116,117,118,119,120,121,122,123,124,125,126,127,128,113,114,115,116,117,118,119,120,121,122,123,124,125,126,127,128,129,130,131,132,133,134,135,136,137,138,139,140,141,142,143,144,129,130,131,132,133,134,135,136,137,138,139,140,141,142,143,144,129,130,131,132,133,134,135,136,137,138,139,140,141,142,143,144,129,130,131,132,133,134,135,136,137,138,139,140,141,142,143,144,129,130,131,132,133,134,135,136,137,138,139,140,141,142,143,144,129,130,131,132,133,134,135,136,137,138,139,140,141,142,143,144,129,130,131,132,133,134,135,136,137,138,139,140,141,142,143,144,129,130,131,132,133,134,135,136,137,138,139,140,141,142,143,144,129,130,131,132,133,134,135,136,137,138,139,140,141,142,143,144,129,130,131,132,133,134,135,136,137,138,139,140,141,142,143,144,129,130,131,132,133,134,135,136,137,138,139,140,141,142,143,144,129,130,131,132,133,134,135,136,137,138,139,140,141,142,143,144,129,130,131,132,133,134,135,136,137,138,139,140,141,142,143,144,129,130,131,132,133,134,135,136,137,138,139,140,141,142,143,144,129,130,131,132,133,134,135,136,137,138,139,140,141,142,143,144,129,130,131,132,133,134,135,136,137,138,139,140,141,142,143,144,145,146,147,148,149,150,151,152,153,154,155,156,157,158,159,160,145,146,147,148,149,150,151,152,153,154,155,156,157,158,159,160,145,146,147,148,149,150,151,152,153,154,155,156,157,158,159,160,145,146,147,148,149,150,151,152,153,154,155,156,157,158,159,160,145,146,147,148,149,150,151,152,153,154,155,156,157,158,159,160,145,146,147,148,149,150,151,152,153,154,155,156,157,158,159,160,145,146,147,148,149,150,151,152,153,154,155,156,157,158,159,160,145,146,147,148,149,150,151,152,153,154,155,156,157,158,159,160,145,146,147,148,149,150,151,152,153,154,155,156,157,158,159,160,145,146,147,148,149,150,151,152,153,154,155,156,157,158,159,160,145,146,147,148,149,150,151,152,153,154,155,156,157,158,159,160,145,146,147,148,149,150,151,152,153,154,155,156,157,158,159,160,145,146,147,148,149,150,151,152,153,154,155,156,157,158,159,160,145,146,147,148,149,150,151,152,153,154,155,156,157,158,159,160,145,146,147,148,149,150,151,152,153,154,155,156,157,158,159,160,145,146,147,148,149,150,151,152,153,154,155,156,157,158,159,160,161,162,163,164,165,166,167,168,169,170,171,172,173,174,175,176,161,162,163,164,165,166,167,168,169,170,171,172,173,174,175,176,161,162,163,164,165,166,167,168,169,170,171,172,173,174,175,176,161,162,163,164,165,166,167,168,169,170,171,172,173,174,175,176,161,162,163,164,165,166,167,168,169,170,171,172,173,174,175,176,161,162,163,164,165,166,167,168,169,170,171,172,173,174,175,176,161,162,163,164,165,166,167,168,169,170,171,172,173,174,175,176,161,162,163,164,165,166,167,168,169,170,171,172,173,174,175,176,161,162,163,164,165,166,167,168,169,170,171,172,173,174,175,176,161,162,163,164,165,166,167,168,169,170,171,172,173,174,175,176,161,162,163,164,165,166,167,168,169,170,171,172,173,174,175,176,161,162,163,164,165,166,167,168,169,170,171,172,173,174,175,176,161,162,163,164,165,166,167,168,169,170,171,172,173,174,175,176,161,162,163,164,165,166,167,168,169,170,171,172,173,174,175,176,161,162,163,164,165,166,167,168,169,170,171,172,173,174,175,176,161,162,163,164,165,166,167,168,169,170,171,172,173,174,175,176,177,178,179,180,181,182,183,184,185,186,187,188,189,190,191,192,177,178,179,180,181,182,183,184,185,186,187,188,189,190,191,192,177,178,179,180,181,182,183,184,185,186,187,188,189,190,191,192,177,178,179,180,181,182,183,184,185,186,187,188,189,190,191,192,177,178,179,180,181,182,183,184,185,186,187,188,189,190,191,192,177,178,179,180,181,182,183,184,185,186,187,188,189,190,191,192,177,178,179,180,181,182,183,184,185,186,187,188,189,190,191,192,177,178,179,180,181,182,183,184,185,186,187,188,189,190,191,192,177,178,179,180,181,182,183,184,185,186,187,188,189,190,191,192,177,178,179,180,181,182,183,184,185,186,187,188,189,190,191,192,177,178,179,180,181,182,183,184,185,186,187,188,189,190,191,192,177,178,179,180,181,182,183,184,185,186,187,188,189,190,191,192,177,178,179,180,181,182,183,184,185,186,187,188,189,190,191,192,177,178,179,180,181,182,183,184,185,186,187,188,189,190,191,192,177,178,179,180,181,182,183,184,185,186,187,188,189,190,191,192,177,178,179,180,181,182,183,184,185,186,187,188,189,190,191,192,193,194,195,196,197,198,199,200,201,202,203,204,205,206,207,208,193,194,195,196,197,198,199,200,201,202,203,204,205,206,207,208,193,194,195,196,197,198,199,200,201,202,203,204,205,206,207,208,193,194,195,196,197,198,199,200,201,202,203,204,205,206,207,208,193,194,195,196,197,198,199,200,201,202,203,204,205,206,207,208,193,194,195,196,197,198,199,200,201,202,203,204,205,206,207,208,193,194,195,196,197,198,199,200,201,202,203,204,205,206,207,208,193,194,195,196,197,198,199,200,201,202,203,204,205,206,207,208,193,194,195,196,197,198,199,200,201,202,203,204,205,206,207,208,193,194,195,196,197,198,199,200,201,202,203,204,205,206,207,208,193,194,195,196,197,198,199,200,201,202,203,204,205,206,207,208,193,194,195,196,197,198,199,200,201,202,203,204,205,206,207,208,193,194,195,196,197,198,199,200,201,202,203,204,205,206,207,208,193,194,195,196,197,198,199,200,201,202,203,204,205,206,207,208,193,194,195,196,197,198,199,200,201,202,203,204,205,206,207,208,193,194,195,196,197,198,199,200,201,202,203,204,205,206,207,208,209,210,211,212,213,214,215,216,217,218,219,220,221,222,223,224,209,210,211,212,213,214,215,216,217,218,219,220,221,222,223,224,209,210,211,212,213,214,215,216,217,218,219,220,221,222,223,224,209,210,211,212,213,214,215,216,217,218,219,220,221,222,223,224,209,210,211,212,213,214,215,216,217,218,219,220,221,222,223,224,209,210,211,212,213,214,215,216,217,218,219,220,221,222,223,224,209,210,211,212,213,214,215,216,217,218,219,220,221,222,223,224,209,210,211,212,213,214,215,216,217,218,219,220,221,222,223,224,209,210,211,212,213,214,215,216,217,218,219,220,221,222,223,224,209,210,211,212,213,214,215,216,217,218,219,220,221,222,223,224,209,210,211,212,213,214,215,216,217,218,219,220,221,222,223,224,209,210,211,212,213,214,215,216,217,218,219,220,221,222,223,224,209,210,211,212,213,214,215,216,217,218,219,220,221,222,223,224,209,210,211,212,213,214,215,216,217,218,219,220,221,222,223,224,209,210,211,212,213,214,215,216,217,218,219,220,221,222,223,224,209,210,211,212,213,214,215,216,217,218,219,220,221,222,223,224,225,226,227,228,229,230,231,232,233,234,235,236,237,238,239,240,225,226,227,228,229,230,231,232,233,234,235,236,237,238,239,240,225,226,227,228,229,230,231,232,233,234,235,236,237,238,239,240,225,226,227,228,229,230,231,232,233,234,235,236,237,238,239,240,225,226,227,228,229,230,231,232,233,234,235,236,237,238,239,240,225,226,227,228,229,230,231,232,233,234,235,236,237,238,239,240,225,226,227,228,229,230,231,232,233,234,235,236,237,238,239,240,225,226,227,228,229,230,231,232,233,234,235,236,237,238,239,240,225,226,227,228,229,230,231,232,233,234,235,236,237,238,239,240,225,226,227,228,229,230,231,232,233,234,235,236,237,238,239,240,225,226,227,228,229,230,231,232,233,234,235,236,237,238,239,240,225,226,227,228,229,230,231,232,233,234,235,236,237,238,239,240,225,226,227,228,229,230,231,232,233,234,235,236,237,238,239,240,225,226,227,228,229,230,231,232,233,234,235,236,237,238,239,240,225,226,227,228,229,230,231,232,233,234,235,236,237,238,239,240,225,226,227,228,229,230,231,232,233,234,235,236,237,238,239,240,241,242,243,244,245,246,247,248,249,250,251,252,253,254,255,256,241,242,243,244,245,246,247,248,249,250,251,252,253,254,255,256,241,242,243,244,245,246,247,248,249,250,251,252,253,254,255,256,241,242,243,244,245,246,247,248,249,250,251,252,253,254,255,256,241,242,243,244,245,246,247,248,249,250,251,252,253,254,255,256,241,242,243,244,245,246,247,248,249,250,251,252,253,254,255,256,241,242,243,244,245,246,247,248,249,250,251,252,253,254,255,256,241,242,243,244,245,246,247,248,249,250,251,252,253,254,255,256,241,242,243,244,245,246,247,248,249,250,251,252,253,254,255,256,241,242,243,244,245,246,247,248,249,250,251,252,253,254,255,256,241,242,243,244,245,246,247,248,249,250,251,252,253,254,255,256,241,242,243,244,245,246,247,248,249,250,251,252,253,254,255,256,241,242,243,244,245,246,247,248,249,250,251,252,253,254,255,256,241,242,243,244,245,246,247,248,249,250,251,252,253,254,255,256,241,242,243,244,245,246,247,248,249,250,251,252,253,254,255,256,241,242,243,244,245,246,247,248,249,250,251,252,253,254,255,256,1,2,3,4,5,6,7,8,9,10,11,12,13,14,15,16,1,2,3,4,5,6,7,8,9,10,11,12,13,14,15,16,1,2,3,4,5,6,7,8,9,10,11,12,13,14,15,16,1,2,3,4,5,6,7,8,9,10,11,12,13,14,15,16,1,2,3,4,5,6,7,8,9,10,11,12,13,14,15,16,1,2,3,4,5,6,7,8,9,10,11,12,13,14,15,16,1,2,3,4,5,6,7,8,9,10,11,12,13,14,15,16,1,2,3,4,5,6,7,8,9,10,11,12,13,14,15,16,1,2,3,4,5,6,7,8,9,10,11,12,13,14,15,16,1,2,3,4,5,6,7,8,9,10,11,12,13,14,15,16,1,2,3,4,5,6,7,8,9,10,11,12,13,14,15,16,1,2,3,4,5,6,7,8,9,10,11,12,13,14,15,16,1,2,3,4,5,6,7,8,9,10,11,12,13,14,15,16,1,2,3,4,5,6,7,8,9,10,11,12,13,14,15,16,1,2,3,4,5,6,7,8,9,10,11,12,13,14,15,16,1,2,3,4,5,6,7,8,9,10,11,12,13,14,15,16,17,18,19,20,21,22,23,24,25,26,27,28,29,30,31,32,17,18,19,20,21,22,23,24,25,26,27,28,29,30,31,32,17,18,19,20,21,22,23,24,25,26,27,28,29,30,31,32,17,18,19,20,21,22,23,24,25,26,27,28,29,30,31,32,17,18,19,20,21,22,23,24,25,26,27,28,29,30,31,32,17,18,19,20,21,22,23,24,25,26,27,28,29,30,31,32,17,18,19,20,21,22,23,24,25,26,27,28,29,30,31,32,17,18,19,20,21,22,23,24,25,26,27,28,29,30,31,32,17,18,19,20,21,22,23,24,25,26,27,28,29,30,31,32,17,18,19,20,21,22,23,24,25,26,27,28,29,30,31,32,17,18,19,20,21,22,23,24,25,26,27,28,29,30,31,32,17,18,19,20,21,22,23,24,25,26,27,28,29,30,31,32,17,18,19,20,21,22,23,24,25,26,27,28,29,30,31,32,17,18,19,20,21,22,23,24,25,26,27,28,29,30,31,32,17,18,19,20,21,22,23,24,25,26,27,28,29,30,31,32,17,18,19,20,21,22,23,24,25,26,27,28,29,30,31,32,33,34,35,36,37,38,39,40,41,42,43,44,45,46,47,48,33,34,35,36,37,38,39,40,41,42,43,44,45,46,47,48,33,34,35,36,37,38,39,40,41,42,43,44,45,46,47,48,33,34,35,36,37,38,39,40,41,42,43,44,45,46,47,48,33,34,35,36,37,38,39,40,41,42,43,44,45,46,47,48,33,34,35,36,37,38,39,40,41,42,43,44,45,46,47,48,33,34,35,36,37,38,39,40,41,42,43,44,45,46,47,48,33,34,35,36,37,38,39,40,41,42,43,44,45,46,47,48,33,34,35,36,37,38,39,40,41,42,43,44,45,46,47,48,33,34,35,36,37,38,39,40,41,42,43,44,45,46,47,48,33,34,35,36,37,38,39,40,41,42,43,44,45,46,47,48,33,34,35,36,37,38,39,40,41,42,43,44,45,46,47,48,33,34,35,36,37,38,39,40,41,42,43,44,45,46,47,48,33,34,35,36,37,38,39,40,41,42,43,44,45,46,47,48,33,34,35,36,37,38,39,40,41,42,43,44,45,46,47,48,33,34,35,36,37,38,39,40,41,42,43,44,45,46,47,48,49,50,51,52,53,54,55,56,57,58,59,60,61,62,63,64,49,50,51,52,53,54,55,56,57,58,59,60,61,62,63,64,49,50,51,52,53,54,55,56,57,58,59,60,61,62,63,64,49,50,51,52,53,54,55,56,57,58,59,60,61,62,63,64,49,50,51,52,53,54,55,56,57,58,59,60,61,62,63,64,49,50,51,52,53,54,55,56,57,58,59,60,61,62,63,64,49,50,51,52,53,54,55,56,57,58,59,60,61,62,63,64,49,50,51,52,53,54,55,56,57,58,59,60,61,62,63,64,49,50,51,52,53,54,55,56,57,58,59,60,61,62,63,64,49,50,51,52,53,54,55,56,57,58,59,60,61,62,63,64,49,50,51,52,53,54,55,56,57,58,59,60,61,62,63,64,49,50,51,52,53,54,55,56,57,58,59,60,61,62,63,64,49,50,51,52,53,54,55,56,57,58,59,60,61,62,63,64,49,50,51,52,53,54,55,56,57,58,59,60,61,62,63,64,49,50,51,52,53,54,55,56,57,58,59,60,61,62,63,64,49,50,51,52,53,54,55,56,57,58,59,60,61,62,63,64,65,66,67,68,69,70,71,72,73,74,75,76,77,78,79,80,65,66,67,68,69,70,71,72,73,74,75,76,77,78,79,80,65,66,67,68,69,70,71,72,73,74,75,76,77,78,79,80,65,66,67,68,69,70,71,72,73,74,75,76,77,78,79,80,65,66,67,68,69,70,71,72,73,74,75,76,77,78,79,80,65,66,67,68,69,70,71,72,73,74,75,76,77,78,79,80,65,66,67,68,69,70,71,72,73,74,75,76,77,78,79,80,65,66,67,68,69,70,71,72,73,74,75,76,77,78,79,80,65,66,67,68,69,70,71,72,73,74,75,76,77,78,79,80,65,66,67,68,69,70,71,72,73,74,75,76,77,78,79,80,65,66,67,68,69,70,71,72,73,74,75,76,77,78,79,80,65,66,67,68,69,70,71,72,73,74,75,76,77,78,79,80,65,66,67,68,69,70,71,72,73,74,75,76,77,78,79,80,65,66,67,68,69,70,71,72,73,74,75,76,77,78,79,80,65,66,67,68,69,70,71,72,73,74,75,76,77,78,79,80,65,66,67,68,69,70,71,72,73,74,75,76,77,78,79,80,81,82,83,84,85,86,87,88,89,90,91,92,93,94,95,96,81,82,83,84,85,86,87,88,89,90,91,92,93,94,95,96,81,82,83,84,85,86,87,88,89,90,91,92,93,94,95,96,81,82,83,84,85,86,87,88,89,90,91,92,93,94,95,96,81,82,83,84,85,86,87,88,89,90,91,92,93,94,95,96,81,82,83,84,85,86,87,88,89,90,91,92,93,94,95,96,81,82,83,84,85,86,87,88,89,90,91,92,93,94,95,96,81,82,83,84,85,86,87,88,89,90,91,92,93,94,95,96,81,82,83,84,85,86,87,88,89,90,91,92,93,94,95,96,81,82,83,84,85,86,87,88,89,90,91,92,93,94,95,96,81,82,83,84,85,86,87,88,89,90,91,92,93,94,95,96,81,82,83,84,85,86,87,88,89,90,91,92,93,94,95,96,81,82,83,84,85,86,87,88,89,90,91,92,93,94,95,96,81,82,83,84,85,86,87,88,89,90,91,92,93,94,95,96,81,82,83,84,85,86,87,88,89,90,91,92,93,94,95,96,81,82,83,84,85,86,87,88,89,90,91,92,93,94,95,96,97,98,99,100,101,102,103,104,105,106,107,108,109,110,111,112,97,98,99,100,101,102,103,104,105,106,107,108,109,110,111,112,97,98,99,100,101,102,103,104,105,106,107,108,109,110,111,112,97,98,99,100,101,102,103,104,105,106,107,108,109,110,111,112,97,98,99,100,101,102,103,104,105,106,107,108,109,110,111,112,97,98,99,100,101,102,103,104,105,106,107,108,109,110,111,112,97,98,99,100,101,102,103,104,105,106,107,108,109,110,111,112,97,98,99,100,101,102,103,104,105,106,107,108,109,110,111,112,97,98,99,100,101,102,103,104,105,106,107,108,109,110,111,112,97,98,99,100,101,102,103,104,105,106,107,108,109,110,111,112,97,98,99,100,101,102,103,104,105,106,107,108,109,110,111,112,97,98,99,100,101,102,103,104,105,106,107,108,109,110,111,112,97,98,99,100,101,102,103,104,105,106,107,108,109,110,111,112,97,98,99,100,101,102,103,104,105,106,107,108,109,110,111,112,97,98,99,100,101,102,103,104,105,106,107,108,109,110,111,112,97,98,99,100,101,102,103,104,105,106,107,108,109,110,111,112,113,114,115,116,117,118,119,120,121,122,123,124,125,126,127,128,113,114,115,116,117,118,119,120,121,122,123,124,125,126,127,128,113,114,115,116,117,118,119,120,121,122,123,124,125,126,127,128,113,114,115,116,117,118,119,120,121,122,123,124,125,126,127,128,113,114,115,116,117,118,119,120,121,122,123,124,125,126,127,128,113,114,115,116,117,118,119,120,121,122,123,124,125,126,127,128,113,114,115,116,117,118,119,120,121,122,123,124,125,126,127,128,113,114,115,116,117,118,119,120,121,122,123,124,125,126,127,128,113,114,115,116,117,118,119,120,121,122,123,124,125,126,127,128,113,114,115,116,117,118,119,120,121,122,123,124,125,126,127,128,113,114,115,116,117,118,119,120,121,122,123,124,125,126,127,128,113,114,115,116,117,118,119,120,121,122,123,124,125,126,127,128,113,114,115,116,117,118,119,120,121,122,123,124,125,126,127,128,113,114,115,116,117,118,119,120,121,122,123,124,125,126,127,128,113,114,115,116,117,118,119,120,121,122,123,124,125,126,127,128,113,114,115,116,117,118,119,120,121,122,123,124,125,126,127,128,129,130,131,132,133,134,135,136,137,138,139,140,141,142,143,144,129,130,131,132,133,134,135,136,137,138,139,140,141,142,143,144,129,130,131,132,133,134,135,136,137,138,139,140,141,142,143,144,129,130,131,132,133,134,135,136,137,138,139,140,141,142,143,144,129,130,131,132,133,134,135,136,137,138,139,140,141,142,143,144,129,130,131,132,133,134,135,136,137,138,139,140,141,142,143,144,129,130,131,132,133,134,135,136,137,138,139,140,141,142,143,144,129,130,131,132,133,134,135,136,137,138,139,140,141,142,143,144,129,130,131,132,133,134,135,136,137,138,139,140,141,142,143,144,129,130,131,132,133,134,135,136,137,138,139,140,141,142,143,144,129,130,131,132,133,134,135,136,137,138,139,140,141,142,143,144,129,130,131,132,133,134,135,136,137,138,139,140,141,142,143,144,129,130,131,132,133,134,135,136,137,138,139,140,141,142,143,144,129,130,131,132,133,134,135,136,137,138,139,140,141,142,143,144,129,130,131,132,133,134,135,136,137,138,139,140,141,142,143,144,129,130,131,132,133,134,135,136,137,138,139,140,141,142,143,144,145,146,147,148,149,150,151,152,153,154,155,156,157,158,159,160,145,146,147,148,149,150,151,152,153,154,155,156,157,158,159,160,145,146,147,148,149,150,151,152,153,154,155,156,157,158,159,160,145,146,147,148,149,150,151,152,153,154,155,156,157,158,159,160,145,146,147,148,149,150,151,152,153,154,155,156,157,158,159,160,145,146,147,148,149,150,151,152,153,154,155,156,157,158,159,160,145,146,147,148,149,150,151,152,153,154,155,156,157,158,159,160,145,146,147,148,149,150,151,152,153,154,155,156,157,158,159,160,145,146,147,148,149,150,151,152,153,154,155,156,157,158,159,160,145,146,147,148,149,150,151,152,153,154,155,156,157,158,159,160,145,146,147,148,149,150,151,152,153,154,155,156,157,158,159,160,145,146,147,148,149,150,151,152,153,154,155,156,157,158,159,160,145,146,147,148,149,150,151,152,153,154,155,156,157,158,159,160,145,146,147,148,149,150,151,152,153,154,155,156,157,158,159,160,145,146,147,148,149,150,151,152,153,154,155,156,157,158,159,160,145,146,147,148,149,150,151,152,153,154,155,156,157,158,159,160,161,162,163,164,165,166,167,168,169,170,171,172,173,174,175,176,161,162,163,164,165,166,167,168,169,170,171,172,173,174,175,176,161,162,163,164,165,166,167,168,169,170,171,172,173,174,175,176,161,162,163,164,165,166,167,168,169,170,171,172,173,174,175,176,161,162,163,164,165,166,167,168,169,170,171,172,173,174,175,176,161,162,163,164,165,166,167,168,169,170,171,172,173,174,175,176,161,162,163,164,165,166,167,168,169,170,171,172,173,174,175,176,161,162,163,164,165,166,167,168,169,170,171,172,173,174,175,176,161,162,163,164,165,166,167,168,169,170,171,172,173,174,175,176,161,162,163,164,165,166,167,168,169,170,171,172,173,174,175,176,161,162,163,164,165,166,167,168,169,170,171,172,173,174,175,176,161,162,163,164,165,166,167,168,169,170,171,172,173,174,175,176,161,162,163,164,165,166,167,168,169,170,171,172,173,174,175,176,161,162,163,164,165,166,167,168,169,170,171,172,173,174,175,176,161,162,163,164,165,166,167,168,169,170,171,172,173,174,175,176,161,162,163,164,165,166,167,168,169,170,171,172,173,174,175,176,177,178,179,180,181,182,183,184,185,186,187,188,189,190,191,192,177,178,179,180,181,182,183,184,185,186,187,188,189,190,191,192,177,178,179,180,181,182,183,184,185,186,187,188,189,190,191,192,177,178,179,180,181,182,183,184,185,186,187,188,189,190,191,192,177,178,179,180,181,182,183,184,185,186,187,188,189,190,191,192,177,178,179,180,181,182,183,184,185,186,187,188,189,190,191,192,177,178,179,180,181,182,183,184,185,186,187,188,189,190,191,192,177,178,179,180,181,182,183,184,185,186,187,188,189,190,191,192,177,178,179,180,181,182,183,184,185,186,187,188,189,190,191,192,177,178,179,180,181,182,183,184,185,186,187,188,189,190,191,192,177,178,179,180,181,182,183,184,185,186,187,188,189,190,191,192,177,178,179,180,181,182,183,184,185,186,187,188,189,190,191,192,177,178,179,180,181,182,183,184,185,186,187,188,189,190,191,192,177,178,179,180,181,182,183,184,185,186,187,188,189,190,191,192,177,178,179,180,181,182,183,184,185,186,187,188,189,190,191,192,177,178,179,180,181,182,183,184,185,186,187,188,189,190,191,192,193,194,195,196,197,198,199,200,201,202,203,204,205,206,207,208,193,194,195,196,197,198,199,200,201,202,203,204,205,206,207,208,193,194,195,196,197,198,199,200,201,202,203,204,205,206,207,208,193,194,195,196,197,198,199,200,201,202,203,204,205,206,207,208,193,194,195,196,197,198,199,200,201,202,203,204,205,206,207,208,193,194,195,196,197,198,199,200,201,202,203,204,205,206,207,208,193,194,195,196,197,198,199,200,201,202,203,204,205,206,207,208,193,194,195,196,197,198,199,200,201,202,203,204,205,206,207,208,193,194,195,196,197,198,199,200,201,202,203,204,205,206,207,208,193,194,195,196,197,198,199,200,201,202,203,204,205,206,207,208,193,194,195,196,197,198,199,200,201,202,203,204,205,206,207,208,193,194,195,196,197,198,199,200,201,202,203,204,205,206,207,208,193,194,195,196,197,198,199,200,201,202,203,204,205,206,207,208,193,194,195,196,197,198,199,200,201,202,203,204,205,206,207,208,193,194,195,196,197,198,199,200,201,202,203,204,205,206,207,208,193,194,195,196,197,198,199,200,201,202,203,204,205,206,207,208,209,210,211,212,213,214,215,216,217,218,219,220,221,222,223,224,209,210,211,212,213,214,215,216,217,218,219,220,221,222,223,224,209,210,211,212,213,214,215,216,217,218,219,220,221,222,223,224,209,210,211,212,213,214,215,216,217,218,219,220,221,222,223,224,209,210,211,212,213,214,215,216,217,218,219,220,221,222,223,224,209,210,211,212,213,214,215,216,217,218,219,220,221,222,223,224,209,210,211,212,213,214,215,216,217,218,219,220,221,222,223,224,209,210,211,212,213,214,215,216,217,218,219,220,221,222,223,224,209,210,211,212,213,214,215,216,217,218,219,220,221,222,223,224,209,210,211,212,213,214,215,216,217,218,219,220,221,222,223,224,209,210,211,212,213,214,215,216,217,218,219,220,221,222,223,224,209,210,211,212,213,214,215,216,217,218,219,220,221,222,223,224,209,210,211,212,213,214,215,216,217,218,219,220,221,222,223,224,209,210,211,212,213,214,215,216,217,218,219,220,221,222,223,224,209,210,211,212,213,214,215,216,217,218,219,220,221,222,223,224,209,210,211,212,213,214,215,216,217,218,219,220,221,222,223,224,225,226,227,228,229,230,231,232,233,234,235,236,237,238,239,240,225,226,227,228,229,230,231,232,233,234,235,236,237,238,239,240,225,226,227,228,229,230,231,232,233,234,235,236,237,238,239,240,225,226,227,228,229,230,231,232,233,234,235,236,237,238,239,240,225,226,227,228,229,230,231,232,233,234,235,236,237,238,239,240,225,226,227,228,229,230,231,232,233,234,235,236,237,238,239,240,225,226,227,228,229,230,231,232,233,234,235,236,237,238,239,240,225,226,227,228,229,230,231,232,233,234,235,236,237,238,239,240,225,226,227,228,229,230,231,232,233,234,235,236,237,238,239,240,225,226,227,228,229,230,231,232,233,234,235,236,237,238,239,240,225,226,227,228,229,230,231,232,233,234,235,236,237,238,239,240,225,226,227,228,229,230,231,232,233,234,235,236,237,238,239,240,225,226,227,228,229,230,231,232,233,234,235,236,237,238,239,240,225,226,227,228,229,230,231,232,233,234,235,236,237,238,239,240,225,226,227,228,229,230,231,232,233,234,235,236,237,238,239,240,225,226,227,228,229,230,231,232,233,234,235,236,237,238,239,240,241,242,243,244,245,246,247,248,249,250,251,252,253,254,255,256,241,242,243,244,245,246,247,248,249,250,251,252,253,254,255,256,241,242,243,244,245,246,247,248,249,250,251,252,253,254,255,256,241,242,243,244,245,246,247,248,249,250,251,252,253,254,255,256,241,242,243,244,245,246,247,248,249,250,251,252,253,254,255,256,241,242,243,244,245,246,247,248,249,250,251,252,253,254,255,256,241,242,243,244,245,246,247,248,249,250,251,252,253,254,255,256,241,242,243,244,245,246,247,248,249,250,251,252,253,254,255,256,241,242,243,244,245,246,247,248,249,250,251,252,253,254,255,256,241,242,243,244,245,246,247,248,249,250,251,252,253,254,255,256,241,242,243,244,245,246,247,248,249,250,251,252,253,254,255,256,241,242,243,244,245,246,247,248,249,250,251,252,253,254,255,256,241,242,243,244,245,246,247,248,249,250,251,252,253,254,255,256,241,242,243,244,245,246,247,248,249,250,251,252,253,254,255,256,241,242,243,244,245,246,247,248,249,250,251,252,253,254,255,256,241,242,243,244,245,246,247,248,249,250,251,252,253,254,255,256,1,2,3,4,5,6,7,8,9,10,11,12,13,14,15,16,1,2,3,4,5,6,7,8,9,10,11,12,13,14,15,16,1,2,3,4,5,6,7,8,9,10,11,12,13,14,15,16,1,2,3,4,5,6,7,8,9,10,11,12,13,14,15,16,1,2,3,4,5,6,7,8,9,10,11,12,13,14,15,16,1,2,3,4,5,6,7,8,9,10,11,12,13,14,15,16,1,2,3,4,5,6,7,8,9,10,11,12,13,14,15,16,1,2,3,4,5,6,7,8,9,10,11,12,13,14,15,16,1,2,3,4,5,6,7,8,9,10,11,12,13,14,15,16,1,2,3,4,5,6,7,8,9,10,11,12,13,14,15,16,1,2,3,4,5,6,7,8,9,10,11,12,13,14,15,16,1,2,3,4,5,6,7,8,9,10,11,12,13,14,15,16,1,2,3,4,5,6,7,8,9,10,11,12,13,14,15,16,1,2,3,4,5,6,7,8,9,10,11,12,13,14,15,16,1,2,3,4,5,6,7,8,9,10,11,12,13,14,15,16,1,2,3,4,5,6,7,8,9,10,11,12,13,14,15,16,17,18,19,20,21,22,23,24,25,26,27,28,29,30,31,32,17,18,19,20,21,22,23,24,25,26,27,28,29,30,31,32,17,18,19,20,21,22,23,24,25,26,27,28,29,30,31,32,17,18,19,20,21,22,23,24,25,26,27,28,29,30,31,32,17,18,19,20,21,22,23,24,25,26,27,28,29,30,31,32,17,18,19,20,21,22,23,24,25,26,27,28,29,30,31,32,17,18,19,20,21,22,23,24,25,26,27,28,29,30,31,32,17,18,19,20,21,22,23,24,25,26,27,28,29,30,31,32,17,18,19,20,21,22,23,24,25,26,27,28,29,30,31,32,17,18,19,20,21,22,23,24,25,26,27,28,29,30,31,32,17,18,19,20,21,22,23,24,25,26,27,28,29,30,31,32,17,18,19,20,21,22,23,24,25,26,27,28,29,30,31,32,17,18,19,20,21,22,23,24,25,26,27,28,29,30,31,32,17,18,19,20,21,22,23,24,25,26,27,28,29,30,31,32,17,18,19,20,21,22,23,24,25,26,27,28,29,30,31,32,17,18,19,20,21,22,23,24,25,26,27,28,29,30,31,32,33,34,35,36,37,38,39,40,41,42,43,44,45,46,47,48,33,34,35,36,37,38,39,40,41,42,43,44,45,46,47,48,33,34,35,36,37,38,39,40,41,42,43,44,45,46,47,48,33,34,35,36,37,38,39,40,41,42,43,44,45,46,47,48,33,34,35,36,37,38,39,40,41,42,43,44,45,46,47,48,33,34,35,36,37,38,39,40,41,42,43,44,45,46,47,48,33,34,35,36,37,38,39,40,41,42,43,44,45,46,47,48,33,34,35,36,37,38,39,40,41,42,43,44,45,46,47,48,33,34,35,36,37,38,39,40,41,42,43,44,45,46,47,48,33,34,35,36,37,38,39,40,41,42,43,44,45,46,47,48,33,34,35,36,37,38,39,40,41,42,43,44,45,46,47,48,33,34,35,36,37,38,39,40,41,42,43,44,45,46,47,48,33,34,35,36,37,38,39,40,41,42,43,44,45,46,47,48,33,34,35,36,37,38,39,40,41,42,43,44,45,46,47,48,33,34,35,36,37,38,39,40,41,42,43,44,45,46,47,48,33,34,35,36,37,38,39,40,41,42,43,44,45,46,47,48,49,50,51,52,53,54,55,56,57,58,59,60,61,62,63,64,49,50,51,52,53,54,55,56,57,58,59,60,61,62,63,64,49,50,51,52,53,54,55,56,57,58,59,60,61,62,63,64,49,50,51,52,53,54,55,56,57,58,59,60,61,62,63,64,49,50,51,52,53,54,55,56,57,58,59,60,61,62,63,64,49,50,51,52,53,54,55,56,57,58,59,60,61,62,63,64,49,50,51,52,53,54,55,56,57,58,59,60,61,62,63,64,49,50,51,52,53,54,55,56,57,58,59,60,61,62,63,64,49,50,51,52,53,54,55,56,57,58,59,60,61,62,63,64,49,50,51,52,53,54,55,56,57,58,59,60,61,62,63,64,49,50,51,52,53,54,55,56,57,58,59,60,61,62,63,64,49,50,51,52,53,54,55,56,57,58,59,60,61,62,63,64,49,50,51,52,53,54,55,56,57,58,59,60,61,62,63,64,49,50,51,52,53,54,55,56,57,58,59,60,61,62,63,64,49,50,51,52,53,54,55,56,57,58,59,60,61,62,63,64,49,50,51,52,53,54,55,56,57,58,59,60,61,62,63,64,65,66,67,68,69,70,71,72,73,74,75,76,77,78,79,80,65,66,67,68,69,70,71,72,73,74,75,76,77,78,79,80,65,66,67,68,69,70,71,72,73,74,75,76,77,78,79,80,65,66,67,68,69,70,71,72,73,74,75,76,77,78,79,80,65,66,67,68,69,70,71,72,73,74,75,76,77,78,79,80,65,66,67,68,69,70,71,72,73,74,75,76,77,78,79,80,65,66,67,68,69,70,71,72,73,74,75,76,77,78,79,80,65,66,67,68,69,70,71,72,73,74,75,76,77,78,79,80,65,66,67,68,69,70,71,72,73,74,75,76,77,78,79,80,65,66,67,68,69,70,71,72,73,74,75,76,77,78,79,80,65,66,67,68,69,70,71,72,73,74,75,76,77,78,79,80,65,66,67,68,69,70,71,72,73,74,75,76,77,78,79,80,65,66,67,68,69,70,71,72,73,74,75,76,77,78,79,80,65,66,67,68,69,70,71,72,73,74,75,76,77,78,79,80,65,66,67,68,69,70,71,72,73,74,75,76,77,78,79,80,65,66,67,68,69,70,71,72,73,74,75,76,77,78,79,80,81,82,83,84,85,86,87,88,89,90,91,92,93,94,95,96,81,82,83,84,85,86,87,88,89,90,91,92,93,94,95,96,81,82,83,84,85,86,87,88,89,90,91,92,93,94,95,96,81,82,83,84,85,86,87,88,89,90,91,92,93,94,95,96,81,82,83,84,85,86,87,88,89,90,91,92,93,94,95,96,81,82,83,84,85,86,87,88,89,90,91,92,93,94,95,96,81,82,83,84,85,86,87,88,89,90,91,92,93,94,95,96,81,82,83,84,85,86,87,88,89,90,91,92,93,94,95,96,81,82,83,84,85,86,87,88,89,90,91,92,93,94,95,96,81,82,83,84,85,86,87,88,89,90,91,92,93,94,95,96,81,82,83,84,85,86,87,88,89,90,91,92,93,94,95,96,81,82,83,84,85,86,87,88,89,90,91,92,93,94,95,96,81,82,83,84,85,86,87,88,89,90,91,92,93,94,95,96,81,82,83,84,85,86,87,88,89,90,91,92,93,94,95,96,81,82,83,84,85,86,87,88,89,90,91,92,93,94,95,96,81,82,83,84,85,86,87,88,89,90,91,92,93,94,95,96,97,98,99,100,101,102,103,104,105,106,107,108,109,110,111,112,97,98,99,100,101,102,103,104,105,106,107,108,109,110,111,112,97,98,99,100,101,102,103,104,105,106,107,108,109,110,111,112,97,98,99,100,101,102,103,104,105,106,107,108,109,110,111,112,97,98,99,100,101,102,103,104,105,106,107,108,109,110,111,112,97,98,99,100,101,102,103,104,105,106,107,108,109,110,111,112,97,98,99,100,101,102,103,104,105,106,107,108,109,110,111,112,97,98,99,100,101,102,103,104,105,106,107,108,109,110,111,112,97,98,99,100,101,102,103,104,105,106,107,108,109,110,111,112,97,98,99,100,101,102,103,104,105,106,107,108,109,110,111,112,97,98,99,100,101,102,103,104,105,106,107,108,109,110,111,112,97,98,99,100,101,102,103,104,105,106,107,108,109,110,111,112,97,98,99,100,101,102,103,104,105,106,107,108,109,110,111,112,97,98,99,100,101,102,103,104,105,106,107,108,109,110,111,112,97,98,99,100,101,102,103,104,105,106,107,108,109,110,111,112,97,98,99,100,101,102,103,104,105,106,107,108,109,110,111,112,113,114,115,116,117,118,119,120,121,122,123,124,125,126,127,128,113,114,115,116,117,118,119,120,121,122,123,124,125,126,127,128,113,114,115,116,117,118,119,120,121,122,123,124,125,126,127,128,113,114,115,116,117,118,119,120,121,122,123,124,125,126,127,128,113,114,115,116,117,118,119,120,121,122,123,124,125,126,127,128,113,114,115,116,117,118,119,120,121,122,123,124,125,126,127,128,113,114,115,116,117,118,119,120,121,122,123,124,125,126,127,128,113,114,115,116,117,118,119,120,121,122,123,124,125,126,127,128,113,114,115,116,117,118,119,120,121,122,123,124,125,126,127,128,113,114,115,116,117,118,119,120,121,122,123,124,125,126,127,128,113,114,115,116,117,118,119,120,121,122,123,124,125,126,127,128,113,114,115,116,117,118,119,120,121,122,123,124,125,126,127,128,113,114,115,116,117,118,119,120,121,122,123,124,125,126,127,128,113,114,115,116,117,118,119,120,121,122,123,124,125,126,127,128,113,114,115,116,117,118,119,120,121,122,123,124,125,126,127,128,113,114,115,116,117,118,119,120,121,122,123,124,125,126,127,128,129,130,131,132,133,134,135,136,137,138,139,140,141,142,143,144,129,130,131,132,133,134,135,136,137,138,139,140,141,142,143,144,129,130,131,132,133,134,135,136,137,138,139,140,141,142,143,144,129,130,131,132,133,134,135,136,137,138,139,140,141,142,143,144,129,130,131,132,133,134,135,136,137,138,139,140,141,142,143,144,129,130,131,132,133,134,135,136,137,138,139,140,141,142,143,144,129,130,131,132,133,134,135,136,137,138,139,140,141,142,143,144,129,130,131,132,133,134,135,136,137,138,139,140,141,142,143,144,129,130,131,132,133,134,135,136,137,138,139,140,141,142,143,144,129,130,131,132,133,134,135,136,137,138,139,140,141,142,143,144,129,130,131,132,133,134,135,136,137,138,139,140,141,142,143,144,129,130,131,132,133,134,135,136,137,138,139,140,141,142,143,144,129,130,131,132,133,134,135,136,137,138,139,140,141,142,143,144,129,130,131,132,133,134,135,136,137,138,139,140,141,142,143,144,129,130,131,132,133,134,135,136,137,138,139,140,141,142,143,144,129,130,131,132,133,134,135,136,137,138,139,140,141,142,143,144,145,146,147,148,149,150,151,152,153,154,155,156,157,158,159,160,145,146,147,148,149,150,151,152,153,154,155,156,157,158,159,160,145,146,147,148,149,150,151,152,153,154,155,156,157,158,159,160,145,146,147,148,149,150,151,152,153,154,155,156,157,158,159,160,145,146,147,148,149,150,151,152,153,154,155,156,157,158,159,160,145,146,147,148,149,150,151,152,153,154,155,156,157,158,159,160,145,146,147,148,149,150,151,152,153,154,155,156,157,158,159,160,145,146,147,148,149,150,151,152,153,154,155,156,157,158,159,160,145,146,147,148,149,150,151,152,153,154,155,156,157,158,159,160,145,146,147,148,149,150,151,152,153,154,155,156,157,158,159,160,145,146,147,148,149,150,151,152,153,154,155,156,157,158,159,160,145,146,147,148,149,150,151,152,153,154,155,156,157,158,159,160,145,146,147,148,149,150,151,152,153,154,155,156,157,158,159,160,145,146,147,148,149,150,151,152,153,154,155,156,157,158,159,160,145,146,147,148,149,150,151,152,153,154,155,156,157,158,159,160,145,146,147,148,149,150,151,152,153,154,155,156,157,158,159,160,161,162,163,164,165,166,167,168,169,170,171,172,173,174,175,176,161,162,163,164,165,166,167,168,169,170,171,172,173,174,175,176,161,162,163,164,165,166,167,168,169,170,171,172,173,174,175,176,161,162,163,164,165,166,167,168,169,170,171,172,173,174,175,176,161,162,163,164,165,166,167,168,169,170,171,172,173,174,175,176,161,162,163,164,165,166,167,168,169,170,171,172,173,174,175,176,161,162,163,164,165,166,167,168,169,170,171,172,173,174,175,176,161,162,163,164,165,166,167,168,169,170,171,172,173,174,175,176,161,162,163,164,165,166,167,168,169,170,171,172,173,174,175,176,161,162,163,164,165,166,167,168,169,170,171,172,173,174,175,176,161,162,163,164,165,166,167,168,169,170,171,172,173,174,175,176,161,162,163,164,165,166,167,168,169,170,171,172,173,174,175,176,161,162,163,164,165,166,167,168,169,170,171,172,173,174,175,176,161,162,163,164,165,166,167,168,169,170,171,172,173,174,175,176,161,162,163,164,165,166,167,168,169,170,171,172,173,174,175,176,161,162,163,164,165,166,167,168,169,170,171,172,173,174,175,176,177,178,179,180,181,182,183,184,185,186,187,188,189,190,191,192,177,178,179,180,181,182,183,184,185,186,187,188,189,190,191,192,177,178,179,180,181,182,183,184,185,186,187,188,189,190,191,192,177,178,179,180,181,182,183,184,185,186,187,188,189,190,191,192,177,178,179,180,181,182,183,184,185,186,187,188,189,190,191,192,177,178,179,180,181,182,183,184,185,186,187,188,189,190,191,192,177,178,179,180,181,182,183,184,185,186,187,188,189,190,191,192,177,178,179,180,181,182,183,184,185,186,187,188,189,190,191,192,177,178,179,180,181,182,183,184,185,186,187,188,189,190,191,192,177,178,179,180,181,182,183,184,185,186,187,188,189,190,191,192,177,178,179,180,181,182,183,184,185,186,187,188,189,190,191,192,177,178,179,180,181,182,183,184,185,186,187,188,189,190,191,192,177,178,179,180,181,182,183,184,185,186,187,188,189,190,191,192,177,178,179,180,181,182,183,184,185,186,187,188,189,190,191,192,177,178,179,180,181,182,183,184,185,186,187,188,189,190,191,192,177,178,179,180,181,182,183,184,185,186,187,188,189,190,191,192,193,194,195,196,197,198,199,200,201,202,203,204,205,206,207,208,193,194,195,196,197,198,199,200,201,202,203,204,205,206,207,208,193,194,195,196,197,198,199,200,201,202,203,204,205,206,207,208,193,194,195,196,197,198,199,200,201,202,203,204,205,206,207,208,193,194,195,196,197,198,199,200,201,202,203,204,205,206,207,208,193,194,195,196,197,198,199,200,201,202,203,204,205,206,207,208,193,194,195,196,197,198,199,200,201,202,203,204,205,206,207,208,193,194,195,196,197,198,199,200,201,202,203,204,205,206,207,208,193,194,195,196,197,198,199,200,201,202,203,204,205,206,207,208,193,194,195,196,197,198,199,200,201,202,203,204,205,206,207,208,193,194,195,196,197,198,199,200,201,202,203,204,205,206,207,208,193,194,195,196,197,198,199,200,201,202,203,204,205,206,207,208,193,194,195,196,197,198,199,200,201,202,203,204,205,206,207,208,193,194,195,196,197,198,199,200,201,202,203,204,205,206,207,208,193,194,195,196,197,198,199,200,201,202,203,204,205,206,207,208,193,194,195,196,197,198,199,200,201,202,203,204,205,206,207,208,209,210,211,212,213,214,215,216,217,218,219,220,221,222,223,224,209,210,211,212,213,214,215,216,217,218,219,220,221,222,223,224,209,210,211,212,213,214,215,216,217,218,219,220,221,222,223,224,209,210,211,212,213,214,215,216,217,218,219,220,221,222,223,224,209,210,211,212,213,214,215,216,217,218,219,220,221,222,223,224,209,210,211,212,213,214,215,216,217,218,219,220,221,222,223,224,209,210,211,212,213,214,215,216,217,218,219,220,221,222,223,224,209,210,211,212,213,214,215,216,217,218,219,220,221,222,223,224,209,210,211,212,213,214,215,216,217,218,219,220,221,222,223,224,209,210,211,212,213,214,215,216,217,218,219,220,221,222,223,224,209,210,211,212,213,214,215,216,217,218,219,220,221,222,223,224,209,210,211,212,213,214,215,216,217,218,219,220,221,222,223,224,209,210,211,212,213,214,215,216,217,218,219,220,221,222,223,224,209,210,211,212,213,214,215,216,217,218,219,220,221,222,223,224,209,210,211,212,213,214,215,216,217,218,219,220,221,222,223,224,209,210,211,212,213,214,215,216,217,218,219,220,221,222,223,224,225,226,227,228,229,230,231,232,233,234,235,236,237,238,239,240,225,226,227,228,229,230,231,232,233,234,235,236,237,238,239,240,225,226,227,228,229,230,231,232,233,234,235,236,237,238,239,240,225,226,227,228,229,230,231,232,233,234,235,236,237,238,239,240,225,226,227,228,229,230,231,232,233,234,235,236,237,238,239,240,225,226,227,228,229,230,231,232,233,234,235,236,237,238,239,240,225,226,227,228,229,230,231,232,233,234,235,236,237,238,239,240,225,226,227,228,229,230,231,232,233,234,235,236,237,238,239,240,225,226,227,228,229,230,231,232,233,234,235,236,237,238,239,240,225,226,227,228,229,230,231,232,233,234,235,236,237,238,239,240,225,226,227,228,229,230,231,232,233,234,235,236,237,238,239,240,225,226,227,228,229,230,231,232,233,234,235,236,237,238,239,240,225,226,227,228,229,230,231,232,233,234,235,236,237,238,239,240,225,226,227,228,229,230,231,232,233,234,235,236,237,238,239,240,225,226,227,228,229,230,231,232,233,234,235,236,237,238,239,240,225,226,227,228,229,230,231,232,233,234,235,236,237,238,239,240,241,242,243,244,245,246,247,248,249,250,251,252,253,254,255,256,241,242,243,244,245,246,247,248,249,250,251,252,253,254,255,256,241,242,243,244,245,246,247,248,249,250,251,252,253,254,255,256,241,242,243,244,245,246,247,248,249,250,251,252,253,254,255,256,241,242,243,244,245,246,247,248,249,250,251,252,253,254,255,256,241,242,243,244,245,246,247,248,249,250,251,252,253,254,255,256,241,242,243,244,245,246,247,248,249,250,251,252,253,254,255,256,241,242,243,244,245,246,247,248,249,250,251,252,253,254,255,256,241,242,243,244,245,246,247,248,249,250,251,252,253,254,255,256,241,242,243,244,245,246,247,248,249,250,251,252,253,254,255,256,241,242,243,244,245,246,247,248,249,250,251,252,253,254,255,256,241,242,243,244,245,246,247,248,249,250,251,252,253,254,255,256,241,242,243,244,245,246,247,248,249,250,251,252,253,254,255,256,241,242,243,244,245,246,247,248,249,250,251,252,253,254,255,256,241,242,243,244,245,246,247,248,249,250,251,252,253,254,255,256,241,242,243,244,245,246,247,248,249,250,251,252,253,254,255,256,1,2,3,4,5,6,7,8,9,10,11,12,13,14,15,16,1,2,3,4,5,6,7,8,9,10,11,12,13,14,15,16,1,2,3,4,5,6,7,8,9,10,11,12,13,14,15,16,1,2,3,4,5,6,7,8,9,10,11,12,13,14,15,16,1,2,3,4,5,6,7,8,9,10,11,12,13,14,15,16,1,2,3,4,5,6,7,8,9,10,11,12,13,14,15,16,1,2,3,4,5,6,7,8,9,10,11,12,13,14,15,16,1,2,3,4,5,6,7,8,9,10,11,12,13,14,15,16,1,2,3,4,5,6,7,8,9,10,11,12,13,14,15,16,1,2,3,4,5,6,7,8,9,10,11,12,13,14,15,16,1,2,3,4,5,6,7,8,9,10,11,12,13,14,15,16,1,2,3,4,5,6,7,8,9,10,11,12,13,14,15,16,1,2,3,4,5,6,7,8,9,10,11,12,13,14,15,16,1,2,3,4,5,6,7,8,9,10,11,12,13,14,15,16,1,2,3,4,5,6,7,8,9,10,11,12,13,14,15,16,1,2,3,4,5,6,7,8,9,10,11,12,13,14,15,16,17,18,19,20,21,22,23,24,25,26,27,28,29,30,31,32,17,18,19,20,21,22,23,24,25,26,27,28,29,30,31,32,17,18,19,20,21,22,23,24,25,26,27,28,29,30,31,32,17,18,19,20,21,22,23,24,25,26,27,28,29,30,31,32,17,18,19,20,21,22,23,24,25,26,27,28,29,30,31,32,17,18,19,20,21,22,23,24,25,26,27,28,29,30,31,32,17,18,19,20,21,22,23,24,25,26,27,28,29,30,31,32,17,18,19,20,21,22,23,24,25,26,27,28,29,30,31,32,17,18,19,20,21,22,23,24,25,26,27,28,29,30,31,32,17,18,19,20,21,22,23,24,25,26,27,28,29,30,31,32,17,18,19,20,21,22,23,24,25,26,27,28,29,30,31,32,17,18,19,20,21,22,23,24,25,26,27,28,29,30,31,32,17,18,19,20,21,22,23,24,25,26,27,28,29,30,31,32,17,18,19,20,21,22,23,24,25,26,27,28,29,30,31,32,17,18,19,20,21,22,23,24,25,26,27,28,29,30,31,32,17,18,19,20,21,22,23,24,25,26,27,28,29,30,31,32,33,34,35,36,37,38,39,40,41,42,43,44,45,46,47,48,33,34,35,36,37,38,39,40,41,42,43,44,45,46,47,48,33,34,35,36,37,38,39,40,41,42,43,44,45,46,47,48,33,34,35,36,37,38,39,40,41,42,43,44,45,46,47,48,33,34,35,36,37,38,39,40,41,42,43,44,45,46,47,48,33,34,35,36,37,38,39,40,41,42,43,44,45,46,47,48,33,34,35,36,37,38,39,40,41,42,43,44,45,46,47,48,33,34,35,36,37,38,39,40,41,42,43,44,45,46,47,48,33,34,35,36,37,38,39,40,41,42,43,44,45,46,47,48,33,34,35,36,37,38,39,40,41,42,43,44,45,46,47,48,33,34,35,36,37,38,39,40,41,42,43,44,45,46,47,48,33,34,35,36,37,38,39,40,41,42,43,44,45,46,47,48,33,34,35,36,37,38,39,40,41,42,43,44,45,46,47,48,33,34,35,36,37,38,39,40,41,42,43,44,45,46,47,48,33,34,35,36,37,38,39,40,41,42,43,44,45,46,47,48,33,34,35,36,37,38,39,40,41,42,43,44,45,46,47,48,49,50,51,52,53,54,55,56,57,58,59,60,61,62,63,64,49,50,51,52,53,54,55,56,57,58,59,60,61,62,63,64,49,50,51,52,53,54,55,56,57,58,59,60,61,62,63,64,49,50,51,52,53,54,55,56,57,58,59,60,61,62,63,64,49,50,51,52,53,54,55,56,57,58,59,60,61,62,63,64,49,50,51,52,53,54,55,56,57,58,59,60,61,62,63,64,49,50,51,52,53,54,55,56,57,58,59,60,61,62,63,64,49,50,51,52,53,54,55,56,57,58,59,60,61,62,63,64,49,50,51,52,53,54,55,56,57,58,59,60,61,62,63,64,49,50,51,52,53,54,55,56,57,58,59,60,61,62,63,64,49,50,51,52,53,54,55,56,57,58,59,60,61,62,63,64,49,50,51,52,53,54,55,56,57,58,59,60,61,62,63,64,49,50,51,52,53,54,55,56,57,58,59,60,61,62,63,64,49,50,51,52,53,54,55,56,57,58,59,60,61,62,63,64,49,50,51,52,53,54,55,56,57,58,59,60,61,62,63,64,49,50,51,52,53,54,55,56,57,58,59,60,61,62,63,64,65,66,67,68,69,70,71,72,73,74,75,76,77,78,79,80,65,66,67,68,69,70,71,72,73,74,75,76,77,78,79,80,65,66,67,68,69,70,71,72,73,74,75,76,77,78,79,80,65,66,67,68,69,70,71,72,73,74,75,76,77,78,79,80,65,66,67,68,69,70,71,72,73,74,75,76,77,78,79,80,65,66,67,68,69,70,71,72,73,74,75,76,77,78,79,80,65,66,67,68,69,70,71,72,73,74,75,76,77,78,79,80,65,66,67,68,69,70,71,72,73,74,75,76,77,78,79,80,65,66,67,68,69,70,71,72,73,74,75,76,77,78,79,80,65,66,67,68,69,70,71,72,73,74,75,76,77,78,79,80,65,66,67,68,69,70,71,72,73,74,75,76,77,78,79,80,65,66,67,68,69,70,71,72,73,74,75,76,77,78,79,80,65,66,67,68,69,70,71,72,73,74,75,76,77,78,79,80,65,66,67,68,69,70,71,72,73,74,75,76,77,78,79,80,65,66,67,68,69,70,71,72,73,74,75,76,77,78,79,80,65,66,67,68,69,70,71,72,73,74,75,76,77,78,79,80,81,82,83,84,85,86,87,88,89,90,91,92,93,94,95,96,81,82,83,84,85,86,87,88,89,90,91,92,93,94,95,96,81,82,83,84,85,86,87,88,89,90,91,92,93,94,95,96,81,82,83,84,85,86,87,88,89,90,91,92,93,94,95,96,81,82,83,84,85,86,87,88,89,90,91,92,93,94,95,96,81,82,83,84,85,86,87,88,89,90,91,92,93,94,95,96,81,82,83,84,85,86,87,88,89,90,91,92,93,94,95,96,81,82,83,84,85,86,87,88,89,90,91,92,93,94,95,96,81,82,83,84,85,86,87,88,89,90,91,92,93,94,95,96,81,82,83,84,85,86,87,88,89,90,91,92,93,94,95,96,81,82,83,84,85,86,87,88,89,90,91,92,93,94,95,96,81,82,83,84,85,86,87,88,89,90,91,92,93,94,95,96,81,82,83,84,85,86,87,88,89,90,91,92,93,94,95,96,81,82,83,84,85,86,87,88,89,90,91,92,93,94,95,96,81,82,83,84,85,86,87,88,89,90,91,92,93,94,95,96,81,82,83,84,85,86,87,88,89,90,91,92,93,94,95,96,97,98,99,100,101,102,103,104,105,106,107,108,109,110,111,112,97,98,99,100,101,102,103,104,105,106,107,108,109,110,111,112,97,98,99,100,101,102,103,104,105,106,107,108,109,110,111,112,97,98,99,100,101,102,103,104,105,106,107,108,109,110,111,112,97,98,99,100,101,102,103,104,105,106,107,108,109,110,111,112,97,98,99,100,101,102,103,104,105,106,107,108,109,110,111,112,97,98,99,100,101,102,103,104,105,106,107,108,109,110,111,112,97,98,99,100,101,102,103,104,105,106,107,108,109,110,111,112,97,98,99,100,101,102,103,104,105,106,107,108,109,110,111,112,97,98,99,100,101,102,103,104,105,106,107,108,109,110,111,112,97,98,99,100,101,102,103,104,105,106,107,108,109,110,111,112,97,98,99,100,101,102,103,104,105,106,107,108,109,110,111,112,97,98,99,100,101,102,103,104,105,106,107,108,109,110,111,112,97,98,99,100,101,102,103,104,105,106,107,108,109,110,111,112,97,98,99,100,101,102,103,104,105,106,107,108,109,110,111,112,97,98,99,100,101,102,103,104,105,106,107,108,109,110,111,112,113,114,115,116,117,118,119,120,121,122,123,124,125,126,127,128,113,114,115,116,117,118,119,120,121,122,123,124,125,126,127,128,113,114,115,116,117,118,119,120,121,122,123,124,125,126,127,128,113,114,115,116,117,118,119,120,121,122,123,124,125,126,127,128,113,114,115,116,117,118,119,120,121,122,123,124,125,126,127,128,113,114,115,116,117,118,119,120,121,122,123,124,125,126,127,128,113,114,115,116,117,118,119,120,121,122,123,124,125,126,127,128,113,114,115,116,117,118,119,120,121,122,123,124,125,126,127,128,113,114,115,116,117,118,119,120,121,122,123,124,125,126,127,128,113,114,115,116,117,118,119,120,121,122,123,124,125,126,127,128,113,114,115,116,117,118,119,120,121,122,123,124,125,126,127,128,113,114,115,116,117,118,119,120,121,122,123,124,125,126,127,128,113,114,115,116,117,118,119,120,121,122,123,124,125,126,127,128,113,114,115,116,117,118,119,120,121,122,123,124,125,126,127,128,113,114,115,116,117,118,119,120,121,122,123,124,125,126,127,128,113,114,115,116,117,118,119,120,121,122,123,124,125,126,127,128,129,130,131,132,133,134,135,136,137,138,139,140,141,142,143,144,129,130,131,132,133,134,135,136,137,138,139,140,141,142,143,144,129,130,131,132,133,134,135,136,137,138,139,140,141,142,143,144,129,130,131,132,133,134,135,136,137,138,139,140,141,142,143,144,129,130,131,132,133,134,135,136,137,138,139,140,141,142,143,144,129,130,131,132,133,134,135,136,137,138,139,140,141,142,143,144,129,130,131,132,133,134,135,136,137,138,139,140,141,142,143,144,129,130,131,132,133,134,135,136,137,138,139,140,141,142,143,144,129,130,131,132,133,134,135,136,137,138,139,140,141,142,143,144,129,130,131,132,133,134,135,136,137,138,139,140,141,142,143,144,129,130,131,132,133,134,135,136,137,138,139,140,141,142,143,144,129,130,131,132,133,134,135,136,137,138,139,140,141,142,143,144,129,130,131,132,133,134,135,136,137,138,139,140,141,142,143,144,129,130,131,132,133,134,135,136,137,138,139,140,141,142,143,144,129,130,131,132,133,134,135,136,137,138,139,140,141,142,143,144,129,130,131,132,133,134,135,136,137,138,139,140,141,142,143,144,145,146,147,148,149,150,151,152,153,154,155,156,157,158,159,160,145,146,147,148,149,150,151,152,153,154,155,156,157,158,159,160,145,146,147,148,149,150,151,152,153,154,155,156,157,158,159,160,145,146,147,148,149,150,151,152,153,154,155,156,157,158,159,160,145,146,147,148,149,150,151,152,153,154,155,156,157,158,159,160,145,146,147,148,149,150,151,152,153,154,155,156,157,158,159,160,145,146,147,148,149,150,151,152,153,154,155,156,157,158,159,160,145,146,147,148,149,150,151,152,153,154,155,156,157,158,159,160,145,146,147,148,149,150,151,152,153,154,155,156,157,158,159,160,145,146,147,148,149,150,151,152,153,154,155,156,157,158,159,160,145,146,147,148,149,150,151,152,153,154,155,156,157,158,159,160,145,146,147,148,149,150,151,152,153,154,155,156,157,158,159,160,145,146,147,148,149,150,151,152,153,154,155,156,157,158,159,160,145,146,147,148,149,150,151,152,153,154,155,156,157,158,159,160,145,146,147,148,149,150,151,152,153,154,155,156,157,158,159,160,145,146,147,148,149,150,151,152,153,154,155,156,157,158,159,160,161,162,163,164,165,166,167,168,169,170,171,172,173,174,175,176,161,162,163,164,165,166,167,168,169,170,171,172,173,174,175,176,161,162,163,164,165,166,167,168,169,170,171,172,173,174,175,176,161,162,163,164,165,166,167,168,169,170,171,172,173,174,175,176,161,162,163,164,165,166,167,168,169,170,171,172,173,174,175,176,161,162,163,164,165,166,167,168,169,170,171,172,173,174,175,176,161,162,163,164,165,166,167,168,169,170,171,172,173,174,175,176,161,162,163,164,165,166,167,168,169,170,171,172,173,174,175,176,161,162,163,164,165,166,167,168,169,170,171,172,173,174,175,176,161,162,163,164,165,166,167,168,169,170,171,172,173,174,175,176,161,162,163,164,165,166,167,168,169,170,171,172,173,174,175,176,161,162,163,164,165,166,167,168,169,170,171,172,173,174,175,176,161,162,163,164,165,166,167,168,169,170,171,172,173,174,175,176,161,162,163,164,165,166,167,168,169,170,171,172,173,174,175,176,161,162,163,164,165,166,167,168,169,170,171,172,173,174,175,176,161,162,163,164,165,166,167,168,169,170,171,172,173,174,175,176,177,178,179,180,181,182,183,184,185,186,187,188,189,190,191,192,177,178,179,180,181,182,183,184,185,186,187,188,189,190,191,192,177,178,179,180,181,182,183,184,185,186,187,188,189,190,191,192,177,178,179,180,181,182,183,184,185,186,187,188,189,190,191,192,177,178,179,180,181,182,183,184,185,186,187,188,189,190,191,192,177,178,179,180,181,182,183,184,185,186,187,188,189,190,191,192,177,178,179,180,181,182,183,184,185,186,187,188,189,190,191,192,177,178,179,180,181,182,183,184,185,186,187,188,189,190,191,192,177,178,179,180,181,182,183,184,185,186,187,188,189,190,191,192,177,178,179,180,181,182,183,184,185,186,187,188,189,190,191,192,177,178,179,180,181,182,183,184,185,186,187,188,189,190,191,192,177,178,179,180,181,182,183,184,185,186,187,188,189,190,191,192,177,178,179,180,181,182,183,184,185,186,187,188,189,190,191,192,177,178,179,180,181,182,183,184,185,186,187,188,189,190,191,192,177,178,179,180,181,182,183,184,185,186,187,188,189,190,191,192,177,178,179,180,181,182,183,184,185,186,187,188,189,190,191,192,193,194,195,196,197,198,199,200,201,202,203,204,205,206,207,208,193,194,195,196,197,198,199,200,201,202,203,204,205,206,207,208,193,194,195,196,197,198,199,200,201,202,203,204,205,206,207,208,193,194,195,196,197,198,199,200,201,202,203,204,205,206,207,208,193,194,195,196,197,198,199,200,201,202,203,204,205,206,207,208,193,194,195,196,197,198,199,200,201,202,203,204,205,206,207,208,193,194,195,196,197,198,199,200,201,202,203,204,205,206,207,208,193,194,195,196,197,198,199,200,201,202,203,204,205,206,207,208,193,194,195,196,197,198,199,200,201,202,203,204,205,206,207,208,193,194,195,196,197,198,199,200,201,202,203,204,205,206,207,208,193,194,195,196,197,198,199,200,201,202,203,204,205,206,207,208,193,194,195,196,197,198,199,200,201,202,203,204,205,206,207,208,193,194,195,196,197,198,199,200,201,202,203,204,205,206,207,208,193,194,195,196,197,198,199,200,201,202,203,204,205,206,207,208,193,194,195,196,197,198,199,200,201,202,203,204,205,206,207,208,193,194,195,196,197,198,199,200,201,202,203,204,205,206,207,208,209,210,211,212,213,214,215,216,217,218,219,220,221,222,223,224,209,210,211,212,213,214,215,216,217,218,219,220,221,222,223,224,209,210,211,212,213,214,215,216,217,218,219,220,221,222,223,224,209,210,211,212,213,214,215,216,217,218,219,220,221,222,223,224,209,210,211,212,213,214,215,216,217,218,219,220,221,222,223,224,209,210,211,212,213,214,215,216,217,218,219,220,221,222,223,224,209,210,211,212,213,214,215,216,217,218,219,220,221,222,223,224,209,210,211,212,213,214,215,216,217,218,219,220,221,222,223,224,209,210,211,212,213,214,215,216,217,218,219,220,221,222,223,224,209,210,211,212,213,214,215,216,217,218,219,220,221,222,223,224,209,210,211,212,213,214,215,216,217,218,219,220,221,222,223,224,209,210,211,212,213,214,215,216,217,218,219,220,221,222,223,224,209,210,211,212,213,214,215,216,217,218,219,220,221,222,223,224,209,210,211,212,213,214,215,216,217,218,219,220,221,222,223,224,209,210,211,212,213,214,215,216,217,218,219,220,221,222,223,224,209,210,211,212,213,214,215,216,217,218,219,220,221,222,223,224,225,226,227,228,229,230,231,232,233,234,235,236,237,238,239,240,225,226,227,228,229,230,231,232,233,234,235,236,237,238,239,240,225,226,227,228,229,230,231,232,233,234,235,236,237,238,239,240,225,226,227,228,229,230,231,232,233,234,235,236,237,238,239,240,225,226,227,228,229,230,231,232,233,234,235,236,237,238,239,240,225,226,227,228,229,230,231,232,233,234,235,236,237,238,239,240,225,226,227,228,229,230,231,232,233,234,235,236,237,238,239,240,225,226,227,228,229,230,231,232,233,234,235,236,237,238,239,240,225,226,227,228,229,230,231,232,233,234,235,236,237,238,239,240,225,226,227,228,229,230,231,232,233,234,235,236,237,238,239,240,225,226,227,228,229,230,231,232,233,234,235,236,237,238,239,240,225,226,227,228,229,230,231,232,233,234,235,236,237,238,239,240,225,226,227,228,229,230,231,232,233,234,235,236,237,238,239,240,225,226,227,228,229,230,231,232,233,234,235,236,237,238,239,240,225,226,227,228,229,230,231,232,233,234,235,236,237,238,239,240,225,226,227,228,229,230,231,232,233,234,235,236,237,238,239,240,241,242,243,244,245,246,247,248,249,250,251,252,253,254,255,256,241,242,243,244,245,246,247,248,249,250,251,252,253,254,255,256,241,242,243,244,245,246,247,248,249,250,251,252,253,254,255,256,241,242,243,244,245,246,247,248,249,250,251,252,253,254,255,256,241,242,243,244,245,246,247,248,249,250,251,252,253,254,255,256,241,242,243,244,245,246,247,248,249,250,251,252,253,254,255,256,241,242,243,244,245,246,247,248,249,250,251,252,253,254,255,256,241,242,243,244,245,246,247,248,249,250,251,252,253,254,255,256,241,242,243,244,245,246,247,248,249,250,251,252,253,254,255,256,241,242,243,244,245,246,247,248,249,250,251,252,253,254,255,256,241,242,243,244,245,246,247,248,249,250,251,252,253,254,255,256,241,242,243,244,245,246,247,248,249,250,251,252,253,254,255,256,241,242,243,244,245,246,247,248,249,250,251,252,253,254,255,256,241,242,243,244,245,246,247,248,249,250,251,252,253,254,255,256,241,242,243,244,245,246,247,248,249,250,251,252,253,254,255,256,241,242,243,244,245,246,247,248,249,250,251,252,253,254,255,256,1,2,3,4,5,6,7,8,9,10,11,12,13,14,15,16,1,2,3,4,5,6,7,8,9,10,11,12,13,14,15,16,1,2,3,4,5,6,7,8,9,10,11,12,13,14,15,16,1,2,3,4,5,6,7,8,9,10,11,12,13,14,15,16,1,2,3,4,5,6,7,8,9,10,11,12,13,14,15,16,1,2,3,4,5,6,7,8,9,10,11,12,13,14,15,16,1,2,3,4,5,6,7,8,9,10,11,12,13,14,15,16,1,2,3,4,5,6,7,8,9,10,11,12,13,14,15,16,1,2,3,4,5,6,7,8,9,10,11,12,13,14,15,16,1,2,3,4,5,6,7,8,9,10,11,12,13,14,15,16,1,2,3,4,5,6,7,8,9,10,11,12,13,14,15,16,1,2,3,4,5,6,7,8,9,10,11,12,13,14,15,16,1,2,3,4,5,6,7,8,9,10,11,12,13,14,15,16,1,2,3,4,5,6,7,8,9,10,11,12,13,14,15,16,1,2,3,4,5,6,7,8,9,10,11,12,13,14,15,16,1,2,3,4,5,6,7,8,9,10,11,12,13,14,15,16,17,18,19,20,21,22,23,24,25,26,27,28,29,30,31,32,17,18,19,20,21,22,23,24,25,26,27,28,29,30,31,32,17,18,19,20,21,22,23,24,25,26,27,28,29,30,31,32,17,18,19,20,21,22,23,24,25,26,27,28,29,30,31,32,17,18,19,20,21,22,23,24,25,26,27,28,29,30,31,32,17,18,19,20,21,22,23,24,25,26,27,28,29,30,31,32,17,18,19,20,21,22,23,24,25,26,27,28,29,30,31,32,17,18,19,20,21,22,23,24,25,26,27,28,29,30,31,32,17,18,19,20,21,22,23,24,25,26,27,28,29,30,31,32,17,18,19,20,21,22,23,24,25,26,27,28,29,30,31,32,17,18,19,20,21,22,23,24,25,26,27,28,29,30,31,32,17,18,19,20,21,22,23,24,25,26,27,28,29,30,31,32,17,18,19,20,21,22,23,24,25,26,27,28,29,30,31,32,17,18,19,20,21,22,23,24,25,26,27,28,29,30,31,32,17,18,19,20,21,22,23,24,25,26,27,28,29,30,31,32,17,18,19,20,21,22,23,24,25,26,27,28,29,30,31,32,33,34,35,36,37,38,39,40,41,42,43,44,45,46,47,48,33,34,35,36,37,38,39,40,41,42,43,44,45,46,47,48,33,34,35,36,37,38,39,40,41,42,43,44,45,46,47,48,33,34,35,36,37,38,39,40,41,42,43,44,45,46,47,48,33,34,35,36,37,38,39,40,41,42,43,44,45,46,47,48,33,34,35,36,37,38,39,40,41,42,43,44,45,46,47,48,33,34,35,36,37,38,39,40,41,42,43,44,45,46,47,48,33,34,35,36,37,38,39,40,41,42,43,44,45,46,47,48,33,34,35,36,37,38,39,40,41,42,43,44,45,46,47,48,33,34,35,36,37,38,39,40,41,42,43,44,45,46,47,48,33,34,35,36,37,38,39,40,41,42,43,44,45,46,47,48,33,34,35,36,37,38,39,40,41,42,43,44,45,46,47,48,33,34,35,36,37,38,39,40,41,42,43,44,45,46,47,48,33,34,35,36,37,38,39,40,41,42,43,44,45,46,47,48,33,34,35,36,37,38,39,40,41,42,43,44,45,46,47,48,33,34,35,36,37,38,39,40,41,42,43,44,45,46,47,48,49,50,51,52,53,54,55,56,57,58,59,60,61,62,63,64,49,50,51,52,53,54,55,56,57,58,59,60,61,62,63,64,49,50,51,52,53,54,55,56,57,58,59,60,61,62,63,64,49,50,51,52,53,54,55,56,57,58,59,60,61,62,63,64,49,50,51,52,53,54,55,56,57,58,59,60,61,62,63,64,49,50,51,52,53,54,55,56,57,58,59,60,61,62,63,64,49,50,51,52,53,54,55,56,57,58,59,60,61,62,63,64,49,50,51,52,53,54,55,56,57,58,59,60,61,62,63,64,49,50,51,52,53,54,55,56,57,58,59,60,61,62,63,64,49,50,51,52,53,54,55,56,57,58,59,60,61,62,63,64,49,50,51,52,53,54,55,56,57,58,59,60,61,62,63,64,49,50,51,52,53,54,55,56,57,58,59,60,61,62,63,64,49,50,51,52,53,54,55,56,57,58,59,60,61,62,63,64,49,50,51,52,53,54,55,56,57,58,59,60,61,62,63,64,49,50,51,52,53,54,55,56,57,58,59,60,61,62,63,64,49,50,51,52,53,54,55,56,57,58,59,60,61,62,63,64,65,66,67,68,69,70,71,72,73,74,75,76,77,78,79,80,65,66,67,68,69,70,71,72,73,74,75,76,77,78,79,80,65,66,67,68,69,70,71,72,73,74,75,76,77,78,79,80,65,66,67,68,69,70,71,72,73,74,75,76,77,78,79,80,65,66,67,68,69,70,71,72,73,74,75,76,77,78,79,80,65,66,67,68,69,70,71,72,73,74,75,76,77,78,79,80,65,66,67,68,69,70,71,72,73,74,75,76,77,78,79,80,65,66,67,68,69,70,71,72,73,74,75,76,77,78,79,80,65,66,67,68,69,70,71,72,73,74,75,76,77,78,79,80,65,66,67,68,69,70,71,72,73,74,75,76,77,78,79,80,65,66,67,68,69,70,71,72,73,74,75,76,77,78,79,80,65,66,67,68,69,70,71,72,73,74,75,76,77,78,79,80,65,66,67,68,69,70,71,72,73,74,75,76,77,78,79,80,65,66,67,68,69,70,71,72,73,74,75,76,77,78,79,80,65,66,67,68,69,70,71,72,73,74,75,76,77,78,79,80,65,66,67,68,69,70,71,72,73,74,75,76,77,78,79,80,81,82,83,84,85,86,87,88,89,90,91,92,93,94,95,96,81,82,83,84,85,86,87,88,89,90,91,92,93,94,95,96,81,82,83,84,85,86,87,88,89,90,91,92,93,94,95,96,81,82,83,84,85,86,87,88,89,90,91,92,93,94,95,96,81,82,83,84,85,86,87,88,89,90,91,92,93,94,95,96,81,82,83,84,85,86,87,88,89,90,91,92,93,94,95,96,81,82,83,84,85,86,87,88,89,90,91,92,93,94,95,96,81,82,83,84,85,86,87,88,89,90,91,92,93,94,95,96,81,82,83,84,85,86,87,88,89,90,91,92,93,94,95,96,81,82,83,84,85,86,87,88,89,90,91,92,93,94,95,96,81,82,83,84,85,86,87,88,89,90,91,92,93,94,95,96,81,82,83,84,85,86,87,88,89,90,91,92,93,94,95,96,81,82,83,84,85,86,87,88,89,90,91,92,93,94,95,96,81,82,83,84,85,86,87,88,89,90,91,92,93,94,95,96,81,82,83,84,85,86,87,88,89,90,91,92,93,94,95,96,81,82,83,84,85,86,87,88,89,90,91,92,93,94,95,96,97,98,99,100,101,102,103,104,105,106,107,108,109,110,111,112,97,98,99,100,101,102,103,104,105,106,107,108,109,110,111,112,97,98,99,100,101,102,103,104,105,106,107,108,109,110,111,112,97,98,99,100,101,102,103,104,105,106,107,108,109,110,111,112,97,98,99,100,101,102,103,104,105,106,107,108,109,110,111,112,97,98,99,100,101,102,103,104,105,106,107,108,109,110,111,112,97,98,99,100,101,102,103,104,105,106,107,108,109,110,111,112,97,98,99,100,101,102,103,104,105,106,107,108,109,110,111,112,97,98,99,100,101,102,103,104,105,106,107,108,109,110,111,112,97,98,99,100,101,102,103,104,105,106,107,108,109,110,111,112,97,98,99,100,101,102,103,104,105,106,107,108,109,110,111,112,97,98,99,100,101,102,103,104,105,106,107,108,109,110,111,112,97,98,99,100,101,102,103,104,105,106,107,108,109,110,111,112,97,98,99,100,101,102,103,104,105,106,107,108,109,110,111,112,97,98,99,100,101,102,103,104,105,106,107,108,109,110,111,112,97,98,99,100,101,102,103,104,105,106,107,108,109,110,111,112,113,114,115,116,117,118,119,120,121,122,123,124,125,126,127,128,113,114,115,116,117,118,119,120,121,122,123,124,125,126,127,128,113,114,115,116,117,118,119,120,121,122,123,124,125,126,127,128,113,114,115,116,117,118,119,120,121,122,123,124,125,126,127,128,113,114,115,116,117,118,119,120,121,122,123,124,125,126,127,128,113,114,115,116,117,118,119,120,121,122,123,124,125,126,127,128,113,114,115,116,117,118,119,120,121,122,123,124,125,126,127,128,113,114,115,116,117,118,119,120,121,122,123,124,125,126,127,128,113,114,115,116,117,118,119,120,121,122,123,124,125,126,127,128,113,114,115,116,117,118,119,120,121,122,123,124,125,126,127,128,113,114,115,116,117,118,119,120,121,122,123,124,125,126,127,128,113,114,115,116,117,118,119,120,121,122,123,124,125,126,127,128,113,114,115,116,117,118,119,120,121,122,123,124,125,126,127,128,113,114,115,116,117,118,119,120,121,122,123,124,125,126,127,128,113,114,115,116,117,118,119,120,121,122,123,124,125,126,127,128,113,114,115,116,117,118,119,120,121,122,123,124,125,126,127,128,129,130,131,132,133,134,135,136,137,138,139,140,141,142,143,144,129,130,131,132,133,134,135,136,137,138,139,140,141,142,143,144,129,130,131,132,133,134,135,136,137,138,139,140,141,142,143,144,129,130,131,132,133,134,135,136,137,138,139,140,141,142,143,144,129,130,131,132,133,134,135,136,137,138,139,140,141,142,143,144,129,130,131,132,133,134,135,136,137,138,139,140,141,142,143,144,129,130,131,132,133,134,135,136,137,138,139,140,141,142,143,144,129,130,131,132,133,134,135,136,137,138,139,140,141,142,143,144,129,130,131,132,133,134,135,136,137,138,139,140,141,142,143,144,129,130,131,132,133,134,135,136,137,138,139,140,141,142,143,144,129,130,131,132,133,134,135,136,137,138,139,140,141,142,143,144,129,130,131,132,133,134,135,136,137,138,139,140,141,142,143,144,129,130,131,132,133,134,135,136,137,138,139,140,141,142,143,144,129,130,131,132,133,134,135,136,137,138,139,140,141,142,143,144,129,130,131,132,133,134,135,136,137,138,139,140,141,142,143,144,129,130,131,132,133,134,135,136,137,138,139,140,141,142,143,144,145,146,147,148,149,150,151,152,153,154,155,156,157,158,159,160,145,146,147,148,149,150,151,152,153,154,155,156,157,158,159,160,145,146,147,148,149,150,151,152,153,154,155,156,157,158,159,160,145,146,147,148,149,150,151,152,153,154,155,156,157,158,159,160,145,146,147,148,149,150,151,152,153,154,155,156,157,158,159,160,145,146,147,148,149,150,151,152,153,154,155,156,157,158,159,160,145,146,147,148,149,150,151,152,153,154,155,156,157,158,159,160,145,146,147,148,149,150,151,152,153,154,155,156,157,158,159,160,145,146,147,148,149,150,151,152,153,154,155,156,157,158,159,160,145,146,147,148,149,150,151,152,153,154,155,156,157,158,159,160,145,146,147,148,149,150,151,152,153,154,155,156,157,158,159,160,145,146,147,148,149,150,151,152,153,154,155,156,157,158,159,160,145,146,147,148,149,150,151,152,153,154,155,156,157,158,159,160,145,146,147,148,149,150,151,152,153,154,155,156,157,158,159,160,145,146,147,148,149,150,151,152,153,154,155,156,157,158,159,160,145,146,147,148,149,150,151,152,153,154,155,156,157,158,159,160,161,162,163,164,165,166,167,168,169,170,171,172,173,174,175,176,161,162,163,164,165,166,167,168,169,170,171,172,173,174,175,176,161,162,163,164,165,166,167,168,169,170,171,172,173,174,175,176,161,162,163,164,165,166,167,168,169,170,171,172,173,174,175,176,161,162,163,164,165,166,167,168,169,170,171,172,173,174,175,176,161,162,163,164,165,166,167,168,169,170,171,172,173,174,175,176,161,162,163,164,165,166,167,168,169,170,171,172,173,174,175,176,161,162,163,164,165,166,167,168,169,170,171,172,173,174,175,176,161,162,163,164,165,166,167,168,169,170,171,172,173,174,175,176,161,162,163,164,165,166,167,168,169,170,171,172,173,174,175,176,161,162,163,164,165,166,167,168,169,170,171,172,173,174,175,176,161,162,163,164,165,166,167,168,169,170,171,172,173,174,175,176,161,162,163,164,165,166,167,168,169,170,171,172,173,174,175,176,161,162,163,164,165,166,167,168,169,170,171,172,173,174,175,176,161,162,163,164,165,166,167,168,169,170,171,172,173,174,175,176,161,162,163,164,165,166,167,168,169,170,171,172,173,174,175,176,177,178,179,180,181,182,183,184,185,186,187,188,189,190,191,192,177,178,179,180,181,182,183,184,185,186,187,188,189,190,191,192,177,178,179,180,181,182,183,184,185,186,187,188,189,190,191,192,177,178,179,180,181,182,183,184,185,186,187,188,189,190,191,192,177,178,179,180,181,182,183,184,185,186,187,188,189,190,191,192,177,178,179,180,181,182,183,184,185,186,187,188,189,190,191,192,177,178,179,180,181,182,183,184,185,186,187,188,189,190,191,192,177,178,179,180,181,182,183,184,185,186,187,188,189,190,191,192,177,178,179,180,181,182,183,184,185,186,187,188,189,190,191,192,177,178,179,180,181,182,183,184,185,186,187,188,189,190,191,192,177,178,179,180,181,182,183,184,185,186,187,188,189,190,191,192,177,178,179,180,181,182,183,184,185,186,187,188,189,190,191,192,177,178,179,180,181,182,183,184,185,186,187,188,189,190,191,192,177,178,179,180,181,182,183,184,185,186,187,188,189,190,191,192,177,178,179,180,181,182,183,184,185,186,187,188,189,190,191,192,177,178,179,180,181,182,183,184,185,186,187,188,189,190,191,192,193,194,195,196,197,198,199,200,201,202,203,204,205,206,207,208,193,194,195,196,197,198,199,200,201,202,203,204,205,206,207,208,193,194,195,196,197,198,199,200,201,202,203,204,205,206,207,208,193,194,195,196,197,198,199,200,201,202,203,204,205,206,207,208,193,194,195,196,197,198,199,200,201,202,203,204,205,206,207,208,193,194,195,196,197,198,199,200,201,202,203,204,205,206,207,208,193,194,195,196,197,198,199,200,201,202,203,204,205,206,207,208,193,194,195,196,197,198,199,200,201,202,203,204,205,206,207,208,193,194,195,196,197,198,199,200,201,202,203,204,205,206,207,208,193,194,195,196,197,198,199,200,201,202,203,204,205,206,207,208,193,194,195,196,197,198,199,200,201,202,203,204,205,206,207,208,193,194,195,196,197,198,199,200,201,202,203,204,205,206,207,208,193,194,195,196,197,198,199,200,201,202,203,204,205,206,207,208,193,194,195,196,197,198,199,200,201,202,203,204,205,206,207,208,193,194,195,196,197,198,199,200,201,202,203,204,205,206,207,208,193,194,195,196,197,198,199,200,201,202,203,204,205,206,207,208,209,210,211,212,213,214,215,216,217,218,219,220,221,222,223,224,209,210,211,212,213,214,215,216,217,218,219,220,221,222,223,224,209,210,211,212,213,214,215,216,217,218,219,220,221,222,223,224,209,210,211,212,213,214,215,216,217,218,219,220,221,222,223,224,209,210,211,212,213,214,215,216,217,218,219,220,221,222,223,224,209,210,211,212,213,214,215,216,217,218,219,220,221,222,223,224,209,210,211,212,213,214,215,216,217,218,219,220,221,222,223,224,209,210,211,212,213,214,215,216,217,218,219,220,221,222,223,224,209,210,211,212,213,214,215,216,217,218,219,220,221,222,223,224,209,210,211,212,213,214,215,216,217,218,219,220,221,222,223,224,209,210,211,212,213,214,215,216,217,218,219,220,221,222,223,224,209,210,211,212,213,214,215,216,217,218,219,220,221,222,223,224,209,210,211,212,213,214,215,216,217,218,219,220,221,222,223,224,209,210,211,212,213,214,215,216,217,218,219,220,221,222,223,224,209,210,211,212,213,214,215,216,217,218,219,220,221,222,223,224,209,210,211,212,213,214,215,216,217,218,219,220,221,222,223,224,225,226,227,228,229,230,231,232,233,234,235,236,237,238,239,240,225,226,227,228,229,230,231,232,233,234,235,236,237,238,239,240,225,226,227,228,229,230,231,232,233,234,235,236,237,238,239,240,225,226,227,228,229,230,231,232,233,234,235,236,237,238,239,240,225,226,227,228,229,230,231,232,233,234,235,236,237,238,239,240,225,226,227,228,229,230,231,232,233,234,235,236,237,238,239,240,225,226,227,228,229,230,231,232,233,234,235,236,237,238,239,240,225,226,227,228,229,230,231,232,233,234,235,236,237,238,239,240,225,226,227,228,229,230,231,232,233,234,235,236,237,238,239,240,225,226,227,228,229,230,231,232,233,234,235,236,237,238,239,240,225,226,227,228,229,230,231,232,233,234,235,236,237,238,239,240,225,226,227,228,229,230,231,232,233,234,235,236,237,238,239,240,225,226,227,228,229,230,231,232,233,234,235,236,237,238,239,240,225,226,227,228,229,230,231,232,233,234,235,236,237,238,239,240,225,226,227,228,229,230,231,232,233,234,235,236,237,238,239,240,225,226,227,228,229,230,231,232,233,234,235,236,237,238,239,240,241,242,243,244,245,246,247,248,249,250,251,252,253,254,255,256,241,242,243,244,245,246,247,248,249,250,251,252,253,254,255,256,241,242,243,244,245,246,247,248,249,250,251,252,253,254,255,256,241,242,243,244,245,246,247,248,249,250,251,252,253,254,255,256,241,242,243,244,245,246,247,248,249,250,251,252,253,254,255,256,241,242,243,244,245,246,247,248,249,250,251,252,253,254,255,256,241,242,243,244,245,246,247,248,249,250,251,252,253,254,255,256,241,242,243,244,245,246,247,248,249,250,251,252,253,254,255,256,241,242,243,244,245,246,247,248,249,250,251,252,253,254,255,256,241,242,243,244,245,246,247,248,249,250,251,252,253,254,255,256,241,242,243,244,245,246,247,248,249,250,251,252,253,254,255,256,241,242,243,244,245,246,247,248,249,250,251,252,253,254,255,256,241,242,243,244,245,246,247,248,249,250,251,252,253,254,255,256,241,242,243,244,245,246,247,248,249,250,251,252,253,254,255,256,241,242,243,244,245,246,247,248,249,250,251,252,253,254,255,256,241,242,243,244,245,246,247,248,249,250,251,252,253,254,255,256,1,2,3,4,5,6,7,8,9,10,11,12,13,14,15,16,1,2,3,4,5,6,7,8,9,10,11,12,13,14,15,16,1,2,3,4,5,6,7,8,9,10,11,12,13,14,15,16,1,2,3,4,5,6,7,8,9,10,11,12,13,14,15,16,1,2,3,4,5,6,7,8,9,10,11,12,13,14,15,16,1,2,3,4,5,6,7,8,9,10,11,12,13,14,15,16,1,2,3,4,5,6,7,8,9,10,11,12,13,14,15,16,1,2,3,4,5,6,7,8,9,10,11,12,13,14,15,16,1,2,3,4,5,6,7,8,9,10,11,12,13,14,15,16,1,2,3,4,5,6,7,8,9,10,11,12,13,14,15,16,1,2,3,4,5,6,7,8,9,10,11,12,13,14,15,16,1,2,3,4,5,6,7,8,9,10,11,12,13,14,15,16,1,2,3,4,5,6,7,8,9,10,11,12,13,14,15,16,1,2,3,4,5,6,7,8,9,10,11,12,13,14,15,16,1,2,3,4,5,6,7,8,9,10,11,12,13,14,15,16,1,2,3,4,5,6,7,8,9,10,11,12,13,14,15,16,17,18,19,20,21,22,23,24,25,26,27,28,29,30,31,32,17,18,19,20,21,22,23,24,25,26,27,28,29,30,31,32,17,18,19,20,21,22,23,24,25,26,27,28,29,30,31,32,17,18,19,20,21,22,23,24,25,26,27,28,29,30,31,32,17,18,19,20,21,22,23,24,25,26,27,28,29,30,31,32,17,18,19,20,21,22,23,24,25,26,27,28,29,30,31,32,17,18,19,20,21,22,23,24,25,26,27,28,29,30,31,32,17,18,19,20,21,22,23,24,25,26,27,28,29,30,31,32,17,18,19,20,21,22,23,24,25,26,27,28,29,30,31,32,17,18,19,20,21,22,23,24,25,26,27,28,29,30,31,32,17,18,19,20,21,22,23,24,25,26,27,28,29,30,31,32,17,18,19,20,21,22,23,24,25,26,27,28,29,30,31,32,17,18,19,20,21,22,23,24,25,26,27,28,29,30,31,32,17,18,19,20,21,22,23,24,25,26,27,28,29,30,31,32,17,18,19,20,21,22,23,24,25,26,27,28,29,30,31,32,17,18,19,20,21,22,23,24,25,26,27,28,29,30,31,32,33,34,35,36,37,38,39,40,41,42,43,44,45,46,47,48,33,34,35,36,37,38,39,40,41,42,43,44,45,46,47,48,33,34,35,36,37,38,39,40,41,42,43,44,45,46,47,48,33,34,35,36,37,38,39,40,41,42,43,44,45,46,47,48,33,34,35,36,37,38,39,40,41,42,43,44,45,46,47,48,33,34,35,36,37,38,39,40,41,42,43,44,45,46,47,48,33,34,35,36,37,38,39,40,41,42,43,44,45,46,47,48,33,34,35,36,37,38,39,40,41,42,43,44,45,46,47,48,33,34,35,36,37,38,39,40,41,42,43,44,45,46,47,48,33,34,35,36,37,38,39,40,41,42,43,44,45,46,47,48,33,34,35,36,37,38,39,40,41,42,43,44,45,46,47,48,33,34,35,36,37,38,39,40,41,42,43,44,45,46,47,48,33,34,35,36,37,38,39,40,41,42,43,44,45,46,47,48,33,34,35,36,37,38,39,40,41,42,43,44,45,46,47,48,33,34,35,36,37,38,39,40,41,42,43,44,45,46,47,48,33,34,35,36,37,38,39,40,41,42,43,44,45,46,47,48,49,50,51,52,53,54,55,56,57,58,59,60,61,62,63,64,49,50,51,52,53,54,55,56,57,58,59,60,61,62,63,64,49,50,51,52,53,54,55,56,57,58,59,60,61,62,63,64,49,50,51,52,53,54,55,56,57,58,59,60,61,62,63,64,49,50,51,52,53,54,55,56,57,58,59,60,61,62,63,64,49,50,51,52,53,54,55,56,57,58,59,60,61,62,63,64,49,50,51,52,53,54,55,56,57,58,59,60,61,62,63,64,49,50,51,52,53,54,55,56,57,58,59,60,61,62,63,64,49,50,51,52,53,54,55,56,57,58,59,60,61,62,63,64,49,50,51,52,53,54,55,56,57,58,59,60,61,62,63,64,49,50,51,52,53,54,55,56,57,58,59,60,61,62,63,64,49,50,51,52,53,54,55,56,57,58,59,60,61,62,63,64,49,50,51,52,53,54,55,56,57,58,59,60,61,62,63,64,49,50,51,52,53,54,55,56,57,58,59,60,61,62,63,64,49,50,51,52,53,54,55,56,57,58,59,60,61,62,63,64,49,50,51,52,53,54,55,56,57,58,59,60,61,62,63,64,65,66,67,68,69,70,71,72,73,74,75,76,77,78,79,80,65,66,67,68,69,70,71,72,73,74,75,76,77,78,79,80,65,66,67,68,69,70,71,72,73,74,75,76,77,78,79,80,65,66,67,68,69,70,71,72,73,74,75,76,77,78,79,80,65,66,67,68,69,70,71,72,73,74,75,76,77,78,79,80,65,66,67,68,69,70,71,72,73,74,75,76,77,78,79,80,65,66,67,68,69,70,71,72,73,74,75,76,77,78,79,80,65,66,67,68,69,70,71,72,73,74,75,76,77,78,79,80,65,66,67,68,69,70,71,72,73,74,75,76,77,78,79,80,65,66,67,68,69,70,71,72,73,74,75,76,77,78,79,80,65,66,67,68,69,70,71,72,73,74,75,76,77,78,79,80,65,66,67,68,69,70,71,72,73,74,75,76,77,78,79,80,65,66,67,68,69,70,71,72,73,74,75,76,77,78,79,80,65,66,67,68,69,70,71,72,73,74,75,76,77,78,79,80,65,66,67,68,69,70,71,72,73,74,75,76,77,78,79,80,65,66,67,68,69,70,71,72,73,74,75,76,77,78,79,80,81,82,83,84,85,86,87,88,89,90,91,92,93,94,95,96,81,82,83,84,85,86,87,88,89,90,91,92,93,94,95,96,81,82,83,84,85,86,87,88,89,90,91,92,93,94,95,96,81,82,83,84,85,86,87,88,89,90,91,92,93,94,95,96,81,82,83,84,85,86,87,88,89,90,91,92,93,94,95,96,81,82,83,84,85,86,87,88,89,90,91,92,93,94,95,96,81,82,83,84,85,86,87,88,89,90,91,92,93,94,95,96,81,82,83,84,85,86,87,88,89,90,91,92,93,94,95,96,81,82,83,84,85,86,87,88,89,90,91,92,93,94,95,96,81,82,83,84,85,86,87,88,89,90,91,92,93,94,95,96,81,82,83,84,85,86,87,88,89,90,91,92,93,94,95,96,81,82,83,84,85,86,87,88,89,90,91,92,93,94,95,96,81,82,83,84,85,86,87,88,89,90,91,92,93,94,95,96,81,82,83,84,85,86,87,88,89,90,91,92,93,94,95,96,81,82,83,84,85,86,87,88,89,90,91,92,93,94,95,96,81,82,83,84,85,86,87,88,89,90,91,92,93,94,95,96,97,98,99,100,101,102,103,104,105,106,107,108,109,110,111,112,97,98,99,100,101,102,103,104,105,106,107,108,109,110,111,112,97,98,99,100,101,102,103,104,105,106,107,108,109,110,111,112,97,98,99,100,101,102,103,104,105,106,107,108,109,110,111,112,97,98,99,100,101,102,103,104,105,106,107,108,109,110,111,112,97,98,99,100,101,102,103,104,105,106,107,108,109,110,111,112,97,98,99,100,101,102,103,104,105,106,107,108,109,110,111,112,97,98,99,100,101,102,103,104,105,106,107,108,109,110,111,112,97,98,99,100,101,102,103,104,105,106,107,108,109,110,111,112,97,98,99,100,101,102,103,104,105,106,107,108,109,110,111,112,97,98,99,100,101,102,103,104,105,106,107,108,109,110,111,112,97,98,99,100,101,102,103,104,105,106,107,108,109,110,111,112,97,98,99,100,101,102,103,104,105,106,107,108,109,110,111,112,97,98,99,100,101,102,103,104,105,106,107,108,109,110,111,112,97,98,99,100,101,102,103,104,105,106,107,108,109,110,111,112,97,98,99,100,101,102,103,104,105,106,107,108,109,110,111,112,113,114,115,116,117,118,119,120,121,122,123,124,125,126,127,128,113,114,115,116,117,118,119,120,121,122,123,124,125,126,127,128,113,114,115,116,117,118,119,120,121,122,123,124,125,126,127,128,113,114,115,116,117,118,119,120,121,122,123,124,125,126,127,128,113,114,115,116,117,118,119,120,121,122,123,124,125,126,127,128,113,114,115,116,117,118,119,120,121,122,123,124,125,126,127,128,113,114,115,116,117,118,119,120,121,122,123,124,125,126,127,128,113,114,115,116,117,118,119,120,121,122,123,124,125,126,127,128,113,114,115,116,117,118,119,120,121,122,123,124,125,126,127,128,113,114,115,116,117,118,119,120,121,122,123,124,125,126,127,128,113,114,115,116,117,118,119,120,121,122,123,124,125,126,127,128,113,114,115,116,117,118,119,120,121,122,123,124,125,126,127,128,113,114,115,116,117,118,119,120,121,122,123,124,125,126,127,128,113,114,115,116,117,118,119,120,121,122,123,124,125,126,127,128,113,114,115,116,117,118,119,120,121,122,123,124,125,126,127,128,113,114,115,116,117,118,119,120,121,122,123,124,125,126,127,128,129,130,131,132,133,134,135,136,137,138,139,140,141,142,143,144,129,130,131,132,133,134,135,136,137,138,139,140,141,142,143,144,129,130,131,132,133,134,135,136,137,138,139,140,141,142,143,144,129,130,131,132,133,134,135,136,137,138,139,140,141,142,143,144,129,130,131,132,133,134,135,136,137,138,139,140,141,142,143,144,129,130,131,132,133,134,135,136,137,138,139,140,141,142,143,144,129,130,131,132,133,134,135,136,137,138,139,140,141,142,143,144,129,130,131,132,133,134,135,136,137,138,139,140,141,142,143,144,129,130,131,132,133,134,135,136,137,138,139,140,141,142,143,144,129,130,131,132,133,134,135,136,137,138,139,140,141,142,143,144,129,130,131,132,133,134,135,136,137,138,139,140,141,142,143,144,129,130,131,132,133,134,135,136,137,138,139,140,141,142,143,144,129,130,131,132,133,134,135,136,137,138,139,140,141,142,143,144,129,130,131,132,133,134,135,136,137,138,139,140,141,142,143,144,129,130,131,132,133,134,135,136,137,138,139,140,141,142,143,144,129,130,131,132,133,134,135,136,137,138,139,140,141,142,143,144,145,146,147,148,149,150,151,152,153,154,155,156,157,158,159,160,145,146,147,148,149,150,151,152,153,154,155,156,157,158,159,160,145,146,147,148,149,150,151,152,153,154,155,156,157,158,159,160,145,146,147,148,149,150,151,152,153,154,155,156,157,158,159,160,145,146,147,148,149,150,151,152,153,154,155,156,157,158,159,160,145,146,147,148,149,150,151,152,153,154,155,156,157,158,159,160,145,146,147,148,149,150,151,152,153,154,155,156,157,158,159,160,145,146,147,148,149,150,151,152,153,154,155,156,157,158,159,160,145,146,147,148,149,150,151,152,153,154,155,156,157,158,159,160,145,146,147,148,149,150,151,152,153,154,155,156,157,158,159,160,145,146,147,148,149,150,151,152,153,154,155,156,157,158,159,160,145,146,147,148,149,150,151,152,153,154,155,156,157,158,159,160,145,146,147,148,149,150,151,152,153,154,155,156,157,158,159,160,145,146,147,148,149,150,151,152,153,154,155,156,157,158,159,160,145,146,147,148,149,150,151,152,153,154,155,156,157,158,159,160,145,146,147,148,149,150,151,152,153,154,155,156,157,158,159,160,161,162,163,164,165,166,167,168,169,170,171,172,173,174,175,176,161,162,163,164,165,166,167,168,169,170,171,172,173,174,175,176,161,162,163,164,165,166,167,168,169,170,171,172,173,174,175,176,161,162,163,164,165,166,167,168,169,170,171,172,173,174,175,176,161,162,163,164,165,166,167,168,169,170,171,172,173,174,175,176,161,162,163,164,165,166,167,168,169,170,171,172,173,174,175,176,161,162,163,164,165,166,167,168,169,170,171,172,173,174,175,176,161,162,163,164,165,166,167,168,169,170,171,172,173,174,175,176,161,162,163,164,165,166,167,168,169,170,171,172,173,174,175,176,161,162,163,164,165,166,167,168,169,170,171,172,173,174,175,176,161,162,163,164,165,166,167,168,169,170,171,172,173,174,175,176,161,162,163,164,165,166,167,168,169,170,171,172,173,174,175,176,161,162,163,164,165,166,167,168,169,170,171,172,173,174,175,176,161,162,163,164,165,166,167,168,169,170,171,172,173,174,175,176,161,162,163,164,165,166,167,168,169,170,171,172,173,174,175,176,161,162,163,164,165,166,167,168,169,170,171,172,173,174,175,176,177,178,179,180,181,182,183,184,185,186,187,188,189,190,191,192,177,178,179,180,181,182,183,184,185,186,187,188,189,190,191,192,177,178,179,180,181,182,183,184,185,186,187,188,189,190,191,192,177,178,179,180,181,182,183,184,185,186,187,188,189,190,191,192,177,178,179,180,181,182,183,184,185,186,187,188,189,190,191,192,177,178,179,180,181,182,183,184,185,186,187,188,189,190,191,192,177,178,179,180,181,182,183,184,185,186,187,188,189,190,191,192,177,178,179,180,181,182,183,184,185,186,187,188,189,190,191,192,177,178,179,180,181,182,183,184,185,186,187,188,189,190,191,192,177,178,179,180,181,182,183,184,185,186,187,188,189,190,191,192,177,178,179,180,181,182,183,184,185,186,187,188,189,190,191,192,177,178,179,180,181,182,183,184,185,186,187,188,189,190,191,192,177,178,179,180,181,182,183,184,185,186,187,188,189,190,191,192,177,178,179,180,181,182,183,184,185,186,187,188,189,190,191,192,177,178,179,180,181,182,183,184,185,186,187,188,189,190,191,192,177,178,179,180,181,182,183,184,185,186,187,188,189,190,191,192,193,194,195,196,197,198,199,200,201,202,203,204,205,206,207,208,193,194,195,196,197,198,199,200,201,202,203,204,205,206,207,208,193,194,195,196,197,198,199,200,201,202,203,204,205,206,207,208,193,194,195,196,197,198,199,200,201,202,203,204,205,206,207,208,193,194,195,196,197,198,199,200,201,202,203,204,205,206,207,208,193,194,195,196,197,198,199,200,201,202,203,204,205,206,207,208,193,194,195,196,197,198,199,200,201,202,203,204,205,206,207,208,193,194,195,196,197,198,199,200,201,202,203,204,205,206,207,208,193,194,195,196,197,198,199,200,201,202,203,204,205,206,207,208,193,194,195,196,197,198,199,200,201,202,203,204,205,206,207,208,193,194,195,196,197,198,199,200,201,202,203,204,205,206,207,208,193,194,195,196,197,198,199,200,201,202,203,204,205,206,207,208,193,194,195,196,197,198,199,200,201,202,203,204,205,206,207,208,193,194,195,196,197,198,199,200,201,202,203,204,205,206,207,208,193,194,195,196,197,198,199,200,201,202,203,204,205,206,207,208,193,194,195,196,197,198,199,200,201,202,203,204,205,206,207,208,209,210,211,212,213,214,215,216,217,218,219,220,221,222,223,224,209,210,211,212,213,214,215,216,217,218,219,220,221,222,223,224,209,210,211,212,213,214,215,216,217,218,219,220,221,222,223,224,209,210,211,212,213,214,215,216,217,218,219,220,221,222,223,224,209,210,211,212,213,214,215,216,217,218,219,220,221,222,223,224,209,210,211,212,213,214,215,216,217,218,219,220,221,222,223,224,209,210,211,212,213,214,215,216,217,218,219,220,221,222,223,224,209,210,211,212,213,214,215,216,217,218,219,220,221,222,223,224,209,210,211,212,213,214,215,216,217,218,219,220,221,222,223,224,209,210,211,212,213,214,215,216,217,218,219,220,221,222,223,224,209,210,211,212,213,214,215,216,217,218,219,220,221,222,223,224,209,210,211,212,213,214,215,216,217,218,219,220,221,222,223,224,209,210,211,212,213,214,215,216,217,218,219,220,221,222,223,224,209,210,211,212,213,214,215,216,217,218,219,220,221,222,223,224,209,210,211,212,213,214,215,216,217,218,219,220,221,222,223,224,209,210,211,212,213,214,215,216,217,218,219,220,221,222,223,224,225,226,227,228,229,230,231,232,233,234,235,236,237,238,239,240,225,226,227,228,229,230,231,232,233,234,235,236,237,238,239,240,225,226,227,228,229,230,231,232,233,234,235,236,237,238,239,240,225,226,227,228,229,230,231,232,233,234,235,236,237,238,239,240,225,226,227,228,229,230,231,232,233,234,235,236,237,238,239,240,225,226,227,228,229,230,231,232,233,234,235,236,237,238,239,240,225,226,227,228,229,230,231,232,233,234,235,236,237,238,239,240,225,226,227,228,229,230,231,232,233,234,235,236,237,238,239,240,225,226,227,228,229,230,231,232,233,234,235,236,237,238,239,240,225,226,227,228,229,230,231,232,233,234,235,236,237,238,239,240,225,226,227,228,229,230,231,232,233,234,235,236,237,238,239,240,225,226,227,228,229,230,231,232,233,234,235,236,237,238,239,240,225,226,227,228,229,230,231,232,233,234,235,236,237,238,239,240,225,226,227,228,229,230,231,232,233,234,235,236,237,238,239,240,225,226,227,228,229,230,231,232,233,234,235,236,237,238,239,240,225,226,227,228,229,230,231,232,233,234,235,236,237,238,239,240,241,242,243,244,245,246,247,248,249,250,251,252,253,254,255,256,241,242,243,244,245,246,247,248,249,250,251,252,253,254,255,256,241,242,243,244,245,246,247,248,249,250,251,252,253,254,255,256,241,242,243,244,245,246,247,248,249,250,251,252,253,254,255,256,241,242,243,244,245,246,247,248,249,250,251,252,253,254,255,256,241,242,243,244,245,246,247,248,249,250,251,252,253,254,255,256,241,242,243,244,245,246,247,248,249,250,251,252,253,254,255,256,241,242,243,244,245,246,247,248,249,250,251,252,253,254,255,256,241,242,243,244,245,246,247,248,249,250,251,252,253,254,255,256,241,242,243,244,245,246,247,248,249,250,251,252,253,254,255,256,241,242,243,244,245,246,247,248,249,250,251,252,253,254,255,256,241,242,243,244,245,246,247,248,249,250,251,252,253,254,255,256,241,242,243,244,245,246,247,248,249,250,251,252,253,254,255,256,241,242,243,244,245,246,247,248,249,250,251,252,253,254,255,256,241,242,243,244,245,246,247,248,249,250,251,252,253,254,255,256,241,242,243,244,245,246,247,248,249,250,251,252,253,254,255,256,1,2,3,4,5,6,7,8,9,10,11,12,13,14,15,16,1,2,3,4,5,6,7,8,9,10,11,12,13,14,15,16,1,2,3,4,5,6,7,8,9,10,11,12,13,14,15,16,1,2,3,4,5,6,7,8,9,10,11,12,13,14,15,16,1,2,3,4,5,6,7,8,9,10,11,12,13,14,15,16,1,2,3,4,5,6,7,8,9,10,11,12,13,14,15,16,1,2,3,4,5,6,7,8,9,10,11,12,13,14,15,16,1,2,3,4,5,6,7,8,9,10,11,12,13,14,15,16,1,2,3,4,5,6,7,8,9,10,11,12,13,14,15,16,1,2,3,4,5,6,7,8,9,10,11,12,13,14,15,16,1,2,3,4,5,6,7,8,9,10,11,12,13,14,15,16,1,2,3,4,5,6,7,8,9,10,11,12,13,14,15,16,1,2,3,4,5,6,7,8,9,10,11,12,13,14,15,16,1,2,3,4,5,6,7,8,9,10,11,12,13,14,15,16,1,2,3,4,5,6,7,8,9,10,11,12,13,14,15,16,1,2,3,4,5,6,7,8,9,10,11,12,13,14,15,16,17,18,19,20,21,22,23,24,25,26,27,28,29,30,31,32,17,18,19,20,21,22,23,24,25,26,27,28,29,30,31,32,17,18,19,20,21,22,23,24,25,26,27,28,29,30,31,32,17,18,19,20,21,22,23,24,25,26,27,28,29,30,31,32,17,18,19,20,21,22,23,24,25,26,27,28,29,30,31,32,17,18,19,20,21,22,23,24,25,26,27,28,29,30,31,32,17,18,19,20,21,22,23,24,25,26,27,28,29,30,31,32,17,18,19,20,21,22,23,24,25,26,27,28,29,30,31,32,17,18,19,20,21,22,23,24,25,26,27,28,29,30,31,32,17,18,19,20,21,22,23,24,25,26,27,28,29,30,31,32,17,18,19,20,21,22,23,24,25,26,27,28,29,30,31,32,17,18,19,20,21,22,23,24,25,26,27,28,29,30,31,32,17,18,19,20,21,22,23,24,25,26,27,28,29,30,31,32,17,18,19,20,21,22,23,24,25,26,27,28,29,30,31,32,17,18,19,20,21,22,23,24,25,26,27,28,29,30,31,32,17,18,19,20,21,22,23,24,25,26,27,28,29,30,31,32,33,34,35,36,37,38,39,40,41,42,43,44,45,46,47,48,33,34,35,36,37,38,39,40,41,42,43,44,45,46,47,48,33,34,35,36,37,38,39,40,41,42,43,44,45,46,47,48,33,34,35,36,37,38,39,40,41,42,43,44,45,46,47,48,33,34,35,36,37,38,39,40,41,42,43,44,45,46,47,48,33,34,35,36,37,38,39,40,41,42,43,44,45,46,47,48,33,34,35,36,37,38,39,40,41,42,43,44,45,46,47,48,33,34,35,36,37,38,39,40,41,42,43,44,45,46,47,48,33,34,35,36,37,38,39,40,41,42,43,44,45,46,47,48,33,34,35,36,37,38,39,40,41,42,43,44,45,46,47,48,33,34,35,36,37,38,39,40,41,42,43,44,45,46,47,48,33,34,35,36,37,38,39,40,41,42,43,44,45,46,47,48,33,34,35,36,37,38,39,40,41,42,43,44,45,46,47,48,33,34,35,36,37,38,39,40,41,42,43,44,45,46,47,48,33,34,35,36,37,38,39,40,41,42,43,44,45,46,47,48,33,34,35,36,37,38,39,40,41,42,43,44,45,46,47,48,49,50,51,52,53,54,55,56,57,58,59,60,61,62,63,64,49,50,51,52,53,54,55,56,57,58,59,60,61,62,63,64,49,50,51,52,53,54,55,56,57,58,59,60,61,62,63,64,49,50,51,52,53,54,55,56,57,58,59,60,61,62,63,64,49,50,51,52,53,54,55,56,57,58,59,60,61,62,63,64,49,50,51,52,53,54,55,56,57,58,59,60,61,62,63,64,49,50,51,52,53,54,55,56,57,58,59,60,61,62,63,64,49,50,51,52,53,54,55,56,57,58,59,60,61,62,63,64,49,50,51,52,53,54,55,56,57,58,59,60,61,62,63,64,49,50,51,52,53,54,55,56,57,58,59,60,61,62,63,64,49,50,51,52,53,54,55,56,57,58,59,60,61,62,63,64,49,50,51,52,53,54,55,56,57,58,59,60,61,62,63,64,49,50,51,52,53,54,55,56,57,58,59,60,61,62,63,64,49,50,51,52,53,54,55,56,57,58,59,60,61,62,63,64,49,50,51,52,53,54,55,56,57,58,59,60,61,62,63,64,49,50,51,52,53,54,55,56,57,58,59,60,61,62,63,64,65,66,67,68,69,70,71,72,73,74,75,76,77,78,79,80,65,66,67,68,69,70,71,72,73,74,75,76,77,78,79,80,65,66,67,68,69,70,71,72,73,74,75,76,77,78,79,80,65,66,67,68,69,70,71,72,73,74,75,76,77,78,79,80,65,66,67,68,69,70,71,72,73,74,75,76,77,78,79,80,65,66,67,68,69,70,71,72,73,74,75,76,77,78,79,80,65,66,67,68,69,70,71,72,73,74,75,76,77,78,79,80,65,66,67,68,69,70,71,72,73,74,75,76,77,78,79,80,65,66,67,68,69,70,71,72,73,74,75,76,77,78,79,80,65,66,67,68,69,70,71,72,73,74,75,76,77,78,79,80,65,66,67,68,69,70,71,72,73,74,75,76,77,78,79,80,65,66,67,68,69,70,71,72,73,74,75,76,77,78,79,80,65,66,67,68,69,70,71,72,73,74,75,76,77,78,79,80,65,66,67,68,69,70,71,72,73,74,75,76,77,78,79,80,65,66,67,68,69,70,71,72,73,74,75,76,77,78,79,80,65,66,67,68,69,70,71,72,73,74,75,76,77,78,79,80,81,82,83,84,85,86,87,88,89,90,91,92,93,94,95,96,81,82,83,84,85,86,87,88,89,90,91,92,93,94,95,96,81,82,83,84,85,86,87,88,89,90,91,92,93,94,95,96,81,82,83,84,85,86,87,88,89,90,91,92,93,94,95,96,81,82,83,84,85,86,87,88,89,90,91,92,93,94,95,96,81,82,83,84,85,86,87,88,89,90,91,92,93,94,95,96,81,82,83,84,85,86,87,88,89,90,91,92,93,94,95,96,81,82,83,84,85,86,87,88,89,90,91,92,93,94,95,96,81,82,83,84,85,86,87,88,89,90,91,92,93,94,95,96,81,82,83,84,85,86,87,88,89,90,91,92,93,94,95,96,81,82,83,84,85,86,87,88,89,90,91,92,93,94,95,96,81,82,83,84,85,86,87,88,89,90,91,92,93,94,95,96,81,82,83,84,85,86,87,88,89,90,91,92,93,94,95,96,81,82,83,84,85,86,87,88,89,90,91,92,93,94,95,96,81,82,83,84,85,86,87,88,89,90,91,92,93,94,95,96,81,82,83,84,85,86,87,88,89,90,91,92,93,94,95,96,97,98,99,100,101,102,103,104,105,106,107,108,109,110,111,112,97,98,99,100,101,102,103,104,105,106,107,108,109,110,111,112,97,98,99,100,101,102,103,104,105,106,107,108,109,110,111,112,97,98,99,100,101,102,103,104,105,106,107,108,109,110,111,112,97,98,99,100,101,102,103,104,105,106,107,108,109,110,111,112,97,98,99,100,101,102,103,104,105,106,107,108,109,110,111,112,97,98,99,100,101,102,103,104,105,106,107,108,109,110,111,112,97,98,99,100,101,102,103,104,105,106,107,108,109,110,111,112,97,98,99,100,101,102,103,104,105,106,107,108,109,110,111,112,97,98,99,100,101,102,103,104,105,106,107,108,109,110,111,112,97,98,99,100,101,102,103,104,105,106,107,108,109,110,111,112,97,98,99,100,101,102,103,104,105,106,107,108,109,110,111,112,97,98,99,100,101,102,103,104,105,106,107,108,109,110,111,112,97,98,99,100,101,102,103,104,105,106,107,108,109,110,111,112,97,98,99,100,101,102,103,104,105,106,107,108,109,110,111,112,97,98,99,100,101,102,103,104,105,106,107,108,109,110,111,112,113,114,115,116,117,118,119,120,121,122,123,124,125,126,127,128,113,114,115,116,117,118,119,120,121,122,123,124,125,126,127,128,113,114,115,116,117,118,119,120,121,122,123,124,125,126,127,128,113,114,115,116,117,118,119,120,121,122,123,124,125,126,127,128,113,114,115,116,117,118,119,120,121,122,123,124,125,126,127,128,113,114,115,116,117,118,119,120,121,122,123,124,125,126,127,128,113,114,115,116,117,118,119,120,121,122,123,124,125,126,127,128,113,114,115,116,117,118,119,120,121,122,123,124,125,126,127,128,113,114,115,116,117,118,119,120,121,122,123,124,125,126,127,128,113,114,115,116,117,118,119,120,121,122,123,124,125,126,127,128,113,114,115,116,117,118,119,120,121,122,123,124,125,126,127,128,113,114,115,116,117,118,119,120,121,122,123,124,125,126,127,128,113,114,115,116,117,118,119,120,121,122,123,124,125,126,127,128,113,114,115,116,117,118,119,120,121,122,123,124,125,126,127,128,113,114,115,116,117,118,119,120,121,122,123,124,125,126,127,128,113,114,115,116,117,118,119,120,121,122,123,124,125,126,127,128,129,130,131,132,133,134,135,136,137,138,139,140,141,142,143,144,129,130,131,132,133,134,135,136,137,138,139,140,141,142,143,144,129,130,131,132,133,134,135,136,137,138,139,140,141,142,143,144,129,130,131,132,133,134,135,136,137,138,139,140,141,142,143,144,129,130,131,132,133,134,135,136,137,138,139,140,141,142,143,144,129,130,131,132,133,134,135,136,137,138,139,140,141,142,143,144,129,130,131,132,133,134,135,136,137,138,139,140,141,142,143,144,129,130,131,132,133,134,135,136,137,138,139,140,141,142,143,144,129,130,131,132,133,134,135,136,137,138,139,140,141,142,143,144,129,130,131,132,133,134,135,136,137,138,139,140,141,142,143,144,129,130,131,132,133,134,135,136,137,138,139,140,141,142,143,144,129,130,131,132,133,134,135,136,137,138,139,140,141,142,143,144,129,130,131,132,133,134,135,136,137,138,139,140,141,142,143,144,129,130,131,132,133,134,135,136,137,138,139,140,141,142,143,144,129,130,131,132,133,134,135,136,137,138,139,140,141,142,143,144,129,130,131,132,133,134,135,136,137,138,139,140,141,142,143,144,145,146,147,148,149,150,151,152,153,154,155,156,157,158,159,160,145,146,147,148,149,150,151,152,153,154,155,156,157,158,159,160,145,146,147,148,149,150,151,152,153,154,155,156,157,158,159,160,145,146,147,148,149,150,151,152,153,154,155,156,157,158,159,160,145,146,147,148,149,150,151,152,153,154,155,156,157,158,159,160,145,146,147,148,149,150,151,152,153,154,155,156,157,158,159,160,145,146,147,148,149,150,151,152,153,154,155,156,157,158,159,160,145,146,147,148,149,150,151,152,153,154,155,156,157,158,159,160,145,146,147,148,149,150,151,152,153,154,155,156,157,158,159,160,145,146,147,148,149,150,151,152,153,154,155,156,157,158,159,160,145,146,147,148,149,150,151,152,153,154,155,156,157,158,159,160,145,146,147,148,149,150,151,152,153,154,155,156,157,158,159,160,145,146,147,148,149,150,151,152,153,154,155,156,157,158,159,160,145,146,147,148,149,150,151,152,153,154,155,156,157,158,159,160,145,146,147,148,149,150,151,152,153,154,155,156,157,158,159,160,145,146,147,148,149,150,151,152,153,154,155,156,157,158,159,160,161,162,163,164,165,166,167,168,169,170,171,172,173,174,175,176,161,162,163,164,165,166,167,168,169,170,171,172,173,174,175,176,161,162,163,164,165,166,167,168,169,170,171,172,173,174,175,176,161,162,163,164,165,166,167,168,169,170,171,172,173,174,175,176,161,162,163,164,165,166,167,168,169,170,171,172,173,174,175,176,161,162,163,164,165,166,167,168,169,170,171,172,173,174,175,176,161,162,163,164,165,166,167,168,169,170,171,172,173,174,175,176,161,162,163,164,165,166,167,168,169,170,171,172,173,174,175,176,161,162,163,164,165,166,167,168,169,170,171,172,173,174,175,176,161,162,163,164,165,166,167,168,169,170,171,172,173,174,175,176,161,162,163,164,165,166,167,168,169,170,171,172,173,174,175,176,161,162,163,164,165,166,167,168,169,170,171,172,173,174,175,176,161,162,163,164,165,166,167,168,169,170,171,172,173,174,175,176,161,162,163,164,165,166,167,168,169,170,171,172,173,174,175,176,161,162,163,164,165,166,167,168,169,170,171,172,173,174,175,176,161,162,163,164,165,166,167,168,169,170,171,172,173,174,175,176,177,178,179,180,181,182,183,184,185,186,187,188,189,190,191,192,177,178,179,180,181,182,183,184,185,186,187,188,189,190,191,192,177,178,179,180,181,182,183,184,185,186,187,188,189,190,191,192,177,178,179,180,181,182,183,184,185,186,187,188,189,190,191,192,177,178,179,180,181,182,183,184,185,186,187,188,189,190,191,192,177,178,179,180,181,182,183,184,185,186,187,188,189,190,191,192,177,178,179,180,181,182,183,184,185,186,187,188,189,190,191,192,177,178,179,180,181,182,183,184,185,186,187,188,189,190,191,192,177,178,179,180,181,182,183,184,185,186,187,188,189,190,191,192,177,178,179,180,181,182,183,184,185,186,187,188,189,190,191,192,177,178,179,180,181,182,183,184,185,186,187,188,189,190,191,192,177,178,179,180,181,182,183,184,185,186,187,188,189,190,191,192,177,178,179,180,181,182,183,184,185,186,187,188,189,190,191,192,177,178,179,180,181,182,183,184,185,186,187,188,189,190,191,192,177,178,179,180,181,182,183,184,185,186,187,188,189,190,191,192,177,178,179,180,181,182,183,184,185,186,187,188,189,190,191,192,193,194,195,196,197,198,199,200,201,202,203,204,205,206,207,208,193,194,195,196,197,198,199,200,201,202,203,204,205,206,207,208,193,194,195,196,197,198,199,200,201,202,203,204,205,206,207,208,193,194,195,196,197,198,199,200,201,202,203,204,205,206,207,208,193,194,195,196,197,198,199,200,201,202,203,204,205,206,207,208,193,194,195,196,197,198,199,200,201,202,203,204,205,206,207,208,193,194,195,196,197,198,199,200,201,202,203,204,205,206,207,208,193,194,195,196,197,198,199,200,201,202,203,204,205,206,207,208,193,194,195,196,197,198,199,200,201,202,203,204,205,206,207,208,193,194,195,196,197,198,199,200,201,202,203,204,205,206,207,208,193,194,195,196,197,198,199,200,201,202,203,204,205,206,207,208,193,194,195,196,197,198,199,200,201,202,203,204,205,206,207,208,193,194,195,196,197,198,199,200,201,202,203,204,205,206,207,208,193,194,195,196,197,198,199,200,201,202,203,204,205,206,207,208,193,194,195,196,197,198,199,200,201,202,203,204,205,206,207,208,193,194,195,196,197,198,199,200,201,202,203,204,205,206,207,208,209,210,211,212,213,214,215,216,217,218,219,220,221,222,223,224,209,210,211,212,213,214,215,216,217,218,219,220,221,222,223,224,209,210,211,212,213,214,215,216,217,218,219,220,221,222,223,224,209,210,211,212,213,214,215,216,217,218,219,220,221,222,223,224,209,210,211,212,213,214,215,216,217,218,219,220,221,222,223,224,209,210,211,212,213,214,215,216,217,218,219,220,221,222,223,224,209,210,211,212,213,214,215,216,217,218,219,220,221,222,223,224,209,210,211,212,213,214,215,216,217,218,219,220,221,222,223,224,209,210,211,212,213,214,215,216,217,218,219,220,221,222,223,224,209,210,211,212,213,214,215,216,217,218,219,220,221,222,223,224,209,210,211,212,213,214,215,216,217,218,219,220,221,222,223,224,209,210,211,212,213,214,215,216,217,218,219,220,221,222,223,224,209,210,211,212,213,214,215,216,217,218,219,220,221,222,223,224,209,210,211,212,213,214,215,216,217,218,219,220,221,222,223,224,209,210,211,212,213,214,215,216,217,218,219,220,221,222,223,224,209,210,211,212,213,214,215,216,217,218,219,220,221,222,223,224,225,226,227,228,229,230,231,232,233,234,235,236,237,238,239,240,225,226,227,228,229,230,231,232,233,234,235,236,237,238,239,240,225,226,227,228,229,230,231,232,233,234,235,236,237,238,239,240,225,226,227,228,229,230,231,232,233,234,235,236,237,238,239,240,225,226,227,228,229,230,231,232,233,234,235,236,237,238,239,240,225,226,227,228,229,230,231,232,233,234,235,236,237,238,239,240,225,226,227,228,229,230,231,232,233,234,235,236,237,238,239,240,225,226,227,228,229,230,231,232,233,234,235,236,237,238,239,240,225,226,227,228,229,230,231,232,233,234,235,236,237,238,239,240,225,226,227,228,229,230,231,232,233,234,235,236,237,238,239,240,225,226,227,228,229,230,231,232,233,234,235,236,237,238,239,240,225,226,227,228,229,230,231,232,233,234,235,236,237,238,239,240,225,226,227,228,229,230,231,232,233,234,235,236,237,238,239,240,225,226,227,228,229,230,231,232,233,234,235,236,237,238,239,240,225,226,227,228,229,230,231,232,233,234,235,236,237,238,239,240,225,226,227,228,229,230,231,232,233,234,235,236,237,238,239,240,241,242,243,244,245,246,247,248,249,250,251,252,253,254,255,256,241,242,243,244,245,246,247,248,249,250,251,252,253,254,255,256,241,242,243,244,245,246,247,248,249,250,251,252,253,254,255,256,241,242,243,244,245,246,247,248,249,250,251,252,253,254,255,256,241,242,243,244,245,246,247,248,249,250,251,252,253,254,255,256,241,242,243,244,245,246,247,248,249,250,251,252,253,254,255,256,241,242,243,244,245,246,247,248,249,250,251,252,253,254,255,256,241,242,243,244,245,246,247,248,249,250,251,252,253,254,255,256,241,242,243,244,245,246,247,248,249,250,251,252,253,254,255,256,241,242,243,244,245,246,247,248,249,250,251,252,253,254,255,256,241,242,243,244,245,246,247,248,249,250,251,252,253,254,255,256,241,242,243,244,245,246,247,248,249,250,251,252,253,254,255,256,241,242,243,244,245,246,247,248,249,250,251,252,253,254,255,256,241,242,243,244,245,246,247,248,249,250,251,252,253,254,255,256,241,242,243,244,245,246,247,248,249,250,251,252,253,254,255,256,241,242,243,244,245,246,247,248,249,250,251,252,253,254,255,256,1,2,3,4,5,6,7,8,9,10,11,12,13,14,15,16,1,2,3,4,5,6,7,8,9,10,11,12,13,14,15,16,1,2,3,4,5,6,7,8,9,10,11,12,13,14,15,16,1,2,3,4,5,6,7,8,9,10,11,12,13,14,15,16,1,2,3,4,5,6,7,8,9,10,11,12,13,14,15,16,1,2,3,4,5,6,7,8,9,10,11,12,13,14,15,16,1,2,3,4,5,6,7,8,9,10,11,12,13,14,15,16,1,2,3,4,5,6,7,8,9,10,11,12,13,14,15,16,1,2,3,4,5,6,7,8,9,10,11,12,13,14,15,16,1,2,3,4,5,6,7,8,9,10,11,12,13,14,15,16,1,2,3,4,5,6,7,8,9,10,11,12,13,14,15,16,1,2,3,4,5,6,7,8,9,10,11,12,13,14,15,16,1,2,3,4,5,6,7,8,9,10,11,12,13,14,15,16,1,2,3,4,5,6,7,8,9,10,11,12,13,14,15,16,1,2,3,4,5,6,7,8,9,10,11,12,13,14,15,16,1,2,3,4,5,6,7,8,9,10,11,12,13,14,15,16,17,18,19,20,21,22,23,24,25,26,27,28,29,30,31,32,17,18,19,20,21,22,23,24,25,26,27,28,29,30,31,32,17,18,19,20,21,22,23,24,25,26,27,28,29,30,31,32,17,18,19,20,21,22,23,24,25,26,27,28,29,30,31,32,17,18,19,20,21,22,23,24,25,26,27,28,29,30,31,32,17,18,19,20,21,22,23,24,25,26,27,28,29,30,31,32,17,18,19,20,21,22,23,24,25,26,27,28,29,30,31,32,17,18,19,20,21,22,23,24,25,26,27,28,29,30,31,32,17,18,19,20,21,22,23,24,25,26,27,28,29,30,31,32,17,18,19,20,21,22,23,24,25,26,27,28,29,30,31,32,17,18,19,20,21,22,23,24,25,26,27,28,29,30,31,32,17,18,19,20,21,22,23,24,25,26,27,28,29,30,31,32,17,18,19,20,21,22,23,24,25,26,27,28,29,30,31,32,17,18,19,20,21,22,23,24,25,26,27,28,29,30,31,32,17,18,19,20,21,22,23,24,25,26,27,28,29,30,31,32,17,18,19,20,21,22,23,24,25,26,27,28,29,30,31,32,33,34,35,36,37,38,39,40,41,42,43,44,45,46,47,48,33,34,35,36,37,38,39,40,41,42,43,44,45,46,47,48,33,34,35,36,37,38,39,40,41,42,43,44,45,46,47,48,33,34,35,36,37,38,39,40,41,42,43,44,45,46,47,48,33,34,35,36,37,38,39,40,41,42,43,44,45,46,47,48,33,34,35,36,37,38,39,40,41,42,43,44,45,46,47,48,33,34,35,36,37,38,39,40,41,42,43,44,45,46,47,48,33,34,35,36,37,38,39,40,41,42,43,44,45,46,47,48,33,34,35,36,37,38,39,40,41,42,43,44,45,46,47,48,33,34,35,36,37,38,39,40,41,42,43,44,45,46,47,48,33,34,35,36,37,38,39,40,41,42,43,44,45,46,47,48,33,34,35,36,37,38,39,40,41,42,43,44,45,46,47,48,33,34,35,36,37,38,39,40,41,42,43,44,45,46,47,48,33,34,35,36,37,38,39,40,41,42,43,44,45,46,47,48,33,34,35,36,37,38,39,40,41,42,43,44,45,46,47,48,33,34,35,36,37,38,39,40,41,42,43,44,45,46,47,48,49,50,51,52,53,54,55,56,57,58,59,60,61,62,63,64,49,50,51,52,53,54,55,56,57,58,59,60,61,62,63,64,49,50,51,52,53,54,55,56,57,58,59,60,61,62,63,64,49,50,51,52,53,54,55,56,57,58,59,60,61,62,63,64,49,50,51,52,53,54,55,56,57,58,59,60,61,62,63,64,49,50,51,52,53,54,55,56,57,58,59,60,61,62,63,64,49,50,51,52,53,54,55,56,57,58,59,60,61,62,63,64,49,50,51,52,53,54,55,56,57,58,59,60,61,62,63,64,49,50,51,52,53,54,55,56,57,58,59,60,61,62,63,64,49,50,51,52,53,54,55,56,57,58,59,60,61,62,63,64,49,50,51,52,53,54,55,56,57,58,59,60,61,62,63,64,49,50,51,52,53,54,55,56,57,58,59,60,61,62,63,64,49,50,51,52,53,54,55,56,57,58,59,60,61,62,63,64,49,50,51,52,53,54,55,56,57,58,59,60,61,62,63,64,49,50,51,52,53,54,55,56,57,58,59,60,61,62,63,64,49,50,51,52,53,54,55,56,57,58,59,60,61,62,63,64,65,66,67,68,69,70,71,72,73,74,75,76,77,78,79,80,65,66,67,68,69,70,71,72,73,74,75,76,77,78,79,80,65,66,67,68,69,70,71,72,73,74,75,76,77,78,79,80,65,66,67,68,69,70,71,72,73,74,75,76,77,78,79,80,65,66,67,68,69,70,71,72,73,74,75,76,77,78,79,80,65,66,67,68,69,70,71,72,73,74,75,76,77,78,79,80,65,66,67,68,69,70,71,72,73,74,75,76,77,78,79,80,65,66,67,68,69,70,71,72,73,74,75,76,77,78,79,80,65,66,67,68,69,70,71,72,73,74,75,76,77,78,79,80,65,66,67,68,69,70,71,72,73,74,75,76,77,78,79,80,65,66,67,68,69,70,71,72,73,74,75,76,77,78,79,80,65,66,67,68,69,70,71,72,73,74,75,76,77,78,79,80,65,66,67,68,69,70,71,72,73,74,75,76,77,78,79,80,65,66,67,68,69,70,71,72,73,74,75,76,77,78,79,80,65,66,67,68,69,70,71,72,73,74,75,76,77,78,79,80,65,66,67,68,69,70,71,72,73,74,75,76,77,78,79,80,81,82,83,84,85,86,87,88,89,90,91,92,93,94,95,96,81,82,83,84,85,86,87,88,89,90,91,92,93,94,95,96,81,82,83,84,85,86,87,88,89,90,91,92,93,94,95,96,81,82,83,84,85,86,87,88,89,90,91,92,93,94,95,96,81,82,83,84,85,86,87,88,89,90,91,92,93,94,95,96,81,82,83,84,85,86,87,88,89,90,91,92,93,94,95,96,81,82,83,84,85,86,87,88,89,90,91,92,93,94,95,96,81,82,83,84,85,86,87,88,89,90,91,92,93,94,95,96,81,82,83,84,85,86,87,88,89,90,91,92,93,94,95,96,81,82,83,84,85,86,87,88,89,90,91,92,93,94,95,96,81,82,83,84,85,86,87,88,89,90,91,92,93,94,95,96,81,82,83,84,85,86,87,88,89,90,91,92,93,94,95,96,81,82,83,84,85,86,87,88,89,90,91,92,93,94,95,96,81,82,83,84,85,86,87,88,89,90,91,92,93,94,95,96,81,82,83,84,85,86,87,88,89,90,91,92,93,94,95,96,81,82,83,84,85,86,87,88,89,90,91,92,93,94,95,96,97,98,99,100,101,102,103,104,105,106,107,108,109,110,111,112,97,98,99,100,101,102,103,104,105,106,107,108,109,110,111,112,97,98,99,100,101,102,103,104,105,106,107,108,109,110,111,112,97,98,99,100,101,102,103,104,105,106,107,108,109,110,111,112,97,98,99,100,101,102,103,104,105,106,107,108,109,110,111,112,97,98,99,100,101,102,103,104,105,106,107,108,109,110,111,112,97,98,99,100,101,102,103,104,105,106,107,108,109,110,111,112,97,98,99,100,101,102,103,104,105,106,107,108,109,110,111,112,97,98,99,100,101,102,103,104,105,106,107,108,109,110,111,112,97,98,99,100,101,102,103,104,105,106,107,108,109,110,111,112,97,98,99,100,101,102,103,104,105,106,107,108,109,110,111,112,97,98,99,100,101,102,103,104,105,106,107,108,109,110,111,112,97,98,99,100,101,102,103,104,105,106,107,108,109,110,111,112,97,98,99,100,101,102,103,104,105,106,107,108,109,110,111,112,97,98,99,100,101,102,103,104,105,106,107,108,109,110,111,112,97,98,99,100,101,102,103,104,105,106,107,108,109,110,111,112,113,114,115,116,117,118,119,120,121,122,123,124,125,126,127,128,113,114,115,116,117,118,119,120,121,122,123,124,125,126,127,128,113,114,115,116,117,118,119,120,121,122,123,124,125,126,127,128,113,114,115,116,117,118,119,120,121,122,123,124,125,126,127,128,113,114,115,116,117,118,119,120,121,122,123,124,125,126,127,128,113,114,115,116,117,118,119,120,121,122,123,124,125,126,127,128,113,114,115,116,117,118,119,120,121,122,123,124,125,126,127,128,113,114,115,116,117,118,119,120,121,122,123,124,125,126,127,128,113,114,115,116,117,118,119,120,121,122,123,124,125,126,127,128,113,114,115,116,117,118,119,120,121,122,123,124,125,126,127,128,113,114,115,116,117,118,119,120,121,122,123,124,125,126,127,128,113,114,115,116,117,118,119,120,121,122,123,124,125,126,127,128,113,114,115,116,117,118,119,120,121,122,123,124,125,126,127,128,113,114,115,116,117,118,119,120,121,122,123,124,125,126,127,128,113,114,115,116,117,118,119,120,121,122,123,124,125,126,127,128,113,114,115,116,117,118,119,120,121,122,123,124,125,126,127,128,129,130,131,132,133,134,135,136,137,138,139,140,141,142,143,144,129,130,131,132,133,134,135,136,137,138,139,140,141,142,143,144,129,130,131,132,133,134,135,136,137,138,139,140,141,142,143,144,129,130,131,132,133,134,135,136,137,138,139,140,141,142,143,144,129,130,131,132,133,134,135,136,137,138,139,140,141,142,143,144,129,130,131,132,133,134,135,136,137,138,139,140,141,142,143,144,129,130,131,132,133,134,135,136,137,138,139,140,141,142,143,144,129,130,131,132,133,134,135,136,137,138,139,140,141,142,143,144,129,130,131,132,133,134,135,136,137,138,139,140,141,142,143,144,129,130,131,132,133,134,135,136,137,138,139,140,141,142,143,144,129,130,131,132,133,134,135,136,137,138,139,140,141,142,143,144,129,130,131,132,133,134,135,136,137,138,139,140,141,142,143,144,129,130,131,132,133,134,135,136,137,138,139,140,141,142,143,144,129,130,131,132,133,134,135,136,137,138,139,140,141,142,143,144,129,130,131,132,133,134,135,136,137,138,139,140,141,142,143,144,129,130,131,132,133,134,135,136,137,138,139,140,141,142,143,144,145,146,147,148,149,150,151,152,153,154,155,156,157,158,159,160,145,146,147,148,149,150,151,152,153,154,155,156,157,158,159,160,145,146,147,148,149,150,151,152,153,154,155,156,157,158,159,160,145,146,147,148,149,150,151,152,153,154,155,156,157,158,159,160,145,146,147,148,149,150,151,152,153,154,155,156,157,158,159,160,145,146,147,148,149,150,151,152,153,154,155,156,157,158,159,160,145,146,147,148,149,150,151,152,153,154,155,156,157,158,159,160,145,146,147,148,149,150,151,152,153,154,155,156,157,158,159,160,145,146,147,148,149,150,151,152,153,154,155,156,157,158,159,160,145,146,147,148,149,150,151,152,153,154,155,156,157,158,159,160,145,146,147,148,149,150,151,152,153,154,155,156,157,158,159,160,145,146,147,148,149,150,151,152,153,154,155,156,157,158,159,160,145,146,147,148,149,150,151,152,153,154,155,156,157,158,159,160,145,146,147,148,149,150,151,152,153,154,155,156,157,158,159,160,145,146,147,148,149,150,151,152,153,154,155,156,157,158,159,160,145,146,147,148,149,150,151,152,153,154,155,156,157,158,159,160,161,162,163,164,165,166,167,168,169,170,171,172,173,174,175,176,161,162,163,164,165,166,167,168,169,170,171,172,173,174,175,176,161,162,163,164,165,166,167,168,169,170,171,172,173,174,175,176,161,162,163,164,165,166,167,168,169,170,171,172,173,174,175,176,161,162,163,164,165,166,167,168,169,170,171,172,173,174,175,176,161,162,163,164,165,166,167,168,169,170,171,172,173,174,175,176,161,162,163,164,165,166,167,168,169,170,171,172,173,174,175,176,161,162,163,164,165,166,167,168,169,170,171,172,173,174,175,176,161,162,163,164,165,166,167,168,169,170,171,172,173,174,175,176,161,162,163,164,165,166,167,168,169,170,171,172,173,174,175,176,161,162,163,164,165,166,167,168,169,170,171,172,173,174,175,176,161,162,163,164,165,166,167,168,169,170,171,172,173,174,175,176,161,162,163,164,165,166,167,168,169,170,171,172,173,174,175,176,161,162,163,164,165,166,167,168,169,170,171,172,173,174,175,176,161,162,163,164,165,166,167,168,169,170,171,172,173,174,175,176,161,162,163,164,165,166,167,168,169,170,171,172,173,174,175,176,177,178,179,180,181,182,183,184,185,186,187,188,189,190,191,192,177,178,179,180,181,182,183,184,185,186,187,188,189,190,191,192,177,178,179,180,181,182,183,184,185,186,187,188,189,190,191,192,177,178,179,180,181,182,183,184,185,186,187,188,189,190,191,192,177,178,179,180,181,182,183,184,185,186,187,188,189,190,191,192,177,178,179,180,181,182,183,184,185,186,187,188,189,190,191,192,177,178,179,180,181,182,183,184,185,186,187,188,189,190,191,192,177,178,179,180,181,182,183,184,185,186,187,188,189,190,191,192,177,178,179,180,181,182,183,184,185,186,187,188,189,190,191,192,177,178,179,180,181,182,183,184,185,186,187,188,189,190,191,192,177,178,179,180,181,182,183,184,185,186,187,188,189,190,191,192,177,178,179,180,181,182,183,184,185,186,187,188,189,190,191,192,177,178,179,180,181,182,183,184,185,186,187,188,189,190,191,192,177,178,179,180,181,182,183,184,185,186,187,188,189,190,191,192,177,178,179,180,181,182,183,184,185,186,187,188,189,190,191,192,177,178,179,180,181,182,183,184,185,186,187,188,189,190,191,192,193,194,195,196,197,198,199,200,201,202,203,204,205,206,207,208,193,194,195,196,197,198,199,200,201,202,203,204,205,206,207,208,193,194,195,196,197,198,199,200,201,202,203,204,205,206,207,208,193,194,195,196,197,198,199,200,201,202,203,204,205,206,207,208,193,194,195,196,197,198,199,200,201,202,203,204,205,206,207,208,193,194,195,196,197,198,199,200,201,202,203,204,205,206,207,208,193,194,195,196,197,198,199,200,201,202,203,204,205,206,207,208,193,194,195,196,197,198,199,200,201,202,203,204,205,206,207,208,193,194,195,196,197,198,199,200,201,202,203,204,205,206,207,208,193,194,195,196,197,198,199,200,201,202,203,204,205,206,207,208,193,194,195,196,197,198,199,200,201,202,203,204,205,206,207,208,193,194,195,196,197,198,199,200,201,202,203,204,205,206,207,208,193,194,195,196,197,198,199,200,201,202,203,204,205,206,207,208,193,194,195,196,197,198,199,200,201,202,203,204,205,206,207,208,193,194,195,196,197,198,199,200,201,202,203,204,205,206,207,208,193,194,195,196,197,198,199,200,201,202,203,204,205,206,207,208,209,210,211,212,213,214,215,216,217,218,219,220,221,222,223,224,209,210,211,212,213,214,215,216,217,218,219,220,221,222,223,224,209,210,211,212,213,214,215,216,217,218,219,220,221,222,223,224,209,210,211,212,213,214,215,216,217,218,219,220,221,222,223,224,209,210,211,212,213,214,215,216,217,218,219,220,221,222,223,224,209,210,211,212,213,214,215,216,217,218,219,220,221,222,223,224,209,210,211,212,213,214,215,216,217,218,219,220,221,222,223,224,209,210,211,212,213,214,215,216,217,218,219,220,221,222,223,224,209,210,211,212,213,214,215,216,217,218,219,220,221,222,223,224,209,210,211,212,213,214,215,216,217,218,219,220,221,222,223,224,209,210,211,212,213,214,215,216,217,218,219,220,221,222,223,224,209,210,211,212,213,214,215,216,217,218,219,220,221,222,223,224,209,210,211,212,213,214,215,216,217,218,219,220,221,222,223,224,209,210,211,212,213,214,215,216,217,218,219,220,221,222,223,224,209,210,211,212,213,214,215,216,217,218,219,220,221,222,223,224,209,210,211,212,213,214,215,216,217,218,219,220,221,222,223,224,225,226,227,228,229,230,231,232,233,234,235,236,237,238,239,240,225,226,227,228,229,230,231,232,233,234,235,236,237,238,239,240,225,226,227,228,229,230,231,232,233,234,235,236,237,238,239,240,225,226,227,228,229,230,231,232,233,234,235,236,237,238,239,240,225,226,227,228,229,230,231,232,233,234,235,236,237,238,239,240,225,226,227,228,229,230,231,232,233,234,235,236,237,238,239,240,225,226,227,228,229,230,231,232,233,234,235,236,237,238,239,240,225,226,227,228,229,230,231,232,233,234,235,236,237,238,239,240,225,226,227,228,229,230,231,232,233,234,235,236,237,238,239,240,225,226,227,228,229,230,231,232,233,234,235,236,237,238,239,240,225,226,227,228,229,230,231,232,233,234,235,236,237,238,239,240,225,226,227,228,229,230,231,232,233,234,235,236,237,238,239,240,225,226,227,228,229,230,231,232,233,234,235,236,237,238,239,240,225,226,227,228,229,230,231,232,233,234,235,236,237,238,239,240,225,226,227,228,229,230,231,232,233,234,235,236,237,238,239,240,225,226,227,228,229,230,231,232,233,234,235,236,237,238,239,240,241,242,243,244,245,246,247,248,249,250,251,252,253,254,255,256,241,242,243,244,245,246,247,248,249,250,251,252,253,254,255,256,241,242,243,244,245,246,247,248,249,250,251,252,253,254,255,256,241,242,243,244,245,246,247,248,249,250,251,252,253,254,255,256,241,242,243,244,245,246,247,248,249,250,251,252,253,254,255,256,241,242,243,244,245,246,247,248,249,250,251,252,253,254,255,256,241,242,243,244,245,246,247,248,249,250,251,252,253,254,255,256,241,242,243,244,245,246,247,248,249,250,251,252,253,254,255,256,241,242,243,244,245,246,247,248,249,250,251,252,253,254,255,256,241,242,243,244,245,246,247,248,249,250,251,252,253,254,255,256,241,242,243,244,245,246,247,248,249,250,251,252,253,254,255,256,241,242,243,244,245,246,247,248,249,250,251,252,253,254,255,256,241,242,243,244,245,246,247,248,249,250,251,252,253,254,255,256,241,242,243,244,245,246,247,248,249,250,251,252,253,254,255,256,241,242,243,244,245,246,247,248,249,250,251,252,253,254,255,256,241,242,243,244,245,246,247,248,249,250,251,252,253,254,255,256,1,2,3,4,5,6,7,8,9,10,11,12,13,14,15,16,1,2,3,4,5,6,7,8,9,10,11,12,13,14,15,16,1,2,3,4,5,6,7,8,9,10,11,12,13,14,15,16,1,2,3,4,5,6,7,8,9,10,11,12,13,14,15,16,1,2,3,4,5,6,7,8,9,10,11,12,13,14,15,16,1,2,3,4,5,6,7,8,9,10,11,12,13,14,15,16,1,2,3,4,5,6,7,8,9,10,11,12,13,14,15,16,1,2,3,4,5,6,7,8,9,10,11,12,13,14,15,16,1,2,3,4,5,6,7,8,9,10,11,12,13,14,15,16,1,2,3,4,5,6,7,8,9,10,11,12,13,14,15,16,1,2,3,4,5,6,7,8,9,10,11,12,13,14,15,16,1,2,3,4,5,6,7,8,9,10,11,12,13,14,15,16,1,2,3,4,5,6,7,8,9,10,11,12,13,14,15,16,1,2,3,4,5,6,7,8,9,10,11,12,13,14,15,16,1,2,3,4,5,6,7,8,9,10,11,12,13,14,15,16,1,2,3,4,5,6,7,8,9,10,11,12,13,14,15,16,17,18,19,20,21,22,23,24,25,26,27,28,29,30,31,32,17,18,19,20,21,22,23,24,25,26,27,28,29,30,31,32,17,18,19,20,21,22,23,24,25,26,27,28,29,30,31,32,17,18,19,20,21,22,23,24,25,26,27,28,29,30,31,32,17,18,19,20,21,22,23,24,25,26,27,28,29,30,31,32,17,18,19,20,21,22,23,24,25,26,27,28,29,30,31,32,17,18,19,20,21,22,23,24,25,26,27,28,29,30,31,32,17,18,19,20,21,22,23,24,25,26,27,28,29,30,31,32,17,18,19,20,21,22,23,24,25,26,27,28,29,30,31,32,17,18,19,20,21,22,23,24,25,26,27,28,29,30,31,32,17,18,19,20,21,22,23,24,25,26,27,28,29,30,31,32,17,18,19,20,21,22,23,24,25,26,27,28,29,30,31,32,17,18,19,20,21,22,23,24,25,26,27,28,29,30,31,32,17,18,19,20,21,22,23,24,25,26,27,28,29,30,31,32,17,18,19,20,21,22,23,24,25,26,27,28,29,30,31,32,17,18,19,20,21,22,23,24,25,26,27,28,29,30,31,32,33,34,35,36,37,38,39,40,41,42,43,44,45,46,47,48,33,34,35,36,37,38,39,40,41,42,43,44,45,46,47,48,33,34,35,36,37,38,39,40,41,42,43,44,45,46,47,48,33,34,35,36,37,38,39,40,41,42,43,44,45,46,47,48,33,34,35,36,37,38,39,40,41,42,43,44,45,46,47,48,33,34,35,36,37,38,39,40,41,42,43,44,45,46,47,48,33,34,35,36,37,38,39,40,41,42,43,44,45,46,47,48,33,34,35,36,37,38,39,40,41,42,43,44,45,46,47,48,33,34,35,36,37,38,39,40,41,42,43,44,45,46,47,48,33,34,35,36,37,38,39,40,41,42,43,44,45,46,47,48,33,34,35,36,37,38,39,40,41,42,43,44,45,46,47,48,33,34,35,36,37,38,39,40,41,42,43,44,45,46,47,48,33,34,35,36,37,38,39,40,41,42,43,44,45,46,47,48,33,34,35,36,37,38,39,40,41,42,43,44,45,46,47,48,33,34,35,36,37,38,39,40,41,42,43,44,45,46,47,48,33,34,35,36,37,38,39,40,41,42,43,44,45,46,47,48,49,50,51,52,53,54,55,56,57,58,59,60,61,62,63,64,49,50,51,52,53,54,55,56,57,58,59,60,61,62,63,64,49,50,51,52,53,54,55,56,57,58,59,60,61,62,63,64,49,50,51,52,53,54,55,56,57,58,59,60,61,62,63,64,49,50,51,52,53,54,55,56,57,58,59,60,61,62,63,64,49,50,51,52,53,54,55,56,57,58,59,60,61,62,63,64,49,50,51,52,53,54,55,56,57,58,59,60,61,62,63,64,49,50,51,52,53,54,55,56,57,58,59,60,61,62,63,64,49,50,51,52,53,54,55,56,57,58,59,60,61,62,63,64,49,50,51,52,53,54,55,56,57,58,59,60,61,62,63,64,49,50,51,52,53,54,55,56,57,58,59,60,61,62,63,64,49,50,51,52,53,54,55,56,57,58,59,60,61,62,63,64,49,50,51,52,53,54,55,56,57,58,59,60,61,62,63,64,49,50,51,52,53,54,55,56,57,58,59,60,61,62,63,64,49,50,51,52,53,54,55,56,57,58,59,60,61,62,63,64,49,50,51,52,53,54,55,56,57,58,59,60,61,62,63,64,65,66,67,68,69,70,71,72,73,74,75,76,77,78,79,80,65,66,67,68,69,70,71,72,73,74,75,76,77,78,79,80,65,66,67,68,69,70,71,72,73,74,75,76,77,78,79,80,65,66,67,68,69,70,71,72,73,74,75,76,77,78,79,80,65,66,67,68,69,70,71,72,73,74,75,76,77,78,79,80,65,66,67,68,69,70,71,72,73,74,75,76,77,78,79,80,65,66,67,68,69,70,71,72,73,74,75,76,77,78,79,80,65,66,67,68,69,70,71,72,73,74,75,76,77,78,79,80,65,66,67,68,69,70,71,72,73,74,75,76,77,78,79,80,65,66,67,68,69,70,71,72,73,74,75,76,77,78,79,80,65,66,67,68,69,70,71,72,73,74,75,76,77,78,79,80,65,66,67,68,69,70,71,72,73,74,75,76,77,78,79,80,65,66,67,68,69,70,71,72,73,74,75,76,77,78,79,80,65,66,67,68,69,70,71,72,73,74,75,76,77,78,79,80,65,66,67,68,69,70,71,72,73,74,75,76,77,78,79,80,65,66,67,68,69,70,71,72,73,74,75,76,77,78,79,80,81,82,83,84,85,86,87,88,89,90,91,92,93,94,95,96,81,82,83,84,85,86,87,88,89,90,91,92,93,94,95,96,81,82,83,84,85,86,87,88,89,90,91,92,93,94,95,96,81,82,83,84,85,86,87,88,89,90,91,92,93,94,95,96,81,82,83,84,85,86,87,88,89,90,91,92,93,94,95,96,81,82,83,84,85,86,87,88,89,90,91,92,93,94,95,96,81,82,83,84,85,86,87,88,89,90,91,92,93,94,95,96,81,82,83,84,85,86,87,88,89,90,91,92,93,94,95,96,81,82,83,84,85,86,87,88,89,90,91,92,93,94,95,96,81,82,83,84,85,86,87,88,89,90,91,92,93,94,95,96,81,82,83,84,85,86,87,88,89,90,91,92,93,94,95,96,81,82,83,84,85,86,87,88,89,90,91,92,93,94,95,96,81,82,83,84,85,86,87,88,89,90,91,92,93,94,95,96,81,82,83,84,85,86,87,88,89,90,91,92,93,94,95,96,81,82,83,84,85,86,87,88,89,90,91,92,93,94,95,96,81,82,83,84,85,86,87,88,89,90,91,92,93,94,95,96,97,98,99,100,101,102,103,104,105,106,107,108,109,110,111,112,97,98,99,100,101,102,103,104,105,106,107,108,109,110,111,112,97,98,99,100,101,102,103,104,105,106,107,108,109,110,111,112,97,98,99,100,101,102,103,104,105,106,107,108,109,110,111,112,97,98,99,100,101,102,103,104,105,106,107,108,109,110,111,112,97,98,99,100,101,102,103,104,105,106,107,108,109,110,111,112,97,98,99,100,101,102,103,104,105,106,107,108,109,110,111,112,97,98,99,100,101,102,103,104,105,106,107,108,109,110,111,112,97,98,99,100,101,102,103,104,105,106,107,108,109,110,111,112,97,98,99,100,101,102,103,104,105,106,107,108,109,110,111,112,97,98,99,100,101,102,103,104,105,106,107,108,109,110,111,112,97,98,99,100,101,102,103,104,105,106,107,108,109,110,111,112,97,98,99,100,101,102,103,104,105,106,107,108,109,110,111,112,97,98,99,100,101,102,103,104,105,106,107,108,109,110,111,112,97,98,99,100,101,102,103,104,105,106,107,108,109,110,111,112,97,98,99,100,101,102,103,104,105,106,107,108,109,110,111,112,113,114,115,116,117,118,119,120,121,122,123,124,125,126,127,128,113,114,115,116,117,118,119,120,121,122,123,124,125,126,127,128,113,114,115,116,117,118,119,120,121,122,123,124,125,126,127,128,113,114,115,116,117,118,119,120,121,122,123,124,125,126,127,128,113,114,115,116,117,118,119,120,121,122,123,124,125,126,127,128,113,114,115,116,117,118,119,120,121,122,123,124,125,126,127,128,113,114,115,116,117,118,119,120,121,122,123,124,125,126,127,128,113,114,115,116,117,118,119,120,121,122,123,124,125,126,127,128,113,114,115,116,117,118,119,120,121,122,123,124,125,126,127,128,113,114,115,116,117,118,119,120,121,122,123,124,125,126,127,128,113,114,115,116,117,118,119,120,121,122,123,124,125,126,127,128,113,114,115,116,117,118,119,120,121,122,123,124,125,126,127,128,113,114,115,116,117,118,119,120,121,122,123,124,125,126,127,128,113,114,115,116,117,118,119,120,121,122,123,124,125,126,127,128,113,114,115,116,117,118,119,120,121,122,123,124,125,126,127,128,113,114,115,116,117,118,119,120,121,122,123,124,125,126,127,128,129,130,131,132,133,134,135,136,137,138,139,140,141,142,143,144,129,130,131,132,133,134,135,136,137,138,139,140,141,142,143,144,129,130,131,132,133,134,135,136,137,138,139,140,141,142,143,144,129,130,131,132,133,134,135,136,137,138,139,140,141,142,143,144,129,130,131,132,133,134,135,136,137,138,139,140,141,142,143,144,129,130,131,132,133,134,135,136,137,138,139,140,141,142,143,144,129,130,131,132,133,134,135,136,137,138,139,140,141,142,143,144,129,130,131,132,133,134,135,136,137,138,139,140,141,142,143,144,129,130,131,132,133,134,135,136,137,138,139,140,141,142,143,144,129,130,131,132,133,134,135,136,137,138,139,140,141,142,143,144,129,130,131,132,133,134,135,136,137,138,139,140,141,142,143,144,129,130,131,132,133,134,135,136,137,138,139,140,141,142,143,144,129,130,131,132,133,134,135,136,137,138,139,140,141,142,143,144,129,130,131,132,133,134,135,136,137,138,139,140,141,142,143,144,129,130,131,132,133,134,135,136,137,138,139,140,141,142,143,144,129,130,131,132,133,134,135,136,137,138,139,140,141,142,143,144,145,146,147,148,149,150,151,152,153,154,155,156,157,158,159,160,145,146,147,148,149,150,151,152,153,154,155,156,157,158,159,160,145,146,147,148,149,150,151,152,153,154,155,156,157,158,159,160,145,146,147,148,149,150,151,152,153,154,155,156,157,158,159,160,145,146,147,148,149,150,151,152,153,154,155,156,157,158,159,160,145,146,147,148,149,150,151,152,153,154,155,156,157,158,159,160,145,146,147,148,149,150,151,152,153,154,155,156,157,158,159,160,145,146,147,148,149,150,151,152,153,154,155,156,157,158,159,160,145,146,147,148,149,150,151,152,153,154,155,156,157,158,159,160,145,146,147,148,149,150,151,152,153,154,155,156,157,158,159,160,145,146,147,148,149,150,151,152,153,154,155,156,157,158,159,160,145,146,147,148,149,150,151,152,153,154,155,156,157,158,159,160,145,146,147,148,149,150,151,152,153,154,155,156,157,158,159,160,145,146,147,148,149,150,151,152,153,154,155,156,157,158,159,160,145,146,147,148,149,150,151,152,153,154,155,156,157,158,159,160,145,146,147,148,149,150,151,152,153,154,155,156,157,158,159,160,161,162,163,164,165,166,167,168,169,170,171,172,173,174,175,176,161,162,163,164,165,166,167,168,169,170,171,172,173,174,175,176,161,162,163,164,165,166,167,168,169,170,171,172,173,174,175,176,161,162,163,164,165,166,167,168,169,170,171,172,173,174,175,176,161,162,163,164,165,166,167,168,169,170,171,172,173,174,175,176,161,162,163,164,165,166,167,168,169,170,171,172,173,174,175,176,161,162,163,164,165,166,167,168,169,170,171,172,173,174,175,176,161,162,163,164,165,166,167,168,169,170,171,172,173,174,175,176,161,162,163,164,165,166,167,168,169,170,171,172,173,174,175,176,161,162,163,164,165,166,167,168,169,170,171,172,173,174,175,176,161,162,163,164,165,166,167,168,169,170,171,172,173,174,175,176,161,162,163,164,165,166,167,168,169,170,171,172,173,174,175,176,161,162,163,164,165,166,167,168,169,170,171,172,173,174,175,176,161,162,163,164,165,166,167,168,169,170,171,172,173,174,175,176,161,162,163,164,165,166,167,168,169,170,171,172,173,174,175,176,161,162,163,164,165,166,167,168,169,170,171,172,173,174,175,176,177,178,179,180,181,182,183,184,185,186,187,188,189,190,191,192,177,178,179,180,181,182,183,184,185,186,187,188,189,190,191,192,177,178,179,180,181,182,183,184,185,186,187,188,189,190,191,192,177,178,179,180,181,182,183,184,185,186,187,188,189,190,191,192,177,178,179,180,181,182,183,184,185,186,187,188,189,190,191,192,177,178,179,180,181,182,183,184,185,186,187,188,189,190,191,192,177,178,179,180,181,182,183,184,185,186,187,188,189,190,191,192,177,178,179,180,181,182,183,184,185,186,187,188,189,190,191,192,177,178,179,180,181,182,183,184,185,186,187,188,189,190,191,192,177,178,179,180,181,182,183,184,185,186,187,188,189,190,191,192,177,178,179,180,181,182,183,184,185,186,187,188,189,190,191,192,177,178,179,180,181,182,183,184,185,186,187,188,189,190,191,192,177,178,179,180,181,182,183,184,185,186,187,188,189,190,191,192,177,178,179,180,181,182,183,184,185,186,187,188,189,190,191,192,177,178,179,180,181,182,183,184,185,186,187,188,189,190,191,192,177,178,179,180,181,182,183,184,185,186,187,188,189,190,191,192,193,194,195,196,197,198,199,200,201,202,203,204,205,206,207,208,193,194,195,196,197,198,199,200,201,202,203,204,205,206,207,208,193,194,195,196,197,198,199,200,201,202,203,204,205,206,207,208,193,194,195,196,197,198,199,200,201,202,203,204,205,206,207,208,193,194,195,196,197,198,199,200,201,202,203,204,205,206,207,208,193,194,195,196,197,198,199,200,201,202,203,204,205,206,207,208,193,194,195,196,197,198,199,200,201,202,203,204,205,206,207,208,193,194,195,196,197,198,199,200,201,202,203,204,205,206,207,208,193,194,195,196,197,198,199,200,201,202,203,204,205,206,207,208,193,194,195,196,197,198,199,200,201,202,203,204,205,206,207,208,193,194,195,196,197,198,199,200,201,202,203,204,205,206,207,208,193,194,195,196,197,198,199,200,201,202,203,204,205,206,207,208,193,194,195,196,197,198,199,200,201,202,203,204,205,206,207,208,193,194,195,196,197,198,199,200,201,202,203,204,205,206,207,208,193,194,195,196,197,198,199,200,201,202,203,204,205,206,207,208,193,194,195,196,197,198,199,200,201,202,203,204,205,206,207,208,209,210,211,212,213,214,215,216,217,218,219,220,221,222,223,224,209,210,211,212,213,214,215,216,217,218,219,220,221,222,223,224,209,210,211,212,213,214,215,216,217,218,219,220,221,222,223,224,209,210,211,212,213,214,215,216,217,218,219,220,221,222,223,224,209,210,211,212,213,214,215,216,217,218,219,220,221,222,223,224,209,210,211,212,213,214,215,216,217,218,219,220,221,222,223,224,209,210,211,212,213,214,215,216,217,218,219,220,221,222,223,224,209,210,211,212,213,214,215,216,217,218,219,220,221,222,223,224,209,210,211,212,213,214,215,216,217,218,219,220,221,222,223,224,209,210,211,212,213,214,215,216,217,218,219,220,221,222,223,224,209,210,211,212,213,214,215,216,217,218,219,220,221,222,223,224,209,210,211,212,213,214,215,216,217,218,219,220,221,222,223,224,209,210,211,212,213,214,215,216,217,218,219,220,221,222,223,224,209,210,211,212,213,214,215,216,217,218,219,220,221,222,223,224,209,210,211,212,213,214,215,216,217,218,219,220,221,222,223,224,209,210,211,212,213,214,215,216,217,218,219,220,221,222,223,224,225,226,227,228,229,230,231,232,233,234,235,236,237,238,239,240,225,226,227,228,229,230,231,232,233,234,235,236,237,238,239,240,225,226,227,228,229,230,231,232,233,234,235,236,237,238,239,240,225,226,227,228,229,230,231,232,233,234,235,236,237,238,239,240,225,226,227,228,229,230,231,232,233,234,235,236,237,238,239,240,225,226,227,228,229,230,231,232,233,234,235,236,237,238,239,240,225,226,227,228,229,230,231,232,233,234,235,236,237,238,239,240,225,226,227,228,229,230,231,232,233,234,235,236,237,238,239,240,225,226,227,228,229,230,231,232,233,234,235,236,237,238,239,240,225,226,227,228,229,230,231,232,233,234,235,236,237,238,239,240,225,226,227,228,229,230,231,232,233,234,235,236,237,238,239,240,225,226,227,228,229,230,231,232,233,234,235,236,237,238,239,240,225,226,227,228,229,230,231,232,233,234,235,236,237,238,239,240,225,226,227,228,229,230,231,232,233,234,235,236,237,238,239,240,225,226,227,228,229,230,231,232,233,234,235,236,237,238,239,240,225,226,227,228,229,230,231,232,233,234,235,236,237,238,239,240,241,242,243,244,245,246,247,248,249,250,251,252,253,254,255,256,241,242,243,244,245,246,247,248,249,250,251,252,253,254,255,256,241,242,243,244,245,246,247,248,249,250,251,252,253,254,255,256,241,242,243,244,245,246,247,248,249,250,251,252,253,254,255,256,241,242,243,244,245,246,247,248,249,250,251,252,253,254,255,256,241,242,243,244,245,246,247,248,249,250,251,252,253,254,255,256,241,242,243,244,245,246,247,248,249,250,251,252,253,254,255,256,241,242,243,244,245,246,247,248,249,250,251,252,253,254,255,256,241,242,243,244,245,246,247,248,249,250,251,252,253,254,255,256,241,242,243,244,245,246,247,248,249,250,251,252,253,254,255,256,241,242,243,244,245,246,247,248,249,250,251,252,253,254,255,256,241,242,243,244,245,246,247,248,249,250,251,252,253,254,255,256,241,242,243,244,245,246,247,248,249,250,251,252,253,254,255,256,241,242,243,244,245,246,247,248,249,250,251,252,253,254,255,256,241,242,243,244,245,246,247,248,249,250,251,252,253,254,255,256,241,242,243,244,245,246,247,248,249,250,251,252,253,254,255,256,1,2,3,4,5,6,7,8,9,10,11,12,13,14,15,16,1,2,3,4,5,6,7,8,9,10,11,12,13,14,15,16,1,2,3,4,5,6,7,8,9,10,11,12,13,14,15,16,1,2,3,4,5,6,7,8,9,10,11,12,13,14,15,16,1,2,3,4,5,6,7,8,9,10,11,12,13,14,15,16,1,2,3,4,5,6,7,8,9,10,11,12,13,14,15,16,1,2,3,4,5,6,7,8,9,10,11,12,13,14,15,16,1,2,3,4,5,6,7,8,9,10,11,12,13,14,15,16,1,2,3,4,5,6,7,8,9,10,11,12,13,14,15,16,1,2,3,4,5,6,7,8,9,10,11,12,13,14,15,16,1,2,3,4,5,6,7,8,9,10,11,12,13,14,15,16,1,2,3,4,5,6,7,8,9,10,11,12,13,14,15,16,1,2,3,4,5,6,7,8,9,10,11,12,13,14,15,16,1,2,3,4,5,6,7,8,9,10,11,12,13,14,15,16,1,2,3,4,5,6,7,8,9,10,11,12,13,14,15,16,1,2,3,4,5,6,7,8,9,10,11,12,13,14,15,16,17,18,19,20,21,22,23,24,25,26,27,28,29,30,31,32,17,18,19,20,21,22,23,24,25,26,27,28,29,30,31,32,17,18,19,20,21,22,23,24,25,26,27,28,29,30,31,32,17,18,19,20,21,22,23,24,25,26,27,28,29,30,31,32,17,18,19,20,21,22,23,24,25,26,27,28,29,30,31,32,17,18,19,20,21,22,23,24,25,26,27,28,29,30,31,32,17,18,19,20,21,22,23,24,25,26,27,28,29,30,31,32,17,18,19,20,21,22,23,24,25,26,27,28,29,30,31,32,17,18,19,20,21,22,23,24,25,26,27,28,29,30,31,32,17,18,19,20,21,22,23,24,25,26,27,28,29,30,31,32,17,18,19,20,21,22,23,24,25,26,27,28,29,30,31,32,17,18,19,20,21,22,23,24,25,26,27,28,29,30,31,32,17,18,19,20,21,22,23,24,25,26,27,28,29,30,31,32,17,18,19,20,21,22,23,24,25,26,27,28,29,30,31,32,17,18,19,20,21,22,23,24,25,26,27,28,29,30,31,32,17,18,19,20,21,22,23,24,25,26,27,28,29,30,31,32,33,34,35,36,37,38,39,40,41,42,43,44,45,46,47,48,33,34,35,36,37,38,39,40,41,42,43,44,45,46,47,48,33,34,35,36,37,38,39,40,41,42,43,44,45,46,47,48,33,34,35,36,37,38,39,40,41,42,43,44,45,46,47,48,33,34,35,36,37,38,39,40,41,42,43,44,45,46,47,48,33,34,35,36,37,38,39,40,41,42,43,44,45,46,47,48,33,34,35,36,37,38,39,40,41,42,43,44,45,46,47,48,33,34,35,36,37,38,39,40,41,42,43,44,45,46,47,48,33,34,35,36,37,38,39,40,41,42,43,44,45,46,47,48,33,34,35,36,37,38,39,40,41,42,43,44,45,46,47,48,33,34,35,36,37,38,39,40,41,42,43,44,45,46,47,48,33,34,35,36,37,38,39,40,41,42,43,44,45,46,47,48,33,34,35,36,37,38,39,40,41,42,43,44,45,46,47,48,33,34,35,36,37,38,39,40,41,42,43,44,45,46,47,48,33,34,35,36,37,38,39,40,41,42,43,44,45,46,47,48,33,34,35,36,37,38,39,40,41,42,43,44,45,46,47,48,49,50,51,52,53,54,55,56,57,58,59,60,61,62,63,64,49,50,51,52,53,54,55,56,57,58,59,60,61,62,63,64,49,50,51,52,53,54,55,56,57,58,59,60,61,62,63,64,49,50,51,52,53,54,55,56,57,58,59,60,61,62,63,64,49,50,51,52,53,54,55,56,57,58,59,60,61,62,63,64,49,50,51,52,53,54,55,56,57,58,59,60,61,62,63,64,49,50,51,52,53,54,55,56,57,58,59,60,61,62,63,64,49,50,51,52,53,54,55,56,57,58,59,60,61,62,63,64,49,50,51,52,53,54,55,56,57,58,59,60,61,62,63,64,49,50,51,52,53,54,55,56,57,58,59,60,61,62,63,64,49,50,51,52,53,54,55,56,57,58,59,60,61,62,63,64,49,50,51,52,53,54,55,56,57,58,59,60,61,62,63,64,49,50,51,52,53,54,55,56,57,58,59,60,61,62,63,64,49,50,51,52,53,54,55,56,57,58,59,60,61,62,63,64,49,50,51,52,53,54,55,56,57,58,59,60,61,62,63,64,49,50,51,52,53,54,55,56,57,58,59,60,61,62,63,64,65,66,67,68,69,70,71,72,73,74,75,76,77,78,79,80,65,66,67,68,69,70,71,72,73,74,75,76,77,78,79,80,65,66,67,68,69,70,71,72,73,74,75,76,77,78,79,80,65,66,67,68,69,70,71,72,73,74,75,76,77,78,79,80,65,66,67,68,69,70,71,72,73,74,75,76,77,78,79,80,65,66,67,68,69,70,71,72,73,74,75,76,77,78,79,80,65,66,67,68,69,70,71,72,73,74,75,76,77,78,79,80,65,66,67,68,69,70,71,72,73,74,75,76,77,78,79,80,65,66,67,68,69,70,71,72,73,74,75,76,77,78,79,80,65,66,67,68,69,70,71,72,73,74,75,76,77,78,79,80,65,66,67,68,69,70,71,72,73,74,75,76,77,78,79,80,65,66,67,68,69,70,71,72,73,74,75,76,77,78,79,80,65,66,67,68,69,70,71,72,73,74,75,76,77,78,79,80,65,66,67,68,69,70,71,72,73,74,75,76,77,78,79,80,65,66,67,68,69,70,71,72,73,74,75,76,77,78,79,80,65,66,67,68,69,70,71,72,73,74,75,76,77,78,79,80,81,82,83,84,85,86,87,88,89,90,91,92,93,94,95,96,81,82,83,84,85,86,87,88,89,90,91,92,93,94,95,96,81,82,83,84,85,86,87,88,89,90,91,92,93,94,95,96,81,82,83,84,85,86,87,88,89,90,91,92,93,94,95,96,81,82,83,84,85,86,87,88,89,90,91,92,93,94,95,96,81,82,83,84,85,86,87,88,89,90,91,92,93,94,95,96,81,82,83,84,85,86,87,88,89,90,91,92,93,94,95,96,81,82,83,84,85,86,87,88,89,90,91,92,93,94,95,96,81,82,83,84,85,86,87,88,89,90,91,92,93,94,95,96,81,82,83,84,85,86,87,88,89,90,91,92,93,94,95,96,81,82,83,84,85,86,87,88,89,90,91,92,93,94,95,96,81,82,83,84,85,86,87,88,89,90,91,92,93,94,95,96,81,82,83,84,85,86,87,88,89,90,91,92,93,94,95,96,81,82,83,84,85,86,87,88,89,90,91,92,93,94,95,96,81,82,83,84,85,86,87,88,89,90,91,92,93,94,95,96,81,82,83,84,85,86,87,88,89,90,91,92,93,94,95,96,97,98,99,100,101,102,103,104,105,106,107,108,109,110,111,112,97,98,99,100,101,102,103,104,105,106,107,108,109,110,111,112,97,98,99,100,101,102,103,104,105,106,107,108,109,110,111,112,97,98,99,100,101,102,103,104,105,106,107,108,109,110,111,112,97,98,99,100,101,102,103,104,105,106,107,108,109,110,111,112,97,98,99,100,101,102,103,104,105,106,107,108,109,110,111,112,97,98,99,100,101,102,103,104,105,106,107,108,109,110,111,112,97,98,99,100,101,102,103,104,105,106,107,108,109,110,111,112,97,98,99,100,101,102,103,104,105,106,107,108,109,110,111,112,97,98,99,100,101,102,103,104,105,106,107,108,109,110,111,112,97,98,99,100,101,102,103,104,105,106,107,108,109,110,111,112,97,98,99,100,101,102,103,104,105,106,107,108,109,110,111,112,97,98,99,100,101,102,103,104,105,106,107,108,109,110,111,112,97,98,99,100,101,102,103,104,105,106,107,108,109,110,111,112,97,98,99,100,101,102,103,104,105,106,107,108,109,110,111,112,97,98,99,100,101,102,103,104,105,106,107,108,109,110,111,112,113,114,115,116,117,118,119,120,121,122,123,124,125,126,127,128,113,114,115,116,117,118,119,120,121,122,123,124,125,126,127,128,113,114,115,116,117,118,119,120,121,122,123,124,125,126,127,128,113,114,115,116,117,118,119,120,121,122,123,124,125,126,127,128,113,114,115,116,117,118,119,120,121,122,123,124,125,126,127,128,113,114,115,116,117,118,119,120,121,122,123,124,125,126,127,128,113,114,115,116,117,118,119,120,121,122,123,124,125,126,127,128,113,114,115,116,117,118,119,120,121,122,123,124,125,126,127,128,113,114,115,116,117,118,119,120,121,122,123,124,125,126,127,128,113,114,115,116,117,118,119,120,121,122,123,124,125,126,127,128,113,114,115,116,117,118,119,120,121,122,123,124,125,126,127,128,113,114,115,116,117,118,119,120,121,122,123,124,125,126,127,128,113,114,115,116,117,118,119,120,121,122,123,124,125,126,127,128,113,114,115,116,117,118,119,120,121,122,123,124,125,126,127,128,113,114,115,116,117,118,119,120,121,122,123,124,125,126,127,128,113,114,115,116,117,118,119,120,121,122,123,124,125,126,127,128,129,130,131,132,133,134,135,136,137,138,139,140,141,142,143,144,129,130,131,132,133,134,135,136,137,138,139,140,141,142,143,144,129,130,131,132,133,134,135,136,137,138,139,140,141,142,143,144,129,130,131,132,133,134,135,136,137,138,139,140,141,142,143,144,129,130,131,132,133,134,135,136,137,138,139,140,141,142,143,144,129,130,131,132,133,134,135,136,137,138,139,140,141,142,143,144,129,130,131,132,133,134,135,136,137,138,139,140,141,142,143,144,129,130,131,132,133,134,135,136,137,138,139,140,141,142,143,144,129,130,131,132,133,134,135,136,137,138,139,140,141,142,143,144,129,130,131,132,133,134,135,136,137,138,139,140,141,142,143,144,129,130,131,132,133,134,135,136,137,138,139,140,141,142,143,144,129,130,131,132,133,134,135,136,137,138,139,140,141,142,143,144,129,130,131,132,133,134,135,136,137,138,139,140,141,142,143,144,129,130,131,132,133,134,135,136,137,138,139,140,141,142,143,144,129,130,131,132,133,134,135,136,137,138,139,140,141,142,143,144,129,130,131,132,133,134,135,136,137,138,139,140,141,142,143,144,145,146,147,148,149,150,151,152,153,154,155,156,157,158,159,160,145,146,147,148,149,150,151,152,153,154,155,156,157,158,159,160,145,146,147,148,149,150,151,152,153,154,155,156,157,158,159,160,145,146,147,148,149,150,151,152,153,154,155,156,157,158,159,160,145,146,147,148,149,150,151,152,153,154,155,156,157,158,159,160,145,146,147,148,149,150,151,152,153,154,155,156,157,158,159,160,145,146,147,148,149,150,151,152,153,154,155,156,157,158,159,160,145,146,147,148,149,150,151,152,153,154,155,156,157,158,159,160,145,146,147,148,149,150,151,152,153,154,155,156,157,158,159,160,145,146,147,148,149,150,151,152,153,154,155,156,157,158,159,160,145,146,147,148,149,150,151,152,153,154,155,156,157,158,159,160,145,146,147,148,149,150,151,152,153,154,155,156,157,158,159,160,145,146,147,148,149,150,151,152,153,154,155,156,157,158,159,160,145,146,147,148,149,150,151,152,153,154,155,156,157,158,159,160,145,146,147,148,149,150,151,152,153,154,155,156,157,158,159,160,145,146,147,148,149,150,151,152,153,154,155,156,157,158,159,160,161,162,163,164,165,166,167,168,169,170,171,172,173,174,175,176,161,162,163,164,165,166,167,168,169,170,171,172,173,174,175,176,161,162,163,164,165,166,167,168,169,170,171,172,173,174,175,176,161,162,163,164,165,166,167,168,169,170,171,172,173,174,175,176,161,162,163,164,165,166,167,168,169,170,171,172,173,174,175,176,161,162,163,164,165,166,167,168,169,170,171,172,173,174,175,176,161,162,163,164,165,166,167,168,169,170,171,172,173,174,175,176,161,162,163,164,165,166,167,168,169,170,171,172,173,174,175,176,161,162,163,164,165,166,167,168,169,170,171,172,173,174,175,176,161,162,163,164,165,166,167,168,169,170,171,172,173,174,175,176,161,162,163,164,165,166,167,168,169,170,171,172,173,174,175,176,161,162,163,164,165,166,167,168,169,170,171,172,173,174,175,176,161,162,163,164,165,166,167,168,169,170,171,172,173,174,175,176,161,162,163,164,165,166,167,168,169,170,171,172,173,174,175,176,161,162,163,164,165,166,167,168,169,170,171,172,173,174,175,176,161,162,163,164,165,166,167,168,169,170,171,172,173,174,175,176,177,178,179,180,181,182,183,184,185,186,187,188,189,190,191,192,177,178,179,180,181,182,183,184,185,186,187,188,189,190,191,192,177,178,179,180,181,182,183,184,185,186,187,188,189,190,191,192,177,178,179,180,181,182,183,184,185,186,187,188,189,190,191,192,177,178,179,180,181,182,183,184,185,186,187,188,189,190,191,192,177,178,179,180,181,182,183,184,185,186,187,188,189,190,191,192,177,178,179,180,181,182,183,184,185,186,187,188,189,190,191,192,177,178,179,180,181,182,183,184,185,186,187,188,189,190,191,192,177,178,179,180,181,182,183,184,185,186,187,188,189,190,191,192,177,178,179,180,181,182,183,184,185,186,187,188,189,190,191,192,177,178,179,180,181,182,183,184,185,186,187,188,189,190,191,192,177,178,179,180,181,182,183,184,185,186,187,188,189,190,191,192,177,178,179,180,181,182,183,184,185,186,187,188,189,190,191,192,177,178,179,180,181,182,183,184,185,186,187,188,189,190,191,192,177,178,179,180,181,182,183,184,185,186,187,188,189,190,191,192,177,178,179,180,181,182,183,184,185,186,187,188,189,190,191,192,193,194,195,196,197,198,199,200,201,202,203,204,205,206,207,208,193,194,195,196,197,198,199,200,201,202,203,204,205,206,207,208,193,194,195,196,197,198,199,200,201,202,203,204,205,206,207,208,193,194,195,196,197,198,199,200,201,202,203,204,205,206,207,208,193,194,195,196,197,198,199,200,201,202,203,204,205,206,207,208,193,194,195,196,197,198,199,200,201,202,203,204,205,206,207,208,193,194,195,196,197,198,199,200,201,202,203,204,205,206,207,208,193,194,195,196,197,198,199,200,201,202,203,204,205,206,207,208,193,194,195,196,197,198,199,200,201,202,203,204,205,206,207,208,193,194,195,196,197,198,199,200,201,202,203,204,205,206,207,208,193,194,195,196,197,198,199,200,201,202,203,204,205,206,207,208,193,194,195,196,197,198,199,200,201,202,203,204,205,206,207,208,193,194,195,196,197,198,199,200,201,202,203,204,205,206,207,208,193,194,195,196,197,198,199,200,201,202,203,204,205,206,207,208,193,194,195,196,197,198,199,200,201,202,203,204,205,206,207,208,193,194,195,196,197,198,199,200,201,202,203,204,205,206,207,208,209,210,211,212,213,214,215,216,217,218,219,220,221,222,223,224,209,210,211,212,213,214,215,216,217,218,219,220,221,222,223,224,209,210,211,212,213,214,215,216,217,218,219,220,221,222,223,224,209,210,211,212,213,214,215,216,217,218,219,220,221,222,223,224,209,210,211,212,213,214,215,216,217,218,219,220,221,222,223,224,209,210,211,212,213,214,215,216,217,218,219,220,221,222,223,224,209,210,211,212,213,214,215,216,217,218,219,220,221,222,223,224,209,210,211,212,213,214,215,216,217,218,219,220,221,222,223,224,209,210,211,212,213,214,215,216,217,218,219,220,221,222,223,224,209,210,211,212,213,214,215,216,217,218,219,220,221,222,223,224,209,210,211,212,213,214,215,216,217,218,219,220,221,222,223,224,209,210,211,212,213,214,215,216,217,218,219,220,221,222,223,224,209,210,211,212,213,214,215,216,217,218,219,220,221,222,223,224,209,210,211,212,213,214,215,216,217,218,219,220,221,222,223,224,209,210,211,212,213,214,215,216,217,218,219,220,221,222,223,224,209,210,211,212,213,214,215,216,217,218,219,220,221,222,223,224,225,226,227,228,229,230,231,232,233,234,235,236,237,238,239,240,225,226,227,228,229,230,231,232,233,234,235,236,237,238,239,240,225,226,227,228,229,230,231,232,233,234,235,236,237,238,239,240,225,226,227,228,229,230,231,232,233,234,235,236,237,238,239,240,225,226,227,228,229,230,231,232,233,234,235,236,237,238,239,240,225,226,227,228,229,230,231,232,233,234,235,236,237,238,239,240,225,226,227,228,229,230,231,232,233,234,235,236,237,238,239,240,225,226,227,228,229,230,231,232,233,234,235,236,237,238,239,240,225,226,227,228,229,230,231,232,233,234,235,236,237,238,239,240,225,226,227,228,229,230,231,232,233,234,235,236,237,238,239,240,225,226,227,228,229,230,231,232,233,234,235,236,237,238,239,240,225,226,227,228,229,230,231,232,233,234,235,236,237,238,239,240,225,226,227,228,229,230,231,232,233,234,235,236,237,238,239,240,225,226,227,228,229,230,231,232,233,234,235,236,237,238,239,240,225,226,227,228,229,230,231,232,233,234,235,236,237,238,239,240,225,226,227,228,229,230,231,232,233,234,235,236,237,238,239,240,241,242,243,244,245,246,247,248,249,250,251,252,253,254,255,256,241,242,243,244,245,246,247,248,249,250,251,252,253,254,255,256,241,242,243,244,245,246,247,248,249,250,251,252,253,254,255,256,241,242,243,244,245,246,247,248,249,250,251,252,253,254,255,256,241,242,243,244,245,246,247,248,249,250,251,252,253,254,255,256,241,242,243,244,245,246,247,248,249,250,251,252,253,254,255,256,241,242,243,244,245,246,247,248,249,250,251,252,253,254,255,256,241,242,243,244,245,246,247,248,249,250,251,252,253,254,255,256,241,242,243,244,245,246,247,248,249,250,251,252,253,254,255,256,241,242,243,244,245,246,247,248,249,250,251,252,253,254,255,256,241,242,243,244,245,246,247,248,249,250,251,252,253,254,255,256,241,242,243,244,245,246,247,248,249,250,251,252,253,254,255,256,241,242,243,244,245,246,247,248,249,250,251,252,253,254,255,256,241,242,243,244,245,246,247,248,249,250,251,252,253,254,255,256,241,242,243,244,245,246,247,248,249,250,251,252,253,254,255,256,241,242,243,244,245,246,247,248,249,250,251,252,253,254,255,256,1,2,3,4,5,6,7,8,9,10,11,12,13,14,15,16,1,2,3,4,5,6,7,8,9,10,11,12,13,14,15,16,1,2,3,4,5,6,7,8,9,10,11,12,13,14,15,16,1,2,3,4,5,6,7,8,9,10,11,12,13,14,15,16,1,2,3,4,5,6,7,8,9,10,11,12,13,14,15,16,1,2,3,4,5,6,7,8,9,10,11,12,13,14,15,16,1,2,3,4,5,6,7,8,9,10,11,12,13,14,15,16,1,2,3,4,5,6,7,8,9,10,11,12,13,14,15,16,1,2,3,4,5,6,7,8,9,10,11,12,13,14,15,16,1,2,3,4,5,6,7,8,9,10,11,12,13,14,15,16,1,2,3,4,5,6,7,8,9,10,11,12,13,14,15,16,1,2,3,4,5,6,7,8,9,10,11,12,13,14,15,16,1,2,3,4,5,6,7,8,9,10,11,12,13,14,15,16,1,2,3,4,5,6,7,8,9,10,11,12,13,14,15,16,1,2,3,4,5,6,7,8,9,10,11,12,13,14,15,16,1,2,3,4,5,6,7,8,9,10,11,12,13,14,15,16,17,18,19,20,21,22,23,24,25,26,27,28,29,30,31,32,17,18,19,20,21,22,23,24,25,26,27,28,29,30,31,32,17,18,19,20,21,22,23,24,25,26,27,28,29,30,31,32,17,18,19,20,21,22,23,24,25,26,27,28,29,30,31,32,17,18,19,20,21,22,23,24,25,26,27,28,29,30,31,32,17,18,19,20,21,22,23,24,25,26,27,28,29,30,31,32,17,18,19,20,21,22,23,24,25,26,27,28,29,30,31,32,17,18,19,20,21,22,23,24,25,26,27,28,29,30,31,32,17,18,19,20,21,22,23,24,25,26,27,28,29,30,31,32,17,18,19,20,21,22,23,24,25,26,27,28,29,30,31,32,17,18,19,20,21,22,23,24,25,26,27,28,29,30,31,32,17,18,19,20,21,22,23,24,25,26,27,28,29,30,31,32,17,18,19,20,21,22,23,24,25,26,27,28,29,30,31,32,17,18,19,20,21,22,23,24,25,26,27,28,29,30,31,32,17,18,19,20,21,22,23,24,25,26,27,28,29,30,31,32,17,18,19,20,21,22,23,24,25,26,27,28,29,30,31,32,33,34,35,36,37,38,39,40,41,42,43,44,45,46,47,48,33,34,35,36,37,38,39,40,41,42,43,44,45,46,47,48,33,34,35,36,37,38,39,40,41,42,43,44,45,46,47,48,33,34,35,36,37,38,39,40,41,42,43,44,45,46,47,48,33,34,35,36,37,38,39,40,41,42,43,44,45,46,47,48,33,34,35,36,37,38,39,40,41,42,43,44,45,46,47,48,33,34,35,36,37,38,39,40,41,42,43,44,45,46,47,48,33,34,35,36,37,38,39,40,41,42,43,44,45,46,47,48,33,34,35,36,37,38,39,40,41,42,43,44,45,46,47,48,33,34,35,36,37,38,39,40,41,42,43,44,45,46,47,48,33,34,35,36,37,38,39,40,41,42,43,44,45,46,47,48,33,34,35,36,37,38,39,40,41,42,43,44,45,46,47,48,33,34,35,36,37,38,39,40,41,42,43,44,45,46,47,48,33,34,35,36,37,38,39,40,41,42,43,44,45,46,47,48,33,34,35,36,37,38,39,40,41,42,43,44,45,46,47,48,33,34,35,36,37,38,39,40,41,42,43,44,45,46,47,48,49,50,51,52,53,54,55,56,57,58,59,60,61,62,63,64,49,50,51,52,53,54,55,56,57,58,59,60,61,62,63,64,49,50,51,52,53,54,55,56,57,58,59,60,61,62,63,64,49,50,51,52,53,54,55,56,57,58,59,60,61,62,63,64,49,50,51,52,53,54,55,56,57,58,59,60,61,62,63,64,49,50,51,52,53,54,55,56,57,58,59,60,61,62,63,64,49,50,51,52,53,54,55,56,57,58,59,60,61,62,63,64,49,50,51,52,53,54,55,56,57,58,59,60,61,62,63,64,49,50,51,52,53,54,55,56,57,58,59,60,61,62,63,64,49,50,51,52,53,54,55,56,57,58,59,60,61,62,63,64,49,50,51,52,53,54,55,56,57,58,59,60,61,62,63,64,49,50,51,52,53,54,55,56,57,58,59,60,61,62,63,64,49,50,51,52,53,54,55,56,57,58,59,60,61,62,63,64,49,50,51,52,53,54,55,56,57,58,59,60,61,62,63,64,49,50,51,52,53,54,55,56,57,58,59,60,61,62,63,64,49,50,51,52,53,54,55,56,57,58,59,60,61,62,63,64,65,66,67,68,69,70,71,72,73,74,75,76,77,78,79,80,65,66,67,68,69,70,71,72,73,74,75,76,77,78,79,80,65,66,67,68,69,70,71,72,73,74,75,76,77,78,79,80,65,66,67,68,69,70,71,72,73,74,75,76,77,78,79,80,65,66,67,68,69,70,71,72,73,74,75,76,77,78,79,80,65,66,67,68,69,70,71,72,73,74,75,76,77,78,79,80,65,66,67,68,69,70,71,72,73,74,75,76,77,78,79,80,65,66,67,68,69,70,71,72,73,74,75,76,77,78,79,80,65,66,67,68,69,70,71,72,73,74,75,76,77,78,79,80,65,66,67,68,69,70,71,72,73,74,75,76,77,78,79,80,65,66,67,68,69,70,71,72,73,74,75,76,77,78,79,80,65,66,67,68,69,70,71,72,73,74,75,76,77,78,79,80,65,66,67,68,69,70,71,72,73,74,75,76,77,78,79,80,65,66,67,68,69,70,71,72,73,74,75,76,77,78,79,80,65,66,67,68,69,70,71,72,73,74,75,76,77,78,79,80,65,66,67,68,69,70,71,72,73,74,75,76,77,78,79,80,81,82,83,84,85,86,87,88,89,90,91,92,93,94,95,96,81,82,83,84,85,86,87,88,89,90,91,92,93,94,95,96,81,82,83,84,85,86,87,88,89,90,91,92,93,94,95,96,81,82,83,84,85,86,87,88,89,90,91,92,93,94,95,96,81,82,83,84,85,86,87,88,89,90,91,92,93,94,95,96,81,82,83,84,85,86,87,88,89,90,91,92,93,94,95,96,81,82,83,84,85,86,87,88,89,90,91,92,93,94,95,96,81,82,83,84,85,86,87,88,89,90,91,92,93,94,95,96,81,82,83,84,85,86,87,88,89,90,91,92,93,94,95,96,81,82,83,84,85,86,87,88,89,90,91,92,93,94,95,96,81,82,83,84,85,86,87,88,89,90,91,92,93,94,95,96,81,82,83,84,85,86,87,88,89,90,91,92,93,94,95,96,81,82,83,84,85,86,87,88,89,90,91,92,93,94,95,96,81,82,83,84,85,86,87,88,89,90,91,92,93,94,95,96,81,82,83,84,85,86,87,88,89,90,91,92,93,94,95,96,81,82,83,84,85,86,87,88,89,90,91,92,93,94,95,96,97,98,99,100,101,102,103,104,105,106,107,108,109,110,111,112,97,98,99,100,101,102,103,104,105,106,107,108,109,110,111,112,97,98,99,100,101,102,103,104,105,106,107,108,109,110,111,112,97,98,99,100,101,102,103,104,105,106,107,108,109,110,111,112,97,98,99,100,101,102,103,104,105,106,107,108,109,110,111,112,97,98,99,100,101,102,103,104,105,106,107,108,109,110,111,112,97,98,99,100,101,102,103,104,105,106,107,108,109,110,111,112,97,98,99,100,101,102,103,104,105,106,107,108,109,110,111,112,97,98,99,100,101,102,103,104,105,106,107,108,109,110,111,112,97,98,99,100,101,102,103,104,105,106,107,108,109,110,111,112,97,98,99,100,101,102,103,104,105,106,107,108,109,110,111,112,97,98,99,100,101,102,103,104,105,106,107,108,109,110,111,112,97,98,99,100,101,102,103,104,105,106,107,108,109,110,111,112,97,98,99,100,101,102,103,104,105,106,107,108,109,110,111,112,97,98,99,100,101,102,103,104,105,106,107,108,109,110,111,112,97,98,99,100,101,102,103,104,105,106,107,108,109,110,111,112,113,114,115,116,117,118,119,120,121,122,123,124,125,126,127,128,113,114,115,116,117,118,119,120,121,122,123,124,125,126,127,128,113,114,115,116,117,118,119,120,121,122,123,124,125,126,127,128,113,114,115,116,117,118,119,120,121,122,123,124,125,126,127,128,113,114,115,116,117,118,119,120,121,122,123,124,125,126,127,128,113,114,115,116,117,118,119,120,121,122,123,124,125,126,127,128,113,114,115,116,117,118,119,120,121,122,123,124,125,126,127,128,113,114,115,116,117,118,119,120,121,122,123,124,125,126,127,128,113,114,115,116,117,118,119,120,121,122,123,124,125,126,127,128,113,114,115,116,117,118,119,120,121,122,123,124,125,126,127,128,113,114,115,116,117,118,119,120,121,122,123,124,125,126,127,128,113,114,115,116,117,118,119,120,121,122,123,124,125,126,127,128,113,114,115,116,117,118,119,120,121,122,123,124,125,126,127,128,113,114,115,116,117,118,119,120,121,122,123,124,125,126,127,128,113,114,115,116,117,118,119,120,121,122,123,124,125,126,127,128,113,114,115,116,117,118,119,120,121,122,123,124,125,126,127,128,129,130,131,132,133,134,135,136,137,138,139,140,141,142,143,144,129,130,131,132,133,134,135,136,137,138,139,140,141,142,143,144,129,130,131,132,133,134,135,136,137,138,139,140,141,142,143,144,129,130,131,132,133,134,135,136,137,138,139,140,141,142,143,144,129,130,131,132,133,134,135,136,137,138,139,140,141,142,143,144,129,130,131,132,133,134,135,136,137,138,139,140,141,142,143,144,129,130,131,132,133,134,135,136,137,138,139,140,141,142,143,144,129,130,131,132,133,134,135,136,137,138,139,140,141,142,143,144,129,130,131,132,133,134,135,136,137,138,139,140,141,142,143,144,129,130,131,132,133,134,135,136,137,138,139,140,141,142,143,144,129,130,131,132,133,134,135,136,137,138,139,140,141,142,143,144,129,130,131,132,133,134,135,136,137,138,139,140,141,142,143,144,129,130,131,132,133,134,135,136,137,138,139,140,141,142,143,144,129,130,131,132,133,134,135,136,137,138,139,140,141,142,143,144,129,130,131,132,133,134,135,136,137,138,139,140,141,142,143,144,129,130,131,132,133,134,135,136,137,138,139,140,141,142,143,144,145,146,147,148,149,150,151,152,153,154,155,156,157,158,159,160,145,146,147,148,149,150,151,152,153,154,155,156,157,158,159,160,145,146,147,148,149,150,151,152,153,154,155,156,157,158,159,160,145,146,147,148,149,150,151,152,153,154,155,156,157,158,159,160,145,146,147,148,149,150,151,152,153,154,155,156,157,158,159,160,145,146,147,148,149,150,151,152,153,154,155,156,157,158,159,160,145,146,147,148,149,150,151,152,153,154,155,156,157,158,159,160,145,146,147,148,149,150,151,152,153,154,155,156,157,158,159,160,145,146,147,148,149,150,151,152,153,154,155,156,157,158,159,160,145,146,147,148,149,150,151,152,153,154,155,156,157,158,159,160,145,146,147,148,149,150,151,152,153,154,155,156,157,158,159,160,145,146,147,148,149,150,151,152,153,154,155,156,157,158,159,160,145,146,147,148,149,150,151,152,153,154,155,156,157,158,159,160,145,146,147,148,149,150,151,152,153,154,155,156,157,158,159,160,145,146,147,148,149,150,151,152,153,154,155,156,157,158,159,160,145,146,147,148,149,150,151,152,153,154,155,156,157,158,159,160,161,162,163,164,165,166,167,168,169,170,171,172,173,174,175,176,161,162,163,164,165,166,167,168,169,170,171,172,173,174,175,176,161,162,163,164,165,166,167,168,169,170,171,172,173,174,175,176,161,162,163,164,165,166,167,168,169,170,171,172,173,174,175,176,161,162,163,164,165,166,167,168,169,170,171,172,173,174,175,176,161,162,163,164,165,166,167,168,169,170,171,172,173,174,175,176,161,162,163,164,165,166,167,168,169,170,171,172,173,174,175,176,161,162,163,164,165,166,167,168,169,170,171,172,173,174,175,176,161,162,163,164,165,166,167,168,169,170,171,172,173,174,175,176,161,162,163,164,165,166,167,168,169,170,171,172,173,174,175,176,161,162,163,164,165,166,167,168,169,170,171,172,173,174,175,176,161,162,163,164,165,166,167,168,169,170,171,172,173,174,175,176,161,162,163,164,165,166,167,168,169,170,171,172,173,174,175,176,161,162,163,164,165,166,167,168,169,170,171,172,173,174,175,176,161,162,163,164,165,166,167,168,169,170,171,172,173,174,175,176,161,162,163,164,165,166,167,168,169,170,171,172,173,174,175,176,177,178,179,180,181,182,183,184,185,186,187,188,189,190,191,192,177,178,179,180,181,182,183,184,185,186,187,188,189,190,191,192,177,178,179,180,181,182,183,184,185,186,187,188,189,190,191,192,177,178,179,180,181,182,183,184,185,186,187,188,189,190,191,192,177,178,179,180,181,182,183,184,185,186,187,188,189,190,191,192,177,178,179,180,181,182,183,184,185,186,187,188,189,190,191,192,177,178,179,180,181,182,183,184,185,186,187,188,189,190,191,192,177,178,179,180,181,182,183,184,185,186,187,188,189,190,191,192,177,178,179,180,181,182,183,184,185,186,187,188,189,190,191,192,177,178,179,180,181,182,183,184,185,186,187,188,189,190,191,192,177,178,179,180,181,182,183,184,185,186,187,188,189,190,191,192,177,178,179,180,181,182,183,184,185,186,187,188,189,190,191,192,177,178,179,180,181,182,183,184,185,186,187,188,189,190,191,192,177,178,179,180,181,182,183,184,185,186,187,188,189,190,191,192,177,178,179,180,181,182,183,184,185,186,187,188,189,190,191,192,177,178,179,180,181,182,183,184,185,186,187,188,189,190,191,192,193,194,195,196,197,198,199,200,201,202,203,204,205,206,207,208,193,194,195,196,197,198,199,200,201,202,203,204,205,206,207,208,193,194,195,196,197,198,199,200,201,202,203,204,205,206,207,208,193,194,195,196,197,198,199,200,201,202,203,204,205,206,207,208,193,194,195,196,197,198,199,200,201,202,203,204,205,206,207,208,193,194,195,196,197,198,199,200,201,202,203,204,205,206,207,208,193,194,195,196,197,198,199,200,201,202,203,204,205,206,207,208,193,194,195,196,197,198,199,200,201,202,203,204,205,206,207,208,193,194,195,196,197,198,199,200,201,202,203,204,205,206,207,208,193,194,195,196,197,198,199,200,201,202,203,204,205,206,207,208,193,194,195,196,197,198,199,200,201,202,203,204,205,206,207,208,193,194,195,196,197,198,199,200,201,202,203,204,205,206,207,208,193,194,195,196,197,198,199,200,201,202,203,204,205,206,207,208,193,194,195,196,197,198,199,200,201,202,203,204,205,206,207,208,193,194,195,196,197,198,199,200,201,202,203,204,205,206,207,208,193,194,195,196,197,198,199,200,201,202,203,204,205,206,207,208,209,210,211,212,213,214,215,216,217,218,219,220,221,222,223,224,209,210,211,212,213,214,215,216,217,218,219,220,221,222,223,224,209,210,211,212,213,214,215,216,217,218,219,220,221,222,223,224,209,210,211,212,213,214,215,216,217,218,219,220,221,222,223,224,209,210,211,212,213,214,215,216,217,218,219,220,221,222,223,224,209,210,211,212,213,214,215,216,217,218,219,220,221,222,223,224,209,210,211,212,213,214,215,216,217,218,219,220,221,222,223,224,209,210,211,212,213,214,215,216,217,218,219,220,221,222,223,224,209,210,211,212,213,214,215,216,217,218,219,220,221,222,223,224,209,210,211,212,213,214,215,216,217,218,219,220,221,222,223,224,209,210,211,212,213,214,215,216,217,218,219,220,221,222,223,224,209,210,211,212,213,214,215,216,217,218,219,220,221,222,223,224,209,210,211,212,213,214,215,216,217,218,219,220,221,222,223,224,209,210,211,212,213,214,215,216,217,218,219,220,221,222,223,224,209,210,211,212,213,214,215,216,217,218,219,220,221,222,223,224,209,210,211,212,213,214,215,216,217,218,219,220,221,222,223,224,225,226,227,228,229,230,231,232,233,234,235,236,237,238,239,240,225,226,227,228,229,230,231,232,233,234,235,236,237,238,239,240,225,226,227,228,229,230,231,232,233,234,235,236,237,238,239,240,225,226,227,228,229,230,231,232,233,234,235,236,237,238,239,240,225,226,227,228,229,230,231,232,233,234,235,236,237,238,239,240,225,226,227,228,229,230,231,232,233,234,235,236,237,238,239,240,225,226,227,228,229,230,231,232,233,234,235,236,237,238,239,240,225,226,227,228,229,230,231,232,233,234,235,236,237,238,239,240,225,226,227,228,229,230,231,232,233,234,235,236,237,238,239,240,225,226,227,228,229,230,231,232,233,234,235,236,237,238,239,240,225,226,227,228,229,230,231,232,233,234,235,236,237,238,239,240,225,226,227,228,229,230,231,232,233,234,235,236,237,238,239,240,225,226,227,228,229,230,231,232,233,234,235,236,237,238,239,240,225,226,227,228,229,230,231,232,233,234,235,236,237,238,239,240,225,226,227,228,229,230,231,232,233,234,235,236,237,238,239,240,225,226,227,228,229,230,231,232,233,234,235,236,237,238,239,240,241,242,243,244,245,246,247,248,249,250,251,252,253,254,255,256,241,242,243,244,245,246,247,248,249,250,251,252,253,254,255,256,241,242,243,244,245,246,247,248,249,250,251,252,253,254,255,256,241,242,243,244,245,246,247,248,249,250,251,252,253,254,255,256,241,242,243,244,245,246,247,248,249,250,251,252,253,254,255,256,241,242,243,244,245,246,247,248,249,250,251,252,253,254,255,256,241,242,243,244,245,246,247,248,249,250,251,252,253,254,255,256,241,242,243,244,245,246,247,248,249,250,251,252,253,254,255,256,241,242,243,244,245,246,247,248,249,250,251,252,253,254,255,256,241,242,243,244,245,246,247,248,249,250,251,252,253,254,255,256,241,242,243,244,245,246,247,248,249,250,251,252,253,254,255,256,241,242,243,244,245,246,247,248,249,250,251,252,253,254,255,256,241,242,243,244,245,246,247,248,249,250,251,252,253,254,255,256,241,242,243,244,245,246,247,248,249,250,251,252,253,254,255,256,241,242,243,244,245,246,247,248,249,250,251,252,253,254,255,256,241,242,243,244,245,246,247,248,249,250,251,252,253,254,255,256]},{"id":2,"name":"falaises_bordures","type":"tilelayer","x":0,"y":0,"width":256,"height":192,"opacity":1,"visible":true,"data":[0,0,0,0,0,0,0,0,0,0,0,0,0,0,0,0,0,0,0,0,0,0,0,0,0,0,0,0,0,0,0,0,0,0,0,0,0,0,0,0,0,0,0,0,0,0,0,0,0,0,0,0,0,0,0,0,0,0,0,0,0,0,0,0,0,0,0,0,0,0,0,0,0,0,0,0,0,0,0,0,0,0,0,0,0,0,0,0,0,0,0,0,0,0,0,0,0,0,0,0,0,0,0,0,0,0,0,0,0,0,0,0,0,0,0,0,0,0,0,0,0,0,0,0,0,0,0,0,0,0,0,0,0,0,0,0,0,0,0,0,0,0,0,0,0,0,0,0,0,0,0,0,0,0,0,0,0,0,0,0,0,0,0,0,0,0,0,0,0,0,0,0,0,0,0,0,0,0,0,0,0,0,0,0,0,0,0,0,0,0,0,0,0,0,0,0,0,0,0,0,0,0,0,0,0,0,0,0,0,0,0,0,0,0,0,0,0,0,0,0,0,0,0,0,0,0,0,0,0,0,0,0,0,0,0,0,0,0,0,0,0,0,0,0,0,0,0,0,0,0,0,0,0,0,0,0,0,0,0,0,0,0,0,0,0,0,0,0,0,0,0,0,0,0,0,0,0,0,0,0,0,0,0,0,0,0,0,0,0,0,0,0,0,0,0,0,0,0,0,0,0,0,0,0,0,0,0,0,0,0,0,0,0,0,0,0,0,0,0,0,0,0,0,0,0,0,0,0,0,0,0,0,0,0,0,0,0,0,0,0,0,0,0,0,0,0,0,0,0,0,0,0,0,0,0,0,0,0,0,0,0,0,0,0,0,0,0,0,0,0,0,0,0,0,0,0,0,0,0,0,0,0,0,0,0,0,0,0,0,0,0,0,0,0,0,0,0,0,0,0,0,0,0,0,0,0,0,0,0,0,0,0,0,0,0,0,0,0,0,0,0,0,0,0,0,0,0,0,0,0,0,0,0,0,0,0,0,0,0,0,0,0,0,0,0,0,0,0,0,0,0,0,0,0,0,0,0,0,0,0,0,0,0,0,0,0,0,0,0,0,0,0,0,0,0,0,0,0,0,0,0,0,0,0,0,0,0,0,0,0,0,0,0,0,0,0,0,0,0,0,0,0,0,0,0,0,0,0,0,0,0,0,0,0,0,0,0,0,0,0,0,0,0,0,0,0,0,0,0,0,0,0,0,0,0,0,0,0,0,0,0,0,0,0,0,0,0,0,0,0,0,0,0,0,0,0,0,0,0,0,0,0,0,0,0,0,0,0,0,0,0,0,0,0,0,0,0,0,0,0,0,0,0,0,0,0,0,0,0,0,0,0,0,0,0,0,0,0,0,0,0,0,0,0,0,0,0,0,0,0,0,0,0,0,0,0,0,0,0,0,0,0,0,0,0,0,0,0,0,0,0,0,0,0,0,0,0,0,0,0,0,0,0,0,0,0,0,0,0,0,0,0,0,0,0,0,0,0,0,0,0,0,0,0,0,0,0,0,0,0,0,0,0,0,0,0,0,0,0,0,0,0,0,0,0,0,0,0,0,0,0,0,0,0,0,0,0,0,0,0,0,0,0,0,0,0,0,0,0,0,0,0,0,0,0,0,0,0,0,0,0,0,0,0,0,0,0,0,0,0,0,0,0,0,0,0,0,0,0,0,0,0,0,0,0,0,0,0,0,0,0,0,0,0,0,0,0,0,0,0,0,0,0,0,0,0,0,0,0,0,0,0,0,0,0,0,0,0,0,0,0,0,0,0,0,0,0,0,0,0,0,0,0,0,0,0,0,0,0,0,0,0,0,0,0,0,0,0,0,0,0,0,0,0,0,0,0,0,0,0,0,0,0,0,0,0,0,0,0,0,0,0,0,0,0,0,0,0,0,0,0,0,0,0,0,0,0,0,0,0,0,0,0,0,0,0,0,0,0,0,0,0,0,0,0,0,0,0,0,0,0,0,0,0,0,0,0,0,0,0,0,0,0,0,0,0,0,0,0,0,0,0,0,0,0,0,0,0,0,0,0,0,0,0,0,0,0,0,0,0,0,0,0,0,0,0,0,0,0,0,0,0,0,0,0,0,0,0,0,0,0,0,0,0,0,0,0,0,0,0,0,0,0,0,0,0,0,0,0,0,0,0,0,0,0,0,0,0,0,0,0,0,0,0,0,0,0,0,0,0,0,0,0,0,0,0,0,0,0,0,0,0,0,0,0,0,0,0,0,0,0,0,0,0,0,0,0,0,0,0,0,0,0,0,0,0,0,0,0,0,0,0,0,0,0,0,0,0,0,0,0,0,0,0,0,0,0,0,0,0,0,0,0,0,0,0,0,0,0,0,0,0,0,0,0,0,0,0,0,0,0,0,0,0,0,0,0,0,0,0,0,0,0,0,0,0,0,0,0,0,0,0,0,0,0,0,0,0,0,0,0,0,0,0,0,0,0,0,0,0,0,0,0,0,0,0,0,0,0,0,0,0,0,0,0,0,0,0,0,0,0,0,0,0,0,0,0,0,0,0,0,0,0,0,0,0,0,0,0,0,0,0,0,0,0,0,0,0,0,0,0,0,0,0,0,0,0,0,0,0,0,0,0,0,0,0,0,0,0,0,0,0,0,0,0,0,0,0,0,0,0,0,0,0,0,0,0,0,0,0,0,0,0,0,0,0,0,0,0,0,0,0,0,0,0,0,0,0,0,0,0,0,0,0,0,0,0,0,0,0,0,0,0,0,0,0,0,0,0,0,0,0,0,0,0,0,0,0,0,0,0,0,0,0,0,0,0,0,0,0,0,0,0,0,0,0,0,0,0,0,0,0,0,0,0,0,0,0,0,0,0,0,0,0,0,0,0,0,0,0,0,0,0,0,0,0,0,0,0,0,0,0,0,0,0,0,0,0,0,0,0,0,0,0,0,0,0,0,0,0,0,0,0,0,0,0,0,0,0,0,0,0,0,0,0,0,0,0,0,0,0,0,0,0,0,0,0,0,0,0,0,0,0,0,0,0,0,0,0,0,0,0,0,0,0,0,0,0,0,0,0,0,0,0,0,0,0,0,0,0,0,0,0,0,0,0,0,0,0,0,0,0,0,0,0,0,0,0,0,0,0,0,0,0,0,0,0,0,0,0,0,0,0,0,0,0,0,0,0,0,0,0,0,0,0,0,0,0,0,0,0,0,0,0,0,0,0,0,0,0,0,0,0,0,0,0,0,0,0,0,0,0,0,0,0,0,0,0,0,0,0,0,0,0,0,0,0,0,0,0,0,0,0,0,0,0,0,0,0,0,0,0,0,0,0,0,0,0,0,0,0,0,0,0,0,0,0,0,0,0,0,0,0,0,0,0,0,0,0,0,0,0,0,0,0,0,0,0,0,0,0,0,0,0,0,0,0,0,0,0,0,0,0,0,0,0,0,0,0,0,0,0,0,0,0,0,0,0,0,0,0,0,0,0,0,0,0,0,0,0,0,0,0,0,0,0,0,0,0,0,0,0,0,0,0,0,0,0,0,0,0,0,0,0,0,0,0,0,0,0,0,0,0,0,0,0,0,0,0,0,0,0,0,0,0,0,0,0,0,0,0,0,0,0,0,0,0,0,0,0,0,0,0,0,0,0,0,0,0,0,0,0,0,0,0,0,0,0,0,0,0,0,0,0,0,0,0,0,0,0,0,0,0,0,0,0,0,0,0,0,0,0,0,0,0,0,0,0,0,0,0,0,0,0,0,0,0,0,0,0,0,0,0,0,0,0,0,0,0,0,0,0,0,0,0,0,0,0,0,0,0,0,0,0,0,0,0,0,0,0,0,0,0,0,0,0,0,0,0,0,0,0,0,0,0,0,0,0,0,0,0,0,0,0,0,0,0,0,0,0,0,0,0,0,0,0,0,0,0,0,0,0,0,0,0,0,0,0,0,0,0,0,0,0,0,0,0,0,0,0,0,0,0,0,0,0,0,0,0,0,0,0,0,0,0,0,0,0,0,0,0,0,0,0,0,0,0,0,0,0,0,0,0,0,0,0,0,0,0,0,0,0,0,0,0,0,0,0,0,0,0,0,0,0,0,0,0,0,0,0,0,0,0,0,0,0,0,0,0,0,0,0,0,0,0,0,0,0,0,0,0,0,0,0,0,0,0,0,0,0,0,0,0,0,0,0,0,0,0,0,0,0,0,0,0,0,0,0,0,0,0,0,0,0,0,0,0,0,0,0,0,0,0,0,0,0,0,0,0,0,0,0,0,0,0,0,0,0,0,0,0,0,0,0,0,0,0,0,0,0,0,0,0,0,0,0,0,0,0,0,0,0,0,0,0,0,0,0,0,0,0,0,0,0,0,0,0,0,0,0,0,0,0,0,0,0,0,0,0,0,0,0,0,0,0,0,0,0,0,0,0,0,0,0,0,0,0,0,0,0,0,0,0,0,0,0,0,0,0,0,0,0,0,0,0,0,0,0,0,0,0,0,0,0,0,0,0,0,0,0,0,0,0,0,0,0,0,0,0,0,0,0,0,0,0,0,0,0,0,0,0,0,0,0,0,0,0,0,0,0,0,0,0,0,0,0,0,0,0,0,0,0,0,0,0,0,0,0,0,0,0,0,0,0,0,0,0,0,0,0,0,0,0,0,0,0,0,0,0,0,0,0,0,0,0,0,0,0,0,0,0,0,0,0,0,0,0,0,0,0,0,0,0,0,0,0,0,0,0,0,0,0,0,0,0,0,0,0,0,0,0,0,0,0,0,0,0,0,0,0,0,0,0,0,0,0,0,0,0,0,0,0,0,0,0,0,0,0,0,0,0,0,0,0,0,0,0,0,0,0,0,0,0,0,0,0,0,0,0,0,0,0,0,0,0,0,0,0,0,0,0,0,0,0,0,0,0,0,0,0,0,0,0,0,0,0,0,0,0,0,0,0,0,0,0,0,0,0,0,0,0,0,0,0,0,0,0,0,0,0,0,0,0,0,0,0,0,0,0,0,0,0,0,0,0,0,0,0,0,0,0,0,0,0,0,0,0,0,0,0,0,0,0,0,0,0,0,0,0,0,0,0,0,0,0,0,0,0,0,0,0,0,0,0,0,0,0,0,0,0,0,0,0,0,0,0,0,0,0,0,0,0,0,0,0,0,0,0,0,0,0,0,0,0,0,0,0,0,0,0,0,0,0,0,0,0,0,0,0,0,0,0,0,0,0,0,0,0,0,0,0,0,0,0,0,0,0,0,0,0,0,0,0,0,0,0,0,0,0,0,0,0,0,0,0,0,0,0,0,0,0,0,0,0,0,0,0,0,0,0,0,0,0,0,0,0,0,0,0,0,0,0,0,0,0,0,0,0,0,0,0,0,0,0,0,0,0,0,0,0,0,0,0,0,0,0,0,0,0,0,0,0,0,0,0,0,0,0,0,0,0,0,0,0,0,0,0,0,0,0,0,0,0,0,0,0,0,0,0,0,0,0,0,0,0,0,0,0,0,0,0,0,0,0,0,0,0,0,0,0,0,0,0,0,0,0,0,0,0,0,0,0,0,0,0,0,0,0,0,0,0,0,0,0,0,0,0,0,0,0,0,0,0,0,0,0,0,0,0,0,0,0,0,0,0,0,0,0,0,0,0,0,0,0,0,0,0,0,0,0,0,0,0,0,0,0,0,0,0,0,0,0,0,0,0,0,0,0,0,0,0,0,0,0,0,0,0,0,0,0,0,0,0,0,0,0,0,0,0,0,0,0,0,0,0,0,0,0,0,0,0,0,0,0,0,0,0,0,0,0,0,0,0,0,0,0,0,0,0,0,0,0,0,0,0,0,0,0,0,0,0,0,0,0,0,0,0,0,0,0,0,0,0,0,0,0,0,0,0,0,0,0,0,0,0,0,0,0,0,0,0,0,0,0,0,0,0,0,0,0,0,0,0,0,0,0,0,0,0,0,0,0,0,0,0,0,0,0,0,0,0,0,0,0,0,0,0,0,0,0,0,0,0,0,0,0,0,0,0,0,0,0,0,0,0,0,0,0,0,0,0,0,0,0,0,0,0,0,0,0,0,0,0,0,0,0,0,0,0,0,0,0,0,0,0,0,0,0,0,0,0,0,0,0,0,0,0,0,0,0,0,0,0,0,0,0,0,0,0,0,0,0,0,0,0,0,0,0,0,0,0,0,0,0,0,0,0,0,0,0,0,0,0,0,0,0,0,0,0,0,0,0,0,0,0,0,0,0,0,0,0,0,0,0,0,0,0,0,0,0,0,0,0,0,0,0,0,0,0,0,0,0,0,0,0,0,0,0,0,0,0,0,0,0,0,0,0,0,0,0,0,0,0,0,0,0,0,0,0,0,0,0,0,0,0,0,0,0,0,0,0,0,0,0,0,0,0,0,0,0,0,0,0,0,0,0,0,0,0,0,0,0,0,0,0,0,0,0,0,0,0,0,0,0,0,0,0,0,0,0,0,0,0,0,0,0,0,0,0,0,0,0,0,0,0,0,0,0,0,0,0,0,0,0,0,0,0,0,0,0,0,0,0,0,0,0,0,0,0,0,0,0,0,0,0,0,0,0,0,0,0,0,0,0,0,0,0,0,0,0,0,0,0,0,0,0,0,0,0,0,0,0,0,0,0,0,0,0,0,0,0,0,0,0,0,0,0,0,0,0,0,0,0,0,0,0,0,0,0,0,0,0,0,0,0,0,0,0,0,0,0,0,0,0,0,0,0,0,0,0,0,0,0,0,0,0,0,0,0,0,0,0,0,0,0,0,0,0,0,0,0,0,0,0,0,0,0,0,0,0,0,0,0,0,0,0,0,0,0,0,0,0,0,0,0,0,0,0,0,0,0,0,0,0,0,0,0,0,0,0,0,0,0,0,0,0,0,0,0,0,0,0,0,0,0,0,0,0,0,0,0,0,0,0,0,0,0,0,0,0,0,0,0,0,0,0,0,0,0,0,0,0,0,0,0,0,0,0,0,0,0,0,0,0,0,0,0,0,0,0,0,0,0,0,0,0,0,0,0,0,0,0,0,0,0,0,0,0,0,0,0,0,0,0,0,0,0,0,0,0,0,0,0,0,0,0,0,0,0,0,0,0,0,0,0,0,0,0,0,0,0,0,0,0,0,0,0,0,0,0,0,0,0,0,0,0,0,0,0,0,0,0,0,0,0,0,0,0,0,0,0,0,0,0,0,0,0,0,0,0,0,0,0,0,0,0,0,0,0,0,0,0,0,0,0,0,0,0,0,0,0,0,0,0,0,0,0,0,0,0,0,0,0,0,0,0,0,0,0,0,0,0,0,0,0,0,0,0,0,0,0,0,0,0,0,0,0,0,0,0,0,0,0,0,0,0,0,0,0,0,0,0,0,0,0,0,0,0,0,0,0,0,0,0,0,0,0,0,0,0,0,0,0,0,0,0,0,0,0,0,0,0,0,0,0,0,0,0,0,0,0,0,0,0,0,0,0,0,0,0,0,0,0,0,0,0,0,0,0,0,0,0,0,0,0,0,0,0,0,0,0,0,0,0,0,0,0,0,0,0,0,0,0,0,0,0,0,0,0,0,0,0,0,0,0,0,0,0,0,0,0,0,0,0,0,0,0,0,0,0,0,0,0,0,0,0,0,0,0,0,0,0,0,0,0,0,0,0,0,0,0,0,0,0,0,0,0,0,0,0,0,0,0,0,0,0,0,0,0,0,0,0,0,0,0,0,0,0,0,0,0,0,0,0,0,0,0,0,0,0,0,0,0,0,0,0,0,0,0,0,0,0,0,0,0,0,0,0,0,0,0,0,0,0,0,0,0,0,0,0,0,0,0,0,0,0,0,0,0,0,0,0,0,0,0,0,0,0,0,0,0,0,0,0,0,0,0,0,0,0,0,0,0,0,0,0,0,0,0,0,0,0,0,0,0,0,0,0,0,0,0,0,0,0,0,0,0,0,0,0,0,0,0,0,0,0,0,0,0,0,0,0,0,0,0,0,0,0,0,0,0,0,0,0,0,0,0,0,0,0,0,0,0,0,0,0,0,0,0,0,0,0,0,0,0,0,0,0,0,0,0,0,0,0,0,0,0,0,0,0,0,0,0,0,0,0,0,0,0,0,0,0,0,0,0,0,0,0,0,0,0,0,0,0,0,0,0,0,0,0,0,0,0,0,0,0,0,0,0,0,0,0,0,0,0,0,0,0,0,0,0,0,0,0,0,0,0,0,0,0,0,0,0,0,0,0,0,0,0,0,0,0,0,0,0,0,0,0,0,0,0,0,0,0,0,0,0,0,0,0,0,0,0,0,0,0,0,0,0,0,0,0,0,0,0,0,0,0,0,0,0,0,0,0,0,0,0,0,0,0,0,0,0,0,0,0,0,0,0,0,0,0,0,0,0,0,0,0,0,0,0,0,0,0,0,0,0,0,0,0,0,0,0,0,0,0,0,0,0,0,0,0,0,0,0,0,0,0,0,0,0,0,0,0,0,0,0,0,0,0,0,0,0,0,0,0,0,0,0,0,0,0,0,0,0,0,0,0,0,0,0,0,0,0,0,0,0,0,0,0,0,0,0,0,0,0,0,0,0,0,0,0,0,0,0,0,0,0,0,0,0,0,0,0,0,0,0,0,0,0,0,0,0,0,0,0,0,0,0,0,0,0,0,0,0,0,0,0,0,0,0,0,0,0,0,0,0,0,0,0,0,0,0,0,0,0,0,0,0,0,0,0,0,0,0,0,0,0,0,0,0,0,0,0,0,0,0,0,0,0,0,0,0,0,0,0,0,0,0,0,0,0,0,0,0,0,0,0,0,0,0,0,0,0,0,0,0,0,0,0,0,0,0,0,0,0,0,0,0,0,0,0,0,0,0,0,0,0,0,0,0,0,0,0,0,0,0,0,0,0,0,0,0,0,0,0,0,0,0,0,0,0,0,0,0,0,0,0,0,0,0,0,0,0,0,0,0,0,0,0,0,0,0,0,0,0,0,0,0,0,0,0,0,0,0,0,0,0,0,0,0,0,0,0,0,0,0,0,0,0,0,0,0,0,0,0,0,0,0,0,0,0,0,0,0,0,0,0,0,0,0,0,0,0,0,0,0,0,0,0,0,0,0,0,0,0,0,0,0,0,0,0,0,0,0,0,0,0,0,0,0,0,0,0,0,0,0,0,0,0,0,0,0,0,0,0,0,0,0,0,0,0,0,0,0,0,0,0,0,0,0,0,0,0,0,0,0,0,0,0,0,0,0,0,0,0,0,0,0,0,0,0,0,0,0,0,0,0,0,0,0,0,0,0,0,0,0,0,0,0,0,0,0,0,0,0,0,0,0,0,0,0,0,0,0,0,0,0,0,0,0,0,0,0,0,0,0,0,0,0,0,0,0,0,0,0,0,0,0,0,0,0,0,0,0,0,0,0,0,0,0,0,0,0,0,0,0,0,0,0,0,0,0,0,0,0,0,0,0,0,0,0,0,0,0,0,0,0,0,0,0,0,0,0,0,0,0,0,0,0,0,0,0,0,0,0,0,0,0,0,0,0,0,0,0,0,0,0,0,0,0,0,0,0,0,0,0,0,0,0,0,0,0,0,0,0,0,0,0,0,0,0,0,0,0,0,0,0,0,0,0,0,0,0,0,0,0,0,0,0,0,0,0,0,0,0,0,0,0,0,0,0,0,0,0,0,0,0,0,0,0,0,0,0,0,0,0,0,0,0,0,0,0,0,0,0,0,0,0,0,0,0,0,0,0,0,0,0,0,0,0,0,0,0,0,0,0,0,0,0,0,0,0,0,0,0,0,0,0,0,0,0,0,0,0,0,0,0,0,0,0,0,0,0,0,0,0,0,0,0,0,0,0,0,0,0,0,0,0,0,0,0,0,0,0,0,0,0,0,0,0,0,0,0,0,0,0,0,0,0,0,0,0,0,0,0,0,0,0,0,0,0,0,0,0,0,0,0,0,0,0,0,0,0,0,0,0,0,0,0,0,0,0,0,0,0,0,0,0,0,0,0,0,0,0,0,0,0,0,0,0,0,0,0,0,0,0,0,0,0,0,0,0,0,0,0,0,0,0,0,0,0,0,0,0,0,0,0,0,0,0,0,0,0,0,0,0,0,0,0,0,0,0,0,0,0,0,0,0,0,0,0,0,0,0,0,0,0,0,0,0,0,0,0,0,0,0,0,0,0,0,0,0,0,0,0,0,0,0,0,0,0,0,0,0,0,0,0,0,0,0,0,0,0,0,0,0,0,0,0,0,0,0,0,0,0,0,0,0,0,0,0,0,0,0,0,0,0,0,0,0,0,0,0,0,0,0,0,0,0,0,0,0,0,0,0,0,0,0,0,0,0,0,0,0,0,0,0,0,0,0,0,0,0,0,0,0,0,0,0,0,0,0,0,0,0,0,0,0,0,0,0,0,0,0,0,0,0,0,0,0,0,0,0,0,0,0,0,0,0,0,0,0,0,0,0,0,0,0,0,0,0,0,0,0,0,0,0,0,0,0,0,0,0,0,0,0,0,0,0,0,0,0,0,0,0,0,0,0,0,0,0,0,0,0,0,0,0,0,0,0,0,0,0,0,0,0,0,0,0,0,0,0,0,0,0,0,0,0,0,0,0,0,0,0,0,0,0,0,0,0,0,0,0,0,0,0,0,0,0,0,0,0,0,0,0,0,0,0,0,0,0,0,0,0,0,0,0,0,0,0,0,0,0,0,0,0,0,0,0,0,0,0,0,0,0,0,0,0,0,0,0,0,0,0,0,0,0,0,0,0,0,0,0,0,0,0,0,0,0,0,0,0,0,0,0,0,0,0,0,0,0,0,0,0,0,0,0,0,0,0,0,0,0,0,0,0,0,0,0,0,0,0,0,0,0,0,0,0,0,0,0,0,0,0,0,0,0,0,0,0,0,0,0,0,0,0,0,0,0,0,0,0,0,0,0,0,0,0,0,0,0,0,0,0,0,0,0,0,0,0,0,0,0,0,0,0,0,0,0,0,0,0,0,0,0,0,0,0,0,0,0,0,0,0,0,0,0,0,0,0,0,0,0,0,0,0,0,0,0,0,0,0,0,0,0,0,0,0,0,0,0,0,0,0,0,0,0,0,0,0,0,0,0,0,0,0,0,0,0,0,0,0,0,0,0,0,0,0,0,0,0,0,0,0,0,0,0,0,0,0,0,0,0,0,0,0,0,0,0,0,0,0,0,0,0,0,0,0,0,0,0,0,0,0,0,0,0,0,0,0,0,0,0,0,0,0,0,0,0,0,0,0,0,0,0,0,0,0,0,0,0,0,0,0,0,0,0,0,0,0,0,0,0,0,0,0,0,0,0,0,0,0,0,0,0,0,0,0,0,0,0,0,0,0,0,0,0,0,0,0,0,0,0,0,0,0,0,0,0,0,0,0,0,0,0,0,0,0,0,0,0,0,0,0,0,0,0,0,0,0,0,0,0,0,0,0,0,0,0,0,0,0,0,0,0,0,0,0,0,0,0,0,0,0,0,0,0,0,0,0,0,0,0,0,0,0,0,0,0,0,0,0,0,0,0,0,0,0,0,0,0,0,0,0,0,0,0,0,0,0,0,0,0,0,0,0,0,0,0,0,0,0,0,0,0,0,0,0,0,0,0,0,0,0,0,0,0,0,0,0,0,0,0,0,0,0,0,0,0,0,0,0,0,0,0,0,0,0,0,0,0,0,0,0,0,0,0,0,0,0,0,0,0,0,0,0,0,0,0,0,0,0,0,0,0,0,0,0,0,0,0,0,0,0,0,0,0,0,0,0,0,0,0,0,0,0,0,0,0,0,0,0,0,0,0,0,0,0,0,0,0,0,0,0,0,0,0,0,0,0,0,0,0,0,0,0,0,0,0,0,0,0,0,0,0,0,0,0,0,0,0,0,0,0,0,0,0,0,0,0,0,0,0,0,0,0,0,0,0,0,0,0,0,0,0,0,0,0,0,0,0,0,0,0,0,0,0,0,0,0,0,0,0,0,0,0,0,0,0,0,0,0,0,0,0,0,0,0,0,0,0,0,0,0,0,0,0,0,0,0,0,0,0,0,0,0,0,0,0,0,0,0,0,0,0,0,0,0,0,0,0,0,0,0,0,0,0,0,0,0,0,0,0,0,0,0,0,0,0,0,0,0,0,0,0,0,0,0,0,0,0,0,0,0,0,0,0,0,0,0,0,0,0,0,0,0,0,0,0,0,0,0,0,0,0,0,0,0,0,0,0,0,0,0,0,0,0,0,0,0,0,0,0,0,0,0,0,0,0,0,0,0,0,0,0,0,0,0,0,0,0,0,0,0,0,0,0,0,0,0,0,0,0,0,0,0,0,0,0,0,0,0,0,0,0,0,0,0,0,0,0,0,0,0,0,0,0,0,0,0,0,0,0,0,0,0,0,0,0,0,0,0,0,0,0,0,0,0,0,0,0,0,0,0,0,0,0,0,0,0,0,0,0,0,0,0,0,0,0,0,0,0,0,0,0,0,0,0,0,0,0,0,0,0,0,0,0,0,0,0,0,0,0,0,0,0,0,0,0,0,0,0,0,0,0,0,0,0,0,0,0,0,0,0,0,0,0,0,0,0,0,0,0,0,0,0,0,0,0,0,0,0,0,0,0,0,0,0,0,0,0,0,0,0,0,0,0,0,0,0,0,0,0,0,0,0,0,0,0,0,0,0,0,0,0,0,0,0,0,0,0,0,0,0,0,0,0,0,0,0,0,0,0,0,0,0,0,0,0,0,0,0,0,0,0,0,0,0,0,0,0,0,0,0,0,0,0,0,0,0,0,0,0,0,0,0,0,0,0,0,0,0,0,0,0,0,0,0,0,0,0,0,0,0,0,0,0,0,0,0,0,0,0,0,0,0,0,0,0,0,0,0,0,0,0,0,0,0,0,0,0,0,0,0,0,0,0,0,0,0,0,0,0,0,0,0,0,0,0,0,0,0,0,0,0,0,0,0,0,0,0,0,0,0,0,0,0,0,0,0,0,0,0,0,0,0,0,0,0,0,0,0,0,0,0,0,0,0,0,0,0,0,0,0,0,0,0,0,0,0,0,0,0,0,0,0,0,0,0,0,0,0,0,0,0,0,0,0,0,0,0,0,0,0,0,0,0,0,0,0,0,0,0,0,0,0,0,0,0,0,0,0,0,0,0,0,0,0,0,0,0,0,0,0,0,0,0,0,0,0,0,0,0,0,0,0,0,0,0,0,0,0,0,0,0,0,0,0,0,0,0,0,0,0,0,0,0,0,0,0,0,0,0,0,0,0,0,0,0,0,0,0,0,0,0,0,0,0,0,0,0,0,0,0,0,0,0,0,0,0,0,0,0,0,0,0,0,0,0,0,0,0,0,0,0,0,0,0,0,0,0,0,0,0,0,0,0,0,0,0,0,0,0,0,0,0,0,0,0,0,0,0,0,0,0,0,0,0,0,0,0,0,0,0,0,0,0,0,0,0,0,0,0,0,0,0,0,0,0,0,0,0,0,0,0,0,0,0,0,0,0,0,0,0,0,0,0,0,0,0,0,0,0,0,0,0,0,0,0,0,0,0,0,0,0,0,0,0,0,0,0,0,0,0,0,0,0,0,0,0,0,0,0,0,0,0,0,0,0,0,0,0,0,0,0,0,0,0,0,0,0,0,0,0,0,0,0,0,0,0,0,0,0,0,0,0,0,0,0,0,0,0,0,0,0,0,0,0,0,0,0,0,0,0,0,0,0,0,0,0,0,0,0,0,0,0,0,0,0,0,0,0,0,0,0,0,0,0,0,0,0,0,0,0,0,0,0,0,0,0,0,0,0,0,0,0,0,0,0,0,0,0,0,0,0,0,0,0,0,0,0,0,0,0,0,0,0,0,0,0,0,0,0,0,0,0,0,0,0,0,0,0,0,0,0,0,0,0,0,0,0,0,0,0,0,0,0,0,0,0,0,0,0,0,0,0,0,0,0,0,0,0,0,0,0,0,0,0,0,0,0,0,0,0,0,0,0,0,0,0,0,0,0,0,0,0,0,0,0,0,0,0,0,0,0,0,0,0,0,0,0,0,0,0,0,0,0,0,0,0,0,0,0,0,0,0,0,0,0,0,0,0,0,0,0,0,0,0,0,0,0,0,0,0,0,0,0,0,0,0,0,0,0,0,0,0,0,0,0,0,0,0,0,0,0,0,0,0,0,0,0,0,0,0,0,0,0,0,0,0,0,0,0,0,0,0,0,0,0,0,0,0,0,0,0,0,0,0,0,0,0,0,0,0,0,0,0,0,0,0,0,0,0,0,0,0,0,0,0,0,0,0,0,0,0,0,0,0,0,0,0,0,0,0,0,0,0,0,0,0,0,0,0,0,0,0,0,0,0,0,0,0,0,0,0,0,0,0,0,0,0,0,0,0,0,0,0,0,0,0,0,0,0,0,0,0,0,0,0,0,0,0,0,0,0,0,0,0,0,0,0,0,0,0,0,0,0,0,0,0,0,0,0,0,0,0,0,0,0,0,0,0,0,0,0,0,0,0,0,0,0,0,0,0,0,0,0,0,0,0,0,0,0,0,0,0,0,0,0,0,0,0,0,0,0,0,0,0,0,0,0,0,0,0,0,0,0,0,0,0,0,0,0,0,0,0,0,0,0,0,0,0,0,0,0,0,0,0,0,0,0,0,0,0,0,0,0,0,0,0,0,0,0,0,0,0,0,0,0,0,0,0,0,0,0,0,0,0,0,0,0,0,0,0,0,0,0,0,0,0,0,0,0,0,0,0,0,0,0,0,0,0,0,0,0,0,0,0,0,0,0,0,0,0,0,0,0,0,0,0,0,0,0,0,0,0,0,0,0,0,0,0,0,0,0,0,0,0,0,0,0,0,0,0,0,0,0,0,0,0,0,0,0,0,0,0,0,0,0,0,0,0,0,0,0,0,0,0,0,0,0,0,0,0,0,0,0,0,0,0,0,0,0,0,0,0,0,0,0,0,0,0,0,0,0,0,0,0,0,0,0,0,0,0,0,0,0,0,0,0,0,0,0,0,0,0,0,0,0,0,0,0,0,0,0,0,0,0,0,0,0,0,0,0,0,0,0,0,0,0,0,0,0,0,0,0,0,0,0,0,0,0,0,0,0,0,0,0,0,0,0,0,0,0,0,0,0,0,0,0,0,0,0,0,0,0,0,0,0,0,0,0,0,0,0,0,0,0,0,0,0,0,0,0,0,0,0,0,0,0,0,0,0,0,0,0,0,0,0,0,0,0,0,0,0,0,0,0,0,0,0,0,0,0,0,0,0,0,0,0,0,0,0,0,0,0,0,0,0,0,0,0,0,0,0,0,0,0,0,0,0,0,0,0,0,0,0,0,0,0,0,0,0,0,0,0,0,0,0,0,0,0,0,0,0,0,0,0,0,0,0,0,0,0,0,0,0,0,0,0,0,0,0,0,0,0,0,0,0,0,0,0,0,0,0,0,0,0,0,0,0,0,0,0,0,0,0,0,0,0,0,0,0,0,0,0,0,0,0,0,0,0,0,0,0,0,0,0,0,0,0,0,0,0,0,0,0,0,0,0,0,0,0,0,0,0,0,0,0,0,0,0,0,0,0,0,0,0,0,0,0,0,0,0,0,0,0,0,0,0,0,0,0,0,0,0,0,0,0,0,0,0,0,0,0,0,0,0,0,0,0,0,0,0,0,0,0,0,0,0,0,0,0,0,0,0,0,0,0,0,0,0,0,0,0,0,0,0,0,0,0,0,0,0,0,0,0,0,0,0,0,0,0,0,0,0,0,0,0,0,0,0,0,0,0,0,0,0,0,0,0,0,0,0,0,0,0,0,0,0,0,0,0,0,0,0,0,0,0,0,0,0,0,0,0,0,0,0,0,0,0,0,0,0,0,0,0,0,0,0,0,0,0,0,0,0,0,0,0,0,0,0,0,0,0,0,0,0,0,0,0,0,0,0,0,0,0,0,0,0,0,0,0,0,0,0,0,0,0,0,0,0,0,0,0,0,0,0,0,0,0,0,0,0,0,0,0,0,0,0,0,0,0,0,0,0,0,0,0,0,0,0,0,0,0,0,0,0,0,0,0,0,0,0,0,0,0,0,0,0,0,0,0,0,0,0,0,0,0,0,0,0,0,0,0,0,0,0,0,0,0,0,0,0,0,0,0,0,0,0,0,0,0,0,0,0,0,0,0,0,0,0,0,0,0,0,0,0,0,0,0,0,0,0,0,0,0,0,0,0,0,0,0,0,0,0,0,0,0,0,0,0,0,0,0,0,0,0,0,0,0,0,0,0,0,0,0,0,0,0,0,0,0,0,0,0,0,0,0,0,0,0,0,0,0,0,0,0,0,0,0,0,0,0,0,0,0,0,0,0,0,0,0,0,0,0,0,0,0,0,0,0,0,0,0,0,0,0,0,0,0,0,0,0,0,0,0,0,0,0,0,0,0,0,0,0,0,0,0,0,0,0,0,0,0,0,0,0,0,0,0,0,0,0,0,0,0,0,0,0,0,0,0,0,0,0,0,0,0,0,0,0,0,0,0,0,0,0,0,0,0,0,0,0,0,0,0,0,0,0,0,0,0,0,0,0,0,0,0,0,0,0,0,0,0,0,0,0,0,0,0,0,0,0,0,0,0,0,0,0,0,0,0,0,0,0,0,0,0,0,0,0,0,0,0,0,0,0,0,0,0,0,0,0,0,0,0,0,0,0,0,0,0,0,0,0,0,0,0,0,0,0,0,0,0,0,0,0,0,0,0,0,0,0,0,0,0,0,0,0,0,0,0,0,0,0,0,0,0,0,0,0,0,0,0,0,0,0,0,0,0,0,0,0,0,0,0,0,0,0,0,0,0,0,0,0,0,0,0,0,0,0,0,0,0,0,0,0,0,0,0,0,0,0,0,0,0,0,0,0,0,0,0,0,0,0,0,0,0,0,0,0,0,0,0,0,0,0,0,0,0,0,0,0,0,0,0,0,0,0,0,0,0,0,0,0,0,0,0,0,0,0,0,0,0,0,0,0,0,0,0,0,0,0,0,0,0,0,0,0,0,0,0,0,0,0,0,0,0,0,0,0,0,0,0,0,0,0,0,0,0,0,0,0,0,0,0,0,0,0,0,0,0,0,0,0,0,0,0,0,0,0,0,0,0,0,0,0,0,0,0,0,0,0,0,0,0,0,0,0,0,0,0,0,0,0,0,0,0,0,0,0,0,0,0,0,0,0,0,0,0,0,0,0,0,0,0,0,0,0,0,0,0,0,0,0,0,0,0,0,0,0,0,0,0,0,0,0,0,0,0,0,0,0,0,0,0,0,0,0,0,0,0,0,0,0,0,0,0,0,0,0,0,0,0,0,0,0,0,0,0,0,0,0,0,0,0,0,0,0,0,0,0,0,0,0,0,0,0,0,0,0,0,0,0,0,0,0,0,0,0,0,0,0,0,0,0,0,0,0,0,0,0,0,0,0,0,0,0,0,0,0,0,0,0,0,0,0,0,0,0,0,0,0,0,0,0,0,0,0,0,0,0,0,0,0,0,0,0,0,0,0,0,0,0,0,0,0,0,0,0,0,0,0,0,0,0,0,0,0,0,0,0,0,0,0,0,0,0,0,0,0,0,0,0,0,0,0,0,0,0,0,0,0,0,0,0,0,0,0,0,0,0,0,0,0,0,0,0,0,0,0,0,0,0,0,0,0,0,0,0,0,0,0,0,0,0,0,0,0,0,0,0,0,0,0,0,0,0,0,0,0,0,0,0,0,0,0,0,0,0,0,0,0,0,0,0,0,0,0,0,0,0,0,0,0,0,0,0,0,0,0,0,0,0,0,0,0,0,0,0,0,0,0,0,0,0,0,0,0,0,0,0,0,0,0,0,0,0,0,0,0,0,0,0,0,0,0,0,0,0,0,0,0,0,0,0,0,0,0,0,0,0,0,0,0,0,0,0,0,0,0,0,0,0,0,0,0,0,0,0,0,0,0,0,0,0,0,0,0,0,0,0,0,0,0,0,0,0,0,0,0,0,0,0,0,0,0,0,0,0,0,0,0,0,0,0,0,0,0,0,0,0,0,0,0,0,0,0,0,0,0,0,0,0,0,0,0,0,0,0,0,0,0,0,0,0,0,0,0,0,0,0,0,0,0,0,0,0,0,0,0,0,0,0,0,0,0,0,0,0,0,0,0,0,0,0,0,0,0,0,0,0,0,0,0,0,0,0,0,0,0,0,0,0,0,0,0,0,0,0,0,0,0,0,0,0,0,0,0,0,0,0,0,0,0,0,0,0,0,0,0,0,0,0,0,0,0,0,0,0,0,0,0,0,0,0,0,0,0,0,0,0,0,0,0,0,0,0,0,0,0,0,0,0,0,0,0,0,0,0,0,0,0,0,0,0,0,0,0,0,0,0,0,0,0,0,0,0,0,0,0,0,0,0,0,0,0,0,0,0,0,0,0,0,0,0,0,0,0,0,0,0,0,0,0,0,0,0,0,0,0,0,0,0,0,0,0,0,0,0,0,0,0,0,0,0,0,0,0,0,0,0,0,0,0,0,0,0,0,0,0,0,0,0,0,0,0,0,0,0,0,0,0,0,0,0,0,0,0,0,0,0,0,0,0,0,0,0,0,0,0,0,0,0,0,0,0,0,0,0,0,0,0,0,0,0,0,0,0,0,0,0,0,0,0,0,0,0,0,0,0,0,0,0,0,0,0,0,0,0,0,0,0,0,0,0,0,0,0,0,0,0,0,0,0,0,0,0,0,0,0,0,0,0,0,0,0,0,0,0,0,0,0,0,0,0,0,0,0,0,0,0,0,0,0,0,0,0,0,0,0,0,0,0,0,0,0,0,0,0,0,0,0,0,0,0,0,0,0,0,0,0,0,0,0,0,0,0,0,0,0,0,0,0,0,0,0,0,0,0,0,0,0,0,0,0,0,0,0,0,0,0,0,0,0,0,0,0,0,0,0,0,0,0,0,0,0,0,0,0,0,0,0,0,0,0,0,0,0,0,0,0,0,0,0,0,0,0,0,0,0,0,0,0,0,0,0,0,0,0,0,0,0,0,0,0,0,0,0,0,0,0,0,0,0,0,0,0,0,0,0,0,0,0,0,0,0,0,0,0,0,0,0,0,0,0,0,0,0,0,0,0,0,0,0,0,0,0,0,0,0,0,0,0,0,0,0,0,0,0,0,0,0,0,0,0,0,0,0,0,0,0,0,0,0,0,0,0,0,0,0,0,0,0,0,0,0,0,0,0,0,0,0,0,0,0,0,0,0,0,0,0,0,0,0,0,0,0,0,0,0,0,0,0,0,0,0,0,0,0,0,0,0,0,0,0,0,0,0,0,0,0,0,0,0,0,0,0,0,0,0,0,0,0,0,0,0,0,0,0,0,0,0,0,0,0,0,0,0,0,0,0,0,0,0,0,0,0,0,0,0,0,0,0,0,0,0,0,0,0,0,0,0,0,0,0,0,0,0,0,0,0,0,0,0,0,0,0,0,0,0,0,0,0,0,0,0,0,0,0,0,0,0,0,0,0,0,0,0,0,0,0,0,0,0,0,0,0,0,0,0,0,0,0,0,0,0,0,0,0,0,0,0,0,0,0,0,0,0,0,0,0,0,0,0,0,0,0,0,0,0,0,0,0,0,0,0,0,0,0,0,0,0,0,0,0,0,0,0,0,0,0,0,0,0,0,0,0,0,0,0,0,0,0,0,0,0,0,0,0,0,0,0,0,0,0,0,0,0,0,0,0,0,0,0,0,0,0,0,0,0,0,0,0,0,0,0,0,0,0,0,0,0,0,0,0,0,0,0,0,0,0,0,0,0,0,0,0,0,0,0,0,0,0,0,0,0,0,0,0,0,0,0,0,0,0,0,0,0,0,0,0,0,0,0,0,0,0,0,0,0,0,0,0,0,0,0,0,0,0,0,0,0,0,0,0,0,0,0,0,0,0,0,0,0,0,0,0,0,0,0,0,0,0,0,0,0,0,0,0,0,0,0,0,0,0,0,0,0,0,0,0,0,0,0,0,0,0,0,0,0,0,0,0,0,0,0,0,0,0,0,0,0,0,0,0,0,0,0,0,0,0,0,0,0,0,0,0,0,0,0,0,0,0,0,0,0,0,0,0,0,0,0,0,0,0,0,0,0,0,0,0,0,0,0,0,0,0,0,0,0,0,0,0,0,0,0,0,0,0,0,0,0,0,0,0,0,0,0,0,0,0,0,0,0,0,0,0,0,0,0,0,0,0,0,0,0,0,0,0,0,0,0,0,0,0,0,0,0,0,0,0,0,0,0,0,0,0,0,0,0,0,0,0,0,0,0,0,0,0,0,0,0,0,0,0,0,0,0,0,0,0,0,0,0,0,0,0,0,0,0,0,0,0,0,0,0,0,0,0,0,0,0,0,0,0,0,0,0,0,0,0,0,0,0,0,0,0,0,0,0,0,0,0,0,0,0,0,0,0,0,0,0,0,0,0,0,0,0,0,0,0,0,0,0,0,0,0,0,0,0,0,0,0,0,0,0,0,0,0,0,0,0,0,0,0,0,0,0,0,0,0,0,0,0,0,0,0,0,0,0,0,0,0,0,0,0,0,0,0,0,0,0,0,0,0,0,0,0,0,0,0,0,0,0,0,0,0,0,0,0,0,0,0,0,0,0,0,0,0,0,0,0,0,0,0,0,0,0,0,0,0,0,0,0,0,0,0,0,0,0,0,0,0,0,0,0,0,0,0,0,0,0,0,0,0,0,0,0,0,0,0,0,0,0,0,0,0,0,0,0,0,0,0,0,0,0,0,0,0,0,0,0,0,0,0,0,0,0,0,0,0,0,0,0,0,0,0,0,0,0,0,0,0,0,0,0,0,0,0,0,0,0,0,0,0,0,0,0,0,0,0,0,0,0,0,0,0,0,0,0,0,0,0,0,0,0,0,0,0,0,0,0,0,0,0,0,0,0,0,0,0,0,0,0,0,0,0,0,0,0,0,0,0,0,0,0,0,0,0,0,0,0,0,0,0,0,0,0,0,0,0,0,0,0,0,0,0,0,0,0,0,0,0,0,0,0,0,0,0,0,0,0,0,0,0,0,0,0,0,0,0,0,0,0,0,0,0,0,0,0,0,0,0,0,0,0,0,0,0,0,0,0,0,0,0,0,0,0,0,0,0,0,0,0,0,0,0,0,0,0,0,0,0,0,0,0,0,0,0,0,0,0,0,0,0,0,0,0,0,0,0,0,0,0,0,0,0,0,0,0,0,0,0,0,0,0,0,0,0,0,0,0,0,0,0,0,0,0,0,0,0,0,0,0,0,0,0,0,0,0,0,0,0,0,0,0,0,0,0,0,0,0,0,0,0,0,0,0,0,0,0,0,0,0,0,0,0,0,0,0,0,0,0,0,0,0,0,0,0,0,0,0,0,0,0,0,0,0,0,0,0,0,0,0,0,0,0,0,0,0,0,0,0,0,0,0,0,0,0,0,0,0,0,0,0,0,0,0,0,0,0,0,0,0,0,0,0,0,0,0,0,0,0,0,0,0,0,0,0,0,0,0,0,0,0,0,0,0,0,0,0,0,0,0,0,0,0,0,0,0,0,0,0,0,0,0,0,0,0,0,0,0,0,0,0,0,0,0,0,0,0,0,0,0,0,0,0,0,0,0,0,0,0,0,0,0,0,0,0,0,0,0,0,0,0,0,0,0,0,0,0,0,0,0,0,0,0,0,0,0,0,0,0,0,0,0,0,0,0,0,0,0,0,0,0,0,0,0,0,0,0,0,0,0,0,0,0,0,0,0,0,0,0,0,0,0,0,0,0,0,0,0,0,0,0,0,0,0,0,0,0,0,0,0,0,0,0,0,0,0,0,0,0,0,0,0,0,0,0,0,0,0,0,0,0,0,0,0,0,0,0,0,0,0,0,0,0,0,0,0,0,0,0,0,0,0,0,0,0,0,0,0,0,0,0,0,0,0,0,0,0,0,0,0,0,0,0,0,0,0,0,0,0,0,0,0,0,0,0,0,0,0,0,0,0,0,0,0,0,0,0,0,0,0,0,0,0,0,0,0,0,0,0,0,0,0,0,0,0,0,0,0,0,0,0,0,0,0,0,0,0,0,0,0,0,0,0,0,0,0,0,0,0,0,0,0,0,0,0,0,0,0,0,0,0,0,0,0,0,0,0,0,0,0,0,0,0,0,0,0,0,0,0,0,0,0,0,0,0,0,0,0,0,0,0,0,0,0,0,0,0,0,0,0,0,0,0,0,0,0,0,0,0,0,0,0,0,0,0,0,0,0,0,0,0,0,0,0,0,0,0,0,0,0,0,0,0,0,0,0,0,0,0,0,0,0,0,0,0,0,0,0,0,0,0,0,0,0,0,0,0,0,0,0,0,0,0,0,0,0,0,0,0,0,0,0,0,0,0,0,0,0,0,0,0,0,0,0,0,0,0,0,0,0,0,0,0,0,0,0,0,0,0,0,0,0,0,0,0,0,0,0,0,0,0,0,0,0,0,0,0,0,0,0,0,0,0,0,0,0,0,0,0,0,0,0,0,0,0,0,0,0,0,0,0,0,0,0,0,0,0,0,0,0,0,0,0,0,0,0,0,0,0,0,0,0,0,0,0,0,0,0,0,0,0,0,0,0,0,0,0,0,0,0,0,0,0,0,0,0,0,0,0,0,0,0,0,0,0,0,0,0,0,0,0,0,0,0,0,0,0,0,0,0,0,0,0,0,0,0,0,0,0,0,0,0,0,0,0,0,0,0,0,0,0,0,0,0,0,0,0,0,0,0,0,0,0,0,0,0,0,0,0,0,0,0,0,0,0,0,0,0,0,0,0,0,0,0,0,0,0,0,0,0,0,0,0,0,0,0,0,0,0,0,0,0,0,0,0,0,0,0,0,0,0,0,0,0,0,0,0,0,0,0,0,0,0,0,0,0,0,0,0,0,0,0,0,0,0,0,0,0,0,0,0,0,0,0,0,0,0,0,0,0,0,0,0,0,0,0,0,0,0,0,0,0,0,0,0,0,0,0,0,0,0,0,0,0,0,0,0,0,0,0,0,0,0,497,515,533,551,0,0,0,0,0,0,0,0,0,0,0,0,0,0,0,0,0,0,0,0,0,0,0,0,0,0,0,0,0,0,0,0,0,0,0,0,0,0,0,0,0,0,0,0,0,0,0,0,0,0,0,0,0,0,0,0,0,0,0,0,0,0,0,0,0,0,0,0,0,0,0,0,0,0,0,0,0,0,0,0,0,0,0,0,0,0,0,0,0,0,0,0,0,0,0,0,0,0,0,0,0,0,0,0,0,0,0,0,0,0,0,0,0,0,0,0,0,0,0,0,0,0,0,0,0,0,0,0,0,0,0,0,0,0,0,0,0,0,0,0,0,0,0,0,0,0,0,0,0,0,0,0,0,0,0,0,0,0,0,0,0,0,0,0,0,0,0,0,0,0,0,0,0,0,0,0,0,0,0,0,0,0,0,0,0,0,0,0,0,0,0,0,0,0,0,0,0,0,0,0,0,0,0,0,0,0,0,0,0,0,0,0,0,0,0,0,0,0,0,0,0,0,0,0,0,0,0,0,0,0,0,0,0,0,0,0,0,0,0,0,0,0,0,0,0,0,0,0,0,0,0,0,498,516,534,552,0,0,0,0,0,0,0,0,0,0,0,0,0,0,0,0,0,0,0,0,0,0,0,0,0,0,0,0,0,0,0,0,0,0,0,0,0,0,0,0,0,0,0,0,0,0,0,0,0,0,0,0,0,0,0,0,0,0,0,0,0,0,0,0,0,0,0,0,0,0,0,0,0,0,0,0,0,0,0,0,0,0,0,0,0,0,0,0,0,0,0,0,0,0,0,0,0,0,0,0,0,0,0,0,0,0,0,0,0,0,0,0,0,0,0,0,0,0,0,0,0,0,0,0,0,0,0,0,0,0,0,0,0,0,0,0,0,0,0,0,0,0,0,0,0,0,0,0,0,0,0,0,0,0,0,0,0,0,0,0,0,0,0,0,0,0,0,0,0,0,0,0,0,0,0,0,0,0,0,0,0,0,0,0,0,0,0,0,0,0,0,0,0,0,0,0,0,0,0,0,0,0,0,0,0,0,0,0,0,0,0,0,0,0,0,0,0,0,0,0,0,0,0,0,0,0,0,0,0,0,0,0,0,0,0,0,0,0,0,0,0,0,0,0,0,0,0,0,0,0,0,0,499,517,535,553,0,0,0,0,0,0,0,0,0,0,0,0,0,0,0,0,0,0,0,0,0,0,0,0,0,0,0,0,0,0,0,0,0,0,0,0,0,0,0,0,0,0,0,0,0,0,0,0,0,0,0,0,0,0,0,0,0,0,0,0,0,0,0,0,0,0,0,0,0,0,0,0,0,0,0,0,0,0,0,0,0,0,0,0,0,0,0,0,0,0,0,0,0,0,0,0,0,0,0,0,0,0,0,0,0,0,0,0,0,0,0,0,0,0,0,0,0,0,0,0,0,0,0,0,0,0,0,0,0,0,0,0,0,0,0,0,0,0,0,0,0,0,0,0,0,0,0,0,0,0,0,0,0,0,0,0,0,0,0,0,0,0,0,0,0,0,0,0,0,0,0,0,0,0,0,0,0,0,0,0,0,0,0,0,0,0,0,0,0,0,0,0,0,0,0,0,0,0,0,0,0,0,0,0,0,0,0,0,0,0,0,0,0,0,0,0,0,0,0,0,0,0,0,0,0,0,0,0,0,0,0,0,0,0,0,0,0,0,0,0,0,0,0,0,0,0,0,0,0,0,0,0,500,518,536,554,0,0,0,0,0,0,0,0,0,0,0,0,0,0,0,0,0,0,0,0,0,0,0,0,0,0,0,0,0,0,0,0,0,0,0,0,0,0,0,0,0,0,0,0,0,0,0,0,0,0,0,0,0,0,0,0,0,0,0,0,0,0,0,0,0,0,0,0,0,0,0,0,0,0,0,0,0,0,0,0,0,0,0,0,0,0,0,0,0,0,0,0,0,0,0,0,0,0,0,0,0,0,0,0,0,0,0,0,0,0,0,0,0,0,0,0,0,0,0,0,0,0,0,0,0,0,0,0,0,0,0,0,0,0,0,0,0,0,0,0,0,0,0,0,0,0,0,0,0,0,0,0,0,0,0,0,0,0,0,0,0,0,0,0,0,0,0,0,0,0,0,0,0,0,0,0,0,0,0,0,0,0,0,0,0,0,0,0,0,0,0,0,0,0,0,0,0,0,0,0,0,0,0,0,0,0,0,0,0,0,0,0,0,0,0,0,0,0,0,0,0,0,0,0,0,0,0,0,0,0,0,0,0,0,0,0,0,0,0,0,0,0,0,0,0,0,0,0,0,0,0,0,501,519,537,555,569,587,605,623,0,0,0,0,0,0,0,0,0,0,0,0,0,0,0,0,0,0,0,0,0,0,0,0,0,0,0,0,0,0,0,0,0,0,0,0,0,0,0,0,0,0,0,0,0,0,0,0,0,0,0,0,0,0,0,0,0,0,0,0,0,0,0,0,0,0,0,0,0,0,0,0,0,0,0,0,0,0,0,0,0,0,0,0,0,0,0,0,0,0,0,0,0,0,0,0,0,0,0,0,0,0,0,0,0,0,0,0,0,0,0,0,0,0,0,0,0,0,0,0,0,0,0,0,0,0,0,0,0,0,0,0,0,0,0,0,0,0,0,0,0,0,0,0,0,0,0,0,0,0,0,0,0,0,0,0,0,0,0,0,0,0,0,0,0,0,0,0,0,0,0,0,0,0,0,0,0,0,0,0,0,0,0,0,0,0,0,0,0,0,0,0,0,0,0,0,0,0,0,0,0,0,0,0,0,0,0,0,0,0,0,0,0,0,0,0,0,0,0,0,0,0,0,0,0,0,0,0,0,0,0,0,0,0,0,0,0,0,0,0,0,0,0,0,0,0,0,0,502,520,538,556,570,588,606,624,0,0,0,0,0,0,0,0,0,0,0,0,0,0,0,0,0,0,0,0,0,0,0,0,0,0,0,0,0,0,0,0,0,0,0,0,0,0,0,0,0,0,0,0,0,0,0,0,0,0,0,0,0,0,0,0,0,0,0,0,0,0,0,0,0,0,0,0,0,0,0,0,0,0,0,0,0,0,0,0,0,0,0,0,0,0,0,0,0,0,0,0,0,0,0,0,0,0,0,0,0,0,0,0,0,0,0,0,0,0,0,0,0,0,0,0,0,0,0,0,0,0,0,0,0,0,0,0,0,0,0,0,0,0,0,0,0,0,0,0,0,0,0,0,0,0,0,0,0,0,0,0,0,0,0,0,0,0,0,0,0,0,0,0,0,0,0,0,0,0,0,0,0,0,0,0,0,0,0,0,0,0,0,0,0,0,0,0,0,0,0,0,0,0,0,0,0,0,0,0,0,0,0,0,0,0,0,0,0,0,0,0,0,0,0,0,0,0,0,0,0,0,0,0,0,0,0,0,0,0,0,0,0,0,0,0,0,0,0,0,0,0,0,0,0,0,0,0,503,521,539,557,571,589,607,625,0,0,0,0,0,0,0,0,0,0,0,0,0,0,0,0,0,0,0,0,0,0,0,0,0,0,0,0,0,0,0,0,0,0,0,0,0,0,0,0,0,0,0,0,0,0,0,0,0,0,0,0,0,0,0,0,0,0,0,0,0,0,0,0,0,0,0,0,0,0,0,0,0,0,0,0,0,0,0,0,0,0,0,0,0,0,0,0,0,0,0,0,0,0,0,0,0,0,0,0,0,0,0,0,0,0,0,0,0,0,0,0,0,0,0,0,0,0,0,0,0,0,0,0,0,0,0,0,0,0,0,0,0,0,0,0,0,0,0,0,0,0,0,0,0,0,0,0,0,0,0,0,0,0,0,0,0,0,0,0,0,0,0,0,0,0,0,0,0,0,0,0,0,0,0,0,0,0,0,0,0,0,0,0,0,0,0,0,0,0,0,0,0,0,0,0,0,0,0,0,0,0,0,0,0,0,0,0,0,0,0,0,0,0,0,0,0,0,0,0,0,0,0,0,0,0,0,0,0,0,0,0,0,0,0,0,0,0,0,0,0,0,0,0,0,0,0,0,504,522,540,558,572,590,608,626,0,0,0,0,0,0,0,0,0,0,0,0,0,0,0,0,0,0,0,0,0,0,0,0,0,0,0,0,0,0,0,0,0,0,0,0,0,0,0,0,0,0,0,0,0,0,0,0,0,0,0,0,0,0,0,0,0,0,0,0,0,0,0,0,0,0,0,0,0,0,0,0,0,0,0,0,0,0,0,0,0,0,0,0,0,0,0,0,0,0,0,0,0,0,0,0,0,0,0,0,0,0,0,0,0,0,0,0,0,0,0,0,0,0,0,0,0,0,0,0,0,0,0,0,0,0,0,0,0,0,0,0,0,0,0,0,0,0,0,0,0,0,0,0,0,0,0,0,0,0,0,0,0,0,0,0,0,0,0,0,0,0,0,0,0,0,0,0,0,0,0,0,0,0,0,0,0,0,0,0,0,0,0,0,0,0,0,0,0,0,0,0,0,0,0,0,0,0,0,0,0,0,0,0,0,0,0,0,0,0,0,0,0,0,0,0,0,0,0,0,0,0,0,0,0,0,0,0,0,0,0,0,0,0,0,0,0,0,0,0,0,0,0,0,0,0,0,0,505,523,541,559,573,591,609,627,641,663,685,707,0,0,0,0,0,0,0,0,0,0,0,0,0,0,0,0,0,0,0,0,0,0,0,0,0,0,0,0,0,0,0,0,0,0,0,0,0,0,0,0,0,0,0,0,0,0,0,0,0,0,0,0,0,0,0,0,0,0,0,0,0,0,0,0,0,0,0,0,0,0,0,0,0,0,0,0,0,0,0,0,0,0,0,0,0,0,0,0,0,0,0,0,0,0,0,0,0,0,0,0,0,0,0,0,0,0,0,0,0,0,0,0,0,0,0,0,0,0,0,0,0,0,0,0,0,0,0,0,0,0,0,0,0,0,0,0,0,0,0,0,0,0,0,0,0,0,0,0,0,0,0,0,0,0,0,0,0,0,0,0,0,0,0,0,0,0,0,0,0,0,0,0,0,0,0,0,0,0,0,0,0,0,0,0,0,0,0,0,0,0,0,0,0,0,0,0,0,0,0,0,0,0,0,0,0,0,0,0,0,0,0,0,0,0,0,0,0,0,0,0,0,0,0,0,0,0,0,0,0,0,0,0,0,0,0,0,0,0,0,1344,1358,1372,1386,1386,506,524,542,560,574,592,610,628,642,664,686,708,0,0,0,0,0,0,0,0,0,0,0,0,0,0,0,0,0,0,0,0,0,0,0,0,0,0,0,0,0,0,0,0,0,0,0,0,0,0,0,0,0,0,0,0,0,0,0,0,0,0,0,0,0,0,0,0,0,0,0,0,0,0,0,0,0,0,0,0,0,0,0,0,0,0,0,0,0,0,0,0,0,0,0,0,0,0,0,0,0,0,0,0,0,0,0,0,0,0,0,0,0,0,0,0,0,0,0,0,0,0,0,0,0,0,0,0,0,0,0,0,0,0,0,0,0,0,0,0,0,0,0,0,0,0,0,0,0,0,0,0,0,0,0,0,0,0,0,0,0,0,0,0,0,0,0,0,0,0,0,0,0,0,0,0,0,0,0,0,0,0,0,0,0,0,0,0,0,0,0,0,0,0,0,0,0,0,0,0,0,0,0,0,0,0,0,0,0,0,0,0,0,0,0,0,0,0,0,0,0,0,0,0,0,0,0,0,0,0,0,0,0,0,0,0,0,0,0,0,0,0,0,0,0,0,0,0,0,0,0,1345,1359,1373,1387,1387,507,525,543,561,575,593,611,629,643,665,687,709,0,0,0,0,0,0,0,0,0,0,0,0,0,0,0,0,0,0,0,0,0,0,0,0,0,0,0,0,0,0,0,0,0,0,0,0,0,0,0,0,0,0,0,0,0,0,0,0,0,0,0,0,0,0,0,0,0,0,0,0,0,0,0,0,0,0,0,0,0,0,0,0,0,0,0,0,0,0,0,0,0,0,0,0,0,0,0,0,0,0,0,0,0,0,0,0,0,0,0,0,0,0,0,0,0,0,0,0,0,0,0,0,0,0,0,0,0,0,0,0,0,0,0,0,0,0,0,0,0,0,0,0,0,0,0,0,0,0,0,0,0,0,0,0,0,0,0,0,0,0,0,0,0,0,0,0,0,0,0,0,0,0,0,0,0,0,0,0,0,0,0,0,0,0,0,0,0,0,0,0,0,0,0,0,0,0,0,0,0,0,0,0,0,0,0,0,0,0,0,0,0,0,0,0,0,0,0,0,0,0,0,0,0,0,0,0,0,0,0,0,0,0,0,0,0,0,0,0,0,0,0,0,0,0,0,0,0,1312,1328,1346,1360,1374,1388,1388,508,526,544,562,576,594,612,630,644,666,688,710,0,0,0,0,0,0,0,0,0,0,0,0,0,0,0,0,0,0,0,0,0,0,0,0,0,0,0,0,0,0,0,0,0,0,0,0,0,0,0,0,0,0,0,0,0,0,0,0,0,0,0,0,0,0,0,0,0,0,0,0,0,0,0,0,0,0,0,0,0,0,0,0,0,0,0,0,0,0,0,0,0,0,0,0,0,0,0,0,0,0,0,0,0,0,0,0,0,0,0,0,0,0,0,0,0,0,0,0,0,0,0,0,0,0,0,0,0,0,0,0,0,0,0,0,0,0,0,0,0,0,0,0,0,0,0,0,0,0,0,0,0,0,0,0,0,0,0,0,0,0,0,0,0,0,0,0,0,0,0,0,0,0,0,0,0,0,0,0,0,0,0,0,0,0,0,0,0,0,0,0,0,0,0,0,0,0,0,0,0,0,0,0,0,0,0,0,0,0,0,0,0,0,0,0,0,0,0,0,0,0,0,0,0,0,0,0,0,0,0,0,0,0,0,0,0,0,0,0,0,0,0,0,0,0,0,0,0,1313,1329,1347,1361,1375,1389,1389,509,527,545,563,577,595,613,631,645,667,689,711,0,0,0,0,0,0,0,0,0,0,0,0,0,0,0,0,0,0,0,0,0,0,0,0,0,0,0,0,0,0,0,0,0,0,0,0,0,0,0,0,0,0,0,0,0,0,0,0,0,0,0,0,0,0,0,0,0,0,0,0,0,0,0,0,0,0,0,0,0,0,0,0,0,0,0,0,0,0,0,0,0,0,0,0,0,0,0,0,0,0,0,0,0,0,0,0,0,0,0,0,0,0,0,0,0,0,0,0,0,0,0,0,0,0,0,0,0,0,0,0,0,0,0,0,0,0,0,0,0,0,0,0,0,0,0,0,0,0,0,0,0,0,0,0,0,0,0,0,0,0,0,0,0,0,0,0,0,0,0,0,0,0,0,0,0,0,0,0,0,0,0,0,0,0,0,0,0,0,0,0,0,0,0,0,0,0,0,0,0,0,0,0,0,0,0,0,0,0,0,0,0,0,0,0,0,0,0,0,0,0,0,0,0,0,0,0,0,0,0,0,0,0,0,0,0,0,0,1172,1186,1200,1214,1228,1242,1256,1270,1284,1298,1314,1330,1348,1362,1376,1390,1390,506,524,542,560,578,596,614,632,646,668,690,712,0,0,0,0,0,0,0,0,0,0,0,0,0,0,0,0,0,0,0,0,0,0,0,0,0,0,0,0,0,0,0,0,0,0,0,0,0,0,0,0,0,0,0,0,0,0,0,0,0,0,0,0,0,0,0,0,0,0,0,0,0,0,0,0,0,0,0,0,0,0,0,0,0,0,0,0,0,0,0,0,0,0,0,0,0,0,0,0,0,0,0,0,0,0,0,0,0,0,0,0,0,0,0,0,0,0,0,0,0,0,0,0,0,0,0,0,0,0,0,0,0,0,0,0,0,0,0,0,0,0,0,0,0,0,0,0,0,0,0,0,0,0,0,0,0,0,0,0,0,0,0,0,0,0,0,0,0,0,0,0,0,0,0,0,0,0,0,0,0,0,0,0,0,0,0,0,0,0,0,0,0,0,0,0,0,0,0,0,0,0,0,0,0,0,0,0,0,0,0,0,0,0,0,0,0,0,0,0,0,0,0,0,0,0,0,0,0,0,0,0,0,0,0,0,0,0,0,1173,1187,1201,1215,1229,1243,1257,1271,1285,1299,1315,1331,1349,1363,1377,1391,1391,507,525,543,561,579,597,615,633,647,669,691,713,0,0,0,0,0,0,0,0,0,0,0,0,0,0,0,0,0,0,0,0,0,0,0,0,0,0,0,0,0,0,0,0,0,0,0,0,0,0,0,0,0,0,0,0,0,0,0,0,0,0,0,0,0,0,0,0,0,0,0,0,0,0,0,0,0,0,0,0,0,0,0,0,0,0,0,0,0,0,0,0,0,0,0,0,0,0,0,0,0,0,0,0,0,0,0,0,0,0,0,0,0,0,0,0,0,0,0,0,0,0,0,0,0,0,0,0,0,0,0,0,0,0,0,0,0,0,0,0,0,0,0,0,0,0,0,0,0,0,0,0,0,0,0,0,0,0,0,0,0,0,0,0,0,0,0,0,0,0,0,0,0,0,0,0,0,0,0,0,0,0,0,0,0,0,0,0,0,0,0,0,0,0,0,0,0,0,0,0,0,0,0,0,0,0,0,0,0,0,0,0,0,0,0,0,0,0,0,0,0,0,0,0,0,0,0,0,0,0,0,0,0,0,0,0,0,1140,1156,1174,1188,1202,1216,1230,1244,1258,1272,1286,1300,1316,1332,1350,1364,1378,1392,1392,508,526,544,562,580,598,616,634,648,670,692,714,0,0,0,0,0,0,0,0,0,0,0,0,0,0,0,0,0,0,0,0,0,0,0,0,0,0,0,0,0,0,0,0,0,0,0,0,0,0,0,0,0,0,0,0,0,0,0,0,0,0,0,0,0,0,0,0,0,0,0,0,0,0,0,0,0,0,0,0,0,0,0,0,0,0,0,0,0,0,0,0,0,0,0,0,0,0,0,0,0,0,0,0,0,0,0,0,0,0,0,0,0,0,0,0,0,0,0,0,0,0,0,0,0,0,0,0,0,0,0,0,0,0,0,0,0,0,0,0,0,0,0,0,0,0,0,0,0,0,0,0,0,0,0,0,0,0,0,0,0,0,0,0,0,0,0,0,0,0,0,0,0,0,0,0,0,0,0,0,0,0,0,0,0,0,0,0,0,0,0,0,0,0,0,0,0,0,0,0,0,0,0,0,0,0,0,0,0,0,0,0,0,0,0,0,0,0,0,0,0,0,0,0,0,0,0,0,0,0,0,0,0,0,0,0,0,1141,1157,1175,1189,1203,1217,1231,1245,1259,1273,1287,1301,1317,1333,1351,1365,1379,1393,1393,509,527,545,563,581,599,617,635,649,671,693,715,729,751,773,795,0,0,0,0,0,0,0,0,0,0,0,0,0,0,0,0,0,0,0,0,0,0,0,0,0,0,0,0,0,0,0,0,0,0,0,0,0,0,0,0,0,0,0,0,0,0,0,0,0,0,0,0,0,0,0,0,0,0,0,0,0,0,0,0,0,0,0,0,0,0,0,0,0,0,0,0,0,0,0,0,0,0,0,0,0,0,0,0,0,0,0,0,0,0,0,0,0,0,0,0,0,0,0,0,0,0,0,0,0,0,0,0,0,0,0,0,0,0,0,0,0,0,0,0,0,0,0,0,0,0,0,0,0,0,0,0,0,0,0,0,0,0,0,0,0,0,0,0,0,0,0,0,0,0,0,0,0,0,0,0,0,0,0,0,0,0,0,0,0,0,0,0,0,0,0,0,0,0,0,0,0,0,0,0,0,0,0,0,0,0,0,0,0,0,0,0,0,0,0,0,0,0,0,0,0,0,0,0,0,0,0,0,0,0,0,0,0,1068,1090,1112,1126,1142,1158,1176,1190,1204,1218,1232,1246,1260,1274,1288,1302,1318,1334,1352,1366,1380,1394,1394,506,524,542,560,578,596,614,632,650,672,694,716,730,752,774,796,0,0,0,0,0,0,0,0,0,0,0,0,0,0,0,0,0,0,0,0,0,0,0,0,0,0,0,0,0,0,0,0,0,0,0,0,0,0,0,0,0,0,0,0,0,0,0,0,0,0,0,0,0,0,0,0,0,0,0,0,0,0,0,0,0,0,0,0,0,0,0,0,0,0,0,0,0,0,0,0,0,0,0,0,0,0,0,0,0,0,0,0,0,0,0,0,0,0,0,0,0,0,0,0,0,0,0,0,0,0,0,0,0,0,0,0,0,0,0,0,0,0,0,0,0,0,0,0,0,0,0,0,0,0,0,0,0,0,0,0,0,0,0,0,0,0,0,0,0,0,0,0,0,0,0,0,0,0,0,0,0,0,0,0,0,0,0,0,0,0,0,0,0,0,0,0,0,0,0,0,0,0,0,0,0,0,0,0,0,0,0,0,0,0,0,0,0,0,0,0,0,0,0,0,0,0,0,0,0,0,0,0,0,0,0,0,0,1069,1091,1113,1127,1143,1159,1177,1191,1205,1219,1233,1247,1261,1275,1289,1303,1319,1335,1349,1363,1377,1391,1391,507,525,543,561,579,597,615,633,651,673,695,717,731,753,775,797,0,0,0,0,0,0,0,0,0,0,0,0,0,0,0,0,0,0,0,0,0,0,0,0,0,0,0,0,0,0,0,0,0,0,0,0,0,0,0,0,0,0,0,0,0,0,0,0,0,0,0,0,0,0,0,0,0,0,0,0,0,0,0,0,0,0,0,0,0,0,0,0,0,0,0,0,0,0,0,0,0,0,0,0,0,0,0,0,0,0,0,0,0,0,0,0,0,0,0,0,0,0,0,0,0,0,0,0,0,0,0,0,0,0,0,0,0,0,0,0,0,0,0,0,0,0,0,0,0,0,0,0,0,0,0,0,0,0,0,0,0,0,0,0,0,0,0,0,0,0,0,0,0,0,0,0,0,0,0,0,0,0,0,0,0,0,0,0,0,0,0,0,0,0,0,0,0,0,0,0,0,0,0,0,0,0,0,0,0,0,0,0,0,0,0,0,0,0,0,0,0,0,0,0,0,0,0,0,0,0,0,0,0,0,0,1028,1048,1070,1092,1114,1128,1144,1160,1178,1192,1206,1220,1234,1248,1262,1276,1290,1304,1320,1336,1350,1364,1378,1392,1392,508,526,544,562,580,598,616,634,652,674,696,718,732,754,776,798,0,0,0,0,0,0,0,0,0,0,0,0,0,0,0,0,0,0,0,0,0,0,0,0,0,0,0,0,0,0,0,0,0,0,0,0,0,0,0,0,0,0,0,0,0,0,0,0,0,0,0,0,0,0,0,0,0,0,0,0,0,0,0,0,0,0,0,0,0,0,0,0,0,0,0,0,0,0,0,0,0,0,0,0,0,0,0,0,0,0,0,0,0,0,0,0,0,0,0,0,0,0,0,0,0,0,0,0,0,0,0,0,0,0,0,0,0,0,0,0,0,0,0,0,0,0,0,0,0,0,0,0,0,0,0,0,0,0,0,0,0,0,0,0,0,0,0,0,0,0,0,0,0,0,0,0,0,0,0,0,0,0,0,0,0,0,0,0,0,0,0,0,0,0,0,0,0,0,0,0,0,0,0,0,0,0,0,0,0,0,0,0,0,0,0,0,0,0,0,0,0,0,0,0,0,0,0,0,0,0,0,0,0,0,0,1029,1049,1071,1093,1115,1129,1145,1161,1179,1193,1207,1221,1235,1249,1263,1277,1291,1305,1321,1337,1351,1365,1379,1393,1393,509,527,545,563,581,599,617,635,653,675,697,719,733,755,777,799,0,0,0,0,0,0,0,0,0,0,0,0,0,0,0,0,0,0,0,0,0,0,0,0,0,0,0,0,0,0,0,0,0,0,0,0,0,0,0,0,0,0,0,0,0,0,0,0,0,0,0,0,0,0,0,0,0,0,0,0,0,0,0,0,0,0,0,0,0,0,0,0,0,0,0,0,0,0,0,0,0,0,0,0,0,0,0,0,0,0,0,0,0,0,0,0,0,0,0,0,0,0,0,0,0,0,0,0,0,0,0,0,0,0,0,0,0,0,0,0,0,0,0,0,0,0,0,0,0,0,0,0,0,0,0,0,0,0,0,0,0,0,0,0,0,0,0,0,0,0,0,0,0,0,0,0,0,0,0,0,0,0,0,0,0,0,0,0,0,0,0,0,0,0,0,0,0,0,0,0,0,0,0,0,0,0,0,0,0,0,0,0,0,0,0,0,0,0,0,0,0,0,0,0,0,0,0,0,0,0,0,0,0,0,0,1030,1050,1072,1094,1116,1130,1146,1162,1180,1194,1208,1222,1236,1250,1264,1278,1292,1306,1322,1338,1352,1366,1380,1394,1394,506,524,542,560,578,596,614,632,654,676,698,720,734,756,778,800,0,0,0,0,0,0,0,0,0,0,0,0,0,0,0,0,0,0,0,0,0,0,0,0,0,0,0,0,0,0,0,0,0,0,0,0,0,0,0,0,0,0,0,0,0,0,0,0,0,0,0,0,0,0,0,0,0,0,0,0,0,0,0,0,0,0,0,0,0,0,0,0,0,0,0,0,0,0,0,0,0,0,0,0,0,0,0,0,0,0,0,0,0,0,0,0,0,0,0,0,0,0,0,0,0,0,0,0,0,0,0,0,0,0,0,0,0,0,0,0,0,0,0,0,0,0,0,0,0,0,0,0,0,0,0,0,0,0,0,0,0,0,0,0,0,0,0,0,0,0,0,0,0,0,0,0,0,0,0,0,0,0,0,0,0,0,0,0,0,0,0,0,0,0,0,0,0,0,0,0,0,0,0,0,0,0,0,0,0,0,0,0,0,0,0,0,0,0,0,0,0,0,0,0,0,0,0,0,0,0,0,0,0,0,0,1031,1051,1073,1095,1117,1131,1147,1163,1177,1191,1205,1219,1233,1247,1261,1275,1289,1303,1319,1335,1349,1363,1377,1391,1391,507,525,543,561,579,597,615,633,655,677,699,721,735,757,779,801,0,0,0,0,0,0,0,0,0,0,0,0,0,0,0,0,0,0,0,0,0,0,0,0,0,0,0,0,0,0,0,0,0,0,0,0,0,0,0,0,0,0,0,0,0,0,0,0,0,0,0,0,0,0,0,0,0,0,0,0,0,0,0,0,0,0,0,0,0,0,0,0,0,0,0,0,0,0,0,0,0,0,0,0,0,0,0,0,0,0,0,0,0,0,0,0,0,0,0,0,0,0,0,0,0,0,0,0,0,0,0,0,0,0,0,0,0,0,0,0,0,0,0,0,0,0,0,0,0,0,0,0,0,0,0,0,0,0,0,0,0,0,0,0,0,0,0,0,0,0,0,0,0,0,0,0,0,0,0,0,0,0,0,0,0,0,0,0,0,0,0,0,0,0,0,0,0,0,0,0,0,0,0,0,0,0,0,0,0,0,0,0,0,0,0,0,0,0,0,0,0,0,0,0,0,0,0,0,0,0,0,0,0,0,0,1032,1052,1074,1096,1118,1132,1148,1164,1178,1192,1206,1220,1234,1248,1262,1276,1290,1304,1320,1336,1350,1364,1378,1392,1392,508,526,544,562,580,598,616,634,656,678,700,722,736,758,780,802,0,0,0,859,0,0,0,0,0,0,0,0,0,0,0,0,0,0,0,0,0,0,0,0,0,0,0,0,0,0,0,0,0,0,0,0,0,0,0,0,0,0,0,0,0,0,0,0,0,0,0,0,0,0,0,0,0,0,0,0,0,0,0,0,0,0,0,0,0,0,0,0,0,0,0,0,0,0,0,0,0,0,0,0,0,0,0,0,0,0,0,0,0,0,0,0,0,0,0,0,0,0,0,0,0,0,0,0,0,0,0,0,0,0,0,0,0,0,0,0,0,0,0,0,0,0,0,0,0,0,0,0,0,0,0,0,0,0,0,0,0,0,0,0,0,0,0,0,0,0,0,0,0,0,0,0,0,0,0,0,0,0,0,0,0,0,0,0,0,0,0,0,0,0,0,0,0,0,0,0,0,0,0,0,0,0,0,0,0,0,0,0,0,0,0,0,0,0,0,0,0,0,0,0,0,0,0,0,0,0,0,0,0,0,0,1033,1053,1075,1097,1119,1133,1149,1165,1179,1193,1207,1221,1235,1249,1263,1277,1291,1305,1321,1337,1351,1365,1379,1393,1393,509,527,545,563,581,599,617,635,657,679,701,723,737,759,781,803,817,831,845,860,874,888,902,916,930,944,958,972,874,888,902,916,930,944,958,972,874,888,902,916,930,944,958,972,874,888,902,916,930,944,958,972,874,888,902,916,930,944,958,972,0,0,0,0,0,0,0,0,874,888,902,916,930,944,958,972,874,888,902,916,930,944,958,972,874,888,902,916,930,944,958,972,0,0,0,0,0,0,0,0,874,888,902,916,930,944,958,972,874,888,902,916,930,944,958,972,874,888,902,916,930,944,958,972,874,888,902,916,930,944,958,972,874,888,902,916,930,944,958,972,874,888,902,916,930,944,958,972,0,0,0,0,0,0,0,0,874,888,902,916,930,944,958,972,874,888,902,916,930,944,958,972,874,888,902,916,930,944,958,972,874,888,902,916,930,944,958,972,0,0,0,0,0,0,0,0,874,888,902,916,930,944,958,972,874,888,902,916,930,944,958,972,874,888,902,916,930,944,958,972,874,888,902,916,930,944,958,972,986,1000,1014,1034,1054,1076,1098,1120,1134,1150,1166,1180,1194,1208,1222,1236,1250,1264,1278,1292,1306,1322,1338,1352,1366,1380,1394,1394,506,524,542,560,578,596,614,632,654,676,698,720,738,760,782,804,818,832,846,861,875,889,903,917,931,945,959,973,875,889,903,917,931,945,959,973,875,889,903,917,931,945,959,973,875,889,903,917,931,945,959,973,875,889,903,917,931,945,959,973,0,0,0,0,0,0,0,0,875,889,903,917,931,945,959,973,875,889,903,917,931,945,959,973,875,889,903,917,931,945,959,973,0,0,0,0,0,0,0,0,875,889,903,917,931,945,959,973,875,889,903,917,931,945,959,973,875,889,903,917,931,945,959,973,875,889,903,917,931,945,959,973,875,889,903,917,931,945,959,973,875,889,903,917,931,945,959,973,0,0,0,0,0,0,0,0,875,889,903,917,931,945,959,973,875,889,903,917,931,945,959,973,875,889,903,917,931,945,959,973,875,889,903,917,931,945,959,973,0,0,0,0,0,0,0,0,875,889,903,917,931,945,959,973,875,889,903,917,931,945,959,973,875,889,903,917,931,945,959,973,875,889,903,917,931,945,959,973,987,1001,1015,1035,1055,1077,1099,1117,1131,1147,1163,1177,1191,1205,1219,1233,1247,1261,1275,1289,1303,1319,1335,1349,1363,1377,1391,1391,507,525,543,561,579,597,615,633,655,677,699,721,739,761,783,805,819,833,847,862,876,890,904,918,932,946,960,974,876,890,904,918,932,946,960,974,876,890,904,918,932,946,960,974,876,890,904,918,932,946,960,974,876,890,904,918,932,946,960,974,739,761,783,805,819,833,847,862,876,890,904,918,932,946,960,974,876,890,904,918,932,946,960,974,876,890,904,918,932,946,960,974,739,761,783,805,819,833,847,862,876,890,904,918,932,946,960,974,876,890,904,918,932,946,960,974,876,890,904,918,932,946,960,974,876,890,904,918,932,946,960,974,876,890,904,918,932,946,960,974,876,890,904,918,932,946,960,974,739,761,783,805,819,833,847,862,876,890,904,918,932,946,960,974,876,890,904,918,932,946,960,974,876,890,904,918,932,946,960,974,876,890,904,918,932,946,960,974,739,761,783,805,819,833,847,862,876,890,904,918,932,946,960,974,876,890,904,918,932,946,960,974,876,890,904,918,932,946,960,974,876,890,904,918,932,946,960,974,988,1002,1016,1036,1056,1078,1100,1118,1132,1148,1164,1178,1192,1206,1220,1234,1248,1262,1276,1290,1304,1320,1336,1350,1364,1378,1392,1392,508,526,544,562,580,598,616,634,656,678,700,722,740,762,784,806,820,834,848,863,877,891,905,919,933,947,961,975,877,891,905,919,933,947,961,975,877,891,905,919,933,947,961,975,877,891,905,919,933,947,961,975,877,891,905,919,933,947,961,975,740,762,784,806,820,834,848,863,877,891,905,919,933,947,961,975,877,891,905,919,933,947,961,975,877,891,905,919,933,947,961,975,740,762,784,806,820,834,848,863,877,891,905,919,933,947,961,975,877,891,905,919,933,947,961,975,877,891,905,919,933,947,961,975,877,891,905,919,933,947,961,975,877,891,905,919,933,947,961,975,877,891,905,919,933,947,961,975,740,762,784,806,820,834,848,863,877,891,905,919,933,947,961,975,877,891,905,919,933,947,961,975,877,891,905,919,933,947,961,975,877,891,905,919,933,947,961,975,740,762,784,806,820,834,848,863,877,891,905,919,933,947,961,975,877,891,905,919,933,947,961,975,877,891,905,919,933,947,961,975,877,891,905,919,933,947,961,975,989,1003,1017,1037,1057,1079,1101,1119,1133,1149,1165,1179,1193,1207,1221,1235,1249,1263,1277,1291,1305,1321,1337,1351,1365,1379,1393,1393,509,527,545,563,581,599,617,635,657,679,701,723,741,763,785,807,821,835,849,864,878,892,906,920,934,948,962,976,878,892,906,920,934,948,962,976,878,892,906,920,934,948,962,976,878,892,906,920,934,948,962,976,878,892,906,920,934,948,962,976,741,763,785,807,821,835,849,864,878,892,906,920,934,948,962,976,878,892,906,920,934,948,962,976,878,892,906,920,934,948,962,976,741,763,785,807,821,835,849,864,878,892,906,920,934,948,962,976,878,892,906,920,934,948,962,976,878,892,906,920,934,948,962,976,878,892,906,920,934,948,962,976,878,892,906,920,934,948,962,976,878,892,906,920,934,948,962,976,741,763,785,807,821,835,849,864,878,892,906,920,934,948,962,976,878,892,906,920,934,948,962,976,878,892,906,920,934,948,962,976,878,892,906,920,934,948,962,976,741,763,785,807,821,835,849,864,878,892,906,920,934,948,962,976,878,892,906,920,934,948,962,976,878,892,906,920,934,948,962,976,878,892,906,920,934,948,962,976,990,1004,1018,1038,1058,1080,1102,1120,1134,1150,1166,1180,1194,1208,1222,1236,1250,1264,1278,1292,1306,1322,1338,1352,1366,1380,1394,1394,510,528,546,564,578,596,614,632,654,676,698,720,742,764,786,808,822,836,850,865,879,893,907,921,935,949,963,977,879,893,907,921,935,949,963,977,879,893,907,921,935,949,963,977,879,893,907,921,935,949,963,977,879,893,907,921,935,949,963,977,742,764,786,808,822,836,850,865,879,893,907,921,935,949,963,977,879,893,907,921,935,949,963,977,879,893,907,921,935,949,963,977,742,764,786,808,822,836,850,865,879,893,907,921,935,949,963,977,879,893,907,921,935,949,963,977,879,893,907,921,935,949,963,977,879,893,907,921,935,949,963,977,879,893,907,921,935,949,963,977,879,893,907,921,935,949,963,977,742,764,786,808,822,836,850,865,879,893,907,921,935,949,963,977,879,893,907,921,935,949,963,977,879,893,907,921,935,949,963,977,879,893,907,921,935,949,963,977,742,764,786,808,822,836,850,865,879,893,907,921,935,949,963,977,879,893,907,921,935,949,963,977,879,893,907,921,935,949,963,977,879,893,907,921,935,949,963,977,991,1005,1019,1039,1059,1081,1103,1117,1131,1147,1163,1177,1191,1205,1219,1233,1247,1261,1275,1289,1303,1319,1335,1349,1363,1377,1391,1391,511,529,547,565,579,597,615,633,655,677,699,721,743,765,787,809,823,837,851,866,880,894,908,922,936,950,964,978,880,894,908,922,936,950,964,978,880,894,908,922,936,950,964,978,880,894,908,922,936,950,964,978,880,894,908,922,936,950,964,978,743,765,787,809,823,837,851,866,880,894,908,922,936,950,964,978,880,894,908,922,936,950,964,978,880,894,908,922,936,950,964,978,743,765,787,809,823,837,851,866,880,894,908,922,936,950,964,978,880,894,908,922,936,950,964,978,880,894,908,922,936,950,964,978,880,894,908,922,936,950,964,978,880,894,908,922,936,950,964,978,880,894,908,922,936,950,964,978,743,765,787,809,823,837,851,866,880,894,908,922,936,950,964,978,880,894,908,922,936,950,964,978,880,894,908,922,936,950,964,978,880,894,908,922,936,950,964,978,743,765,787,809,823,837,851,866,880,894,908,922,936,950,964,978,880,894,908,922,936,950,964,978,880,894,908,922,936,950,964,978,880,894,908,922,936,950,964,978,992,1006,1020,1040,1060,1082,1104,1118,1132,1148,1164,1178,1192,1206,1220,1234,1248,1262,1276,1290,1304,1320,1336,1350,1364,1378,1392,1392,512,530,548,566,580,598,616,634,656,678,700,722,744,766,788,810,824,838,852,867,881,895,909,923,937,951,965,979,881,895,909,923,937,951,965,979,881,895,909,923,937,951,965,979,881,895,909,923,937,951,965,979,881,895,909,923,937,951,965,979,744,766,788,810,824,838,852,867,881,895,909,923,937,951,965,979,881,895,909,923,937,951,965,979,881,895,909,923,937,951,965,979,744,766,788,810,824,838,852,867,881,895,909,923,937,951,965,979,881,895,909,923,937,951,965,979,881,895,909,923,937,951,965,979,881,895,909,923,937,951,965,979,881,895,909,923,937,951,965,979,881,895,909,923,937,951,965,979,744,766,788,810,824,838,852,867,881,895,909,923,937,951,965,979,881,895,909,923,937,951,965,979,881,895,909,923,937,951,965,979,881,895,909,923,937,951,965,979,744,766,788,810,824,838,852,867,881,895,909,923,937,951,965,979,881,895,909,923,937,951,965,979,881,895,909,923,937,951,965,979,881,895,909,923,937,951,965,979,993,1007,1021,1041,1061,1083,1105,1119,1133,1149,1165,1179,1193,1207,1221,1235,1249,1263,1277,1291,1305,1321,1337,1351,1365,1379,1393,1393,513,531,549,567,581,599,617,635,657,679,701,723,745,767,789,811,825,839,853,868,882,896,910,924,938,952,966,980,882,896,910,924,938,952,966,980,882,896,910,924,938,952,966,980,882,896,910,924,938,952,966,980,882,896,910,924,938,952,966,980,745,767,789,811,825,839,853,868,882,896,910,924,938,952,966,980,882,896,910,924,938,952,966,980,882,896,910,924,938,952,966,980,745,767,789,811,825,839,853,868,882,896,910,924,938,952,966,980,882,896,910,924,938,952,966,980,882,896,910,924,938,952,966,980,882,896,910,924,938,952,966,980,882,896,910,924,938,952,966,980,882,896,910,924,938,952,966,980,745,767,789,811,825,839,853,868,882,896,910,924,938,952,966,980,882,896,910,924,938,952,966,980,882,896,910,924,938,952,966,980,882,896,910,924,938,952,966,980,745,767,789,811,825,839,853,868,882,896,910,924,938,952,966,980,882,896,910,924,938,952,966,980,882,896,910,924,938,952,966,980,882,896,910,924,938,952,966,980,994,1008,1022,1042,1062,1084,1106,1120,1134,1150,1166,1180,1194,1208,1222,1236,1250,1264,1278,1292,1306,1322,1338,1352,1366,1380,1394,1394,514,532,550,568,582,600,618,636,654,676,698,720,742,764,786,808,822,836,850,865,879,893,907,921,935,949,963,977,879,893,907,921,935,949,963,977,879,893,907,921,935,949,963,977,879,893,907,921,935,949,963,977,879,893,907,921,935,949,963,977,742,764,786,808,822,836,850,865,879,893,907,921,935,949,963,977,879,893,907,921,935,949,963,977,879,893,907,921,935,949,963,977,742,764,786,808,822,836,850,865,879,893,907,921,935,949,963,977,879,893,907,921,935,949,963,977,879,893,907,921,935,949,963,977,879,893,907,921,935,949,963,977,879,893,907,921,935,949,963,977,879,893,907,921,935,949,963,977,742,764,786,808,822,836,850,865,879,893,907,921,935,949,963,977,879,893,907,921,935,949,963,977,879,893,907,921,935,949,963,977,879,893,907,921,935,949,963,977,742,764,786,808,822,836,850,865,879,893,907,921,935,949,963,977,879,893,907,921,935,949,963,977,879,893,907,921,935,949,963,977,879,893,907,921,935,949,963,977,991,1005,1019,1039,1059,1081,1103,1117,1131,1147,1163,1177,1191,1205,1219,1233,1247,1261,1275,1289,1303,1319,1335,1353,1367,1381,1395,1395,0,0,0,0,583,601,619,637,655,677,699,721,743,765,787,809,823,837,851,866,880,894,908,922,936,950,964,978,880,894,908,922,936,950,964,978,880,894,908,922,936,950,964,978,880,894,908,922,936,950,964,978,880,894,908,922,936,950,964,978,743,765,787,809,823,837,851,866,880,894,908,922,936,950,964,978,880,894,908,922,936,950,964,978,880,894,908,922,936,950,964,978,743,765,787,809,823,837,851,866,880,894,908,922,936,950,964,978,880,894,908,922,936,950,964,978,880,894,908,922,936,950,964,978,880,894,908,922,936,950,964,978,880,894,908,922,936,950,964,978,880,894,908,922,936,950,964,978,743,765,787,809,823,837,851,866,880,894,908,922,936,950,964,978,880,894,908,922,936,950,964,978,880,894,908,922,936,950,964,978,880,894,908,922,936,950,964,978,743,765,787,809,823,837,851,866,880,894,908,922,936,950,964,978,880,894,908,922,936,950,964,978,880,894,908,922,936,950,964,978,880,894,908,922,936,950,964,978,992,1006,1020,1040,1060,1082,1104,1118,1132,1148,1164,1178,1192,1206,1220,1234,1248,1262,1276,1290,1304,1320,1336,1354,1368,1382,1396,1396,0,0,0,0,584,602,620,638,656,678,700,722,744,766,788,810,824,838,852,867,881,895,909,923,937,951,965,979,881,895,909,923,937,951,965,979,881,895,909,923,937,951,965,979,881,895,909,923,937,951,965,979,881,895,909,923,937,951,965,979,744,766,788,810,824,838,852,867,881,895,909,923,937,951,965,979,881,895,909,923,937,951,965,979,881,895,909,923,937,951,965,979,744,766,788,810,824,838,852,867,881,895,909,923,937,951,965,979,881,895,909,923,937,951,965,979,881,895,909,923,937,951,965,979,881,895,909,923,937,951,965,979,881,895,909,923,937,951,965,979,881,895,909,923,937,951,965,979,744,766,788,810,824,838,852,867,881,895,909,923,937,951,965,979,881,895,909,923,937,951,965,979,881,895,909,923,937,951,965,979,881,895,909,923,937,951,965,979,744,766,788,810,824,838,852,867,881,895,909,923,937,951,965,979,881,895,909,923,937,951,965,979,881,895,909,923,937,951,965,979,881,895,909,923,937,951,965,979,993,1007,1021,1041,1061,1083,1105,1119,1133,1149,1165,1179,1193,1207,1221,1235,1249,1263,1277,1291,1305,1321,1337,1355,1369,1383,1397,1397,0,0,0,0,585,603,621,639,657,679,701,723,745,767,789,811,825,839,853,868,882,896,910,924,938,952,966,980,882,896,910,924,938,952,966,980,882,896,910,924,938,952,966,980,882,896,910,924,938,952,966,980,882,896,910,924,938,952,966,980,745,767,789,811,825,839,853,868,882,896,910,924,938,952,966,980,882,896,910,924,938,952,966,980,882,896,910,924,938,952,966,980,745,767,789,811,825,839,853,868,882,896,910,924,938,952,966,980,882,896,910,924,938,952,966,980,882,896,910,924,938,952,966,980,882,896,910,924,938,952,966,980,882,896,910,924,938,952,966,980,882,896,910,924,938,952,966,980,745,767,789,811,825,839,853,868,882,896,910,924,938,952,966,980,882,896,910,924,938,952,966,980,882,896,910,924,938,952,966,980,882,896,910,924,938,952,966,980,745,767,789,811,825,839,853,868,882,896,910,924,938,952,966,980,882,896,910,924,938,952,966,980,882,896,910,924,938,952,966,980,882,896,910,924,938,952,966,980,994,1008,1022,1042,1062,1084,1106,1120,1134,1150,1166,1180,1194,1208,1222,1236,1250,1264,1278,1292,1306,1322,1338,1356,1370,1384,1398,1398,0,0,0,0,586,604,622,640,654,676,698,720,742,764,786,808,822,836,850,865,879,893,907,921,935,949,963,977,879,893,907,921,935,949,963,977,879,893,907,921,935,949,963,977,879,893,907,921,935,949,963,977,879,893,907,921,935,949,963,977,742,764,786,808,822,836,850,865,879,893,907,921,935,949,963,977,879,893,907,921,935,949,963,977,879,893,907,921,935,949,963,977,742,764,786,808,822,836,850,865,879,893,907,921,935,949,963,977,879,893,907,921,935,949,963,977,879,893,907,921,935,949,963,977,879,893,907,921,935,949,963,977,879,893,907,921,935,949,963,977,879,893,907,921,935,949,963,977,742,764,786,808,822,836,850,865,879,893,907,921,935,949,963,977,879,893,907,921,935,949,963,977,879,893,907,921,935,949,963,977,879,893,907,921,935,949,963,977,742,764,786,808,822,836,850,865,879,893,907,921,935,949,963,977,879,893,907,921,935,949,963,977,879,893,907,921,935,949,963,977,879,893,907,921,935,949,963,977,991,1005,1019,1039,1059,1081,1103,1117,1131,1147,1163,1181,1195,1209,1223,1237,1251,1265,1279,1293,1307,1323,1339,1357,1371,1385,1399,1399,0,0,0,0,0,0,0,0,655,677,699,721,743,765,787,809,823,837,851,866,880,894,908,922,936,950,964,978,880,894,908,922,936,950,964,978,880,894,908,922,936,950,964,978,880,894,908,922,936,950,964,978,880,894,908,922,936,950,964,978,743,765,787,809,823,837,851,866,880,894,908,922,936,950,964,978,880,894,908,922,936,950,964,978,880,894,908,922,936,950,964,978,743,765,787,809,823,837,851,866,880,894,908,922,936,950,964,978,880,894,908,922,936,950,964,978,880,894,908,922,936,950,964,978,880,894,908,922,936,950,964,978,880,894,908,922,936,950,964,978,880,894,908,922,936,950,964,978,743,765,787,809,823,837,851,866,880,894,908,922,936,950,964,978,880,894,908,922,936,950,964,978,880,894,908,922,936,950,964,978,880,894,908,922,936,950,964,978,743,765,787,809,823,837,851,866,880,894,908,922,936,950,964,978,880,894,908,922,936,950,964,978,880,894,908,922,936,950,964,978,880,894,908,922,936,950,964,978,992,1006,1020,1040,1060,1082,1104,1118,1132,1148,1164,1182,1196,1210,1224,1238,1252,1266,1280,1294,1308,1324,1340,0,0,0,0,0,0,0,0,0,0,0,0,0,656,678,700,722,744,766,788,810,824,838,852,867,881,895,909,923,937,951,965,979,881,895,909,923,937,951,965,979,881,895,909,923,937,951,965,979,881,895,909,923,937,951,965,979,881,895,909,923,937,951,965,979,744,766,788,810,824,838,852,867,881,895,909,923,937,951,965,979,881,895,909,923,937,951,965,979,881,895,909,923,937,951,965,979,744,766,788,810,824,838,852,867,881,895,909,923,937,951,965,979,881,895,909,923,937,951,965,979,881,895,909,923,937,951,965,979,881,895,909,923,937,951,965,979,881,895,909,923,937,951,965,979,881,895,909,923,937,951,965,979,744,766,788,810,824,838,852,867,881,895,909,923,937,951,965,979,881,895,909,923,937,951,965,979,881,895,909,923,937,951,965,979,881,895,909,923,937,951,965,979,744,766,788,810,824,838,852,867,881,895,909,923,937,951,965,979,881,895,909,923,937,951,965,979,881,895,909,923,937,951,965,979,881,895,909,923,937,951,965,979,993,1007,1021,1041,1061,1083,1105,1119,1133,1149,1165,1183,1197,1211,1225,1239,1253,1267,1281,1295,1309,1325,1341,0,0,0,0,0,0,0,0,0,0,0,0,0,657,679,701,723,745,767,789,811,825,839,853,868,882,896,910,924,938,952,966,980,882,896,910,924,938,952,966,980,882,896,910,924,938,952,966,980,882,896,910,924,938,952,966,980,882,896,910,924,938,952,966,980,745,767,789,811,825,839,853,868,882,896,910,924,938,952,966,980,882,896,910,924,938,952,966,980,882,896,910,924,938,952,966,980,745,767,789,811,825,839,853,868,882,896,910,924,938,952,966,980,882,896,910,924,938,952,966,980,882,896,910,924,938,952,966,980,882,896,910,924,938,952,966,980,882,896,910,924,938,952,966,980,882,896,910,924,938,952,966,980,745,767,789,811,825,839,853,868,882,896,910,924,938,952,966,980,882,896,910,924,938,952,966,980,882,896,910,924,938,952,966,980,882,896,910,924,938,952,966,980,745,767,789,811,825,839,853,868,882,896,910,924,938,952,966,980,882,896,910,924,938,952,966,980,882,896,910,924,938,952,966,980,882,896,910,924,938,952,966,980,994,1008,1022,1042,1062,1084,1106,1120,1134,1150,1166,1184,1198,1212,1226,1240,1254,1268,1282,1296,1310,1326,1342,0,0,0,0,0,0,0,0,0,0,0,0,0,658,680,702,724,742,764,786,808,822,836,850,865,879,893,907,921,935,949,963,977,879,893,907,921,935,949,963,977,879,893,907,921,935,949,963,977,879,893,907,921,935,949,963,977,879,893,907,921,935,949,963,977,742,764,786,808,822,836,850,865,879,893,907,921,935,949,963,977,879,893,907,921,935,949,963,977,879,893,907,921,935,949,963,977,742,764,786,808,822,836,850,865,879,893,907,921,935,949,963,977,879,893,907,921,935,949,963,977,879,893,907,921,935,949,963,977,879,893,907,921,935,949,963,977,879,893,907,921,935,949,963,977,879,893,907,921,935,949,963,977,742,764,786,808,822,836,850,865,879,893,907,921,935,949,963,977,879,893,907,921,935,949,963,977,879,893,907,921,935,949,963,977,879,893,907,921,935,949,963,977,742,764,786,808,822,836,850,865,879,893,907,921,935,949,963,977,879,893,907,921,935,949,963,977,879,893,907,921,935,949,963,977,879,893,907,921,935,949,963,977,991,1005,1019,1039,1059,1081,1103,1121,1135,1151,1167,1185,1199,1213,1227,1241,1255,1269,1283,1297,1311,1327,1343,0,0,0,0,0,0,0,0,0,0,0,0,0,659,681,703,725,743,765,787,809,823,837,851,866,880,894,908,922,936,950,964,978,880,894,908,922,936,950,964,978,880,894,908,922,936,950,964,978,880,894,908,922,936,950,964,978,880,894,908,922,936,950,964,978,743,765,787,809,823,837,851,866,880,894,908,922,936,950,964,978,880,894,908,922,936,950,964,978,880,894,908,922,936,950,964,978,743,765,787,809,823,837,851,866,880,894,908,922,936,950,964,978,880,894,908,922,936,950,964,978,880,894,908,922,936,950,964,978,880,894,908,922,936,950,964,978,880,894,908,922,936,950,964,978,880,894,908,922,936,950,964,978,743,765,787,809,823,837,851,866,880,894,908,922,936,950,964,978,880,894,908,922,936,950,964,978,880,894,908,922,936,950,964,978,880,894,908,922,936,950,964,978,743,765,787,809,823,837,851,866,880,894,908,922,936,950,964,978,880,894,908,922,936,950,964,978,880,894,908,922,936,950,964,978,880,894,908,922,936,950,964,978,992,1006,1020,1040,1060,1082,1104,1122,1136,1152,1168,0,0,0,0,0,0,0,0,0,0,0,0,0,0,0,0,0,0,0,0,0,0,0,0,0,660,682,704,726,744,766,788,810,824,838,852,867,881,895,909,923,937,951,965,979,881,895,909,923,937,951,965,979,881,895,909,923,937,951,965,979,881,895,909,923,937,951,965,979,881,895,909,923,937,951,965,979,744,766,788,810,824,838,852,867,881,895,909,923,937,951,965,979,881,895,909,923,937,951,965,979,881,895,909,923,937,951,965,979,744,766,788,810,824,838,852,867,881,895,909,923,937,951,965,979,881,895,909,923,937,951,965,979,881,895,909,923,937,951,965,979,881,895,909,923,937,951,965,979,881,895,909,923,937,951,965,979,881,895,909,923,937,951,965,979,744,766,788,810,824,838,852,867,881,895,909,923,937,951,965,979,881,895,909,923,937,951,965,979,881,895,909,923,937,951,965,979,881,895,909,923,937,951,965,979,744,766,788,810,824,838,852,867,881,895,909,923,937,951,965,979,881,895,909,923,937,951,965,979,881,895,909,923,937,951,965,979,881,895,909,923,937,951,965,979,993,1007,1021,1041,1061,1083,1105,1123,1137,1153,1169,0,0,0,0,0,0,0,0,0,0,0,0,0,0,0,0,0,0,0,0,0,0,0,0,0,661,683,705,727,745,767,789,811,825,839,853,868,882,896,910,924,938,952,966,980,882,896,910,924,938,952,966,980,882,896,910,924,938,952,966,980,882,896,910,924,938,952,966,980,882,896,910,924,938,952,966,980,745,767,789,811,825,839,853,868,882,896,910,924,938,952,966,980,882,896,910,924,938,952,966,980,882,896,910,924,938,952,966,980,745,767,789,811,825,839,853,868,882,896,910,924,938,952,966,980,882,896,910,924,938,952,966,980,882,896,910,924,938,952,966,980,882,896,910,924,938,952,966,980,882,896,910,924,938,952,966,980,882,896,910,924,938,952,966,980,745,767,789,811,825,839,853,868,882,896,910,924,938,952,966,980,882,896,910,924,938,952,966,980,882,896,910,924,938,952,966,980,882,896,910,924,938,952,966,980,745,767,789,811,825,839,853,868,882,896,910,924,938,952,966,980,882,896,910,924,938,952,966,980,882,896,910,924,938,952,966,980,882,896,910,924,938,952,966,980,994,1008,1022,1042,1062,1084,1106,1124,1138,1154,1170,0,0,0,0,0,0,0,0,0,0,0,0,0,0,0,0,0,0,0,0,0,0,0,0,0,662,684,706,728,742,764,786,808,822,836,850,865,879,893,907,921,935,949,963,977,879,893,907,921,935,949,963,977,879,893,907,921,935,949,963,977,879,893,907,921,935,949,963,977,879,893,907,921,935,949,963,977,742,764,786,808,822,836,850,865,879,893,907,921,935,949,963,977,879,893,907,921,935,949,963,977,879,893,907,921,935,949,963,977,742,764,786,808,822,836,850,865,879,893,907,921,935,949,963,977,879,893,907,921,935,949,963,977,879,893,907,921,935,949,963,977,879,893,907,921,935,949,963,977,879,893,907,921,935,949,963,977,879,893,907,921,935,949,963,977,742,764,786,808,822,836,850,865,879,893,907,921,935,949,963,977,879,893,907,921,935,949,963,977,879,893,907,921,935,949,963,977,879,893,907,921,935,949,963,977,742,764,786,808,822,836,850,865,879,893,907,921,935,949,963,977,879,893,907,921,935,949,963,977,879,893,907,921,935,949,963,977,879,893,907,921,935,949,963,977,991,1005,1019,1039,1059,1081,1103,1125,1139,1155,1171,0,0,0,0,0,0,0,0,0,0,0,0,0,0,0,0,0,0,0,0,0,0,0,0,0,0,0,0,0,743,765,787,809,823,837,851,866,880,894,908,922,936,950,964,978,880,894,908,922,936,950,964,978,880,894,908,922,936,950,964,978,880,894,908,922,936,950,964,978,880,894,908,922,936,950,964,978,743,765,787,809,823,837,851,866,880,894,908,922,936,950,964,978,880,894,908,922,936,950,964,978,880,894,908,922,936,950,964,978,743,765,787,809,823,837,851,866,880,894,908,922,936,950,964,978,880,894,908,922,936,950,964,978,880,894,908,922,936,950,964,978,880,894,908,922,936,950,964,978,880,894,908,922,936,950,964,978,880,894,908,922,936,950,964,978,743,765,787,809,823,837,851,866,880,894,908,922,936,950,964,978,880,894,908,922,936,950,964,978,880,894,908,922,936,950,964,978,880,894,908,922,936,950,964,978,743,765,787,809,823,837,851,866,880,894,908,922,936,950,964,978,880,894,908,922,936,950,964,978,880,894,908,922,936,950,964,978,880,894,908,922,936,950,964,978,992,1006,1020,1040,1060,1082,1104,0,0,0,0,0,0,0,0,0,0,0,0,0,0,0,0,0,0,0,0,0,0,0,0,0,0,0,0,0,0,0,0,0,744,766,788,810,824,838,852,867,881,895,909,923,937,951,965,979,881,895,909,923,937,951,965,979,881,895,909,923,937,951,965,979,881,895,909,923,937,951,965,979,881,895,909,923,937,951,965,979,744,766,788,810,824,838,852,867,881,895,909,923,937,951,965,979,881,895,909,923,937,951,965,979,881,895,909,923,937,951,965,979,744,766,788,810,824,838,852,867,881,895,909,923,937,951,965,979,881,895,909,923,937,951,965,979,881,895,909,923,937,951,965,979,881,895,909,923,937,951,965,979,881,895,909,923,937,951,965,979,881,895,909,923,937,951,965,979,744,766,788,810,824,838,852,867,881,895,909,923,937,951,965,979,881,895,909,923,937,951,965,979,881,895,909,923,937,951,965,979,881,895,909,923,937,951,965,979,744,766,788,810,824,838,852,867,881,895,909,923,937,951,965,979,881,895,909,923,937,951,965,979,881,895,909,923,937,951,965,979,881,895,909,923,937,951,965,979,993,1007,1021,1041,1061,1083,1105,0,0,0,0,0,0,0,0,0,0,0,0,0,0,0,0,0,0,0,0,0,0,0,0,0,0,0,0,0,0,0,0,0,745,767,789,811,825,839,853,868,882,896,910,924,938,952,966,980,882,896,910,924,938,952,966,980,882,896,910,924,938,952,966,980,882,896,910,924,938,952,966,980,882,896,910,924,938,952,966,980,745,767,789,811,825,839,853,868,882,896,910,924,938,952,966,980,882,896,910,924,938,952,966,980,882,896,910,924,938,952,966,980,745,767,789,811,825,839,853,868,882,896,910,924,938,952,966,980,882,896,910,924,938,952,966,980,882,896,910,924,938,952,966,980,882,896,910,924,938,952,966,980,882,896,910,924,938,952,966,980,882,896,910,924,938,952,966,980,745,767,789,811,825,839,853,868,882,896,910,924,938,952,966,980,882,896,910,924,938,952,966,980,882,896,910,924,938,952,966,980,882,896,910,924,938,952,966,980,745,767,789,811,825,839,853,868,882,896,910,924,938,952,966,980,882,896,910,924,938,952,966,980,882,896,910,924,938,952,966,980,882,896,910,924,938,952,966,980,994,1008,1022,1042,1062,1084,1106,0,0,0,0,0,0,0,0,0,0,0,0,0,0,0,0,0,0,0,0,0,0,0,0,0,0,0,0,0,0,0,0,0,746,768,790,812,826,840,854,869,883,897,911,925,939,953,967,981,883,897,911,925,939,953,967,981,883,897,911,925,939,953,967,981,883,897,911,925,939,953,967,981,883,897,911,925,939,953,967,981,746,768,790,812,826,840,854,869,883,897,911,925,939,953,967,981,883,897,911,925,939,953,967,981,883,897,911,925,939,953,967,981,746,768,790,812,826,840,854,869,883,897,911,925,939,953,967,981,883,897,911,925,939,953,967,981,883,897,911,925,939,953,967,981,883,897,911,925,939,953,967,981,883,897,911,925,939,953,967,981,883,897,911,925,939,953,967,981,746,768,790,812,826,840,854,869,883,897,911,925,939,953,967,981,883,897,911,925,939,953,967,981,883,897,911,925,939,953,967,981,883,897,911,925,939,953,967,981,746,768,790,812,826,840,854,869,883,897,911,925,939,953,967,981,883,897,911,925,939,953,967,981,883,897,911,925,939,953,967,981,883,897,911,925,939,953,967,981,995,1009,1023,1043,1063,1085,1107,0,0,0,0,0,0,0,0,0,0,0,0,0,0,0,0,0,0,0,0,0,0,0,0,0,0,0,0,0,0,0,0,0,747,769,791,813,827,841,855,870,884,898,912,926,940,954,968,982,884,898,912,926,940,954,968,982,884,898,912,926,940,954,968,982,884,898,912,926,940,954,968,982,884,898,912,926,940,954,968,982,747,769,791,813,827,841,855,870,884,898,912,926,940,954,968,982,884,898,912,926,940,954,968,982,884,898,912,926,940,954,968,982,747,769,791,813,827,841,855,870,884,898,912,926,940,954,968,982,884,898,912,926,940,954,968,982,884,898,912,926,940,954,968,982,884,898,912,926,940,954,968,982,884,898,912,926,940,954,968,982,884,898,912,926,940,954,968,982,747,769,791,813,827,841,855,870,884,898,912,926,940,954,968,982,884,898,912,926,940,954,968,982,884,898,912,926,940,954,968,982,884,898,912,926,940,954,968,982,747,769,791,813,827,841,855,870,884,898,912,926,940,954,968,982,884,898,912,926,940,954,968,982,884,898,912,926,940,954,968,982,884,898,912,926,940,954,968,982,996,1010,1024,1044,1064,1086,1108,0,0,0,0,0,0,0,0,0,0,0,0,0,0,0,0,0,0,0,0,0,0,0,0,0,0,0,0,0,0,0,0,0,748,770,792,814,828,842,856,871,885,899,913,927,941,955,969,983,885,899,913,927,941,955,969,983,885,899,913,927,941,955,969,983,885,899,913,927,941,955,969,983,885,899,913,927,941,955,969,983,748,770,792,814,828,842,856,871,885,899,913,927,941,955,969,983,885,899,913,927,941,955,969,983,885,899,913,927,941,955,969,983,748,770,792,814,828,842,856,871,885,899,913,927,941,955,969,983,885,899,913,927,941,955,969,983,885,899,913,927,941,955,969,983,885,899,913,927,941,955,969,983,885,899,913,927,941,955,969,983,885,899,913,927,941,955,969,983,748,770,792,814,828,842,856,871,885,899,913,927,941,955,969,983,885,899,913,927,941,955,969,983,885,899,913,927,941,955,969,983,885,899,913,927,941,955,969,983,748,770,792,814,828,842,856,871,885,899,913,927,941,955,969,983,885,899,913,927,941,955,969,983,885,899,913,927,941,955,969,983,885,899,913,927,941,955,969,983,997,1011,1025,1045,1065,1087,1109,0,0,0,0,0,0,0,0,0,0,0,0,0,0,0,0,0,0,0,0,0,0,0,0,0,0,0,0,0,0,0,0,0,749,771,793,815,829,843,857,872,886,900,914,928,942,956,970,984,886,900,914,928,942,956,970,984,886,900,914,928,942,956,970,984,886,900,914,928,942,956,970,984,886,900,914,928,942,956,970,984,749,771,793,815,829,843,857,872,886,900,914,928,942,956,970,984,886,900,914,928,942,956,970,984,886,900,914,928,942,956,970,984,749,771,793,815,829,843,857,872,886,900,914,928,942,956,970,984,886,900,914,928,942,956,970,984,886,900,914,928,942,956,970,984,886,900,914,928,942,956,970,984,886,900,914,928,942,956,970,984,886,900,914,928,942,956,970,984,749,771,793,815,829,843,857,872,886,900,914,928,942,956,970,984,886,900,914,928,942,956,970,984,886,900,914,928,942,956,970,984,886,900,914,928,942,956,970,984,749,771,793,815,829,843,857,872,886,900,914,928,942,956,970,984,886,900,914,928,942,956,970,984,886,900,914,928,942,956,970,984,886,900,914,928,942,956,970,984,998,1012,1026,1046,1066,1088,1110,0,0,0,0,0,0,0,0,0,0,0,0,0,0,0,0,0,0,0,0,0,0,0,0,0,0,0,0,0,0,0,0,0,750,772,794,816,830,844,858,873,887,901,915,929,943,957,971,985,887,901,915,929,943,957,971,985,887,901,915,929,943,957,971,985,887,901,915,929,943,957,971,985,887,901,915,929,943,957,971,985,750,772,794,816,830,844,858,873,887,901,915,929,943,957,971,985,887,901,915,929,943,957,971,985,887,901,915,929,943,957,971,985,750,772,794,816,830,844,858,873,887,901,915,929,943,957,971,985,887,901,915,929,943,957,971,985,887,901,915,929,943,957,971,985,887,901,915,929,943,957,971,985,887,901,915,929,943,957,971,985,887,901,915,929,943,957,971,985,750,772,794,816,830,844,858,873,887,901,915,929,943,957,971,985,887,901,915,929,943,957,971,985,887,901,915,929,943,957,971,985,887,901,915,929,943,957,971,985,750,772,794,816,830,844,858,873,887,901,915,929,943,957,971,985,887,901,915,929,943,957,971,985,887,901,915,929,943,957,971,985,887,901,915,929,943,957,971,985,999,1013,1027,1047,1067,1089,1111,0,0,0,0,0,0,0,0,0,0,0,0,0,0,0,0,0,0,0,0,0,257,271,285,299,313,331,349,367,0,0,0,0,0,0,0,0,0,0,0,0,0,0,0,0,0,0,0,0,0,0,0,0,0,0,0,0,0,0,0,0,0,0,0,0,0,0,0,0,0,0,0,0,0,0,0,0,0,0,0,0,0,0,0,0,0,0,0,0,0,0,0,0,0,0,0,0,0,0,0,0,0,0,0,0,0,0,0,0,0,0,0,0,0,0,0,0,0,0,0,0,0,0,0,0,0,0,0,0,0,0,0,0,0,0,0,0,0,0,0,0,0,0,0,0,0,0,0,0,0,0,0,0,0,0,0,0,0,0,0,0,0,0,0,0,0,0,0,0,0,0,0,0,0,0,0,0,0,0,0,0,0,0,0,0,0,0,0,0,0,0,0,0,0,0,0,0,0,0,0,0,0,0,0,0,0,0,0,0,0,0,0,0,0,0,0,0,0,0,0,0,0,0,0,0,0,0,0,0,0,0,0,0,0,0,0,0,0,0,0,0,0,0,0,0,0,0,0,0,0,0,0,0,0,0,0,0,0,0,0,0,0,0,0,0,0,0,0,0,0,0,0,0,0,0,0,0,258,272,286,300,314,332,350,368,0,0,0,0,0,0,0,0,0,0,0,0,0,0,0,0,0,0,0,0,0,0,0,0,0,0,0,0,0,0,0,0,0,0,0,0,0,0,0,0,0,0,0,0,0,0,0,0,0,0,0,0,0,0,0,0,0,0,0,0,0,0,0,0,0,0,0,0,0,0,0,0,0,0,0,0,0,0,0,0,0,0,0,0,0,0,0,0,0,0,0,0,0,0,0,0,0,0,0,0,0,0,0,0,0,0,0,0,0,0,0,0,0,0,0,0,0,0,0,0,0,0,0,0,0,0,0,0,0,0,0,0,0,0,0,0,0,0,0,0,0,0,0,0,0,0,0,0,0,0,0,0,0,0,0,0,0,0,0,0,0,0,0,0,0,0,0,0,0,0,0,0,0,0,0,0,0,0,0,0,0,0,0,0,0,0,0,0,0,0,0,0,0,0,0,0,0,0,0,0,0,0,0,0,0,0,0,0,0,0,0,0,0,0,0,0,0,0,0,0,0,0,0,0,0,0,0,0,0,0,0,0,0,0,0,0,0,0,0,0,0,0,0,0,0,0,0,0,259,273,287,301,315,333,351,369,0,0,0,0,0,0,0,0,0,0,0,0,0,0,0,0,0,0,0,0,0,0,0,0,0,0,0,0,0,0,0,0,0,0,0,0,0,0,0,0,0,0,0,0,0,0,0,0,0,0,0,0,0,0,0,0,0,0,0,0,0,0,0,0,0,0,0,0,0,0,0,0,0,0,0,0,0,0,0,0,0,0,0,0,0,0,0,0,0,0,0,0,0,0,0,0,0,0,0,0,0,0,0,0,0,0,0,0,0,0,0,0,0,0,0,0,0,0,0,0,0,0,0,0,0,0,0,0,0,0,0,0,0,0,0,0,0,0,0,0,0,0,0,0,0,0,0,0,0,0,0,0,0,0,0,0,0,0,0,0,0,0,0,0,0,0,0,0,0,0,0,0,0,0,0,0,0,0,0,0,0,0,0,0,0,0,0,0,0,0,0,0,0,0,0,0,0,0,0,0,0,0,0,0,0,0,0,0,0,0,0,0,0,0,0,0,0,0,0,0,0,0,0,0,0,0,0,0,0,0,0,0,0,0,0,0,0,0,0,0,0,0,0,0,0,0,0,0,260,274,288,302,316,334,352,370,0,0,0,0,0,0,0,0,0,0,0,0,0,0,0,0,0,0,0,0,0,0,0,0,0,0,0,0,0,0,0,0,0,0,0,0,0,0,0,0,0,0,0,0,0,0,0,0,0,0,0,0,0,0,0,0,0,0,0,0,0,0,0,0,0,0,0,0,0,0,0,0,0,0,0,0,0,0,0,0,0,0,0,0,0,0,0,0,0,0,0,0,0,0,0,0,0,0,0,0,0,0,0,0,0,0,0,0,0,0,0,0,0,0,0,0,0,0,0,0,0,0,0,0,0,0,0,0,0,0,0,0,0,0,0,0,0,0,0,0,0,0,0,0,0,0,0,0,0,0,0,0,0,0,0,0,0,0,0,0,0,0,0,0,0,0,0,0,0,0,0,0,0,0,0,0,0,0,0,0,0,0,0,0,0,0,0,0,0,0,0,0,0,0,0,0,0,0,0,0,0,0,0,0,0,0,0,0,0,0,0,0,0,0,0,0,0,0,0,0,0,0,0,0,0,0,0,0,0,0,0,0,0,0,0,0,0,0,0,0,0,0,0,0,0,0,0,0,261,275,289,303,317,335,353,371,385,399,413,427,441,455,469,483,497,515,533,551,0,0,0,0,0,0,0,0,0,0,0,0,0,0,0,0,0,0,0,0,0,0,0,0,0,0,0,0,0,0,0,0,0,0,0,0,0,0,0,0,0,0,0,0,0,0,0,0,0,0,0,0,0,0,0,0,0,0,0,0,0,0,0,0,0,0,0,0,0,0,0,0,0,0,0,0,0,0,0,0,0,0,0,0,0,0,0,0,0,0,0,0,0,0,0,0,0,0,0,0,0,0,0,0,0,0,0,0,0,0,0,0,0,0,0,0,0,0,0,0,0,0,0,0,0,0,0,0,0,0,0,0,0,0,0,0,0,0,0,0,0,0,0,0,0,0,0,0,0,0,0,0,0,0,0,0,0,0,0,0,0,0,0,0,0,0,0,0,0,0,0,0,0,0,0,0,0,0,0,0,0,0,0,0,0,0,0,0,0,0,0,0,0,0,0,0,0,0,0,0,0,0,0,0,0,0,0,0,0,0,0,0,0,0,0,0,0,0,0,0,0,0,0,0,0,0,0,0,0,0,0,0,0,0,0,0,262,276,290,304,318,336,354,372,386,400,414,428,442,456,470,484,498,516,534,552,0,0,0,0,0,0,0,0,0,0,0,0,0,0,0,0,0,0,0,0,0,0,0,0,0,0,0,0,0,0,0,0,0,0,0,0,0,0,0,0,0,0,0,0,0,0,0,0,0,0,0,0,0,0,0,0,0,0,0,0,0,0,0,0,0,0,0,0,0,0,0,0,0,0,0,0,0,0,0,0,0,0,0,0,0,0,0,0,0,0,0,0,0,0,0,0,0,0,0,0,0,0,0,0,0,0,0,0,0,0,0,0,0,0,0,0,0,0,0,0,0,0,0,0,0,0,0,0,0,0,0,0,0,0,0,0,0,0,0,0,0,0,0,0,0,0,0,0,0,0,0,0,0,0,0,0,0,0,0,0,0,0,0,0,0,0,0,0,0,0,0,0,0,0,0,0,0,0,0,0,0,0,0,0,0,0,0,0,0,0,0,0,0,0,0,0,0,0,0,0,0,0,0,0,0,0,0,0,0,0,0,0,0,0,0,0,0,0,0,0,0,0,0,0,0,0,0,0,0,0,0,0,0,0,0,0,263,277,291,305,319,337,355,373,387,401,415,429,443,457,471,485,499,517,535,553,0,0,0,0,0,0,0,0,0,0,0,0,0,0,0,0,0,0,0,0,0,0,0,0,0,0,0,0,0,0,0,0,0,0,0,0,0,0,0,0,0,0,0,0,0,0,0,0,0,0,0,0,0,0,0,0,0,0,0,0,0,0,0,0,0,0,0,0,0,0,0,0,0,0,0,0,0,0,0,0,0,0,0,0,0,0,0,0,0,0,0,0,0,0,0,0,0,0,0,0,0,0,0,0,0,0,0,0,0,0,0,0,0,0,0,0,0,0,0,0,0,0,0,0,0,0,0,0,0,0,0,0,0,0,0,0,0,0,0,0,0,0,0,0,0,0,0,0,0,0,0,0,0,0,0,0,0,0,0,0,0,0,0,0,0,0,0,0,0,0,0,0,0,0,0,0,0,0,0,0,0,0,0,0,0,0,0,0,0,0,0,0,0,0,0,0,0,0,0,0,0,0,0,0,0,0,0,0,0,0,0,0,0,0,0,0,0,0,0,0,0,0,0,0,0,0,0,0,0,0,0,0,0,0,0,0,264,278,292,306,320,338,356,374,388,402,416,430,444,458,472,486,500,518,536,554,0,0,0,0,0,0,0,0,0,0,0,0,0,0,0,0,0,0,0,0,0,0,0,0,0,0,0,0,0,0,0,0,0,0,0,0,0,0,0,0,0,0,0,0,0,0,0,0,0,0,0,0,0,0,0,0,0,0,0,0,0,0,0,0,0,0,0,0,0,0,0,0,0,0,0,0,0,0,0,0,0,0,0,0,0,0,0,0,0,0,0,0,0,0,0,0,0,0,0,0,0,0,0,0,0,0,0,0,0,0,0,0,0,0,0,0,0,0,0,0,0,0,0,0,0,0,0,0,0,0,0,0,0,0,0,0,0,0,0,0,0,0,0,0,0,0,0,0,0,0,0,0,0,0,0,0,0,0,0,0,0,0,0,0,0,0,0,0,0,0,0,0,0,0,0,0,0,0,0,0,0,0,0,0,0,0,0,0,0,0,0,0,0,0,0,0,0,0,0,0,0,0,0,0,0,0,0,0,0,0,0,0,0,0,0,0,0,0,0,0,0,0,0,0,0,0,0,0,0,0,0,0,0,0,0,0,265,279,293,307,321,339,357,375,389,403,417,431,445,459,473,487,501,519,537,555,569,587,605,623,0,0,0,0,0,0,0,0,0,0,0,0,0,0,0,0,0,0,0,0,0,0,0,0,0,0,0,0,0,0,0,0,0,0,0,0,0,0,0,0,0,0,0,0,0,0,0,0,0,0,0,0,0,0,0,0,0,0,0,0,0,0,0,0,0,0,0,0,0,0,0,0,0,0,0,0,0,0,0,0,0,0,0,0,0,0,0,0,0,0,0,0,0,0,0,0,0,0,0,0,0,0,0,0,0,0,0,0,0,0,0,0,0,0,0,0,0,0,0,0,0,0,0,0,0,0,0,0,0,0,0,0,0,0,0,0,0,0,0,0,0,0,0,0,0,0,0,0,0,0,0,0,0,0,0,0,0,0,0,0,0,0,0,0,0,0,0,0,0,0,0,0,0,0,0,0,0,0,0,0,0,0,0,0,0,0,0,0,0,0,0,0,0,0,0,0,0,0,0,0,0,0,0,0,0,0,0,0,0,0,0,0,0,0,0,0,0,0,0,0,0,0,0,0,0,0,0,0,0,0,0,0,262,276,290,304,322,340,358,376,390,404,418,432,446,460,474,488,502,520,538,556,570,588,606,624,0,0,0,0,0,0,0,0,0,0,0,0,0,0,0,0,0,0,0,0,0,0,0,0,0,0,0,0,0,0,0,0,0,0,0,0,0,0,0,0,0,0,0,0,0,0,0,0,0,0,0,0,0,0,0,0,0,0,0,0,0,0,0,0,0,0,0,0,0,0,0,0,0,0,0,0,0,0,0,0,0,0,0,0,0,0,0,0,0,0,0,0,0,0,0,0,0,0,0,0,0,0,0,0,0,0,0,0,0,0,0,0,0,0,0,0,0,0,0,0,0,0,0,0,0,0,0,0,0,0,0,0,0,0,0,0,0,0,0,0,0,0,0,0,0,0,0,0,0,0,0,0,0,0,0,0,0,0,0,0,0,0,0,0,0,0,0,0,0,0,0,0,0,0,0,0,0,0,0,0,0,0,0,0,0,0,0,0,0,0,0,0,0,0,0,0,0,0,0,0,0,0,0,0,0,0,0,0,0,0,0,0,0,0,0,0,0,0,0,0,0,0,0,0,0,0,0,0,0,0,0,0,263,277,291,305,323,341,359,377,391,405,419,433,447,461,475,489,503,521,539,557,571,589,607,625,0,0,0,0,0,0,0,0,0,0,0,0,0,0,0,0,0,0,0,0,0,0,0,0,0,0,0,0,0,0,0,0,0,0,0,0,0,0,0,0,0,0,0,0,0,0,0,0,0,0,0,0,0,0,0,0,0,0,0,0,0,0,0,0,0,0,0,0,0,0,0,0,0,0,0,0,0,0,0,0,0,0,0,0,0,0,0,0,0,0,0,0,0,0,0,0,0,0,0,0,0,0,0,0,0,0,0,0,0,0,0,0,0,0,0,0,0,0,0,0,0,0,0,0,0,0,0,0,0,0,0,0,0,0,0,0,0,0,0,0,0,0,0,0,0,0,0,0,0,0,0,0,0,0,0,0,0,0,0,0,0,0,0,0,0,0,0,0,0,0,0,0,0,0,0,0,0,0,0,0,0,0,0,0,0,0,0,0,0,0,0,0,0,0,0,0,0,0,0,0,0,0,0,0,0,0,0,0,0,0,0,0,0,0,0,0,0,0,0,0,0,0,0,0,0,0,0,0,0,0,0,0,264,278,292,306,324,342,360,378,392,406,420,434,448,462,476,490,504,522,540,558,572,590,608,626,0,0,0,0,0,0,0,0,0,0,0,0,0,0,0,0,0,0,0,0,0,0,0,0,0,0,0,0,0,0,0,0,0,0,0,0,0,0,0,0,0,0,0,0,0,0,0,0,0,0,0,0,0,0,0,0,0,0,0,0,0,0,0,0,0,0,0,0,0,0,0,0,0,0,0,0,0,0,0,0,0,0,0,0,0,0,0,0,0,0,0,0,0,0,0,0,0,0,0,0,0,0,0,0,0,0,0,0,0,0,0,0,0,0,0,0,0,0,0,0,0,0,0,0,0,0,0,0,0,0,0,0,0,0,0,0,0,0,0,0,0,0,0,0,0,0,0,0,0,0,0,0,0,0,0,0,0,0,0,0,0,0,0,0,0,0,0,0,0,0,0,0,0,0,0,0,0,0,0,0,0,0,0,0,0,0,0,0,0,0,0,0,0,0,0,0,0,0,0,0,0,0,0,0,0,0,0,0,0,0,0,0,0,0,0,0,0,0,0,0,0,0,0,0,0,0,0,0,0,0,0,0,265,279,293,307,325,343,361,379,393,407,421,435,449,463,477,491,505,523,541,559,573,591,609,627,641,663,685,707,0,0,0,0,0,0,0,0,0,0,0,0,0,0,0,0,0,0,0,0,0,0,0,0,0,0,0,0,0,0,0,0,0,0,0,0,0,0,0,0,0,0,0,0,0,0,0,0,0,0,0,0,0,0,0,0,0,0,0,0,0,0,0,0,0,0,0,0,0,0,0,0,0,0,0,0,0,0,0,0,0,0,0,0,0,0,0,0,0,0,0,0,0,0,0,0,0,0,0,0,0,0,0,0,0,0,0,0,0,0,0,0,0,0,0,0,0,0,0,0,0,0,0,0,0,0,0,0,0,0,0,0,0,0,0,0,0,0,0,0,0,0,0,0,0,0,0,0,0,0,0,0,0,0,0,0,0,0,0,0,0,0,0,0,0,0,0,0,0,0,0,0,0,0,0,0,0,0,0,0,0,0,0,0,0,0,0,0,0,0,0,0,0,0,0,0,0,0,0,0,0,0,0,0,0,0,0,0,0,0,0,0,0,0,0,0,0,0,0,0,0,0,0,1344,1358,1372,1386,1386,262,276,290,304,322,340,358,376,390,404,418,432,446,460,474,488,506,524,542,560,574,592,610,628,642,664,686,708,0,0,0,0,0,0,0,0,0,0,0,0,0,0,0,0,0,0,0,0,0,0,0,0,0,0,0,0,0,0,0,0,0,0,0,0,0,0,0,0,0,0,0,0,0,0,0,0,0,0,0,0,0,0,0,0,0,0,0,0,0,0,0,0,0,0,0,0,0,0,0,0,0,0,0,0,0,0,0,0,0,0,0,0,0,0,0,0,0,0,0,0,0,0,0,0,0,0,0,0,0,0,0,0,0,0,0,0,0,0,0,0,0,0,0,0,0,0,0,0,0,0,0,0,0,0,0,0,0,0,0,0,0,0,0,0,0,0,0,0,0,0,0,0,0,0,0,0,0,0,0,0,0,0,0,0,0,0,0,0,0,0,0,0,0,0,0,0,0,0,0,0,0,0,0,0,0,0,0,0,0,0,0,0,0,0,0,0,0,0,0,0,0,0,0,0,0,0,0,0,0,0,0,0,0,0,0,0,0,0,0,0,0,0,0,0,0,0,0,0,0,0,0,1345,1359,1373,1387,1387,263,277,291,305,323,341,359,377,391,405,419,433,447,461,475,489,507,525,543,561,575,593,611,629,643,665,687,709,0,0,0,0,0,0,0,0,0,0,0,0,0,0,0,0,0,0,0,0,0,0,0,0,0,0,0,0,0,0,0,0,0,0,0,0,0,0,0,0,0,0,0,0,0,0,0,0,0,0,0,0,0,0,0,0,0,0,0,0,0,0,0,0,0,0,0,0,0,0,0,0,0,0,0,0,0,0,0,0,0,0,0,0,0,0,0,0,0,0,0,0,0,0,0,0,0,0,0,0,0,0,0,0,0,0,0,0,0,0,0,0,0,0,0,0,0,0,0,0,0,0,0,0,0,0,0,0,0,0,0,0,0,0,0,0,0,0,0,0,0,0,0,0,0,0,0,0,0,0,0,0,0,0,0,0,0,0,0,0,0,0,0,0,0,0,0,0,0,0,0,0,0,0,0,0,0,0,0,0,0,0,0,0,0,0,0,0,0,0,0,0,0,0,0,0,0,0,0,0,0,0,0,0,0,0,0,0,0,0,0,0,0,0,0,0,0,0,0,0,0,1312,1328,1346,1360,1374,1388,1388,264,278,292,306,324,342,360,378,392,406,420,434,448,462,476,490,508,526,544,562,576,594,612,630,644,666,688,710,0,0,0,0,0,0,0,0,0,0,0,0,0,0,0,0,0,0,0,0,0,0,0,0,0,0,0,0,0,0,0,0,0,0,0,0,0,0,0,0,0,0,0,0,0,0,0,0,0,0,0,0,0,0,0,0,0,0,0,0,0,0,0,0,0,0,0,0,0,0,0,0,0,0,0,0,0,0,0,0,0,0,0,0,0,0,0,0,0,0,0,0,0,0,0,0,0,0,0,0,0,0,0,0,0,0,0,0,0,0,0,0,0,0,0,0,0,0,0,0,0,0,0,0,0,0,0,0,0,0,0,0,0,0,0,0,0,0,0,0,0,0,0,0,0,0,0,0,0,0,0,0,0,0,0,0,0,0,0,0,0,0,0,0,0,0,0,0,0,0,0,0,0,0,0,0,0,0,0,0,0,0,0,0,0,0,0,0,0,0,0,0,0,0,0,0,0,0,0,0,0,0,0,0,0,0,0,0,0,0,0,0,0,0,0,0,0,0,0,0,0,1313,1329,1347,1361,1375,1389,1389,265,279,293,307,325,343,361,379,393,407,421,435,449,463,477,491,509,527,545,563,577,595,613,631,645,667,689,711,0,0,0,0,0,0,0,0,0,0,0,0,0,0,0,0,0,0,0,0,0,0,0,0,0,0,0,0,0,0,0,0,0,0,0,0,0,0,0,0,0,0,0,0,0,0,0,0,0,0,0,0,0,0,0,0,0,0,0,0,0,0,0,0,0,0,0,0,0,0,0,0,0,0,0,0,0,0,0,0,0,0,0,0,0,0,0,0,0,0,0,0,0,0,0,0,0,0,0,0,0,0,0,0,0,0,0,0,0,0,0,0,0,0,0,0,0,0,0,0,0,0,0,0,0,0,0,0,0,0,0,0,0,0,0,0,0,0,0,0,0,0,0,0,0,0,0,0,0,0,0,0,0,0,0,0,0,0,0,0,0,0,0,0,0,0,0,0,0,0,0,0,0,0,0,0,0,0,0,0,0,0,0,0,0,0,0,0,0,0,0,0,0,0,0,0,0,0,0,0,0,0,0,0,0,0,0,0,0,0,0,1172,1186,1200,1214,1228,1242,1256,1270,1284,1298,1314,1330,1348,1362,1376,1390,1390,262,276,290,304,322,340,358,376,390,404,418,432,446,460,474,488,506,524,542,560,578,596,614,632,646,668,690,712,0,0,0,0,0,0,0,0,0,0,0,0,0,0,0,0,0,0,0,0,0,0,0,0,0,0,0,0,0,0,0,0,0,0,0,0,0,0,0,0,0,0,0,0,0,0,0,0,0,0,0,0,0,0,0,0,0,0,0,0,0,0,0,0,0,0,0,0,0,0,0,0,0,0,0,0,0,0,0,0,0,0,0,0,0,0,0,0,0,0,0,0,0,0,0,0,0,0,0,0,0,0,0,0,0,0,0,0,0,0,0,0,0,0,0,0,0,0,0,0,0,0,0,0,0,0,0,0,0,0,0,0,0,0,0,0,0,0,0,0,0,0,0,0,0,0,0,0,0,0,0,0,0,0,0,0,0,0,0,0,0,0,0,0,0,0,0,0,0,0,0,0,0,0,0,0,0,0,0,0,0,0,0,0,0,0,0,0,0,0,0,0,0,0,0,0,0,0,0,0,0,0,0,0,0,0,0,0,0,0,0,1173,1187,1201,1215,1229,1243,1257,1271,1285,1299,1315,1331,1349,1363,1377,1391,1391,263,277,291,305,323,341,359,377,391,405,419,433,447,461,475,489,507,525,543,561,579,597,615,633,647,669,691,713,0,0,0,0,0,0,0,0,0,0,0,0,0,0,0,0,0,0,0,0,0,0,0,0,0,0,0,0,0,0,0,0,0,0,0,0,0,0,0,0,0,0,0,0,0,0,0,0,0,0,0,0,0,0,0,0,0,0,0,0,0,0,0,0,0,0,0,0,0,0,0,0,0,0,0,0,0,0,0,0,0,0,0,0,0,0,0,0,0,0,0,0,0,0,0,0,0,0,0,0,0,0,0,0,0,0,0,0,0,0,0,0,0,0,0,0,0,0,0,0,0,0,0,0,0,0,0,0,0,0,0,0,0,0,0,0,0,0,0,0,0,0,0,0,0,0,0,0,0,0,0,0,0,0,0,0,0,0,0,0,0,0,0,0,0,0,0,0,0,0,0,0,0,0,0,0,0,0,0,0,0,0,0,0,0,0,0,0,0,0,0,0,0,0,0,0,0,0,0,0,0,0,0,0,0,0,0,0,0,1140,1156,1174,1188,1202,1216,1230,1244,1258,1272,1286,1300,1316,1332,1350,1364,1378,1392,1392,264,278,292,306,324,342,360,378,392,406,420,434,448,462,476,490,508,526,544,562,580,598,616,634,648,670,692,714,0,0,0,0,0,0,0,0,0,0,0,0,0,0,0,0,0,0,0,0,0,0,0,0,0,0,0,0,0,0,0,0,0,0,0,0,0,0,0,0,0,0,0,0,0,0,0,0,0,0,0,0,0,0,0,0,0,0,0,0,0,0,0,0,0,0,0,0,0,0,0,0,0,0,0,0,0,0,0,0,0,0,0,0,0,0,0,0,0,0,0,0,0,0,0,0,0,0,0,0,0,0,0,0,0,0,0,0,0,0,0,0,0,0,0,0,0,0,0,0,0,0,0,0,0,0,0,0,0,0,0,0,0,0,0,0,0,0,0,0,0,0,0,0,0,0,0,0,0,0,0,0,0,0,0,0,0,0,0,0,0,0,0,0,0,0,0,0,0,0,0,0,0,0,0,0,0,0,0,0,0,0,0,0,0,0,0,0,0,0,0,0,0,0,0,0,0,0,0,0,0,0,0,0,0,0,0,0,0,1141,1157,1175,1189,1203,1217,1231,1245,1259,1273,1287,1301,1317,1333,1351,1365,1379,1393,1393,265,279,293,307,325,343,361,379,393,407,421,435,449,463,477,491,509,527,545,563,581,599,617,635,649,671,693,715,729,751,773,795,0,0,0,0,0,0,0,0,0,0,0,0,0,0,0,0,0,0,0,0,0,0,0,0,0,0,0,0,0,0,0,0,0,0,0,0,0,0,0,0,0,0,0,0,0,0,0,0,0,0,0,0,0,0,0,0,0,0,0,0,0,0,0,0,0,0,0,0,0,0,0,0,0,0,0,0,0,0,0,0,0,0,0,0,0,0,0,0,0,0,0,0,0,0,0,0,0,0,0,0,0,0,0,0,0,0,0,0,0,0,0,0,0,0,0,0,0,0,0,0,0,0,0,0,0,0,0,0,0,0,0,0,0,0,0,0,0,0,0,0,0,0,0,0,0,0,0,0,0,0,0,0,0,0,0,0,0,0,0,0,0,0,0,0,0,0,0,0,0,0,0,0,0,0,0,0,0,0,0,0,0,0,0,0,0,0,0,0,0,0,0,0,0,0,0,0,0,0,0,0,0,1068,1090,1112,1126,1142,1158,1176,1190,1204,1218,1232,1246,1260,1274,1288,1302,1318,1334,1352,1366,1380,1394,1394,262,276,290,304,322,340,358,376,390,404,418,432,446,460,474,488,506,524,542,560,578,596,614,632,650,672,694,716,730,752,774,796,0,0,0,0,0,0,0,0,0,0,0,0,0,0,0,0,0,0,0,0,0,0,0,0,0,0,0,0,0,0,0,0,0,0,0,0,0,0,0,0,0,0,0,0,0,0,0,0,0,0,0,0,0,0,0,0,0,0,0,0,0,0,0,0,0,0,0,0,0,0,0,0,0,0,0,0,0,0,0,0,0,0,0,0,0,0,0,0,0,0,0,0,0,0,0,0,0,0,0,0,0,0,0,0,0,0,0,0,0,0,0,0,0,0,0,0,0,0,0,0,0,0,0,0,0,0,0,0,0,0,0,0,0,0,0,0,0,0,0,0,0,0,0,0,0,0,0,0,0,0,0,0,0,0,0,0,0,0,0,0,0,0,0,0,0,0,0,0,0,0,0,0,0,0,0,0,0,0,0,0,0,0,0,0,0,0,0,0,0,0,0,0,0,0,0,0,0,0,0,0,0,1069,1091,1113,1127,1143,1159,1177,1191,1205,1219,1233,1247,1261,1275,1289,1303,1319,1335,1349,1363,1377,1391,1391,263,277,291,305,323,341,359,377,391,405,419,433,447,461,475,489,507,525,543,561,579,597,615,633,651,673,695,717,731,753,775,797,0,0,0,0,0,0,0,0,0,0,0,0,0,0,0,0,0,0,0,0,0,0,0,0,0,0,0,0,0,0,0,0,0,0,0,0,0,0,0,0,0,0,0,0,0,0,0,0,0,0,0,0,0,0,0,0,0,0,0,0,0,0,0,0,0,0,0,0,0,0,0,0,0,0,0,0,0,0,0,0,0,0,0,0,0,0,0,0,0,0,0,0,0,0,0,0,0,0,0,0,0,0,0,0,0,0,0,0,0,0,0,0,0,0,0,0,0,0,0,0,0,0,0,0,0,0,0,0,0,0,0,0,0,0,0,0,0,0,0,0,0,0,0,0,0,0,0,0,0,0,0,0,0,0,0,0,0,0,0,0,0,0,0,0,0,0,0,0,0,0,0,0,0,0,0,0,0,0,0,0,0,0,0,0,0,0,0,0,0,0,0,0,0,0,0,0,0,0,0,1028,1048,1070,1092,1114,1128,1144,1160,1178,1192,1206,1220,1234,1248,1262,1276,1290,1304,1320,1336,1350,1364,1378,1392,1392,264,278,292,306,324,342,360,378,392,406,420,434,448,462,476,490,508,526,544,562,580,598,616,634,652,674,696,718,732,754,776,798,0,0,0,0,0,0,0,0,0,0,0,0,0,0,0,0,0,0,0,0,0,0,0,0,0,0,0,0,0,0,0,0,0,0,0,0,0,0,0,0,0,0,0,0,0,0,0,0,0,0,0,0,0,0,0,0,0,0,0,0,0,0,0,0,0,0,0,0,0,0,0,0,0,0,0,0,0,0,0,0,0,0,0,0,0,0,0,0,0,0,0,0,0,0,0,0,0,0,0,0,0,0,0,0,0,0,0,0,0,0,0,0,0,0,0,0,0,0,0,0,0,0,0,0,0,0,0,0,0,0,0,0,0,0,0,0,0,0,0,0,0,0,0,0,0,0,0,0,0,0,0,0,0,0,0,0,0,0,0,0,0,0,0,0,0,0,0,0,0,0,0,0,0,0,0,0,0,0,0,0,0,0,0,0,0,0,0,0,0,0,0,0,0,0,0,0,0,0,0,1029,1049,1071,1093,1115,1129,1145,1161,1179,1193,1207,1221,1235,1249,1263,1277,1291,1305,1321,1337,1351,1365,1379,1393,1393,265,279,293,307,325,343,361,379,393,407,421,435,449,463,477,491,509,527,545,563,581,599,617,635,653,675,697,719,733,755,777,799,0,0,0,0,0,0,0,0,0,0,0,0,0,0,0,0,0,0,0,0,0,0,0,0,0,0,0,0,0,0,0,0,0,0,0,0,0,0,0,0,0,0,0,0,0,0,0,0,0,0,0,0,0,0,0,0,0,0,0,0,0,0,0,0,0,0,0,0,0,0,0,0,0,0,0,0,0,0,0,0,0,0,0,0,0,0,0,0,0,0,0,0,0,0,0,0,0,0,0,0,0,0,0,0,0,0,0,0,0,0,0,0,0,0,0,0,0,0,0,0,0,0,0,0,0,0,0,0,0,0,0,0,0,0,0,0,0,0,0,0,0,0,0,0,0,0,0,0,0,0,0,0,0,0,0,0,0,0,0,0,0,0,0,0,0,0,0,0,0,0,0,0,0,0,0,0,0,0,0,0,0,0,0,0,0,0,0,0,0,0,0,0,0,0,0,0,0,0,0,1030,1050,1072,1094,1116,1130,1146,1162,1180,1194,1208,1222,1236,1250,1264,1278,1292,1306,1322,1338,1352,1366,1380,1394,1394,266,280,294,308,322,340,358,376,390,404,418,432,446,460,474,488,506,524,542,560,578,596,614,632,654,676,698,720,734,756,778,800,0,0,0,0,0,0,0,0,0,0,0,0,0,0,0,0,0,0,0,0,0,0,0,0,0,0,0,0,0,0,0,0,0,0,0,0,0,0,0,0,0,0,0,0,0,0,0,0,0,0,0,0,0,0,0,0,0,0,0,0,0,0,0,0,0,0,0,0,0,0,0,0,0,0,0,0,0,0,0,0,0,0,0,0,0,0,0,0,0,0,0,0,0,0,0,0,0,0,0,0,0,0,0,0,0,0,0,0,0,0,0,0,0,0,0,0,0,0,0,0,0,0,0,0,0,0,0,0,0,0,0,0,0,0,0,0,0,0,0,0,0,0,0,0,0,0,0,0,0,0,0,0,0,0,0,0,0,0,0,0,0,0,0,0,0,0,0,0,0,0,0,0,0,0,0,0,0,0,0,0,0,0,0,0,0,0,0,0,0,0,0,0,0,0,0,0,0,0,0,1031,1051,1073,1095,1117,1131,1147,1163,1177,1191,1205,1219,1233,1247,1261,1275,1289,1303,1319,1335,1349,1363,1377,1391,1391,267,281,295,309,323,341,359,377,391,405,419,433,447,461,475,489,507,525,543,561,579,597,615,633,655,677,699,721,735,757,779,801,0,0,0,0,0,0,0,0,0,0,0,0,0,0,0,0,0,0,0,0,0,0,0,0,0,0,0,0,0,0,0,0,0,0,0,0,0,0,0,0,0,0,0,0,0,0,0,0,0,0,0,0,0,0,0,0,0,0,0,0,0,0,0,0,0,0,0,0,0,0,0,0,0,0,0,0,0,0,0,0,0,0,0,0,0,0,0,0,0,0,0,0,0,0,0,0,0,0,0,0,0,0,0,0,0,0,0,0,0,0,0,0,0,0,0,0,0,0,0,0,0,0,0,0,0,0,0,0,0,0,0,0,0,0,0,0,0,0,0,0,0,0,0,0,0,0,0,0,0,0,0,0,0,0,0,0,0,0,0,0,0,0,0,0,0,0,0,0,0,0,0,0,0,0,0,0,0,0,0,0,0,0,0,0,0,0,0,0,0,0,0,0,0,0,0,0,0,0,0,1032,1052,1074,1096,1118,1132,1148,1164,1178,1192,1206,1220,1234,1248,1262,1276,1290,1304,1320,1336,1350,1364,1378,1392,1392,268,282,296,310,324,342,360,378,392,406,420,434,448,462,476,490,508,526,544,562,580,598,616,634,656,678,700,722,736,758,780,802,0,0,0,859,0,0,0,0,0,0,0,0,0,0,0,0,0,0,0,0,0,0,0,0,0,0,0,0,0,0,0,0,0,0,0,0,0,0,0,0,0,0,0,0,0,0,0,0,0,0,0,0,0,0,0,0,0,0,0,0,0,0,0,0,0,0,0,0,0,0,0,0,0,0,0,0,0,0,0,0,0,0,0,0,0,0,0,0,0,0,0,0,0,0,0,0,0,0,0,0,0,0,0,0,0,0,0,0,0,0,0,0,0,0,0,0,0,0,0,0,0,0,0,0,0,0,0,0,0,0,0,0,0,0,0,0,0,0,0,0,0,0,0,0,0,0,0,0,0,0,0,0,0,0,0,0,0,0,0,0,0,0,0,0,0,0,0,0,0,0,0,0,0,0,0,0,0,0,0,0,0,0,0,0,0,0,0,0,0,0,0,0,0,0,0,0,0,0,0,1033,1053,1075,1097,1119,1133,1149,1165,1179,1193,1207,1221,1235,1249,1263,1277,1291,1305,1321,1337,1351,1365,1379,1393,1393,269,283,297,311,325,343,361,379,393,407,421,435,449,463,477,491,509,527,545,563,581,599,617,635,657,679,701,723,737,759,781,803,817,831,845,860,874,888,902,916,930,944,958,972,874,888,902,916,930,944,958,972,874,888,902,916,930,944,958,972,874,888,902,916,930,944,958,972,874,888,902,916,930,944,958,972,0,0,0,0,0,0,0,0,874,888,902,916,930,944,958,972,874,888,902,916,930,944,958,972,874,888,902,916,930,944,958,972,0,0,0,0,0,0,0,0,874,888,902,916,930,944,958,972,874,888,902,916,930,944,958,972,874,888,902,916,930,944,958,972,874,888,902,916,930,944,958,972,874,888,902,916,930,944,958,972,874,888,902,916,930,944,958,972,0,0,0,0,0,0,0,0,874,888,902,916,930,944,958,972,874,888,902,916,930,944,958,972,874,888,902,916,930,944,958,972,874,888,902,916,930,944,958,972,0,0,0,0,0,0,0,0,874,888,902,916,930,944,958,972,874,888,902,916,930,944,958,972,986,1000,1014,1034,1054,1076,1098,1120,1134,1150,1166,1180,1194,1208,1222,1236,1250,1264,1278,1292,1306,1322,1338,1352,1366,1380,1394,1394,270,284,298,312,326,344,362,380,394,408,422,436,450,464,478,492,506,524,542,560,578,596,614,632,654,676,698,720,738,760,782,804,818,832,846,861,875,889,903,917,931,945,959,973,875,889,903,917,931,945,959,973,875,889,903,917,931,945,959,973,875,889,903,917,931,945,959,973,875,889,903,917,931,945,959,973,0,0,0,0,0,0,0,0,875,889,903,917,931,945,959,973,875,889,903,917,931,945,959,973,875,889,903,917,931,945,959,973,0,0,0,0,0,0,0,0,875,889,903,917,931,945,959,973,875,889,903,917,931,945,959,973,875,889,903,917,931,945,959,973,875,889,903,917,931,945,959,973,875,889,903,917,931,945,959,973,875,889,903,917,931,945,959,973,0,0,0,0,0,0,0,0,875,889,903,917,931,945,959,973,875,889,903,917,931,945,959,973,875,889,903,917,931,945,959,973,875,889,903,917,931,945,959,973,0,0,0,0,0,0,0,0,875,889,903,917,931,945,959,973,875,889,903,917,931,945,959,973,987,1001,1015,1035,1055,1077,1099,1117,1131,1147,1163,1177,1191,1205,1219,1233,1247,1261,1275,1289,1303,1319,1335,1349,1363,1377,1391,1391,0,0,0,0,327,345,363,381,395,409,423,437,451,465,479,493,507,525,543,561,579,597,615,633,655,677,699,721,739,761,783,805,819,833,847,862,876,890,904,918,932,946,960,974,876,890,904,918,932,946,960,974,876,890,904,918,932,946,960,974,876,890,904,918,932,946,960,974,876,890,904,918,932,946,960,974,739,761,783,805,819,833,847,862,876,890,904,918,932,946,960,974,876,890,904,918,932,946,960,974,876,890,904,918,932,946,960,974,739,761,783,805,819,833,847,862,876,890,904,918,932,946,960,974,876,890,904,918,932,946,960,974,876,890,904,918,932,946,960,974,876,890,904,918,932,946,960,974,876,890,904,918,932,946,960,974,876,890,904,918,932,946,960,974,739,761,783,805,819,833,847,862,876,890,904,918,932,946,960,974,876,890,904,918,932,946,960,974,876,890,904,918,932,946,960,974,876,890,904,918,932,946,960,974,739,761,783,805,819,833,847,862,876,890,904,918,932,946,960,974,876,890,904,918,932,946,960,974,988,1002,1016,1036,1056,1078,1100,1118,1132,1148,1164,1178,1192,1206,1220,1234,1248,1262,1276,1290,1304,1320,1336,1350,1364,1378,1392,1392,0,0,0,0,328,346,364,382,396,410,424,438,452,466,480,494,508,526,544,562,580,598,616,634,656,678,700,722,740,762,784,806,820,834,848,863,877,891,905,919,933,947,961,975,877,891,905,919,933,947,961,975,877,891,905,919,933,947,961,975,877,891,905,919,933,947,961,975,877,891,905,919,933,947,961,975,740,762,784,806,820,834,848,863,877,891,905,919,933,947,961,975,877,891,905,919,933,947,961,975,877,891,905,919,933,947,961,975,740,762,784,806,820,834,848,863,877,891,905,919,933,947,961,975,877,891,905,919,933,947,961,975,877,891,905,919,933,947,961,975,877,891,905,919,933,947,961,975,877,891,905,919,933,947,961,975,877,891,905,919,933,947,961,975,740,762,784,806,820,834,848,863,877,891,905,919,933,947,961,975,877,891,905,919,933,947,961,975,877,891,905,919,933,947,961,975,877,891,905,919,933,947,961,975,740,762,784,806,820,834,848,863,877,891,905,919,933,947,961,975,877,891,905,919,933,947,961,975,989,1003,1017,1037,1057,1079,1101,1119,1133,1149,1165,1179,1193,1207,1221,1235,1249,1263,1277,1291,1305,1321,1337,1351,1365,1379,1393,1393,0,0,0,0,329,347,365,383,397,411,425,439,453,467,481,495,509,527,545,563,581,599,617,635,657,679,701,723,741,763,785,807,821,835,849,864,878,892,906,920,934,948,962,976,878,892,906,920,934,948,962,976,878,892,906,920,934,948,962,976,878,892,906,920,934,948,962,976,878,892,906,920,934,948,962,976,741,763,785,807,821,835,849,864,878,892,906,920,934,948,962,976,878,892,906,920,934,948,962,976,878,892,906,920,934,948,962,976,741,763,785,807,821,835,849,864,878,892,906,920,934,948,962,976,878,892,906,920,934,948,962,976,878,892,906,920,934,948,962,976,878,892,906,920,934,948,962,976,878,892,906,920,934,948,962,976,878,892,906,920,934,948,962,976,741,763,785,807,821,835,849,864,878,892,906,920,934,948,962,976,878,892,906,920,934,948,962,976,878,892,906,920,934,948,962,976,878,892,906,920,934,948,962,976,741,763,785,807,821,835,849,864,878,892,906,920,934,948,962,976,878,892,906,920,934,948,962,976,990,1004,1018,1038,1058,1080,1102,1120,1134,1150,1166,1180,1194,1208,1222,1236,1250,1264,1278,1292,1306,1322,1338,1352,1366,1380,1394,1394,0,0,0,0,330,348,366,384,398,412,426,440,454,468,482,496,510,528,546,564,578,596,614,632,654,676,698,720,742,764,786,808,822,836,850,865,879,893,907,921,935,949,963,977,879,893,907,921,935,949,963,977,879,893,907,921,935,949,963,977,879,893,907,921,935,949,963,977,879,893,907,921,935,949,963,977,742,764,786,808,822,836,850,865,879,893,907,921,935,949,963,977,879,893,907,921,935,949,963,977,879,893,907,921,935,949,963,977,742,764,786,808,822,836,850,865,879,893,907,921,935,949,963,977,879,893,907,921,935,949,963,977,879,893,907,921,935,949,963,977,879,893,907,921,935,949,963,977,879,893,907,921,935,949,963,977,879,893,907,921,935,949,963,977,742,764,786,808,822,836,850,865,879,893,907,921,935,949,963,977,879,893,907,921,935,949,963,977,879,893,907,921,935,949,963,977,879,893,907,921,935,949,963,977,742,764,786,808,822,836,850,865,879,893,907,921,935,949,963,977,879,893,907,921,935,949,963,977,991,1005,1019,1039,1059,1081,1103,1117,1131,1147,1163,1177,1191,1205,1219,1233,1247,1261,1275,1289,1303,1319,1335,1349,1363,1377,1391,1391,0,0,0,0,0,0,0,0,0,0,0,0,0,0,0,0,511,529,547,565,579,597,615,633,655,677,699,721,743,765,787,809,823,837,851,866,880,894,908,922,936,950,964,978,880,894,908,922,936,950,964,978,880,894,908,922,936,950,964,978,880,894,908,922,936,950,964,978,880,894,908,922,936,950,964,978,743,765,787,809,823,837,851,866,880,894,908,922,936,950,964,978,880,894,908,922,936,950,964,978,880,894,908,922,936,950,964,978,743,765,787,809,823,837,851,866,880,894,908,922,936,950,964,978,880,894,908,922,936,950,964,978,880,894,908,922,936,950,964,978,880,894,908,922,936,950,964,978,880,894,908,922,936,950,964,978,880,894,908,922,936,950,964,978,743,765,787,809,823,837,851,866,880,894,908,922,936,950,964,978,880,894,908,922,936,950,964,978,880,894,908,922,936,950,964,978,880,894,908,922,936,950,964,978,743,765,787,809,823,837,851,866,880,894,908,922,936,950,964,978,880,894,908,922,936,950,964,978,992,1006,1020,1040,1060,1082,1104,1118,1132,1148,1164,1178,1192,1206,1220,1234,1248,1262,1276,1290,1304,1320,1336,1350,1364,1378,1392,1392,0,0,0,0,0,0,0,0,0,0,0,0,0,0,0,0,512,530,548,566,580,598,616,634,656,678,700,722,744,766,788,810,824,838,852,867,881,895,909,923,937,951,965,979,881,895,909,923,937,951,965,979,881,895,909,923,937,951,965,979,881,895,909,923,937,951,965,979,881,895,909,923,937,951,965,979,744,766,788,810,824,838,852,867,881,895,909,923,937,951,965,979,881,895,909,923,937,951,965,979,881,895,909,923,937,951,965,979,744,766,788,810,824,838,852,867,881,895,909,923,937,951,965,979,881,895,909,923,937,951,965,979,881,895,909,923,937,951,965,979,881,895,909,923,937,951,965,979,881,895,909,923,937,951,965,979,881,895,909,923,937,951,965,979,744,766,788,810,824,838,852,867,881,895,909,923,937,951,965,979,881,895,909,923,937,951,965,979,881,895,909,923,937,951,965,979,881,895,909,923,937,951,965,979,744,766,788,810,824,838,852,867,881,895,909,923,937,951,965,979,881,895,909,923,937,951,965,979,993,1007,1021,1041,1061,1083,1105,1119,1133,1149,1165,1179,1193,1207,1221,1235,1249,1263,1277,1291,1305,1321,1337,1351,1365,1379,1393,1393,0,0,0,0,0,0,0,0,0,0,0,0,0,0,0,0,513,531,549,567,581,599,617,635,657,679,701,723,745,767,789,811,825,839,853,868,882,896,910,924,938,952,966,980,882,896,910,924,938,952,966,980,882,896,910,924,938,952,966,980,882,896,910,924,938,952,966,980,882,896,910,924,938,952,966,980,745,767,789,811,825,839,853,868,882,896,910,924,938,952,966,980,882,896,910,924,938,952,966,980,882,896,910,924,938,952,966,980,745,767,789,811,825,839,853,868,882,896,910,924,938,952,966,980,882,896,910,924,938,952,966,980,882,896,910,924,938,952,966,980,882,896,910,924,938,952,966,980,882,896,910,924,938,952,966,980,882,896,910,924,938,952,966,980,745,767,789,811,825,839,853,868,882,896,910,924,938,952,966,980,882,896,910,924,938,952,966,980,882,896,910,924,938,952,966,980,882,896,910,924,938,952,966,980,745,767,789,811,825,839,853,868,882,896,910,924,938,952,966,980,882,896,910,924,938,952,966,980,994,1008,1022,1042,1062,1084,1106,1120,1134,1150,1166,1180,1194,1208,1222,1236,1250,1264,1278,1292,1306,1322,1338,1352,1366,1380,1394,1394,0,0,0,0,0,0,0,0,0,0,0,0,0,0,0,0,514,532,550,568,582,600,618,636,654,676,698,720,742,764,786,808,822,836,850,865,879,893,907,921,935,949,963,977,879,893,907,921,935,949,963,977,879,893,907,921,935,949,963,977,879,893,907,921,935,949,963,977,879,893,907,921,935,949,963,977,742,764,786,808,822,836,850,865,879,893,907,921,935,949,963,977,879,893,907,921,935,949,963,977,879,893,907,921,935,949,963,977,742,764,786,808,822,836,850,865,879,893,907,921,935,949,963,977,879,893,907,921,935,949,963,977,879,893,907,921,935,949,963,977,879,893,907,921,935,949,963,977,879,893,907,921,935,949,963,977,879,893,907,921,935,949,963,977,742,764,786,808,822,836,850,865,879,893,907,921,935,949,963,977,879,893,907,921,935,949,963,977,879,893,907,921,935,949,963,977,879,893,907,921,935,949,963,977,742,764,786,808,822,836,850,865,879,893,907,921,935,949,963,977,879,893,907,921,935,949,963,977,991,1005,1019,1039,1059,1081,1103,1117,1131,1147,1163,1177,1191,1205,1219,1233,1247,1261,1275,1289,1303,1319,1335,1353,1367,1381,1395,1395,0,0,0,0,0,0,0,0,0,0,0,0,0,0,0,0,0,0,0,0,583,601,619,637,655,677,699,721,743,765,787,809,823,837,851,866,880,894,908,922,936,950,964,978,880,894,908,922,936,950,964,978,880,894,908,922,936,950,964,978,880,894,908,922,936,950,964,978,880,894,908,922,936,950,964,978,743,765,787,809,823,837,851,866,880,894,908,922,936,950,964,978,880,894,908,922,936,950,964,978,880,894,908,922,936,950,964,978,743,765,787,809,823,837,851,866,880,894,908,922,936,950,964,978,880,894,908,922,936,950,964,978,880,894,908,922,936,950,964,978,880,894,908,922,936,950,964,978,880,894,908,922,936,950,964,978,880,894,908,922,936,950,964,978,743,765,787,809,823,837,851,866,880,894,908,922,936,950,964,978,880,894,908,922,936,950,964,978,880,894,908,922,936,950,964,978,880,894,908,922,936,950,964,978,743,765,787,809,823,837,851,866,880,894,908,922,936,950,964,978,880,894,908,922,936,950,964,978,992,1006,1020,1040,1060,1082,1104,1118,1132,1148,1164,1178,1192,1206,1220,1234,1248,1262,1276,1290,1304,1320,1336,1354,1368,1382,1396,1396,0,0,0,0,0,0,0,0,0,0,0,0,0,0,0,0,0,0,0,0,584,602,620,638,656,678,700,722,744,766,788,810,824,838,852,867,881,895,909,923,937,951,965,979,881,895,909,923,937,951,965,979,881,895,909,923,937,951,965,979,881,895,909,923,937,951,965,979,881,895,909,923,937,951,965,979,744,766,788,810,824,838,852,867,881,895,909,923,937,951,965,979,881,895,909,923,937,951,965,979,881,895,909,923,937,951,965,979,744,766,788,810,824,838,852,867,881,895,909,923,937,951,965,979,881,895,909,923,937,951,965,979,881,895,909,923,937,951,965,979,881,895,909,923,937,951,965,979,881,895,909,923,937,951,965,979,881,895,909,923,937,951,965,979,744,766,788,810,824,838,852,867,881,895,909,923,937,951,965,979,881,895,909,923,937,951,965,979,881,895,909,923,937,951,965,979,881,895,909,923,937,951,965,979,744,766,788,810,824,838,852,867,881,895,909,923,937,951,965,979,881,895,909,923,937,951,965,979,993,1007,1021,1041,1061,1083,1105,1119,1133,1149,1165,1179,1193,1207,1221,1235,1249,1263,1277,1291,1305,1321,1337,1355,1369,1383,1397,1397,0,0,0,0,0,0,0,0,0,0,0,0,0,0,0,0,0,0,0,0,585,603,621,639,657,679,701,723,745,767,789,811,825,839,853,868,882,896,910,924,938,952,966,980,882,896,910,924,938,952,966,980,882,896,910,924,938,952,966,980,882,896,910,924,938,952,966,980,882,896,910,924,938,952,966,980,745,767,789,811,825,839,853,868,882,896,910,924,938,952,966,980,882,896,910,924,938,952,966,980,882,896,910,924,938,952,966,980,745,767,789,811,825,839,853,868,882,896,910,924,938,952,966,980,882,896,910,924,938,952,966,980,882,896,910,924,938,952,966,980,882,896,910,924,938,952,966,980,882,896,910,924,938,952,966,980,882,896,910,924,938,952,966,980,745,767,789,811,825,839,853,868,882,896,910,924,938,952,966,980,882,896,910,924,938,952,966,980,882,896,910,924,938,952,966,980,882,896,910,924,938,952,966,980,745,767,789,811,825,839,853,868,882,896,910,924,938,952,966,980,882,896,910,924,938,952,966,980,994,1008,1022,1042,1062,1084,1106,1120,1134,1150,1166,1180,1194,1208,1222,1236,1250,1264,1278,1292,1306,1322,1338,1356,1370,1384,1398,1398,0,0,0,0,0,0,0,0,0,0,0,0,0,0,0,0,0,0,0,0,586,604,622,640,654,676,698,720,742,764,786,808,822,836,850,865,879,893,907,921,935,949,963,977,879,893,907,921,935,949,963,977,879,893,907,921,935,949,963,977,879,893,907,921,935,949,963,977,879,893,907,921,935,949,963,977,742,764,786,808,822,836,850,865,879,893,907,921,935,949,963,977,879,893,907,921,935,949,963,977,879,893,907,921,935,949,963,977,742,764,786,808,822,836,850,865,879,893,907,921,935,949,963,977,879,893,907,921,935,949,963,977,879,893,907,921,935,949,963,977,879,893,907,921,935,949,963,977,879,893,907,921,935,949,963,977,879,893,907,921,935,949,963,977,742,764,786,808,822,836,850,865,879,893,907,921,935,949,963,977,879,893,907,921,935,949,963,977,879,893,907,921,935,949,963,977,879,893,907,921,935,949,963,977,742,764,786,808,822,836,850,865,879,893,907,921,935,949,963,977,879,893,907,921,935,949,963,977,991,1005,1019,1039,1059,1081,1103,1117,1131,1147,1163,1181,1195,1209,1223,1237,1251,1265,1279,1293,1307,1323,1339,1357,1371,1385,1399,1399,0,0,0,0,0,0,0,0,0,0,0,0,0,0,0,0,0,0,0,0,0,0,0,0,655,677,699,721,743,765,787,809,823,837,851,866,880,894,908,922,936,950,964,978,880,894,908,922,936,950,964,978,880,894,908,922,936,950,964,978,880,894,908,922,936,950,964,978,880,894,908,922,936,950,964,978,743,765,787,809,823,837,851,866,880,894,908,922,936,950,964,978,880,894,908,922,936,950,964,978,880,894,908,922,936,950,964,978,743,765,787,809,823,837,851,866,880,894,908,922,936,950,964,978,880,894,908,922,936,950,964,978,880,894,908,922,936,950,964,978,880,894,908,922,936,950,964,978,880,894,908,922,936,950,964,978,880,894,908,922,936,950,964,978,743,765,787,809,823,837,851,866,880,894,908,922,936,950,964,978,880,894,908,922,936,950,964,978,880,894,908,922,936,950,964,978,880,894,908,922,936,950,964,978,743,765,787,809,823,837,851,866,880,894,908,922,936,950,964,978,880,894,908,922,936,950,964,978,992,1006,1020,1040,1060,1082,1104,1118,1132,1148,1164,1182,1196,1210,1224,1238,1252,1266,1280,1294,1308,1324,1340,0,0,0,0,0,0,0,0,0,0,0,0,0,0,0,0,0,0,0,0,0,0,0,0,0,0,0,0,0,656,678,700,722,744,766,788,810,824,838,852,867,881,895,909,923,937,951,965,979,881,895,909,923,937,951,965,979,881,895,909,923,937,951,965,979,881,895,909,923,937,951,965,979,881,895,909,923,937,951,965,979,744,766,788,810,824,838,852,867,881,895,909,923,937,951,965,979,881,895,909,923,937,951,965,979,881,895,909,923,937,951,965,979,744,766,788,810,824,838,852,867,881,895,909,923,937,951,965,979,881,895,909,923,937,951,965,979,881,895,909,923,937,951,965,979,881,895,909,923,937,951,965,979,881,895,909,923,937,951,965,979,881,895,909,923,937,951,965,979,744,766,788,810,824,838,852,867,881,895,909,923,937,951,965,979,881,895,909,923,937,951,965,979,881,895,909,923,937,951,965,979,881,895,909,923,937,951,965,979,744,766,788,810,824,838,852,867,881,895,909,923,937,951,965,979,881,895,909,923,937,951,965,979,993,1007,1021,1041,1061,1083,1105,1119,1133,1149,1165,1183,1197,1211,1225,1239,1253,1267,1281,1295,1309,1325,1341,0,0,0,0,0,0,0,0,0,0,0,0,0,0,0,0,0,0,0,0,0,0,0,0,0,0,0,0,0,657,679,701,723,745,767,789,811,825,839,853,868,882,896,910,924,938,952,966,980,882,896,910,924,938,952,966,980,882,896,910,924,938,952,966,980,882,896,910,924,938,952,966,980,882,896,910,924,938,952,966,980,745,767,789,811,825,839,853,868,882,896,910,924,938,952,966,980,882,896,910,924,938,952,966,980,882,896,910,924,938,952,966,980,745,767,789,811,825,839,853,868,882,896,910,924,938,952,966,980,882,896,910,924,938,952,966,980,882,896,910,924,938,952,966,980,882,896,910,924,938,952,966,980,882,896,910,924,938,952,966,980,882,896,910,924,938,952,966,980,745,767,789,811,825,839,853,868,882,896,910,924,938,952,966,980,882,896,910,924,938,952,966,980,882,896,910,924,938,952,966,980,882,896,910,924,938,952,966,980,745,767,789,811,825,839,853,868,882,896,910,924,938,952,966,980,882,896,910,924,938,952,966,980,994,1008,1022,1042,1062,1084,1106,1120,1134,1150,1166,1184,1198,1212,1226,1240,1254,1268,1282,1296,1310,1326,1342,0,0,0,0,0,0,0,0,0,0,0,0,0,0,0,0,0,0,0,0,0,0,0,0,0,0,0,0,0,658,680,702,724,742,764,786,808,822,836,850,865,879,893,907,921,935,949,963,977,879,893,907,921,935,949,963,977,879,893,907,921,935,949,963,977,879,893,907,921,935,949,963,977,879,893,907,921,935,949,963,977,742,764,786,808,822,836,850,865,879,893,907,921,935,949,963,977,879,893,907,921,935,949,963,977,879,893,907,921,935,949,963,977,742,764,786,808,822,836,850,865,879,893,907,921,935,949,963,977,879,893,907,921,935,949,963,977,879,893,907,921,935,949,963,977,879,893,907,921,935,949,963,977,879,893,907,921,935,949,963,977,879,893,907,921,935,949,963,977,742,764,786,808,822,836,850,865,879,893,907,921,935,949,963,977,879,893,907,921,935,949,963,977,879,893,907,921,935,949,963,977,879,893,907,921,935,949,963,977,742,764,786,808,822,836,850,865,879,893,907,921,935,949,963,977,879,893,907,921,935,949,963,977,991,1005,1019,1039,1059,1081,1103,1121,1135,1151,1167,1185,1199,1213,1227,1241,1255,1269,1283,1297,1311,1327,1343,0,0,0,0,0,0,0,0,0,0,0,0,0,0,0,0,0,0,0,0,0,0,0,0,0,0,0,0,0,659,681,703,725,743,765,787,809,823,837,851,866,880,894,908,922,936,950,964,978,880,894,908,922,936,950,964,978,880,894,908,922,936,950,964,978,880,894,908,922,936,950,964,978,880,894,908,922,936,950,964,978,743,765,787,809,823,837,851,866,880,894,908,922,936,950,964,978,880,894,908,922,936,950,964,978,880,894,908,922,936,950,964,978,743,765,787,809,823,837,851,866,880,894,908,922,936,950,964,978,880,894,908,922,936,950,964,978,880,894,908,922,936,950,964,978,880,894,908,922,936,950,964,978,880,894,908,922,936,950,964,978,880,894,908,922,936,950,964,978,743,765,787,809,823,837,851,866,880,894,908,922,936,950,964,978,880,894,908,922,936,950,964,978,880,894,908,922,936,950,964,978,880,894,908,922,936,950,964,978,743,765,787,809,823,837,851,866,880,894,908,922,936,950,964,978,880,894,908,922,936,950,964,978,992,1006,1020,1040,1060,1082,1104,1122,1136,1152,1168,0,0,0,0,0,0,0,0,0,0,0,0,0,0,0,0,0,0,0,0,0,0,0,0,0,0,0,0,0,0,0,0,0,0,0,0,0,0,0,0,0,660,682,704,726,744,766,788,810,824,838,852,867,881,895,909,923,937,951,965,979,881,895,909,923,937,951,965,979,881,895,909,923,937,951,965,979,881,895,909,923,937,951,965,979,881,895,909,923,937,951,965,979,744,766,788,810,824,838,852,867,881,895,909,923,937,951,965,979,881,895,909,923,937,951,965,979,881,895,909,923,937,951,965,979,744,766,788,810,824,838,852,867,881,895,909,923,937,951,965,979,881,895,909,923,937,951,965,979,881,895,909,923,937,951,965,979,881,895,909,923,937,951,965,979,881,895,909,923,937,951,965,979,881,895,909,923,937,951,965,979,744,766,788,810,824,838,852,867,881,895,909,923,937,951,965,979,881,895,909,923,937,951,965,979,881,895,909,923,937,951,965,979,881,895,909,923,937,951,965,979,744,766,788,810,824,838,852,867,881,895,909,923,937,951,965,979,881,895,909,923,937,951,965,979,993,1007,1021,1041,1061,1083,1105,1123,1137,1153,1169,0,0,0,0,0,0,0,0,0,0,0,0,0,0,0,0,0,0,0,0,0,0,0,0,0,0,0,0,0,0,0,0,0,0,0,0,0,0,0,0,0,661,683,705,727,745,767,789,811,825,839,853,868,882,896,910,924,938,952,966,980,882,896,910,924,938,952,966,980,882,896,910,924,938,952,966,980,882,896,910,924,938,952,966,980,882,896,910,924,938,952,966,980,745,767,789,811,825,839,853,868,882,896,910,924,938,952,966,980,882,896,910,924,938,952,966,980,882,896,910,924,938,952,966,980,745,767,789,811,825,839,853,868,882,896,910,924,938,952,966,980,882,896,910,924,938,952,966,980,882,896,910,924,938,952,966,980,882,896,910,924,938,952,966,980,882,896,910,924,938,952,966,980,882,896,910,924,938,952,966,980,745,767,789,811,825,839,853,868,882,896,910,924,938,952,966,980,882,896,910,924,938,952,966,980,882,896,910,924,938,952,966,980,882,896,910,924,938,952,966,980,745,767,789,811,825,839,853,868,882,896,910,924,938,952,966,980,882,896,910,924,938,952,966,980,994,1008,1022,1042,1062,1084,1106,1124,1138,1154,1170,0,0,0,0,0,0,0,0,0,0,0,0,0,0,0,0,0,0,0,0,0,0,0,0,0,0,0,0,0,0,0,0,0,0,0,0,0,0,0,0,0,662,684,706,728,742,764,786,808,822,836,850,865,879,893,907,921,935,949,963,977,879,893,907,921,935,949,963,977,879,893,907,921,935,949,963,977,879,893,907,921,935,949,963,977,879,893,907,921,935,949,963,977,742,764,786,808,822,836,850,865,879,893,907,921,935,949,963,977,879,893,907,921,935,949,963,977,879,893,907,921,935,949,963,977,742,764,786,808,822,836,850,865,879,893,907,921,935,949,963,977,879,893,907,921,935,949,963,977,879,893,907,921,935,949,963,977,879,893,907,921,935,949,963,977,879,893,907,921,935,949,963,977,879,893,907,921,935,949,963,977,742,764,786,808,822,836,850,865,879,893,907,921,935,949,963,977,879,893,907,921,935,949,963,977,879,893,907,921,935,949,963,977,879,893,907,921,935,949,963,977,742,764,786,808,822,836,850,865,879,893,907,921,935,949,963,977,879,893,907,921,935,949,963,977,991,1005,1019,1039,1059,1081,1103,1125,1139,1155,1171,0,0,0,0,0,0,0,0,0,0,0,0,0,0,0,0,0,0,0,0,0,0,0,0,0,0,0,0,0,0,0,0,0,0,0,0,0,0,0,0,0,0,0,0,0,743,765,787,809,823,837,851,866,880,894,908,922,936,950,964,978,880,894,908,922,936,950,964,978,880,894,908,922,936,950,964,978,880,894,908,922,936,950,964,978,880,894,908,922,936,950,964,978,743,765,787,809,823,837,851,866,880,894,908,922,936,950,964,978,880,894,908,922,936,950,964,978,880,894,908,922,936,950,964,978,743,765,787,809,823,837,851,866,880,894,908,922,936,950,964,978,880,894,908,922,936,950,964,978,880,894,908,922,936,950,964,978,880,894,908,922,936,950,964,978,880,894,908,922,936,950,964,978,880,894,908,922,936,950,964,978,743,765,787,809,823,837,851,866,880,894,908,922,936,950,964,978,880,894,908,922,936,950,964,978,880,894,908,922,936,950,964,978,880,894,908,922,936,950,964,978,743,765,787,809,823,837,851,866,880,894,908,922,936,950,964,978,880,894,908,922,936,950,964,978,992,1006,1020,1040,1060,1082,1104,0,0,0,0,0,0,0,0,0,0,0,0,0,0,0,0,0,0,0,0,0,0,0,0,0,0,0,0,0,0,0,0,0,0,0,0,0,0,0,0,0,0,0,0,0,0,0,0,0,744,766,788,810,824,838,852,867,881,895,909,923,937,951,965,979,881,895,909,923,937,951,965,979,881,895,909,923,937,951,965,979,881,895,909,923,937,951,965,979,881,895,909,923,937,951,965,979,744,766,788,810,824,838,852,867,881,895,909,923,937,951,965,979,881,895,909,923,937,951,965,979,881,895,909,923,937,951,965,979,744,766,788,810,824,838,852,867,881,895,909,923,937,951,965,979,881,895,909,923,937,951,965,979,881,895,909,923,937,951,965,979,881,895,909,923,937,951,965,979,881,895,909,923,937,951,965,979,881,895,909,923,937,951,965,979,744,766,788,810,824,838,852,867,881,895,909,923,937,951,965,979,881,895,909,923,937,951,965,979,881,895,909,923,937,951,965,979,881,895,909,923,937,951,965,979,744,766,788,810,824,838,852,867,881,895,909,923,937,951,965,979,881,895,909,923,937,951,965,979,993,1007,1021,1041,1061,1083,1105,0,0,0,0,0,0,0,0,0,0,0,0,0,0,0,0,0,0,0,0,0,0,0,0,0,0,0,0,0,0,0,0,0,0,0,0,0,0,0,0,0,0,0,0,0,0,0,0,0,745,767,789,811,825,839,853,868,882,896,910,924,938,952,966,980,882,896,910,924,938,952,966,980,882,896,910,924,938,952,966,980,882,896,910,924,938,952,966,980,882,896,910,924,938,952,966,980,745,767,789,811,825,839,853,868,882,896,910,924,938,952,966,980,882,896,910,924,938,952,966,980,882,896,910,924,938,952,966,980,745,767,789,811,825,839,853,868,882,896,910,924,938,952,966,980,882,896,910,924,938,952,966,980,882,896,910,924,938,952,966,980,882,896,910,924,938,952,966,980,882,896,910,924,938,952,966,980,882,896,910,924,938,952,966,980,745,767,789,811,825,839,853,868,882,896,910,924,938,952,966,980,882,896,910,924,938,952,966,980,882,896,910,924,938,952,966,980,882,896,910,924,938,952,966,980,745,767,789,811,825,839,853,868,882,896,910,924,938,952,966,980,882,896,910,924,938,952,966,980,994,1008,1022,1042,1062,1084,1106,0,0,0,0,0,0,0,0,0,0,0,0,0,0,0,0,0,0,0,0,0,0,0,0,0,0,0,0,0,0,0,0,0,0,0,0,0,0,0,0,0,0,0,0,0,0,0,0,0,746,768,790,812,826,840,854,869,883,897,911,925,939,953,967,981,883,897,911,925,939,953,967,981,883,897,911,925,939,953,967,981,883,897,911,925,939,953,967,981,883,897,911,925,939,953,967,981,746,768,790,812,826,840,854,869,883,897,911,925,939,953,967,981,883,897,911,925,939,953,967,981,883,897,911,925,939,953,967,981,746,768,790,812,826,840,854,869,883,897,911,925,939,953,967,981,883,897,911,925,939,953,967,981,883,897,911,925,939,953,967,981,883,897,911,925,939,953,967,981,883,897,911,925,939,953,967,981,883,897,911,925,939,953,967,981,746,768,790,812,826,840,854,869,883,897,911,925,939,953,967,981,883,897,911,925,939,953,967,981,883,897,911,925,939,953,967,981,883,897,911,925,939,953,967,981,746,768,790,812,826,840,854,869,883,897,911,925,939,953,967,981,883,897,911,925,939,953,967,981,995,1009,1023,1043,1063,1085,1107,0,0,0,0,0,0,0,0,0,0,0,0,0,0,0,0,0,0,0,0,0,0,0,0,0,0,0,0,0,0,0,0,0,0,0,0,0,0,0,0,0,0,0,0,0,0,0,0,0,747,769,791,813,827,841,855,870,884,898,912,926,940,954,968,982,884,898,912,926,940,954,968,982,884,898,912,926,940,954,968,982,884,898,912,926,940,954,968,982,884,898,912,926,940,954,968,982,747,769,791,813,827,841,855,870,884,898,912,926,940,954,968,982,884,898,912,926,940,954,968,982,884,898,912,926,940,954,968,982,747,769,791,813,827,841,855,870,884,898,912,926,940,954,968,982,884,898,912,926,940,954,968,982,884,898,912,926,940,954,968,982,884,898,912,926,940,954,968,982,884,898,912,926,940,954,968,982,884,898,912,926,940,954,968,982,747,769,791,813,827,841,855,870,884,898,912,926,940,954,968,982,884,898,912,926,940,954,968,982,884,898,912,926,940,954,968,982,884,898,912,926,940,954,968,982,747,769,791,813,827,841,855,870,884,898,912,926,940,954,968,982,884,898,912,926,940,954,968,982,996,1010,1024,1044,1064,1086,1108,0,0,0,0,0,0,0,0,0,0,0,0,0,0,0,0,0,0,0,0,0,0,0,0,0,0,0,0,0,0,0,0,0,0,0,0,0,0,0,0,0,0,0,0,0,0,0,0,0,748,770,792,814,828,842,856,871,885,899,913,927,941,955,969,983,885,899,913,927,941,955,969,983,885,899,913,927,941,955,969,983,885,899,913,927,941,955,969,983,885,899,913,927,941,955,969,983,748,770,792,814,828,842,856,871,885,899,913,927,941,955,969,983,885,899,913,927,941,955,969,983,885,899,913,927,941,955,969,983,748,770,792,814,828,842,856,871,885,899,913,927,941,955,969,983,885,899,913,927,941,955,969,983,885,899,913,927,941,955,969,983,885,899,913,927,941,955,969,983,885,899,913,927,941,955,969,983,885,899,913,927,941,955,969,983,748,770,792,814,828,842,856,871,885,899,913,927,941,955,969,983,885,899,913,927,941,955,969,983,885,899,913,927,941,955,969,983,885,899,913,927,941,955,969,983,748,770,792,814,828,842,856,871,885,899,913,927,941,955,969,983,885,899,913,927,941,955,969,983,997,1011,1025,1045,1065,1087,1109,0,0,0,0,0,0,0,0,0,0,0,0,0,0,0,0,0,0,0,0,0,0,0,0,0,0,0,0,0,0,0,0,0,0,0,0,0,0,0,0,0,0,0,0,0,0,0,0,0,749,771,793,815,829,843,857,872,886,900,914,928,942,956,970,984,886,900,914,928,942,956,970,984,886,900,914,928,942,956,970,984,886,900,914,928,942,956,970,984,886,900,914,928,942,956,970,984,749,771,793,815,829,843,857,872,886,900,914,928,942,956,970,984,886,900,914,928,942,956,970,984,886,900,914,928,942,956,970,984,749,771,793,815,829,843,857,872,886,900,914,928,942,956,970,984,886,900,914,928,942,956,970,984,886,900,914,928,942,956,970,984,886,900,914,928,942,956,970,984,886,900,914,928,942,956,970,984,886,900,914,928,942,956,970,984,749,771,793,815,829,843,857,872,886,900,914,928,942,956,970,984,886,900,914,928,942,956,970,984,886,900,914,928,942,956,970,984,886,900,914,928,942,956,970,984,749,771,793,815,829,843,857,872,886,900,914,928,942,956,970,984,886,900,914,928,942,956,970,984,998,1012,1026,1046,1066,1088,1110,0,0,0,0,0,0,0,0,0,0,0,0,0,0,0,0,0,0,0,0,0,0,0,0,0,0,0,0,0,0,0,0,0,0,0,0,0,0,0,0,0,0,0,0,0,0,0,0,0,750,772,794,816,830,844,858,873,887,901,915,929,943,957,971,985,887,901,915,929,943,957,971,985,887,901,915,929,943,957,971,985,887,901,915,929,943,957,971,985,887,901,915,929,943,957,971,985,750,772,794,816,830,844,858,873,887,901,915,929,943,957,971,985,887,901,915,929,943,957,971,985,887,901,915,929,943,957,971,985,750,772,794,816,830,844,858,873,887,901,915,929,943,957,971,985,887,901,915,929,943,957,971,985,887,901,915,929,943,957,971,985,887,901,915,929,943,957,971,985,887,901,915,929,943,957,971,985,887,901,915,929,943,957,971,985,750,772,794,816,830,844,858,873,887,901,915,929,943,957,971,985,887,901,915,929,943,957,971,985,887,901,915,929,943,957,971,985,887,901,915,929,943,957,971,985,750,772,794,816,830,844,858,873,887,901,915,929,943,957,971,985,887,901,915,929,943,957,971,985,999,1013,1027,1047,1067,1089,1111,0,0,0,0,0,0,0,0,0,0,0,0,0,0,0,0,0,0,0,0,0,0,0,0,0,0,0,0,0,0,0,0,0,0,0,0,0,0,0,0,0,0,0,0,0,0,0,0,0,0,0,0,0,0,0,0,0,0,0,0,0,0,0,0,0,0,0,0,0,0,0,0,0,0,0,0,0,0,0,0,0,0,0,0,0,0,0,0,0,0,0,0,0,0,0,0,0,0,0,0,0,0,0,0,0,0,0,0,0,0,0,0,0,0,0,0,0,0,0,0,0,0,0,0,0,0,0,0,0,0,0,0,0,0,0,0,0,0,0,0,0,0,0,0,0,0,0,0,0,0,0,0,0,0,0,0,0,0,0,0,0,0,0,0,0,0,0,0,0,0,0,0,0,0,0,0,0,0,0,0,0,0,0,0,0,0,0,0,0,0,0,0,0,0,0,0,0,0,0,0,0,0,0,0,0,0,0,0,0,0,0,0,0,0,0,0,0,0,0,0,0,0,0,0,0,0,0,0,0,0,0,0,0,0,0,0,0,0,0,0,0,0,0,0,0,0,0,0,0,0,0,0,0,0,0,0,0,0,0,0,0,0,0,0,0,0,0,0,0,0,0,0,0,0,0,0,0,0,0,0,0,0,0,0,0,0,0,0,0,0,0,0,0,0,0,0,0,0,0,0,0,0,0,0,0,0,0,0,0,0,0,0,0,0,0,0,0,0,0,0,0,0,0,0,0,0,0,0,0,0,0,0,0,0,0,0,0,0,0,0,0,0,0,0,0,0,0,0,0,0,0,0,0,0,0,0,0,0,0,0,0,0,0,0,0,0,0,0,0,0,0,0,0,0,0,0,0,0,0,0,0,0,0,0,0,0,0,0,0,0,0,0,0,0,0,0,0,0,0,0,0,0,0,0,0,0,0,0,0,0,0,0,0,0,0,0,0,0,0,0,0,0,0,0,0,0,0,0,0,0,0,0,0,0,0,0,0,0,0,0,0,0,0,0,0,0,0,0,0,0,0,0,0,0,0,0,0,0,0,0,0,0,0,0,0,0,0,0,0,0,0,0,0,0,0,0,0,0,0,0,0,0,0,0,0,0,0,0,0,0,0,0,0,0,0,0,0,0,0,0,0,0,0,0,0,0,0,0,0,0,0,0,0,0,0,0,0,0,0,0,0,0,0,0,0,0,0,0,0,0,0,0,0,0,0,0,0,0,0,0,0,0,0,0,0,0,0,0,0,0,0,0,0,0,0,0,0,0,0,0,0,0,0,0,0,0,0,0,0,0,0,0,0,0,0,0,0,0,0,0,0,0,0,0,0,0,0,0,0,0,0,0,0,0,0,0,0,0,0,0,0,0,0,0,0,0,0,0,0,0,0,0,0,0,0,0,0,0,0,0,0,0,0,0,0,0,0,0,0,0,0,0,0,0,0,0,0,0,0,0,0,0,0,0,0,0,0,0,0,0,0,0,0,0,0,0,0,0,0,0,0,0,0,0,0,0,0,0,0,0,0,0,0,0,0,0,0,0,0,0,0,0,0,0,0,0,0,0,0,0,0,0,0,0,0,0,0,0,0,0,0,0,0,0,0,0,0,0,0,0,0,0,0,0,0,0,0,0,0,0,0,0,0,0,0,0,0,0,0,0,0,0,0,0,0,0,0,0,0,0,0,0,0,0,0,0,0,0,0,0,0,0,0,0,0,0,0,0,0,0,0,0,0,0,0,0,0,0,0,0,0,0,0,0,0,0,0,0,0,0,0,0,0,0,0,0,0,0,0,0,0,0,0,0,0,0,0,0,0,0,0,0,0,0,0,0,0,0,0,0,0,0,0,0,0,0,0,0,0,0,0,0,0,0,0,0,0,0,0,0,0,0,0,0,0,0,0,0,0,0,0,0,0,0,0,0,0,0,0,0,0,0,0,0,0,0,0,0,0,0,0,0,0,0,0,0,0,0,0,0,0,0,0,0,0,0,0,0,0,0,0,0,0,0,0,0,0,0,0,0,0,0,0,0,0,0,0,0,0,0,0,0,0,0,0,0,0,0,0,0,0,0,0,0,0,0,0,0,0,0,0,0,0,0,0,0,0,0,0,0,0,0,0,0,0,0,0,0,0,0,0,0,0,0,0,0,0,0,0,0,0,0,0,0,0,0,0,0,0,0,0,0,0,0,0,0,0,0,0,0,0,0,0,0,0,0,0,0,0,0,0,0,0,0,0,0,0,0,0,0,0,0,0,0,0,0,0,0,0,0,0,0,0,0,0,0,0,0,0,0,0,0,0,0,0,0,0,0,0,0,0,0,0,0,0,0,0,0,0,0,0,0,0,0,0,0,0,0,0,0,0,0,0,0,0,0,0,0,0,0,0,0,0,0,0,0,0,0,0,0,0,0,0,0,0,0,0,0,0,0,0,0,0,0,0,0,0,0,0,0,0,0,0,0,0,0,0,0,0,0,0,0,0,0,0,0,0,0,0,0,0,0,0,0,0,0,0,0,0,0,0,0,0,0,0,0,0,0,0,0,0,0,0,0,0,0,0,0,0,0,0,0,0,0,0,0,0,0,0,0,0,0,0,0,0,0,0,0,0,0,0,0,0,0,0,0,0,0,0,0,0,0,0,0,0,0,0,0,0,0,0,0,0,0,0,0,0,0,0,0,0,0,0,0,0,0,0,0,0,0,0,0,0,0,0,0,0,0,0,0,0,0,0,0,0,0,0,0,0,0,0,0,0,0,0,0,0,0,0,0,0,0,0,0,0,0,0,0,0,0,0,0,0,0,0,0,0,0,0,0,0,0,0,0,0,0,0,0,0,0,0,0,0,0,0,0,0,0,0,0,0,0,0,0,0,0,0,0,0,0,0,0,0,0,0,0,0,0,0,0,0,0,0,0,0,0,0,0,0,0,0,0,0,0,0,0,0,0,0,0,0,0,0,0,0,0,0,0,0,0,0,0,0,0,0,0,0,0,0,0,0,0,0,0,0,0,0,0,0,0,0,0,0,0,0,0,0,0,0,0,0,0,0,0,0,0,0,0,0,0,0,0,0,0,0,0,0,0,0,0,0,0,0,0,0,0,0,0,0,0,0,0,0,0,0,0,0,0,0,0,0,0,0,0,0,0,0,0,0,0,0,0,0,0,0,0,0,0,0,0,0,0,0,0,0,0,0,0,0,0,0,0,0,0,0,0,0,0,0,0,0,0,0,0,0,0,0,0,0,0,0,0,0,0,0,0,0,0,0,0,0,0,0,0,0,0,0,0,0,0,0,0,0,0,0,0,0,0,0,0,0,0,0,0,0,0,0,0,0,0,0,0,0,0,0,0,0,0,0,0,0,0,0,0,0,0,0,0,0,0,0,0,0,0,0,0,0,0,0,0,0,0,0,0,0,0,0,0,0,0,0,0,0,0,0,0,0,0,0,0,0,0,0,0,0,0,0,0,0,0,0,0,0,0,0,0,0,0,0,0,0,0,0,0,0,0,0,0,0,0,0,0,0,0,0,0,0,0,0,0,0,0,0,0,0,0,0,0,0,0,0,0,0,0,0,0,0,0,0,0,0,0,0,0,0,0,0,0,0,0,0,0,0,0,0,0,0,0,0,0,0,0,0,0,0,0,0,0,0,0,0,0,0,0,0,0,0,0,0,0,0,0,0,0,0,0,0,0,0,0,0,0,0,0,0,0,0,0,0,0,0,0,0,0,0,0,0,0,0,0,0,0,0,0,0,0,0,0,0,0,0,0,0,0,0,0,0,0,0,0,0,0,0,0,0,0,0,0,0,0,0,0,0,0,0,0,0,0,0,0,0,0,0,0,0,0,0,0,0,0,0,0,0,0,0,0,0,0,0,0,0,0,0,0,0,0,0,0,0,0,0,0,0,0,0,0,0,0,0,0,0,0,0,0,0,0,0,0,0,0,0,0,0,0,0,0,0,0,0,0,0,0,0,0,0,0,0,0,0,0,0,0,0,0,0,0,0,0,0,0,0,0,0,0,0,0,0,0,0,0,0,0,0,0,0,0,0,0,0,0,0,0,0,0,0,0,0,0,0,0,0,0,0,0,0,0,0,0,0,0,0,0,0,0,0,0,0,0,0,0,0,0,0,0,0,0,0,0,0,0,0,0,0,0,0,0,0,0,0,0,0,0,0,0,0,0,0,0,0,0,0,0,0,0,0,0,0,0,0,0,0,0,0,0,0,0,0,0,0,0,0,0,0,0,0,0,0,0,0,0,0,0,0,0,0,0,0,0,0,0,0,0,0,0,0,0,0,0,0,0,0,0,0,0,0,0,0,0,0,0,0,0,0,0,0,0,0,0,0,0,0,0,0,0,0,0,0,0,0,0,0,0,0,0,0,0,0,0,0,0,0,0,0,0,0,0,0,0,0,0,0,0,0,0,0,0,0,0,0,0,0,0,0,0,0,0,0,0,0,0,0,0,0,0,0,0,0,0,0,0,0,0,0,0,0,0,0,0,0,0,0,0,0,0,0,0,0,0,0,0,0,0,0,0,0,0,0,0,0,0,0,0,0,0,0,0,0,0,0,0,0,0,0,0,0,0,0,0,0,0,0,0,0,0,0,0,0,0,0,0,0,0,0,0,0,0,0,0,0,0,0,0,0,0,0,0,0,0,0,0,0,0,0,0,0,0,0,0,0,0,0,0,0,0,0,0,0,0,0,0,0,0,0,0,0,0,0,0,0,0,0,0,0,0,0,0,0,0,0,0,0,0,0,0,0,0,0,0,0,0,0,0,0,0,0,0,0,0,0,0,0,0,0,0,0,0,0,0,0,0,0,0,0,0,0,0,0,0,0,0,0,0,0,0,0,0,0,0,0,0,0,0,0,0,0,0,0,0,0,0,0,0,0,0,0,0,0,0,0,0,0,0,0,0,0,0,0,0,0,0,0,0,0,0,0,0,0,0,0,0,0,0,0,0,0,0,0,0,0,0,0,0,0,0,0,0,0,0,0,0,0,0,0,0,0,0,0,0,0,0,0,0,0,0,0,0,0,0,0,0,0,0,0,0,0,0,0,0,0,0,0,0,0,0,0,0,0,0,0,0,0,0,0,0,0,0,0,0,0,0,0,0,0,0,0,0,0,0,0,0,0,0,0,0,0,0,0,0,0,0,0,0,0,0,0,0,0,0,0,0,0,0,0,0,0,0,0,0,0,0,0,0,0,0,0,0,0,0,0,0,0,0,0,0,0,0,0,0,0,0,0,0,0,0,0,0,0,0,0,0,0,0,0,0,0,0,0,0,0,0,0,0,0,0,0,0,0,0,0,0,0,0,0,0,0,0,0,0,0,0,0,0,0,0,0,0,0,0,0,0,0,0,0,0,0,0,0,0,0,0,0,0,0,0,0,0,0,0,0,0,0,0,0,0,0,0,0,0,0,0,0,0,0,0,0,0,0,0,0,0,0,0,0,0,0,0,0,0,0,0,0,0,0,0,0,0,0,0,0,0,0,0,0,0,0,0,0,0,0,0,0,0,0,0,0,0,0,0,0,0,0,0,0,0,0,0,0,0,0,0,0,0,0,0,0,0,0,0,0,0,0,0,0,0,0,0,0,0,0,0,0,0,0,0,0,0,0,0,0,0,0,0,0,0,0,0,0,0,0,0,0,0,0,0,0,0,0,0,0,0,0,0,0,0,0,0,0,0,0,0,0,0,0,0,0,0,0,0,0,0,0,0,0,0,0,0,0,0,0,0,0,0,0,0,0,0,0,0,0,0,0,0,0,0,0,0,0,0,0,0,0,0,0,0,0,0,0,0,0,0,0,0,0,0,0,0,0,0,0,0,0,0,0,0,0,0,0,0,0,0,0,0,0,0,0,0,0,0,0,0,0,0,0,0,0,0,0,0,0,0,0,0,0,0,0,0,0,0,0,0,0,0,0,0,0,0,0,0,0,0,0,0,0,0,0,0,0,0,0,0,0,0,0,0,0,0,0,0,0,0,0,0,0,0,0,0,0,0,0,0,0,0,0,0,0,0,0,0,0,0,0,0,0,0,0,0,0,0,0,0,0,0,0,0,0,0,0,0,0,0,0,0,0,0,0,0,0,0,0,0,0,0,0,0,0,0,0,0,0,0,0,0,0,0,0,0,0,0,0,0,0,0,0,0,0,0,0,0,0,0,0,0,0,0,0,0,0,0,0,0,0,0,0,0,0,0,0,0,0,0,0,0,0,0,0,0,0,0,0,0,0,0,0,0,0,0,0,0,0,0,0,0,0,0,0,0,0,0,0,0,0,0,0,0,0,0,0,0,0,0,0,0,0,0,0,0,0,0,0,0,0,0,0,0,0,0,0,0,0,0,0,0,0,0,0,0,0,0,0,0,0,0,0,0,0,0,0,0,0,0,0,0,0,0,0,0,0,0,0,0,0,0,0,0,0,0,0,0,0,0,0,0,0,0,0,0,0,0,0,0,0,0,0,0,0,0,0,0,0,0,0,0,0,0,0,0,0,0,0,0,0,0,0,0,0,0,0,0,0,0,0,0,0,0,0,0,0,0,0,0,0,0,0,0,0,0,0,0,0,0,0,0,0,0,0,0,0,0,0,0,0,0,0,0,0,0,0,0,0,0,0,0,0,0,0,0,0,0,0,0,0,0,0,0,0,0,0,0,0,0,0,0,0,0,0,0,0,0,0,0,0,0,0,0,0,0,0,0,0,0,0,0,0,0,0,0,0,0,0,0,0,0,0,0,0,0,0,0,0,0,0,0,0,0,0,0,0,0,0,0,0,0,0,0,0,0,0,0,0,0,0,0,0,0,0,0,0,0,0,0,0,0,0,0,0,0,0,0,0,0,0,0,0,0,0,0,0,0,0,0,0,0,0,0,0,0,0,0,0,0,0,0,0,0,0,0,0,0,0,0,0,0,0,0,0,0,0,0,0,0,0,0,0,0,0,0,0,0,0,0,0,0,0,0,0,0,0,0,0,0,0,0,0,0,0,0,0,0,0,0,0,0,0,0,0,0,0,0,0,0,0,0,0,0,0,0,0,0,0,0,0,0,0,0,0,0,0,0,0,0,0,0,0,0,0,0,0,0,0,0,0,0,0,0,0,0,0,0,0,0,0,0,0,0,0,0,0,0,0,0,0,0,0,0,0,0,0,0,0,0,0,0,0,0,0,0,0,0,0,0,0,0,0,0,0,0,0,0,0,0,0,0,0,0,0,0,0,0,0,0,0,0,0,0,0,0,0,0,0,0,0,0,0,0,0,0,0,0,0,0,0,0,0,0,0,0,0,0,0,0,0,0,0,0,0,0,0,0,0,0,0,0,0,0,0,0,0,0,0,0,0,0,0,0,0,0,0,0,0,0,0,0,0,0,0,0,0,0,0,0,0,0,0,0,0,0,0,0,0,0,0,0,0,0,0,0,0,0,0,0,0,0,0,0,0,0,0,0,0,0,0,0,0,0,0,0,0,0,0,0,0,0,0,0,0,0,0,0,0,0,0,0,0,0,0,0,0,0,0,0,0,0,0,0,0,0,0,0,0,0,0,0,0,0,0,0,0,0,0,0,0,0,0,0,0,0,0,0,0,0,0,0,0,0,0,0,0,0,0,0,0,0,0,0,0,0,0,0,0,0,0,0,0,0,0,0,0,0,0,0,0,0,0,0,0,0,0,0,0,0,0,0,0,0,0,0,0,0,0,0,0,0,0,0,0,0,0,0,0,0,0,0,0,0,0,0,0,0,0,0,0,0,0,0,0,0,0,0,0,0,0,0,0,0,0,0,0,0,0,0,0,0,0,0,0,0,0,0,0,0,0,0,0,0,0,0,0,0,0,0,0,0,0,0,0,0,0,0,0,0,0,0,0,0,0,0,0,0,0,0,0,0,0,0,0,0,0,0,0,0,0,0,0,0,0,0,0,0,0,0,0,0,0,0,0,0,0,0,0,0,0,0,0,0,0,0,0,0,0,0,0,0,0,0,0,0,0,0,0,0,0,0,0,0,0,0,0,0,0,0,0,0,0,0,0,0,0,0,0,0,0,0,0,0,0,0,0,0,0,0,0,0,0,0,0,0,0,0,0,0,0,0,0,0,0,0,0,0,0,0,0,0,0,0,0,0,0,0,0,0,0,0,0,0,0,0,0,0,0,0,0,0,0,0,0,0,0,0,0,0,0,0,0,0,0,0,0,0,0,0,0,0,0,0,0,0,0,0,0,0,0,0,0,0,0,0,0,0,0,0,0,0,0,0,0,0,0,0,0,0,0,0,0,0,0,0,0,0,0,0,0,0,0,0,0,0,0,0,0,0,0,0,0,0,0,0,0,0,0,0,0,0,0,0,0,0,0,0,0,0,0,0,0,0,0,0,0,0,0,0,0,0,0,0,0,0,0,0,0,0,0,0,0,0,0,0,0,0,0,0,0,0,0,0,0,0,0,0,0,0,0,0,0,0,0,0,0,0,0,0,0,0,0,0,0,0,0,0,0,0,0,0,0,0,0,0,0,0,0,0,0,0,0,0,0,0,0,0,0,0,0,0,0,0,0,0,0,0,0,0,0,0,0,0,0,0,0,0,0,0,0,0,0,0,0,0,0,0,0,0,0,0,0,0,0,0,0,0,0,0,0,0,0,0,0,0,0,0,0,0,0,0,0,0,0,0,0,0,0,0,0,0,0,0,0,0,0,0,0,0,0,0,0,0,0,0,0,0,0,0,0,0,0,0,0,0,0,0,0,0,0,0,0,0,0,0,0,0,0,0,0,0,0,0,0,0,0,0,0,0,0,0,0,0,0,0,0,0,0,0,0,0,0,0,0,0,0,0,0,0,0,0,0,0,0,0,0,0,0,0,0,0,0,0,0,0,0,0,0,0,0,0,0,0,0,0,0,0,0,0,0,0,0,0,0,0,0,0,0,0,0,0,0,0,0,0,0,0,0,0,0,0,0,0,0,0,0,0,0,0,0,0,0,0,0,0,0,0,0,0,0,0,0,0,0,0,0,0,0,0,0,0,0,0,0,0,0,0,0,0,0,0,0,0,0,0,0,0,0,0,0,0,0,0,0,0,0,0,0,0,0,0,0,0,0,0,0,0,0,0,0,0,0,0,0,0,0,0,0,0,0,0,0,0,0,0,0,0,0,0,0,0,0,0,0,0,0,0,0,0,0,0,0,0,0,0,0,0,0,0,0,0,0,0,0,0,0,0,0,0,0,0,0,0,0,0,0,0,0,0,0,0,0,0,0,0,0,0,0,0,0,0,0,0,0,0,0,0,0,0,0,0,0,0,0,0,0,0,0,0,0,0,0,0,0,0,0,0,0,0,0,0,0,0,0,0,0,0,0,0,0,0,0,0,0,0,0,0,0,0,0,0,0,0,0,0,0,0,0,0,0,0,0,0,0,0,0,0,0,0,0,0,0,0,0,0,0,0,0,0,0,0,0,0,0,0,0,0,0,0,0,0,0,0,0,0,0,0,0,0,0,0,0,0,0,0,0,0,0,0,0,0,0,0,0,0,0,0,0,0,0,0,0,0,0,0,0,0,0,0,0,0,0,0,0,0,0,0,0,0,0,0,0,0,0,0,0,0,0,0,0,0,0,0,0,0,0,0,0,0,0,0,0,0,0,0,0,0,0,0,0,0,0,0,0,0,0,0,0,0,0,0,0,0,0,0,0,0,0,0,0,0,0,0,0,0,0,0,0,0,0,0,0,0,0,0,0,0,0,0,0,0,0,0,0,0,0,0,0,0,0,0,0,0,0,0,0,0,0,0,0,0,0,0,0,0,0,0,0,0,0,0,0,0,0,0,0,0,0,0,0,0,0,0,0,0,0,0,0,0,0,0,0,0,0,0,0,0,0,0,0,0,0,0,0,0,0,0,0,0,0,0,0,0,0,0,0,0,0,0,0,0,0,0,0,0,0,0,0,0,0,0,0,0,0,0,0,0,0,0,0,0,0,0,0,0,0,0,0,0,0,0,0,0,0,0,0,0,0,0,0,0,0,0,0,0,0,0,0,0,0,0,0,0,0,0,0,0,0,0,0,0,0,0,0,0,0,0,0,0,0,0,0,0,0,0,0,0,0,0,0,0,0,0,0,0,0,0,0,0,0,0,0,0,0,0,0,0,0,0,0,0,0,0,0,0,0,0,0,0,0,0,0,0,0,0,0,0,0,0,0,0,0,0,0,0,0,0,0,0,0,0,0,0,0,0,0,0,0,0,0,0,0,0,0,0,0,0,0,0,0,0,0,0,0,0,0,0,0,0,0,0,0,0,0,0,0,0,0,0,0,0,0,0,0,0,0,0,0,0,0,0,0,0,0,0,0,0,0,0,0,0,0,0,0,0,0,0,0,0,0,0,0,0,0,0,0,0,0,0,0,0,0,0,0,0,0,0,0,0,0,0,0,0,0,0,0,0,0,0,0,0,0,0,0,0,0,0,0,0,0,0,0,0,0,0,0,0,0,0,0,0,0,0,0,0,0,0,0,0,0,0,0,0,0,0,0,0,0,0,0,0,0,0,0,0,0,0,0,0,0,0,0,0,0,0,0,0,0,0,0,0,0,0,0,0,0,0,0,0,0,0,0,0,0,0,0,0,0,0,0,0,0,0,0,0,0,0,0,0,0,0,0,0,0,0,0,0,0,0,0,0,0,0,0,0,0,0,0,0,0,0,0,0,0,0,0,0,0,0,0,0,0,0,0,0,0,0,0,0,0,0,0,0,0,0,0,0,0,0,0,0,0,0,0,0,0,0,0,0,0,0,0,0,0,0,0,0,0,0,0,0,0,0,0,0,0,0,0,0,0,0,0,0,0,0,0,0,0,0,0,0,0,0,0,0,0,0,0,0,0,0,0,0,0,0,0,0,0,0,0,0,0,0,0,0,0,0,0,0,0,0,0,0,0,0,0,0,0,0,0,0,0,0,0,0,0,0,0,0,0,0,0,0,0,0,0,0,0,0,0,0,0,0,0,0,0,0,0,0,0,0,0,0,0,0,0,0,0,0,0,0,0,0,0,0,0,0,0,0,0,0,0,0,0,0,0,0,0,0,0,0,0,0,0,0,0,0,0,0,0,0,0,0,0,0,0,0,0,0,0,0,0,0,0,0,0,0,0,0,0,0,0,0,0,0,0,0,0,0,0,0,0,0,0,0,0,0,0,0,0,0,0,0,0,0,0,0,0,0,0,0,0,0,0,0,0,0,0,0,0,0,0,0,0,0,0,0,0,0,0,0,0,0,0,0,0,0,0,0,0,0,0,0,0,0,0,0,0,0,0,0,0,0,0,0,0,0,0,0,0,0,0,0,0,0,0,0,0,0,0,0,0,0,0,0,0,0,0,0,0,0,0,0,0,0,0,0,0,0,0,0,0,0,0,0,0,0,0,0,0,0,0,0,0,0,0,0,0,0,0,0,0,0,0,0,0,0,0,0,0,0,0,0,0,0,0,0,0,0,0,0,0,0,0,0,0,0,0,0,0,0,0,0,0,0,0,0,0,0,0,0,0,0,0,0,0,0,0,0,0,0,0,0,0,0,0,0,0,0,0,0,0,0,0,0,0,0,0,0,0,0,0,0,0,0,0,0,0,0,0,0,0,0,0,0,0,0,0,0,0,0,0,0,0,0,0,0,0,0,0,0,0,0,0,0,0,0,0,0,0,0,0,0,0,0,0,0,0,0,0,0,0,0,0,0,0,0,0,0,0,0,0,0,0,0,0,0,0,0,0,0,0,0,0,0,0,0,0,0,0,0,0,0,0,0,0,0,0,0,0,0,0,0,0,0,0,0,0,0,0,0,0,0,0,0,0,0,0,0,0,0,0,0,0,0,0,0,0,0,0,0,0,0,0,0,0,0,0,0,0,0,0,0,0,0,0,0,0,0,0,0,0,0,0,0,0,0,0,0,0,0,0,0,0,0,0,0,0,0,0,0,0,0,0,0,0,0,0,0,0,0,0,0,0,0,0,0,0,0,0,0,0,0,0,0,0,0,0,0,0,0,0,0,0,0,0,0,0,0,0,0,0,0,0,0,0,0,0,0,0,0,0,0,0,0,0,0,0,0,0,0,0,0,0,0,0,0,0,0,0,0,0,0,0,0,0,0,0,0,0,0,0,0,0,0,0,0,0,0,0,0,0,0,0,0,0,0,0,0,0,0,0,0,0,0,0,0,0,0,0,0,0,0,0,0,0,0,0,0,0,0,0,0,0,0,0,0,0,0,0,0,0,0,0,0,0,0,0,0,0,0,0,0,0,0,0,0,0,0,0,0,0,0,0,0,0,0,0,0,0,0,0,0,0,0,0,0,0,0,0,0,0,0,0,0,0,0,0,0,0,0,0,0,0,0,0,0,0,0,0,0,0,0,0,0,0,0,0,0,0,0,0,0,0,0,0,0,0,0,0,0,0,0,0,0,0,0,0,0,0,0,0,0,0,0,0,0,0,0,0,0,0,0,0,0,0,0,0,0,0,0,0,0,0,0,0,0,0,0,0,0,0,0,0,0,0,0,0,0,0,0,0,0,0,0,0,0,0,0,0,0,0,0,0,0,0,0,0,0,0,0,0,0,0,0,0,0,0,0,0,0,0,0,0,0,0,0,0,0,0,0,0,0,0,0,0,0,0,0,0,0,0,0,0,0,0,0,0,0,0,0,0,0,0,0,0,0,0,0,0,0,0,0,0,0,0,0,0,0,0,0,0,0,0,0,0,0,0,0,0,0,0,0,0,0,0,0,0,0,0,0,0,0,0,0,0,0,0,0,0,0,0,0,0,0,0,0,0,0,0,0,0,0,0,0,0,0,0,0,0,0,0,0,0,0,0,0,0,0,0,0,0,0,0,0,0,0,0,0,0,0,0,0,0,0,0,0,0,0,0,0,0,0,0,0,0,0,0,0,0,0,0,0,0,0,0,0,0,0,0,0,0,0,0,0,0,0,0,0,0,0,0,0,0,0,0,0,0,0,0,0,0,0,0,0,0,0,0,0,0,0,0,0,0,0,0,0,0,0,0,0,0,0,0,0,0,0,0,0,0,0,0,0,0,0,0,0,0,0,0,0,0,0,0,0,0,0,0,0,0,0,0,0,0,0,0,0,0,0,0,0,0,0,0,0,0,0,0,0,0,0,0,0,0,0,0,0,0,0,0,0,0,0,0,0,0,0,0,0,0,0,0,0,0,0,0,0,0,0,0,0,0,0,0,0,0,0,0,0,0,0,0,0,0,0,0,0,0,0,0,0,0,0,0,0,0,0,0,0,0,0,0,0,0,0,0,0,0,0,0,0,0,0,0,0,0,0,0,0,0,0,0,0,0,0,0,0,0,0,0,0,0,0,0,0,0,0,0,0,0,0,0,0,0,0,0,0,0,0,0,0,0,0,0,0,0,0,0,0,0,0,0,0,0,0,0,0,0,0,0,0,0,0,0,0,0,0,0,0,0,0,0,0,0,0,0,0,0,0,0,0,0,0,0,0,0,0,0,0,0,0,0,0,0,0,0,0,0,0,0,0,0,0,0,0,0,0,0,0,0,0,0,0,0,0,0,0,0,0,0,0,0,0,0,0,0,0,0,0,0,0,0,0,0,0,0,0,0,0,0,0,0,0,0,0,0,0,0,0,0,0,0,0,0,0,0,0,0,0,0,0,0,0,0,0,0,0,0,0,0,0,0,0,0,0,0,0,0,0,0,0,0,0,0,0,0,0,0,0,0,0,0,0,0,0,0,0,0,0,0,0,0,0,0,0,0,0,0,0,0,0,0,0,0,0,0,0,0,0,0,0,0,0,0,0,0,0,0,0,0,0,0,0,0,0,0,0,0,0,0,0,0,0,0,0,0,0,0,0,0,0,0,0,0,0,0,0,0,0,0,0,0,0,0,0,0,0,0,0,0,0,0,0,0,0,0,0,0,0,0,0,0,0,0,0,0,0,0,0,0,0,0,0,0,0,0,0,0,0,0,0,0,0,0,0,0,0,0,0,0,0,0,0,0,0,0,0,0,0,0,0,0,0,0,0,0,0,0,0,0,0,0,0,0,0,0,0,0,0,0,0,0,0,0,0,0,0,0,0,0,0,0,0,0,0,0,0,0,0,0,0,0,0,0,0,0,0,0,0,0,0,0,0,0,0,0,0,0,0,0,0,0,0,0,0,0,0,0,0,0,0,0,0,0,0,0,0,0,0,0,0,0,0,0,0,0,0,0,0,0,0,0,0,0,0,0,0,0,0,0,0,0,0,0,0,0,0,0,0,0,0,0,0,0,0,0,0,0,0,0,0,0,0,0,0,0,0,0,0,0,0,0,0,0,0,0,0,0,0,0,0,0,0,0,0,0,0,0,0,0,0,0,0,0,0,0,0,0,0,0,0,0,0,0,0,0,0,0,0,0,0,0,0,0,0,0,0,0,0,0,0,0,0,0,0,0,0,0,0,0,0,0,0,0,0,0,0,0,0,0,0,0,0,0,0,0,0,0,0,0,0,0,0,0,0,0,0,0,0,0,0,0,0,0,0,0,0,0,0,0,0,0,0,0,0,0,0,0,0,0,0,0,0,0,0,0,0,0,0,0,0,0,0,0,0,0,0,0,0,0,0,0,0,0,0,0,0,0,0,0,0,0,0,0,0,0,0,0,0,0,0,0,0,0,0,0,0,0,0,0,0,0,0,0,0,0,0,0,0,0,0,0,0,0,0,0,0,0,0,0,0,0,0,0,0,0,0,0,0,0,0,0,0,0,0,0,0,0,0,0,0,0,0,0,0,0,0,0,0,0,0,0,0,0,0,0,0,0,0,0,0,0,0,0,0,0,0,0,0,0,0,0,0,0,0,0,0,0,0,0,0,0,0,0,0,0,0,0,0,0,0,0,0,0,0,0,0,0,0,0,0,0,0,0,0,0,0,0,0,0,0,0,0,0,0,0,0,0,0,0,0,0,0,0,0,0,0,0,0,0,0,0,0,0,0,0,0,0,0,0,0,0,0,0,0,0,0,0,0,0,0,0,0,0,0,0,0,0,0,0,0,0,0,0,0,0,0,0,0,0,0,0,0,0,0,0,0,0,0,0,0,0,0,0,0,0,0,0,0,0,0,0,0,0,0,0,0,0,0,0,0,0,0,0,0,0,0,0,0,0,0,0,0,0,0,0,0,0,0,0,0,0,0,0,0,0,0,0,0,0,0,0,0,0,0,0,0,0,0,0,0,0,0,0,0,0,0,0,0,0,0,0,0,0,0,0,0,0,0,0,0,0,0,0,0,0,0,0,0,0,0,0,0,0,0,0,0,0,0,0,0,0,0,0,0,0,0,0,0,0,0,0,0,0,0,0,0,0,0,0,0,0,0,0,0,0,0,0,0,0,0,0,0,0,0,0,0,0,0,0,0,0,0,0,0,0,0,0,0,0,0,0,0,0,0,0,0,0,0,0,0,0,0,0,0,0,0,0,0,0,0,0,0,0,0,0,0,0,0,0,0,0,0,0,0,0,0,0,0,0,0,0,0,0,0,0,0,0,0,0,0,0,0,0,0,0,0,0,0,0,0,0,0,0,0,0,0,0,0,0,0,0,0,0,0,0,0,0,0,0,0,0,0,0,0,0,0,0,0,0,0,0,0,0,0,0,0,0,0,0,0,0,0,0,0,0,0,0,0,0,0,0,0,0,0,0,0,0,0,0,0,0,0,0,0,0,0,0,0,0,0,0,0,0,0,0,0,0,0,0,0,0,0,0,0,0,0,0,0,0,0,0,0,0,0,0,0,0,0,0,0,0,0,0,0,0,0,0,0,0,0,0,0,0,0,0,0,0,0,0,0,0,0,0,0,0,0,0,0,0,0,0,0,0,0,0,0,0,0,0,0,0,0,0,0,0,0,0,0,0,0,0,0,0,0,0,0,0,0,0,0,0,0,0,0,0,0,0,0,0,0,0,0,0,0,0,0,0,0,0,0,0,0,0,0,0,0,0,0,0,0,0,0,0,0,0,0,0,0,0,0,0,0,0,0,0,0,0,0,0,0,0,0,0,0,0,0,0,0,0,0,0,0,0,0,0,0,0,0,0,0,0,0,0,0,0,0,0,0,0,0,0,0,0,0,0,0,0,0,0,0,0,0,0,0,0,0,0,0,0,0,0,0,0,0,0,0,0,0,0,0,0,0,0,0,0,0,0,0,0,0,0,0,0,0,0,0,0,0,0,0,0,0,0,0,0,0,0,0,0,0,0,0,0,0,0,0,0,0,0,0,0,0,0,0,0,0,0,0,0,0,0,0,0,0,0,0,0,0,0,0,0,0,0,0,0,0,0,0,0,0,0,0,0,0,0,0,0,0,0,0,0,0,0,0,0,0,0,0,0,0,0,0,0,0,0,0,0,0,0,0,0,0,0,0,0,0,0,0,0,0,0,0,0,0,0,0,0,0,0,0,0,0,0,0,0,0,0,0,0,0,0,0,0,0,0,0,0,0,0,0,0,0,0,0,0,0,0,0,0,0,0,0,0,0,0,0,0,0,0,0,0,0,0,0,0,0,0,0,0,0,0,0,0,0,0,0,0,0,0,0,0,0,0,0,0,0,0,0,0,0,0,0,0,0,0,0,0,0,0,0,0,0,0,0,0,0,0,0,0,0,0,0,0,0,0,0,0,0,0,0,0,0,0,0,0,0,0,0,0,0,0,0,0,0,0,0,0,0,0,0,0,0,0,0,0,0,0,0,0,0,0,0,0,0,0,0,0,0,0,0,0,0,0,0,0,0,0,0,0,0,0,0,0,0,0,0,0,0,0,0,0,0,0,0,0,0,0,0,0,0,0,0,0,0,0,0,0,0,0,0,0,0,0,0,0,0,0,0,0,0,0,0,0,0,0,0,0,0,0,0,0,0,0,0,0,0,0,0,0,0,0,0,0,0,0,0,0,0,0,0,0,0,0,0,0,0,0,0,0,0,0,0,0,0,0,0,0,0,0,0,0,0,0,0,0,0,0,0,0,0,0,0,0,0,0,0,0,0,0,0,0,0,0,0,0,0,0,0,0,0,0,0,0,0,0,0,0,0,0,0,0,0,0,0,0,0,0,0,0,0,0,0,0,0,0,0,0,0,0,0,0,0,0,0,0,0,0,0,0,0,0,0,0,0,0,0,0,0,0,0,0,0,0,0,0,0,0,0,0,0,0,0,0,0,0,0,0,0,0,0,0,0,0,0,0,0,0,0,0,0,0,0,0,0,0,0,0,0,0,0,0,0,0,0,0,0,0,0,0,0,0,0,0,0,0,0,0,0,0,0,0,0,0,0,0,0,0,0,0,0,0,0,0,0,0,0,0,0,0,0,0,0,0,0,0,0,0,0,0,0,0,0,0,0,0,0,0,0,0,0,0,0,0,0,0,0,0,0,0,0,0,0,0,0,0,0,0,0,0,0,0,0,0,0,0,0,0,0,0,0,0,0,0,0,0,0,0,0,0,0,0,0,0,0,0,0,0,0,0,0,0,0,0,0,0,0,0,0,0,0,0,0,0,0,0,0,0,0,0,0,0,0,0,0,0,0,0,0,0,0,0,0,0,0,0,0,0,0,0,0,0,0,0,0,0,0,0,0,0,0,0,0,0,0,0,0,0,0,0,0,0,0,0,0,0,0,0,0,0,0,0,0,0,0,0,0,0,0,0,0,0,0,0,0,0,0,0,0,0,0,0,0,0,0,0,0,0,0,0,0,0,0,0,0,0,0,0,0,0,0,0,0,0,0,0,0,0,0,0,0,0,0,0,0,0,0,0,0,0,0,0,0,0,0,0,0,0,0,0,0,0,0,0,0,0,0,0,0,0,0,0,0,0,0,0,0,0,0,0,0,0,0,0,0,0,0,0,0,0,0,0,0,0,0,0,0,0,0,0,0,0,0,0,0,0,0,0,0,0,0,0,0,0,0,0,0,0,0,0,0,0,0,0,0,0,0,0,0,0,0,0,0,0,0,0,0,0,0,0,0,0,0,0,0,0,0,0,0,0,0,0,0,0,0,0,0,0,0,0,0,0,0,0,0,0,0,0,0,0,0,0,0,0,0,0,0,0,0,0,0,0,0,0,0,0,0,0,0,0,0,0,0,0,0,0,0,0,0,0,0,0,0,0,0,0,0,0,0,0,0,0,0,0,0,0,0,0,0,0,0,0,0,0,0,0,0,0,0,0,0,0,0,0,0,0,0,0,0,0,0,0,0,0,0,0,0,0,0,0,0,0,0,0,0,0,0,0,0,0,0,0,0,0,0,0,0,0,0,0,0,0,0,0,0,0,0,0,0,0,0,0,0,0,0,0,0,0,0,0,0,0,0,0,0,0,0,0,0,0,0,0,0,0,0,0,0,0,0,0,0,0,0,0,0,0,0,0,0,0,0,0,0,0,0,0,0,0,0,0,0,0,0,0,0,0,0,0,0,0,0,0,0,0,0,0,0,0,0,0,0,0,0,0,0,0,0,0,0,0,0,0,0,0,0,0,0,0,0,0,0,0,0,0,0,0,0,0,0,0,0,0,0,0,0,0,0,0,0,0,0,0,0,0,0,0,0,0,0,0,0,0,0,0,0,0,0,0,0,0,0,0,0,0,0,0,0,0,0,0,0,0,0,0,0,0,0,0,0,0,0,0,0,0,0,0,0,0,0,0,0,0,0,0,0,0,0,0,0,0,0,0,0,0,0,0,0,0,0,0,0,0,0,0,0,0,0,0,0,0,0,0,0,0,0,0,0,0,0,0,0,0,0,0,0,0,0,0,0,0,0,0,0,0,0,0,0,0,0,0,0,0,0,0,0,0,0,0,0,0,0,0,0,0,0,0,0,0,0,0,0,0,0,0,0,0,0,0,0,0,0,0,0,0,0,0,0,0,0,0,0,0,0,0,0,0,0,0,0,0,0,0,0,0,0,0,0,0,0,0,0,0,0,0,0,0,0,0,0,0,0,0,0,0,0,0,0,0,0,0,0,0,0,0,0,0,0,0,0,0,0,0,0,0,0,0,0,0,0,0,0,0,0,0,0,0,0,0,0,0,0,0,0,0,0,0,0,0,0,0,0,0,0,0,0,0,0,0,0,0,0,0,0,0,0,0,0,0,0,0,0,0,0,0,0,0,0,0,0,0,0,0,0,0,0,0,0,0,0,0,0,0,0,0,0,0,0,0,0,0,0,0,0,0,0,0,0,0,0,0,0,0,0,0,0,0,0,0,0,0,0,0,0,0,0,0,0,0,0,0,0,0,0,0,0,0,0,0,0,0,0,0,0,0,0,0,0,0,0,0,0,0,0,0,0,0,0,0,0,0,0,0,0,0,0,0,0,0,0,0,0,0,0,0,0,0,0,0,0,0,0,0,0,0,0,0,0,0,0,0,0,0,0,0,0,0,0,0,0,0,0,0,0,0,0,0,0,0,0,0,0,0,0,0,0,0,0,0,0,0,0,0,0,0,0,0,0,0,0,0,0,0,0,0,0,0,0,0,0,0,0,0,0,0,0,0,0,0,0,0,0,0,0,0,0,0,0,0,0,0,0,0,0,0,0,0,0,0,0,0,0,0,0,0,0,0,0,0,0,0,0,0,0,0,0,0,0,0,0,0,0,0,0,0,0,0,0,0,0,0,0,0,0,0,0,0,0,0,0,0,0,0,0,0,0,0,0,0,0,0,0,0,0,0,0,0,0,0,0,0,0,0,0,0,0,0,0,0,0,0,0,0,0,0,0,0,0,0,0,0,0,0,0,0,0,0,0,0,0,0,0,0,0,0,0,0,0,0,0,0,0,0,0,0,0,0,0,0,0,0,0,0,0,0,0,0,0,0,0,0,0,0,0,0,0,0,0,0,0,0,0,0,0,0,0,0,0,0,0,0,0,0,0,0,0,0,0,0,0,0,0,0,0,0,0,0,0,0,0,0,0,0,0,0,0,0,0,0,0,0,0,0,0,0,0,0,0,0,0,0,0,0,0,0,0,0,0,0,0,0,0,0,0,0,0,0,0,0,0,0,0,0,0,0,0,0,0,0,0,0,0,0,0,0,0,0,0,0,0,0,0,0,0,0,0,0,0,0,0,0,0,0,0,0,0,0,0,0,0,0,0,0,0,0,0,0,0,0,0,0,0,0,0,0,0,0,0,0,0,0,0,0,0,0,0,0,0,0,0,0,0,0,0,0,0,0,0,0,0,0,0,0,0,0,0,0,0,0,0,0,0,0,0,0,0,0,0,0,0,0,0,0,0,0,0,0,0,0,0,0,0,0,0,0,0,0,0,0,0,0,0,0,0,0,0,0,0,0,0,0,0,0,0,0,0,0,0,0,0,0,0,0,0,0,0,0,0,0,0,0,0,0,0,0,0,0,0,0,0,0,0,0,0,0,0,0,0,0,0,0,0,0,0,0,0,0,0,0,0,0,0,0,0,0,0,0,0,0,0,0,0,0,0,0,0,0,0,0,0,0,0,0,0,0,0,0,0,0,0,0,0,0,0,0,0,0,0,0,0,0,0,0,0,0,0,0,0,0,0,0,0,0,0,0,0,0,0,0,0,0,0,0,0,0,0,0,0,0,0,0,0,0,0,0,0,0,0,0,0,0,0,0,0,0,0,0,0,0,0,0,0,0,0,0,0,0,0,0,0,0,0,0,0,0,0,0,0,0,0,0,0,0,0,0,0,0,0,0,0,0,0,0,0,0,0,0,0,0,0,0,0,0,0,0,0,0,0,0,0,0,0,0,0,0,0,0,0,0,0,0,0,0,0,0,0,0,0,0,0,0,0,0,0,0,0,0,0,0,0,0,0,0,0,0,0,0,0,0,0,0,0,0,0,0,0,0,0,0,0,0,0,0,0,0,0,0,0,0,0,0,0,0,0,0,0,0,0,0,0,0,0,0,0,0,0,0,0,0,0,0,0,0,0,0,0,0,0,0,0,0,0,0,0,0,0,0,0,0,0,0,0,0,0,0,0,0,0,0,0,0,0,0,0,0,0,0,0,0,0,0,0,0,0,0,0,0,0,0,0,0,0,0,0,0,0,0,0,0,0,0,0,0,0,0,0,0,0,0,0,0,0,0,0,0,0,0,0,0,0,0,0,0,0,0,0,0,0,0,0,0,0,0,0,0,0,0,0,0,0,0,0,0,0,0,0,0,0,0,0,0,0,0,0,0,0,0,0,0,0,0,0,0,0,0,0,0,0,0,0,0,0,0,0,0,0,0,0,0,0,0,0,0,0,0,0,0,0,0,0,0,0,0,0,0,0,0,0,0,0,0,0,0,0,0,0,0,0,0,0,0,0,0,0,0,0,0,0,0,0,0,0,0,0,0,0,0,0,0,0,0,0,0,0,0,0,0,0,0,0,0,0,0,0,0,0,0,0,0,0,0,0,0,0,0,0,0,0,0,0,0,0,0,0,0,0,0,0,0,0,0,0,0,0,0,0,0,0,0,0,0,0,0,0,0,0,0,0,0,0,0,0,0,0,0,0,0,0,0,0,0,0,0,0,0,0,0,0,0,0,0,0,0,0,0,0,0,0,0,0,0,0,0,0,0,0,0,0,0,0,0,0,0,0,0,0,0,0,0,0,0,0,0,0,0,0,0,0,0,0,0,0,0,0,0,0,0,0,0,0,0,0,0,0,0,0,0,0,0,0,0,0,0,0,0,0,0,0,0,0,0,0,0,0,0,0,0,0,0,0,0,0,0,0,0,0,0,0,0,0,0,0,0,0,0,0,0,0,0,0,0,0,0,0,0,0,0,0,0,0,0,0,0,0,0,0,0,0,0,0,0,0,0,0,0,0,0,0,0,0,0,0,0,0,0,0,0,0,0,0,0,0,0,0,0,0,0,0,0,0,0,0,0,0,0,0,0,0,0,0,0,0,0,0,0,0,0,0,0,0,0,0,0,0,0,0,0,0,0,0,0,0,0,0,0,0,0,0,0,0,0,0,0,0,0,0,0,0,0,0,0,0,0,0,0,0,0,0,0,0,0,0,0,0,0,0,0,0,0,0,0,0,0,0,0,0,0,0,0,0,0,0,0,0,0,0,0,0,0,0,0,0,0,0,0,0,0,0,0,0,0,0,0,0,0,0,0,0,0,0,0,0,0,0,0,0,0,0,0,0,0,0,0,0,0,0,0,0,0,0,0,0,0,0,0,0,0,0,0,0,0,0,0,0,0,0,0,0,0,0,0,0,0,0,0,0,0,0,0,0,0,0,0,0,0,0,0,0,0,0,0,0,0,0,0,0,0,0,0,0,0,0,0,0,0,0,0,0,0,0,0,0,0,0,0,0,0,0,0,0,0,0,0,0,0,0,0,0,0,0,0,0,0,0,0,0,0,0,0,0,0,0,0,0,0,0,0,0,0,0,0,0,0,0,0,0,0,0,0,0,0,0,0,0,0,0,0,0,0,0,0,0,0,0,0,0,0,0,0,0,0,0,0,0,0,0,0,0,0,0,0,0,0,0,0,0,0,0,0,0,0,0,0,0,0,0,0,0,0,0,0,0,0,0,0,0,0,0,0,0,0,0,0,0,0,0,0,0,0,0,0,0,0,0,0,0,0,0,0,0,0,0,0,0,0,0,0,0,0,0,0,0,0,0,0,0,0,0,0,0,0,0,0,0,0,0,0,0,0,0,0,0,0,0,0,0,0,0,0,0,0,0,0,0,0,0,0,0,0,0,0,0,0,0,0,0,0,0,0,0,0,0,0,0,0,0,0,0,0,0,0,0,0,0,0,0,0,0,0,0,0,0,0,0,0,0,0,0,0,0,0,0,0,0,0,0,0,0,0,0,0,0,0,0,0,0,0,0,0,0,0,0,0,0,0,0,0,0,0,0,0,0,0,0,0,0,0,0,0,0,0,0,0,0,0,0,0,0,0,0,0,0,0,0,0,0,0,0,0,0,0,0,0,0,0,0,0,0,0,0,0,0,0,0,0,0,0,0,0,0,0,0,0,0,0,0,0,0,0,0,0,0,0,0,0,0,0,0,0,0,0,0,0,0,0,0,0,0,0,0,0,0,0,0,0,0,0,0,0,0,0,0,0,0,0,0,0,0,0,0,0,0,0,0,0,0,0,0,0,0,0,0,0,0,0,0,0,0,0,0,0,0,0,0,0,0,0,0,0,0,0]},{"id":3,"name":"berges_eau","type":"tilelayer","x":0,"y":0,"width":256,"height":192,"opacity":1,"visible":true,"data":[0,0,0,0,0,0,0,0,0,0,0,0,0,0,0,0,0,0,0,0,0,0,0,0,0,0,0,0,0,0,0,0,0,0,0,0,0,0,0,0,0,0,0,0,0,0,0,0,0,0,0,0,0,0,0,0,0,0,0,0,0,0,0,0,0,0,0,0,0,0,0,0,0,0,0,0,0,0,0,0,0,0,0,0,0,0,0,0,0,0,0,0,0,0,0,0,0,0,0,0,0,0,0,1400,1401,1402,1403,1404,1405,1406,1407,1408,1409,1410,1416,1422,1428,1434,1440,1446,1452,1458,1464,1470,1476,1482,1488,1494,1500,1506,1512,1518,1524,1530,1536,1542,1548,1554,1560,1561,1562,1563,1564,1565,0,0,0,0,0,0,0,0,0,0,0,0,0,0,0,0,0,0,0,0,0,0,0,0,0,0,0,0,0,0,0,0,0,0,0,0,0,0,0,0,0,0,0,0,0,0,0,0,0,0,0,0,0,0,0,0,0,0,0,0,0,0,0,0,0,0,0,0,0,0,0,0,0,0,0,0,0,0,0,0,0,0,0,0,0,0,0,0,0,0,0,0,0,0,0,0,0,0,0,0,0,0,0,0,0,0,0,0,0,0,0,0,0,0,0,0,0,0,0,0,0,0,0,0,0,0,0,0,0,0,0,0,0,0,0,0,0,0,0,0,0,0,0,0,0,0,0,0,0,0,0,0,0,0,0,0,0,0,0,0,0,0,0,0,0,0,0,0,0,0,0,0,0,0,0,0,0,0,0,0,0,0,0,0,0,0,0,0,0,0,0,0,0,0,0,0,0,0,0,0,0,0,0,0,0,0,0,0,0,0,0,0,0,0,0,1400,1401,1402,1403,1404,1405,1406,1407,1408,1409,1410,1416,1422,1428,1434,1440,1446,1452,1458,1464,1470,1476,1482,1488,1494,1500,1506,1512,1518,1524,1530,1536,1542,1548,1554,1560,1561,1562,1563,1564,1565,0,0,0,0,0,0,0,0,0,0,0,0,0,0,0,0,0,0,0,0,0,0,0,0,0,0,0,0,0,0,0,0,0,0,0,0,0,0,0,0,0,0,0,0,0,0,0,0,0,0,0,0,0,0,0,0,0,0,0,0,0,0,0,0,0,0,0,0,0,0,0,0,0,0,0,0,0,0,0,0,0,0,0,0,0,0,0,0,0,0,0,0,0,0,0,0,0,0,0,0,0,0,0,0,0,0,0,0,0,0,0,0,0,0,0,0,0,0,0,0,0,0,0,0,0,0,0,0,0,0,0,0,0,0,0,0,0,0,0,0,0,0,0,0,0,0,0,0,0,0,0,0,0,0,0,0,0,0,0,0,0,0,0,0,0,0,0,0,0,0,0,0,0,0,0,0,0,0,0,0,0,0,0,0,0,0,0,0,0,0,0,0,0,0,0,0,0,0,0,0,0,0,0,0,0,0,0,0,0,0,0,0,0,0,0,1400,1401,1402,1403,1404,1405,1406,1407,1408,1409,1410,1416,1422,1428,1434,1440,1446,1452,1458,1464,1470,1476,1482,1488,1494,1500,1506,1512,1518,1524,1530,1536,1542,1548,1554,1560,1561,1562,1563,1564,1565,0,0,0,0,0,0,0,0,0,0,0,0,0,0,0,0,0,0,0,0,0,0,0,0,0,0,0,0,0,0,0,0,0,0,0,0,0,0,0,0,0,0,0,0,0,0,0,0,0,0,0,0,0,0,0,0,0,0,0,0,0,0,0,0,0,0,0,0,0,0,0,0,0,0,0,0,0,0,0,0,0,0,0,0,0,0,0,0,0,0,0,0,0,0,0,0,0,0,0,0,0,0,0,0,0,0,0,0,0,0,0,0,0,0,0,0,0,0,0,0,0,0,0,0,0,0,0,0,0,0,0,0,0,0,0,0,0,0,0,0,0,0,0,0,0,0,0,0,0,0,0,0,0,0,0,0,0,0,0,0,0,0,0,0,0,0,0,0,0,0,0,0,0,0,0,0,0,0,0,0,0,0,0,0,0,0,0,0,0,0,0,0,0,0,0,0,0,0,0,0,0,0,0,0,0,0,0,0,0,0,0,0,0,0,0,1400,1401,1402,1403,1404,1405,1406,1407,1408,1409,1410,1416,1422,1428,1434,1440,1446,1452,1458,1464,1470,1476,1482,1488,1494,1500,1506,1512,1518,1524,1530,1536,1542,1548,1554,1560,1561,1562,1563,1564,1565,0,0,0,0,0,0,0,0,0,0,0,0,0,0,0,0,0,0,0,0,0,0,0,0,0,0,0,0,0,0,0,0,0,0,0,0,0,0,0,0,0,0,0,0,0,0,0,0,0,0,0,0,0,0,0,0,0,0,0,0,0,0,0,0,0,0,0,0,0,0,0,0,0,0,0,0,0,0,0,0,0,0,0,0,0,0,0,0,0,0,0,0,0,0,0,0,0,0,0,0,0,0,0,0,0,0,0,0,0,0,0,0,0,0,0,0,0,0,0,0,0,0,0,0,0,0,0,0,0,0,0,0,0,0,0,0,0,0,0,0,0,0,0,0,0,0,0,0,0,0,0,0,0,0,0,0,0,0,0,0,0,0,0,0,0,0,0,0,0,0,0,0,0,0,0,0,0,0,0,0,0,0,0,0,0,0,0,0,0,0,0,0,0,0,0,0,0,0,0,0,0,0,0,0,0,0,0,0,0,0,0,0,0,0,0,1400,1401,1402,1403,1404,1405,1406,1407,1408,1409,1410,1416,1422,1428,1434,1440,1446,1452,1458,1464,1470,1476,1482,1488,1494,1500,1506,1512,1518,1524,1530,1536,1542,1548,1554,1560,1561,1562,1563,1564,1565,0,0,0,0,0,0,0,0,0,0,0,0,0,0,0,0,0,0,0,0,0,0,0,0,0,0,0,0,0,0,0,0,0,0,0,0,0,0,0,0,0,0,0,0,0,0,0,0,0,0,0,0,0,0,0,0,0,0,0,0,0,0,0,0,0,0,0,0,0,0,0,0,0,0,0,0,0,0,0,0,0,0,0,0,0,0,0,0,0,0,0,0,0,0,0,0,0,0,0,0,0,0,0,0,0,0,0,0,0,0,0,0,0,0,0,0,0,0,0,0,0,0,0,0,0,0,0,0,0,0,0,0,0,0,0,0,0,0,0,0,0,0,0,0,0,0,0,0,0,0,0,0,0,0,0,0,0,0,0,0,0,0,0,0,0,0,0,0,0,0,0,0,0,0,0,0,0,0,0,0,0,0,0,0,0,0,0,0,0,0,0,0,0,0,0,0,0,0,0,0,0,0,0,0,0,0,0,0,0,0,0,0,0,0,0,1400,1401,1402,1403,1404,1405,1406,1407,1408,1409,1410,1416,1422,1428,1434,1440,1446,1452,1458,1464,1470,1476,1482,1488,1494,1500,1506,1512,1518,1524,1530,1536,1542,1548,1554,1560,1561,1562,1563,1564,1565,0,0,0,0,0,0,0,0,0,0,0,0,0,0,0,0,0,0,0,0,0,0,0,0,0,0,0,0,0,0,0,0,0,0,0,0,0,0,0,0,0,0,0,0,0,0,0,0,0,0,0,0,0,0,0,0,0,0,0,0,0,0,0,0,0,0,0,0,0,0,0,0,0,0,0,0,0,0,0,0,0,0,0,0,0,0,0,0,0,0,0,0,0,0,0,0,0,0,0,0,0,0,0,0,0,0,0,0,0,0,0,0,0,0,0,0,0,0,0,0,0,0,0,0,0,0,0,0,0,0,0,0,0,0,0,0,0,0,0,0,0,0,0,0,0,0,0,0,0,0,0,0,0,0,0,0,0,0,0,0,0,0,0,0,0,0,0,0,0,0,0,0,0,0,0,0,0,0,0,0,0,0,0,0,0,0,0,0,0,0,0,0,0,0,0,0,0,0,0,0,0,0,0,0,0,0,0,0,0,0,0,0,0,0,0,1400,1401,1402,1403,1404,1405,1406,1407,1408,1409,1410,1416,1422,1428,1434,1440,1446,1452,1458,1464,1470,1476,1482,1488,1494,1500,1506,1512,1518,1524,1530,1536,1542,1548,1554,1560,1561,1562,1563,1564,1565,0,0,0,0,0,0,0,0,0,0,0,0,0,0,0,0,0,0,0,0,0,0,0,0,0,0,0,0,0,0,0,0,0,0,0,0,0,0,0,0,0,0,0,0,0,0,0,0,0,0,0,0,0,0,0,0,0,0,0,0,0,0,0,0,0,0,0,0,0,0,0,0,0,0,0,0,0,0,0,0,0,0,0,0,0,0,0,0,0,0,0,0,0,0,0,0,0,0,0,0,0,0,0,0,0,0,0,0,0,0,0,0,0,0,0,0,0,0,0,0,0,0,0,0,0,0,0,0,0,0,0,0,0,0,0,0,0,0,0,0,0,0,0,0,0,0,0,0,0,0,0,0,0,0,0,0,0,0,0,0,0,0,0,0,0,0,0,0,0,0,0,0,0,0,0,0,0,0,0,0,0,0,0,0,0,0,0,0,0,0,0,0,0,0,0,0,0,0,0,0,0,0,0,0,0,0,0,0,0,0,0,0,0,0,0,1400,1401,1402,1403,1404,1405,1406,1407,1408,1409,1410,1416,1422,1428,1434,1440,1446,1452,1458,1464,1470,1476,1482,1488,1494,1500,1506,1512,1518,1524,1530,1536,1542,1548,1554,1560,1561,1562,1563,1564,1565,0,0,0,0,0,0,0,0,0,0,0,0,0,0,0,0,0,0,0,0,0,0,0,0,0,0,0,0,0,0,0,0,0,0,0,0,0,0,0,0,0,0,0,0,0,0,0,0,0,0,0,0,0,0,0,0,0,0,0,0,0,0,0,0,0,0,0,0,0,0,0,0,0,0,0,0,0,0,0,0,0,0,0,0,0,0,0,0,0,0,0,0,0,0,0,0,0,0,0,0,0,0,0,0,0,0,0,0,0,0,0,0,0,0,0,0,0,0,0,0,0,0,0,0,0,0,0,0,0,0,0,0,0,0,0,0,0,0,0,0,0,0,0,0,0,0,0,0,0,0,0,0,0,0,0,0,0,0,0,0,0,0,0,0,0,0,0,0,0,0,0,0,0,0,0,0,0,0,0,0,0,0,0,0,0,0,0,0,0,0,0,0,0,0,0,0,0,0,0,0,0,0,0,0,0,0,0,0,0,0,0,0,0,0,0,1400,1401,1402,1403,1404,1405,1406,1407,1408,1409,1410,1416,1422,1428,1434,1440,1446,1452,1458,1464,1470,1476,1482,1488,1494,1500,1506,1512,1518,1524,1530,1536,1542,1548,1554,1560,1561,1562,1563,1564,1565,0,0,0,0,0,0,0,0,0,0,0,0,0,0,0,0,0,0,0,0,0,0,0,0,0,0,0,0,0,0,0,0,0,0,0,0,0,0,0,0,0,0,0,0,0,0,0,0,0,0,0,0,0,0,0,0,0,0,0,0,0,0,0,0,0,0,0,0,0,0,0,0,0,0,0,0,0,0,0,0,0,0,0,0,0,0,0,0,0,0,0,0,0,0,0,0,0,0,0,0,0,0,0,0,0,0,0,0,0,0,0,0,0,0,0,0,0,0,0,0,0,0,0,0,0,0,0,0,0,0,0,0,0,0,0,0,0,0,0,0,0,0,0,0,0,0,0,0,0,0,0,0,0,0,0,0,0,0,0,0,0,0,0,0,0,0,0,0,0,0,0,0,0,0,0,0,0,0,0,0,0,0,0,0,0,0,0,0,0,0,0,0,0,0,0,0,0,0,0,0,0,0,0,0,0,0,0,0,0,0,0,0,0,0,0,1400,1401,1402,1403,1404,1405,1406,1407,1408,1409,1410,1416,1422,1428,1434,1440,1446,1452,1458,1464,1470,1476,1482,1488,1494,1500,1506,1512,1518,1524,1530,1536,1542,1548,1554,1560,1561,1562,1563,1564,1565,0,0,0,0,0,0,0,0,0,0,0,0,0,0,0,0,0,0,0,0,0,0,0,0,0,0,0,0,0,0,0,0,0,0,0,0,0,0,0,0,0,0,0,0,0,0,0,0,0,0,0,0,0,0,0,0,0,0,0,0,0,0,0,0,0,0,0,0,0,0,0,0,0,0,0,0,0,0,0,0,0,0,0,0,0,0,0,0,0,0,0,0,0,0,0,0,0,0,0,0,0,0,0,0,0,0,0,0,0,0,0,0,0,0,0,0,0,0,0,0,0,0,0,0,0,0,0,0,0,0,0,0,0,0,0,0,0,0,0,0,0,0,0,0,0,0,0,0,0,0,0,0,0,0,0,0,0,0,0,0,0,0,0,0,0,0,0,0,0,0,0,0,0,0,0,0,0,0,0,0,0,0,0,0,0,0,0,0,0,0,0,0,0,0,0,0,0,0,0,0,0,0,0,0,0,0,0,0,0,0,0,0,0,0,0,1400,1401,1402,1403,1404,1405,1406,1407,1408,1409,1410,1416,1422,1428,1434,1440,1446,1452,1458,1464,1470,1476,1482,1488,1494,1500,1506,1512,1518,1524,1530,1536,1542,1548,1554,1560,1561,1562,1563,1564,1565,0,0,0,0,0,0,0,0,0,0,0,0,0,0,0,0,0,0,0,0,0,0,0,0,0,0,0,0,0,0,0,0,0,0,0,0,0,0,0,0,0,0,0,0,0,0,0,0,0,0,0,0,0,0,0,0,0,0,0,0,0,0,0,0,0,0,0,0,0,0,0,0,0,0,0,0,0,0,0,0,0,0,0,0,0,0,0,0,0,0,0,0,0,0,0,0,0,0,0,0,0,0,0,0,0,0,0,0,0,0,0,0,0,0,0,0,0,0,0,0,0,0,0,0,0,0,0,0,0,0,0,0,0,0,0,0,0,0,0,0,0,0,0,0,0,0,0,0,0,0,0,0,0,0,0,0,0,0,0,0,0,0,0,0,0,0,0,0,0,0,0,0,0,0,0,0,0,0,0,0,0,0,0,0,0,0,0,0,0,0,0,0,0,0,0,0,0,0,0,0,0,0,0,0,0,0,0,0,0,0,0,0,0,0,0,1566,1567,1568,1569,1570,1571,1572,1573,1574,1580,1586,1592,1598,1604,1610,1616,1622,1628,1634,1640,1646,1652,1658,1664,1670,1676,1682,1688,1694,1700,1706,1712,1718,1724,1730,1736,1737,1738,1739,1740,1741,0,0,0,0,0,0,0,0,0,0,0,0,0,0,0,0,0,0,0,0,0,0,0,0,0,0,0,0,0,0,0,0,0,0,0,0,0,0,0,0,0,0,0,0,0,0,0,0,0,0,0,0,0,0,0,0,0,0,0,0,0,0,0,0,0,0,0,0,0,0,0,0,0,0,0,0,0,0,0,0,0,0,0,0,0,0,0,0,0,0,0,0,0,0,0,0,0,0,0,0,0,0,0,0,0,0,0,0,0,0,0,0,0,0,0,0,0,0,0,0,0,0,0,0,0,0,0,0,0,0,0,0,0,0,0,0,0,0,0,0,0,0,0,0,0,0,0,0,0,0,0,0,0,0,0,0,0,0,0,0,0,0,0,0,0,0,0,0,0,0,0,0,0,0,0,0,0,0,0,0,0,0,0,0,0,0,0,0,0,0,0,0,0,0,0,0,0,0,0,0,0,0,0,0,0,0,0,0,0,0,0,0,0,0,0,1742,1743,1744,1745,1746,1747,1748,1749,1755,1761,1767,1773,1779,1785,1791,1797,1803,1809,1815,1821,1827,1833,1839,1845,1851,1857,1863,1869,1875,1881,1887,1893,1899,1905,1911,1917,1918,1919,1920,1921,1922,0,0,0,0,0,0,0,0,0,0,0,0,0,0,0,0,0,0,0,0,0,0,0,0,0,0,0,0,0,0,0,0,0,0,0,0,0,0,0,0,0,0,0,0,0,0,0,0,0,0,0,0,0,0,0,0,0,0,0,0,0,0,0,0,0,0,0,0,0,0,0,0,0,0,0,0,0,0,0,0,0,0,0,0,0,0,0,0,0,0,0,0,0,0,0,0,0,0,0,0,0,0,0,0,0,0,0,0,0,0,0,0,0,0,0,0,0,0,0,0,0,0,0,0,0,0,0,0,0,0,0,0,0,0,0,0,0,0,0,0,0,0,0,0,0,0,0,0,0,0,0,0,0,0,0,0,0,0,0,0,0,0,0,0,0,0,0,0,0,0,0,0,0,0,0,0,0,0,0,0,0,0,0,0,0,0,0,0,0,0,0,0,0,0,0,0,0,0,0,0,0,0,0,0,0,0,0,0,0,0,0,0,0,0,0,1923,1924,1925,1926,1927,1928,1929,1930,1936,1942,1948,1954,1960,1966,1972,1978,1984,1990,1996,2002,2008,2014,2020,2026,2032,2038,2044,2050,2056,2062,2068,2074,2080,2086,2092,2093,2094,2095,2096,2097,2098,0,0,0,0,0,0,0,0,0,0,0,0,0,0,0,0,0,0,0,0,0,0,0,0,0,0,0,0,0,0,0,0,0,0,0,0,0,0,0,0,0,0,0,0,0,0,0,0,0,0,0,0,0,0,0,0,0,0,0,0,0,0,0,0,0,0,0,0,0,0,0,0,0,0,0,0,0,0,0,0,0,0,0,0,0,0,0,0,0,0,0,0,0,0,0,0,0,0,0,0,0,0,0,0,0,0,0,0,0,0,0,0,0,0,0,0,0,0,0,0,0,0,0,0,0,0,0,0,0,0,0,0,0,0,0,0,0,0,0,0,0,0,0,0,0,0,0,0,0,0,0,0,0,0,0,0,0,0,0,0,0,0,0,0,0,0,0,0,0,0,0,0,0,0,0,0,0,0,0,0,0,0,0,0,0,0,0,0,0,0,0,0,0,0,0,0,0,0,0,0,0,0,0,0,0,0,0,0,0,0,0,0,0,0,0,2099,2100,2101,2102,2103,2104,2110,2116,2122,2128,2134,2140,2146,2152,2158,2164,2170,2176,2182,2188,2194,2200,2206,2212,2218,2224,2230,2236,2242,2248,2254,2260,2266,2272,2278,2279,2280,2281,2282,2283,2284,0,0,0,0,0,0,0,0,0,0,0,0,0,0,0,0,0,0,0,0,0,0,0,0,0,0,0,0,0,0,0,0,0,0,0,0,0,0,0,0,0,0,0,0,0,0,0,0,0,0,0,0,0,0,0,0,0,0,0,0,0,0,0,0,0,0,0,0,0,0,0,0,0,0,0,0,0,0,0,0,0,0,0,0,0,0,0,0,0,0,0,0,0,0,0,0,0,0,0,0,0,0,0,0,0,0,0,0,0,0,0,0,0,0,0,0,0,0,0,0,0,0,0,0,0,0,0,0,0,0,0,0,0,0,0,0,0,0,0,0,0,0,0,0,0,0,0,0,0,0,0,0,0,0,0,0,0,0,0,0,0,0,0,0,0,0,0,0,0,0,0,0,0,0,0,0,0,0,0,0,0,0,0,0,0,0,0,0,0,0,0,0,0,0,0,0,0,0,0,0,0,0,0,0,0,0,0,0,0,0,0,0,0,0,0,2285,2286,2287,2288,2289,2295,2301,2307,2313,2319,2325,2331,2337,2343,2349,2355,2361,2367,2373,2379,2385,2391,2397,2403,2409,2415,2421,2427,2433,2439,2445,2451,2457,2463,2469,2470,2471,2472,2473,2474,2475,0,0,0,0,0,0,0,0,0,0,0,0,0,0,0,0,0,0,0,0,0,0,0,0,0,0,0,0,0,0,0,0,0,0,0,0,0,0,0,0,0,0,0,0,0,0,0,0,0,0,0,0,0,0,0,0,0,0,0,0,0,0,0,0,0,0,0,0,0,0,0,0,0,0,0,0,0,0,0,0,0,0,0,0,0,0,0,0,0,0,0,0,0,0,0,0,0,0,0,0,0,0,0,0,0,0,0,0,0,0,0,0,0,0,0,0,0,0,0,0,0,0,0,0,0,0,0,0,0,0,0,0,0,0,0,0,0,0,0,0,0,0,0,0,0,0,0,0,0,0,0,0,0,0,0,0,0,0,0,0,0,0,0,0,0,0,0,0,0,0,0,0,0,0,0,0,0,0,0,0,0,0,0,0,0,0,0,0,0,0,0,0,0,0,0,0,0,0,0,0,0,0,0,0,0,0,0,0,0,0,0,0,0,0,0,2476,2477,2478,2479,2480,2486,2492,2498,2504,2510,2516,2522,2528,2534,2540,2546,2552,2558,2564,2570,2576,2582,2588,2594,2600,2606,2612,2618,2624,2630,2636,2642,2648,2654,2660,2666,2667,2668,2669,2670,2671,0,0,0,0,0,0,0,0,0,0,0,0,0,0,0,0,0,0,0,0,0,0,0,0,0,0,0,0,0,0,0,0,0,0,0,0,0,0,0,0,0,0,0,0,0,0,0,0,0,0,0,0,0,0,0,0,0,0,0,0,0,0,0,0,0,0,0,0,0,0,0,0,0,0,0,0,0,0,0,0,0,0,0,0,0,0,0,0,0,0,0,0,0,0,0,0,0,0,0,0,0,0,0,0,0,0,0,0,0,0,0,0,0,0,0,0,0,0,0,0,0,0,0,0,0,0,0,0,0,0,0,0,0,0,0,0,0,0,0,0,0,0,0,0,0,0,0,0,0,0,0,0,0,0,0,0,0,0,0,0,0,0,0,0,0,0,0,0,0,0,0,0,0,0,0,0,0,0,0,0,0,0,0,0,0,0,0,0,0,0,0,0,0,0,0,0,0,0,0,0,0,0,0,0,0,0,0,0,0,0,0,0,0,0,0,2672,2673,2674,2675,2681,2687,2693,2699,2705,2711,2717,2723,2729,2735,2741,2747,2753,2759,2765,2771,2777,2783,2789,2795,2801,2807,2813,2819,2825,2831,2837,2843,2849,2855,2861,2867,2873,2874,2875,2876,2877,0,0,0,0,0,0,0,0,0,0,0,0,0,0,0,0,0,0,0,0,0,0,0,0,0,0,0,0,0,0,0,0,0,0,0,0,0,0,0,0,0,0,0,0,0,0,0,0,0,0,0,0,0,0,0,0,0,0,0,0,0,0,0,0,0,0,0,0,0,0,0,0,0,0,0,0,0,0,0,0,0,0,0,0,0,0,0,0,0,0,0,0,0,0,0,0,0,0,0,0,0,0,0,0,0,0,0,0,0,0,0,0,0,0,0,0,0,0,0,0,0,0,0,0,0,0,0,0,0,0,0,0,0,0,0,0,0,0,0,0,0,0,0,0,0,0,0,0,0,0,0,0,0,0,0,0,0,0,0,0,0,0,0,0,0,0,0,0,0,0,0,0,0,0,0,0,0,0,0,0,0,0,0,0,0,0,0,0,0,0,0,0,0,0,0,0,0,0,0,0,0,0,0,0,0,0,0,0,0,0,0,0,0,0,0,2878,2879,2880,2881,2887,2893,2899,2905,2911,2917,2923,2929,2935,2941,2947,2953,2959,2965,2971,2977,2983,2989,2995,3001,3007,3013,3019,3025,3031,3037,3043,3049,3055,3061,3067,3073,3079,3085,3086,3087,3088,0,0,0,0,0,0,0,0,0,0,0,0,0,0,0,0,0,0,0,0,0,0,0,0,0,0,0,0,0,0,0,0,0,0,0,0,0,0,0,0,0,0,0,0,0,0,0,0,0,0,0,0,0,0,0,0,0,0,0,0,0,0,0,0,0,0,0,0,0,0,0,0,0,0,0,0,0,0,0,0,0,0,0,0,0,0,0,0,0,0,0,0,0,0,0,0,0,0,0,0,0,0,0,0,0,0,0,0,0,0,0,0,0,0,0,0,0,0,0,0,0,0,0,0,0,0,0,0,0,0,0,0,0,0,0,0,0,0,0,0,0,0,0,0,0,0,0,0,0,0,0,0,0,0,0,0,0,0,0,0,0,0,0,0,0,0,0,0,0,0,0,0,0,0,0,0,0,0,0,0,0,0,0,0,0,0,0,0,0,0,0,0,0,0,0,0,0,0,0,0,0,0,0,0,0,0,0,0,0,0,0,0,0,0,0,3089,3090,3091,3092,3098,3104,3110,3116,3122,3128,3134,3140,3146,3147,3148,3149,3150,3151,3152,3153,3154,3160,3166,3172,3178,3184,3190,3196,3202,3208,3214,3220,3226,3232,3238,3244,3250,3256,3262,3263,3264,0,0,0,0,0,0,0,0,0,0,0,0,0,0,0,0,0,0,0,0,0,0,0,0,0,0,0,0,0,0,0,0,0,0,0,0,0,0,0,0,0,0,0,0,0,0,0,0,0,0,0,0,0,0,0,0,0,0,0,0,0,0,0,0,0,0,0,0,0,0,0,0,0,0,0,0,0,0,0,0,0,0,0,0,0,0,0,0,0,0,0,0,0,0,0,0,0,0,0,0,0,0,0,0,0,0,0,0,0,0,0,0,0,0,0,0,0,0,0,0,0,0,0,0,0,0,0,0,0,0,0,0,0,0,0,0,0,0,0,0,0,0,0,0,0,0,0,0,0,0,0,0,0,0,0,0,0,0,0,0,0,0,0,0,0,0,0,0,0,0,0,0,0,0,0,0,0,0,0,0,0,0,0,0,0,0,0,0,0,0,0,0,0,0,0,0,0,0,0,0,0,0,0,0,0,0,0,0,0,0,0,0,0,0,0,3265,3266,3267,3268,3274,3280,3286,3292,3298,3304,3310,3316,3322,3323,3324,3325,3326,3327,3328,3329,3330,3336,3342,3348,3354,3360,3366,3372,3378,3384,3390,3396,3402,3408,3414,3420,3426,3432,3438,3439,3440,0,0,0,0,0,0,0,0,0,0,0,0,0,0,0,0,0,0,0,0,0,0,0,0,0,0,0,0,0,0,0,0,0,0,0,0,0,0,0,0,0,0,0,0,0,0,0,0,0,0,0,0,0,0,0,0,0,0,0,0,0,0,0,0,0,0,0,0,0,0,0,0,0,0,0,0,0,0,0,0,0,0,0,0,0,0,0,0,0,0,0,0,0,0,0,0,0,0,0,0,0,0,0,0,0,0,0,0,0,0,0,0,0,0,0,0,0,0,0,0,0,0,0,0,0,0,0,0,0,0,0,0,0,0,0,0,0,0,0,0,0,0,0,0,0,0,0,0,0,0,0,0,0,0,0,0,0,0,0,0,0,0,0,0,0,0,0,0,0,0,0,0,0,0,0,0,0,0,0,0,0,0,0,0,0,0,0,0,0,0,0,0,0,0,0,0,0,0,0,0,0,0,0,0,0,0,0,0,0,0,0,0,0,0,0,3441,3442,3443,3449,3455,3461,3467,3473,3479,3485,3491,3497,3498,3499,3500,3501,3502,3503,3504,3505,3506,3507,3513,3519,3525,3531,3537,3543,3549,3555,3561,3567,3573,3579,3585,3591,3597,3603,3609,3610,3611,0,0,0,0,0,0,0,0,0,0,0,0,0,0,0,0,0,0,0,0,0,0,0,0,0,0,0,0,0,0,0,0,0,0,0,0,0,0,0,0,0,0,0,0,0,0,0,0,0,0,0,0,0,0,0,0,0,0,0,0,0,0,0,0,0,0,0,0,0,0,0,0,0,0,0,0,0,0,0,0,0,0,0,0,0,0,0,0,0,0,0,0,0,0,0,0,0,0,0,0,0,0,0,0,0,0,0,0,0,0,0,0,0,0,0,0,0,0,0,0,0,0,0,0,0,0,0,0,0,0,0,0,0,0,0,0,0,0,0,0,0,0,0,0,0,0,0,0,0,0,0,0,0,0,0,0,0,0,0,0,0,0,0,0,0,0,0,0,0,0,0,0,0,0,0,0,0,0,0,0,0,0,0,0,0,0,0,0,0,0,0,0,0,0,0,0,0,0,0,0,0,0,0,0,0,0,0,0,0,0,0,0,0,0,0,3612,3613,3614,3620,3626,3632,3638,3644,3650,3656,3662,3668,3674,3675,3676,3677,3678,3679,3680,3681,3682,3688,3694,3700,3706,3712,3718,3724,3730,3736,3742,3748,3754,3760,3766,3772,3778,3784,3790,3796,3797,0,0,0,0,0,0,0,0,0,0,0,0,0,0,0,0,0,0,0,0,0,0,0,0,0,0,0,0,0,0,0,0,0,0,0,0,0,0,0,0,0,0,0,0,0,0,0,0,0,0,0,0,0,0,0,0,0,0,0,0,0,0,0,0,0,0,0,0,0,0,0,0,0,0,0,0,0,0,0,0,0,0,0,0,0,0,0,0,0,0,0,0,0,0,0,0,0,0,0,0,0,0,0,0,0,0,0,0,0,0,0,0,0,0,0,0,0,0,0,0,0,0,0,0,0,0,0,0,0,0,0,0,0,0,0,0,0,0,0,0,0,0,0,0,0,0,0,0,0,0,0,0,0,0,0,0,0,0,0,0,0,0,0,0,0,0,0,0,0,0,0,0,0,0,0,0,0,0,0,0,0,0,0,0,0,0,0,0,0,0,0,0,0,0,0,0,0,0,0,0,0,0,0,0,0,0,0,0,0,0,0,0,0,0,0,3798,3799,3800,3806,3812,3818,3824,3830,3836,3842,3848,3854,3860,3866,3867,3868,3869,3870,3871,3872,3878,3884,3890,3896,3902,3908,3914,3920,3926,3932,3938,3944,3950,3956,3962,3968,3974,3980,3986,3992,3993,0,0,0,0,0,0,0,0,0,0,0,0,0,0,0,0,0,0,0,0,0,0,0,0,0,0,0,0,0,0,0,0,0,0,0,0,0,0,0,0,0,0,0,0,0,0,0,0,0,0,0,0,0,0,0,0,0,0,0,0,0,0,0,0,0,0,0,0,0,0,0,0,0,0,0,0,0,0,0,0,0,0,0,0,0,0,0,0,0,0,0,0,0,0,0,0,0,0,0,0,0,0,0,0,0,0,0,0,0,0,0,0,0,0,0,0,0,0,0,0,0,0,0,0,0,0,0,0,0,0,0,0,0,0,0,0,0,0,0,0,0,0,0,0,0,0,0,0,0,0,0,0,0,0,0,0,0,0,0,0,0,0,0,0,0,0,0,0,0,0,0,0,0,0,0,0,0,0,0,0,0,0,0,0,0,0,0,0,0,0,0,0,0,0,0,0,0,0,0,0,0,0,0,0,0,0,0,0,0,0,0,0,0,0,0,3994,3995,3996,4002,4008,4014,4020,4026,4032,4038,4044,4050,4056,4062,4068,4069,4070,4071,4072,4078,4084,4090,4096,4102,4108,4114,4120,4126,4132,4138,4144,4150,4156,4162,4168,4174,4180,4186,4192,4198,4199,0,0,0,0,0,0,0,0,0,0,0,0,0,0,0,0,0,0,0,0,0,0,0,0,0,0,0,0,0,0,0,0,0,0,0,0,0,0,0,0,0,0,0,0,0,0,0,0,0,0,0,0,0,0,0,0,0,0,0,0,0,0,0,0,0,0,0,0,0,0,0,0,0,0,0,0,0,0,0,0,0,0,0,0,0,0,0,0,0,0,0,0,0,0,0,0,0,0,0,0,0,0,0,0,0,0,0,0,0,0,0,0,0,0,0,0,0,0,0,0,0,0,0,0,0,0,0,0,0,0,0,0,0,0,0,0,0,0,0,0,0,0,0,0,0,0,0,0,0,0,0,0,0,0,0,0,0,0,0,0,0,0,0,0,0,0,0,0,0,0,0,0,0,0,0,0,0,0,0,0,0,0,0,0,0,0,0,0,0,0,0,0,0,0,0,0,0,0,0,0,0,0,0,0,0,0,0,0,0,0,0,0,0,0,0,4200,4201,4202,4203,4209,4215,4221,4227,4233,4239,4245,4251,4257,4263,4269,4275,4281,4287,4293,4299,4305,4311,4317,4323,4329,4335,4341,4347,4353,4359,4365,4371,4377,4383,4389,4395,4401,4407,4413,4419,4420,0,0,0,0,0,0,0,0,0,0,0,0,0,0,0,0,0,0,0,0,0,0,0,0,0,0,0,0,0,0,0,0,0,0,0,0,0,0,0,0,0,0,0,0,0,0,0,0,0,0,0,0,0,0,0,0,0,0,0,0,0,0,0,0,0,0,0,0,0,0,0,0,0,0,0,0,0,0,0,0,0,0,0,0,0,0,0,0,0,0,0,0,0,0,0,0,0,0,0,0,0,0,0,0,0,0,0,0,0,0,0,0,0,0,0,0,0,0,0,0,0,0,0,0,0,0,0,0,0,0,0,0,0,0,0,0,0,0,0,0,0,0,0,0,0,0,0,0,0,0,0,0,0,0,0,0,0,0,0,0,0,0,0,0,0,0,0,0,0,0,0,0,0,0,0,0,0,0,0,0,0,0,0,0,0,0,0,0,0,0,0,0,0,0,0,0,0,0,0,0,0,0,0,0,0,0,0,0,0,0,0,0,0,0,0,4421,4422,4423,4424,4430,4436,4442,4448,4454,4460,4466,4472,4478,4484,4490,4496,4502,4508,4514,4520,4526,4532,4538,4544,4550,4556,4562,4568,4574,4580,4586,4592,4598,4604,4610,4616,4622,4628,4634,4635,4636,0,0,0,0,0,0,0,0,0,0,0,0,0,0,0,0,0,0,0,0,0,0,0,0,0,0,0,0,0,0,0,0,0,0,0,0,0,0,0,0,0,0,0,0,0,0,0,0,0,0,0,0,0,0,0,0,0,0,0,0,0,0,0,0,0,0,0,0,0,0,0,0,0,0,0,0,0,0,0,0,0,0,0,0,0,0,0,0,0,0,0,0,0,0,0,0,0,0,0,0,0,0,0,0,0,0,0,0,0,0,0,0,0,0,0,0,0,0,0,0,0,0,0,0,0,0,0,0,0,0,0,0,0,0,0,0,0,0,0,0,0,0,0,0,0,0,0,0,0,0,0,0,0,0,0,0,0,0,0,0,0,0,0,0,0,0,0,0,0,0,0,0,0,0,0,0,0,0,0,0,0,0,0,0,0,0,0,0,0,0,0,0,0,0,0,0,0,0,0,0,0,0,0,0,0,0,0,0,0,0,0,0,0,0,0,4637,4638,4639,4640,4646,4652,4658,4664,4670,4676,4682,4688,4694,4700,4706,4712,4718,4724,4730,4736,4742,4748,4754,4760,4766,4772,4778,4784,4790,4796,4802,4808,4814,4820,4826,4832,4838,4844,4850,4851,4852,0,0,0,0,0,0,0,0,0,0,0,0,0,0,0,0,0,0,0,0,0,0,0,0,0,0,0,0,0,0,0,0,0,0,0,0,0,0,0,0,0,0,0,0,0,0,0,0,0,0,0,0,0,0,0,0,0,0,0,0,0,0,0,0,0,0,0,0,0,0,0,0,0,0,0,0,0,0,0,0,0,0,0,0,0,0,0,0,0,0,0,0,0,0,0,0,0,0,0,0,0,0,0,0,0,0,0,0,0,0,0,0,0,0,0,0,0,0,0,0,0,0,0,0,0,0,0,0,0,0,0,0,0,0,0,0,0,0,0,0,0,0,0,0,0,0,0,0,0,0,0,0,0,0,0,0,0,0,0,0,0,0,0,0,0,0,0,0,0,0,0,0,0,0,0,0,0,0,0,0,0,0,0,0,0,0,0,0,0,0,0,0,0,0,0,0,0,0,0,0,0,0,0,0,0,0,0,0,0,0,0,0,0,0,0,4853,4854,4855,4856,4862,4868,4874,4880,4886,4892,4898,4904,4910,4916,4922,4928,4934,4940,4946,4952,4958,4964,4970,4976,4982,4988,4994,5000,5006,5012,5018,5024,5030,5036,5042,5048,5054,5060,5066,5067,5068,0,0,0,0,0,0,0,0,0,0,0,0,0,0,0,0,0,0,0,0,0,0,0,0,0,0,0,0,0,0,0,0,0,0,0,0,0,0,0,0,0,0,0,0,0,0,0,0,0,0,0,0,0,0,0,0,0,0,0,0,0,0,0,0,0,0,0,0,0,0,0,0,0,0,0,0,0,0,0,0,0,0,0,0,0,0,0,0,0,0,0,0,0,0,0,0,0,0,0,0,0,0,0,0,0,0,0,0,0,0,0,0,0,0,0,0,0,0,0,0,0,0,0,0,0,0,0,0,0,0,0,0,0,0,0,0,0,0,0,0,0,0,0,0,0,0,0,0,0,0,0,0,0,0,0,0,0,0,0,0,0,0,0,0,0,0,0,0,0,0,0,0,0,0,0,0,0,0,0,0,0,0,0,0,0,0,0,0,0,0,0,0,0,0,0,0,0,0,0,0,0,0,0,0,0,0,0,0,0,0,0,0,0,0,0,5069,5070,5071,5077,5083,5089,5095,5101,5107,5113,5119,5125,5131,5137,5143,5149,5155,5161,5167,5173,5179,5185,5191,5197,5203,5209,5215,5221,5227,5233,5239,5245,5251,5257,5263,5269,5275,5281,5287,5288,5289,0,0,0,0,0,0,0,0,0,0,0,0,0,0,0,0,0,0,0,0,0,0,0,0,0,0,0,0,0,0,0,0,0,0,0,0,0,0,0,0,0,0,0,0,0,0,0,0,0,0,0,0,0,0,0,0,0,0,0,0,0,0,0,0,0,0,0,0,0,0,0,0,0,0,0,0,0,0,0,0,0,0,0,0,0,0,0,0,0,0,0,0,0,0,0,0,0,0,0,0,0,0,0,0,0,0,0,0,0,0,0,0,0,0,0,0,0,0,0,0,0,0,0,0,0,0,0,0,0,0,0,0,0,0,0,0,0,0,0,0,0,0,0,0,0,0,0,0,0,0,0,0,0,0,0,0,0,0,0,0,0,0,0,0,0,0,0,0,0,0,0,0,0,0,0,0,0,0,0,0,0,0,0,0,0,0,0,0,0,0,0,0,0,0,0,0,0,0,0,0,0,0,0,0,0,0,0,0,0,0,0,0,0,0,0,5290,5291,5292,5298,5304,5310,5316,5322,5328,5334,5340,5346,5352,5358,5364,5370,5376,5382,5388,5394,5400,5406,5412,5418,5424,5430,5436,5442,5448,5454,5460,5466,5472,5478,5484,5490,5496,5502,5508,5514,5515,0,0,0,0,0,0,0,0,0,0,0,0,0,0,0,0,0,0,0,0,0,0,0,0,0,0,0,0,0,0,0,0,0,0,0,0,0,0,0,0,0,0,0,0,0,0,0,0,0,0,0,0,0,0,0,0,0,0,0,0,0,0,0,0,0,0,0,0,0,0,0,0,0,0,0,0,0,0,0,0,0,0,0,0,0,0,0,0,0,0,0,0,0,0,0,0,0,0,0,0,0,0,0,0,0,0,0,0,0,0,0,0,0,0,0,0,0,0,0,0,0,0,0,0,0,0,0,0,0,0,0,0,0,0,0,0,0,0,0,0,0,0,0,0,0,0,0,0,0,0,0,0,0,0,0,0,0,0,0,0,0,0,0,0,0,0,0,0,0,0,0,0,0,0,0,0,0,0,0,0,0,0,0,0,0,0,0,0,0,0,0,0,0,0,0,0,0,0,0,0,0,0,0,0,0,0,0,0,0,0,0,0,0,0,0,5516,5517,5518,5524,5530,5536,5542,5548,5554,5560,5566,5572,5578,5584,5590,5596,5602,5608,5614,5620,5626,5632,5638,5644,5650,5651,5652,5653,5654,5655,5661,5667,5673,5679,5685,5691,5697,5703,5709,5715,5716,0,0,0,0,0,0,0,0,0,0,0,0,0,0,0,0,0,0,0,0,0,0,0,0,0,0,0,0,0,0,0,0,0,0,0,0,0,0,0,0,0,0,0,0,0,0,0,0,0,0,0,0,0,0,0,0,0,0,0,0,0,0,0,0,0,0,0,0,0,0,0,0,0,0,0,0,0,0,0,0,0,0,0,0,0,0,0,0,0,0,0,0,0,0,0,0,0,0,0,0,0,0,0,0,0,0,0,0,0,0,0,0,0,0,0,0,0,0,0,0,0,0,0,0,0,0,0,0,0,0,0,0,0,0,0,0,0,0,0,0,0,0,0,0,0,0,0,0,0,0,0,0,0,0,0,0,0,0,0,0,0,0,0,0,0,0,0,0,0,0,0,0,0,0,0,0,0,0,0,0,0,0,0,0,0,0,0,0,0,0,0,0,0,0,0,0,0,0,0,0,0,0,0,0,0,0,0,0,0,0,0,0,0,0,0,5717,5718,5719,5725,5731,5737,5743,5749,5755,5761,5767,5773,5779,5785,5791,5797,5803,5809,5815,5821,5827,5833,5839,5845,5846,5847,5848,5849,5850,5851,5857,5863,5869,5875,5881,5887,5893,5899,5905,5911,5912,0,0,0,0,0,0,0,0,0,0,0,0,0,0,0,0,0,0,0,0,0,0,0,0,0,0,0,0,0,0,0,0,0,0,0,0,0,0,0,0,0,0,0,0,0,0,0,0,0,0,0,0,0,0,0,0,0,0,0,0,0,0,0,0,0,0,0,0,0,0,0,0,0,0,0,0,0,0,0,0,0,0,0,0,0,0,0,0,0,0,0,0,0,0,0,0,0,0,0,0,0,0,0,0,0,0,0,0,0,0,0,0,0,0,0,0,0,0,0,0,0,0,0,0,0,0,0,0,0,0,0,0,0,0,0,0,0,0,0,0,0,0,0,0,0,0,0,0,0,0,0,0,0,0,0,0,0,0,0,0,0,0,0,0,0,0,0,0,0,0,0,0,0,0,0,0,0,0,0,0,0,0,0,0,0,0,0,0,0,0,0,0,0,0,0,0,0,0,0,0,0,0,0,0,0,0,0,0,0,0,0,0,0,0,0,5913,5914,5915,5916,5922,5928,5934,5940,5946,5952,5958,5964,5970,5976,5982,5988,5994,6000,6006,6012,6018,6024,6030,6031,6032,6033,6034,6035,6036,6037,6038,6044,6050,6056,6062,6068,6074,6080,6086,6092,6093,0,0,0,0,0,0,0,0,0,0,0,0,0,0,0,0,0,0,0,0,0,0,0,0,0,0,0,0,0,0,0,0,0,0,0,0,0,0,0,0,0,0,0,0,0,0,0,0,0,0,0,0,0,0,0,0,0,0,0,0,0,0,0,0,0,0,0,0,0,0,0,0,0,0,0,0,0,0,0,0,0,0,0,0,0,0,0,0,0,0,0,0,0,0,0,0,0,0,0,0,0,0,0,0,0,0,0,0,0,0,0,0,0,0,0,0,0,0,0,0,0,0,0,0,0,0,0,0,0,0,0,0,0,0,0,0,0,0,0,0,0,0,0,0,0,0,0,0,0,0,0,0,0,0,0,0,0,0,0,0,0,0,0,0,0,0,0,0,0,0,0,0,0,0,0,0,0,0,0,0,0,0,0,0,0,0,0,0,0,0,0,0,0,0,0,0,0,0,0,0,0,0,0,0,0,0,0,0,0,0,0,0,0,0,0,6094,6095,6096,6097,6103,6109,6115,6121,6127,6133,6139,6145,6151,6157,6163,6169,6175,6181,6187,6193,6199,6205,6211,6212,6213,6214,6215,6216,6217,6218,6219,6225,6231,6237,6243,6249,6255,6261,6267,6268,6269,0,0,0,0,0,0,0,0,0,0,0,0,0,0,0,0,0,0,0,0,0,0,0,0,0,0,0,0,0,0,0,0,0,0,0,0,0,0,0,0,0,0,0,0,0,0,0,0,0,0,0,0,0,0,0,0,0,0,0,0,0,0,0,0,0,0,0,0,0,0,0,0,0,0,0,0,0,0,0,0,0,0,0,0,0,0,0,0,0,0,0,0,0,0,0,0,0,0,0,0,0,0,0,0,0,0,0,0,0,0,0,0,0,0,0,0,0,0,0,0,0,0,0,0,0,0,0,0,0,0,0,0,0,0,0,0,0,0,0,0,0,0,0,0,0,0,0,0,0,0,0,0,0,0,0,0,0,0,0,0,0,0,0,0,0,0,0,0,0,0,0,0,0,0,0,0,0,0,0,0,0,0,0,0,0,0,0,0,0,0,0,0,0,0,0,0,0,0,0,0,0,0,0,0,0,0,0,0,0,0,0,0,0,0,0,6270,6271,6272,6273,6279,6285,6291,6297,6303,6309,6315,6321,6327,6333,6339,6345,6351,6357,6363,6369,6375,6381,6387,6388,6389,6390,6391,6392,6393,6394,6395,6401,6407,6413,6419,6425,6431,6437,6443,6444,6445,0,0,0,0,0,0,0,0,0,0,0,0,0,0,0,0,0,0,0,0,0,0,0,0,0,0,0,0,0,0,0,0,0,0,0,0,0,0,0,0,0,0,0,0,0,0,0,0,0,0,0,0,0,0,0,0,0,0,0,0,0,0,0,0,0,0,0,0,0,0,0,0,0,0,0,0,0,0,0,0,0,0,0,0,0,0,0,0,0,0,0,0,0,0,0,0,0,0,0,0,0,0,0,0,0,0,0,0,0,0,0,0,0,0,0,0,0,0,0,0,0,0,0,0,0,0,0,0,0,0,0,0,0,0,0,0,0,0,0,0,0,0,0,0,0,0,0,0,0,0,0,0,0,0,0,0,0,0,0,0,0,0,0,0,0,0,0,0,0,0,0,0,0,0,0,0,0,0,0,0,0,0,0,0,0,0,0,0,0,0,0,0,0,0,0,0,0,0,0,0,0,0,0,0,0,0,0,0,0,0,0,0,0,0,0,6446,6447,6448,6449,6450,6456,6462,6468,6474,6480,6486,6492,6498,6504,6510,6516,6522,6528,6534,6540,6546,6552,6553,6554,6555,6556,6557,6558,6559,6560,6561,6562,6568,6574,6580,6586,6592,6598,6604,6605,6606,0,0,0,0,0,0,0,0,0,0,0,0,0,0,0,0,0,0,0,0,0,0,0,0,0,0,0,0,0,0,0,0,0,0,0,0,0,0,0,0,0,0,0,0,0,0,0,0,0,0,0,0,0,0,0,0,0,0,0,0,0,0,0,0,0,0,0,0,0,0,0,0,0,0,0,0,0,0,0,0,0,0,0,0,0,0,0,0,0,0,0,0,0,0,0,0,0,0,0,0,0,0,0,0,0,0,0,0,0,0,0,0,0,0,0,0,0,0,0,0,0,0,0,0,0,0,0,0,0,0,0,0,0,0,0,0,0,0,0,0,0,0,0,0,0,0,0,0,0,0,0,0,0,0,0,0,0,0,0,0,0,0,0,0,0,0,0,0,0,0,0,0,0,0,0,0,0,0,0,0,0,0,0,0,0,0,0,0,0,0,0,0,0,0,0,0,0,0,0,0,0,0,0,0,0,0,0,0,0,0,0,0,0,0,0,6607,6608,6609,6610,6611,6612,6618,6624,6630,6636,6642,6648,6654,6660,6666,6672,6678,6684,6690,6696,6702,6708,6714,6715,6716,6717,6718,6719,6720,6721,6722,6728,6734,6740,6746,6752,6758,6764,6770,6771,6772,0,0,0,0,0,0,0,0,0,0,0,0,0,0,0,0,0,0,0,0,0,0,0,0,0,0,0,0,0,0,0,0,0,0,0,0,0,0,0,0,0,0,0,0,0,0,0,0,0,0,0,0,0,0,0,0,0,0,0,0,0,0,0,0,0,0,0,0,0,0,0,0,0,0,0,0,0,0,0,0,0,0,0,0,0,0,0,0,0,0,0,0,0,0,0,0,0,0,0,0,0,0,0,0,0,0,0,0,0,0,0,0,0,0,0,0,0,0,0,0,0,0,0,0,0,0,0,0,0,0,0,0,0,0,0,0,0,0,0,0,0,0,0,0,0,0,0,0,0,0,0,0,0,0,0,0,0,0,0,0,0,0,0,0,0,0,0,0,0,0,0,0,0,0,0,0,0,0,0,0,0,0,0,0,0,0,0,0,0,0,0,0,0,0,0,0,0,0,0,0,0,0,0,0,0,0,0,0,0,0,0,0,0,0,0,6773,6774,6775,6776,6777,6778,6779,6780,6786,6792,6798,6804,6810,6816,6822,6828,6834,6840,6846,6852,6858,6864,6870,6876,6877,6878,6879,6880,6881,6882,6888,6894,6900,6906,6912,6918,6924,6930,6936,6942,6943,0,0,0,0,0,0,0,0,0,0,0,0,0,0,0,0,0,0,0,0,0,0,0,0,0,0,0,0,0,0,0,0,0,0,0,0,0,0,0,0,0,0,0,0,0,0,0,0,0,0,0,0,0,0,0,0,0,0,0,0,0,0,0,0,0,0,0,0,0,0,0,0,0,0,0,0,0,0,0,0,0,0,0,0,0,0,0,0,0,0,0,0,0,0,0,0,0,0,0,0,0,0,0,0,0,0,0,0,0,0,0,0,0,0,0,0,0,0,0,0,0,0,0,0,0,0,0,0,0,0,0,0,0,0,0,0,0,0,0,0,0,0,0,0,0,0,0,0,0,0,0,0,0,0,0,0,0,0,0,0,0,0,0,0,0,0,0,0,0,0,0,0,0,0,0,0,0,0,0,0,0,0,0,0,0,0,0,0,0,0,0,0,0,0,0,0,0,0,0,0,0,0,0,0,0,0,0,0,0,0,0,0,0,0,0,6944,6945,6946,6947,6948,6949,6950,6951,6952,6953,6959,6965,6971,6977,6983,6989,6995,7001,7007,7013,7019,7025,7031,7037,7043,7044,7045,7046,7047,7053,7059,7065,7071,7077,7083,7089,7095,7101,7107,7113,7114,0,0,0,0,0,0,0,0,0,0,0,0,0,0,0,0,0,0,0,0,0,0,0,0,0,0,0,0,0,0,0,0,0,0,0,0,0,0,0,0,0,0,0,0,0,0,0,0,0,0,0,0,0,0,0,0,0,0,0,0,0,0,0,0,0,0,0,0,0,0,0,0,0,0,0,0,0,0,0,0,0,0,0,0,0,0,0,0,0,0,0,0,0,0,0,0,0,0,0,0,0,0,0,0,0,0,0,0,0,0,0,0,0,0,0,0,0,0,0,0,0,0,0,0,0,0,0,0,0,0,0,0,0,0,0,0,0,0,0,0,0,0,0,0,0,0,0,0,0,0,0,0,0,0,0,0,0,0,0,0,0,0,0,0,0,0,0,0,0,0,0,0,0,0,0,0,0,0,0,0,0,0,0,0,0,0,0,0,0,0,0,0,0,0,0,0,0,0,0,0,0,0,0,0,0,0,0,0,0,0,0,0,0,0,0,7115,7116,7117,7118,7119,7120,7121,7122,7123,7124,7125,7131,7137,7143,7149,7155,7161,7167,7173,7179,7185,7191,7197,7203,7209,7215,7221,7227,7233,7239,7245,7251,7257,7263,7269,7275,7281,7287,7293,7299,7300,0,0,0,0,0,0,0,0,0,0,0,0,0,0,0,0,0,0,0,0,0,0,0,0,0,0,0,0,0,0,0,0,0,0,0,0,0,0,0,0,0,0,0,0,0,0,0,0,0,0,0,0,0,0,0,0,0,0,0,0,0,0,0,0,0,0,0,0,0,0,0,0,0,0,0,0,0,0,0,0,0,0,0,0,0,0,0,0,0,0,0,0,0,0,0,0,0,0,0,0,0,0,0,0,0,0,0,0,0,0,0,0,0,0,0,0,0,0,0,0,0,0,0,0,0,0,0,0,0,0,0,0,0,0,0,0,0,0,0,0,0,0,0,0,0,0,0,0,0,0,0,0,0,0,0,0,0,0,0,0,0,0,0,0,0,0,0,0,0,0,0,0,0,0,0,0,0,0,0,0,0,0,0,0,0,0,0,0,0,0,0,0,0,0,0,0,0,0,0,0,0,0,0,0,0,0,0,0,0,0,0,0,0,0,0,7301,7302,7303,7304,7305,7306,7307,7308,7309,7310,7311,7312,7318,7324,7330,7336,7342,7348,7354,7360,7366,7372,7378,7384,7390,7396,7402,7408,7414,7420,7426,7432,7438,7444,7450,7456,7462,7468,7474,7480,7481,0,0,0,0,0,0,0,0,0,0,0,0,0,0,0,0,0,0,0,0,0,0,0,0,0,0,0,0,0,0,0,0,0,0,0,0,0,0,0,0,0,0,0,0,0,0,0,0,0,0,0,0,0,0,0,0,0,0,0,0,0,0,0,0,0,0,0,0,0,0,0,0,0,0,0,0,0,0,0,0,0,0,0,0,0,0,0,0,0,0,0,0,0,0,0,0,0,0,0,0,0,0,0,0,0,0,0,0,0,0,0,0,0,0,0,0,0,0,0,0,0,0,0,0,0,0,0,0,0,0,0,0,0,0,0,0,0,0,0,0,0,0,0,0,0,0,0,0,0,0,0,0,0,0,0,0,0,0,0,0,0,0,0,0,0,0,0,0,0,0,0,0,0,0,0,0,0,0,0,0,0,0,0,0,0,0,0,0,0,0,0,0,0,0,0,0,0,0,0,0,0,0,0,0,0,0,0,0,0,0,0,0,0,0,0,7482,7483,7484,7485,7486,7487,7488,7489,7490,7491,7492,7493,7494,7500,7506,7512,7518,7524,7530,7536,7542,7548,7554,7560,7566,7572,7578,7584,7590,7596,7602,7608,7614,7620,7626,7632,7638,7644,7650,7651,7652,0,0,0,0,0,0,0,0,0,0,0,0,0,0,0,0,0,0,0,0,0,0,0,0,0,0,0,0,0,0,0,0,0,0,0,0,0,0,0,0,0,0,0,0,0,0,0,0,0,0,0,0,0,0,0,0,0,0,0,0,0,0,0,0,0,0,0,0,0,0,0,0,0,0,0,0,0,0,0,0,0,0,0,0,0,0,0,0,0,0,0,0,0,0,0,0,0,0,0,0,0,0,0,0,0,0,0,0,0,0,0,0,0,0,0,0,0,0,0,0,0,0,0,0,0,0,0,0,0,0,0,0,0,0,0,0,0,0,0,0,0,0,0,0,0,0,0,0,0,0,0,0,0,0,0,0,0,0,0,0,0,0,0,0,0,0,0,0,0,0,0,0,0,0,0,0,0,0,0,0,0,0,0,0,0,0,0,0,0,0,0,0,0,0,0,0,0,0,0,0,0,0,0,0,0,0,0,0,0,0,0,0,0,0,0,7653,7654,7655,7656,7657,7658,7659,7660,7661,7662,7663,7664,7665,7671,7677,7683,7689,7695,7701,7707,7713,7719,7725,7731,7737,7743,7749,7755,7761,7767,7773,7779,7785,7791,7797,7803,7809,7815,7821,7822,7823,0,0,0,0,0,0,0,0,0,0,0,0,0,0,0,0,0,0,0,0,0,0,0,0,0,0,0,0,0,0,0,0,0,0,0,0,0,0,0,0,0,0,0,0,0,0,0,0,0,0,0,0,0,0,0,0,0,0,0,0,0,0,0,0,0,0,0,0,0,0,0,0,0,0,0,0,0,0,0,0,0,0,0,0,0,0,0,0,0,0,0,0,0,0,0,0,0,0,0,0,0,0,0,0,0,0,0,0,0,0,0,0,0,0,0,0,0,0,0,0,0,0,0,0,0,0,0,0,0,0,0,0,0,0,0,0,0,0,0,0,0,0,0,0,0,0,0,0,0,0,0,0,0,0,0,0,0,0,0,0,0,0,0,0,0,0,0,0,0,0,0,0,0,0,0,0,0,0,0,0,0,0,0,0,0,0,0,0,0,0,0,0,0,0,0,0,0,0,0,0,0,0,0,0,0,0,0,0,0,0,0,0,0,0,0,7824,7825,7826,7827,7828,7829,7830,7831,7832,7833,7834,7835,7836,7837,7843,7849,7855,7861,7867,7873,7879,7885,7891,7897,7903,7909,7915,7921,7927,7933,7939,7945,7951,7957,7963,7969,7975,7981,7987,7988,7989,0,0,0,0,0,0,0,0,0,0,0,0,0,0,0,0,0,0,0,0,0,0,0,0,0,0,0,0,0,0,0,0,0,0,0,0,0,0,0,0,0,0,0,0,0,0,0,0,0,0,0,0,0,0,0,0,0,0,0,0,0,0,0,0,0,0,0,0,0,0,0,0,0,0,0,0,0,0,0,0,0,0,0,0,0,0,0,0,0,0,0,0,0,0,0,0,0,0,0,0,0,0,0,0,0,0,0,0,0,0,0,0,0,0,0,0,0,0,0,0,0,0,0,0,0,0,0,0,0,0,0,0,0,0,0,0,0,0,0,0,0,0,0,0,0,0,0,0,0,0,0,0,0,0,0,0,0,0,0,0,0,0,0,0,0,0,0,0,0,0,0,0,0,0,0,0,0,0,0,0,0,0,0,0,0,0,0,0,0,0,0,0,0,0,0,0,0,0,0,0,0,0,0,0,0,0,0,0,0,0,0,0,0,0,0,7990,7991,7992,7993,7994,7995,7996,7997,7998,7999,8000,8001,8002,8003,8009,8015,8021,8027,8033,8039,8045,8051,8057,8063,8069,8075,8081,8087,8093,8099,8105,8111,8117,8123,8129,8135,8141,8147,8153,8154,8155,0,0,0,0,0,0,0,0,0,0,0,0,0,0,0,0,0,0,0,0,0,0,0,0,0,0,0,0,0,0,0,0,0,0,0,0,0,0,0,0,0,0,0,0,0,0,0,0,0,0,0,0,0,0,0,0,0,0,0,0,0,0,0,0,0,0,0,0,0,0,0,0,0,0,0,0,0,0,0,0,0,0,0,0,0,0,0,0,0,0,0,0,0,0,0,0,0,0,0,0,0,0,0,0,0,0,0,0,0,0,0,0,0,0,0,0,0,0,0,0,0,0,0,0,0,0,0,0,0,0,0,0,0,0,0,0,0,0,0,0,0,0,0,0,0,0,0,0,0,0,0,0,0,0,0,0,0,0,0,0,0,0,0,0,0,0,0,0,0,0,0,0,0,0,0,0,0,0,0,0,0,0,0,0,0,0,0,0,0,0,0,0,0,0,0,0,0,0,0,0,0,0,0,0,0,0,0,0,0,0,0,0,0,0,0,8156,8157,8158,8159,8160,8161,8162,8163,8164,8165,8166,8167,8168,8169,8175,8181,8187,8193,8199,8205,8211,8217,8223,8229,8235,8241,8247,8253,8259,8265,8271,8277,8283,8289,8295,8301,8307,8313,8314,8315,8316,0,0,0,0,0,0,0,0,0,0,0,0,0,0,0,0,0,0,0,0,0,0,0,0,0,0,0,0,0,0,0,0,0,0,0,0,0,0,0,0,0,0,0,0,0,0,0,0,0,0,0,0,0,0,0,0,0,0,0,0,0,0,0,0,0,0,0,0,0,0,0,0,0,0,0,0,0,0,0,0,0,0,0,0,0,0,0,0,0,0,0,0,0,0,0,0,0,0,0,0,0,0,0,0,0,0,0,0,0,0,0,0,0,0,0,0,0,0,0,0,0,0,0,0,0,0,0,0,0,0,0,0,0,0,0,0,0,0,0,0,0,0,0,0,0,0,0,0,0,0,0,0,0,0,0,0,0,0,0,0,0,0,0,0,0,0,0,0,0,0,0,0,0,0,0,0,0,0,0,0,0,0,0,0,0,0,0,0,0,0,0,0,0,0,0,0,0,0,0,0,0,0,0,0,0,0,0,0,0,0,0,0,0,0,0,8317,8318,8319,8320,8321,8322,8323,8324,8325,8326,8327,8328,8329,8330,8331,8337,8343,8349,8355,8361,8367,8373,8379,8385,8391,8397,8403,8409,8415,8421,8427,8433,8439,8445,8451,8457,8463,8469,8470,8471,8472,0,0,0,0,0,0,0,0,0,0,0,0,0,0,0,0,0,0,0,0,0,0,0,0,0,0,0,0,0,0,0,0,0,0,0,0,0,0,0,0,0,0,0,0,0,0,0,0,0,0,0,0,0,0,0,0,0,0,0,0,0,0,0,0,0,0,0,0,0,0,0,0,0,0,0,0,0,0,0,0,0,0,0,0,0,0,0,0,0,0,0,0,0,0,0,0,0,0,0,0,0,0,0,0,0,0,0,0,0,0,0,0,0,0,0,0,0,0,0,0,0,0,0,0,0,0,0,0,0,0,0,0,0,0,0,0,0,0,0,0,0,0,0,0,0,0,0,0,0,0,0,0,0,0,0,0,0,0,0,0,0,0,0,0,0,0,0,0,0,0,0,0,0,0,0,0,0,0,0,0,0,0,0,0,0,0,0,0,0,0,0,0,0,0,0,0,0,0,0,0,0,0,0,0,0,0,0,0,0,0,0,0,0,0,0,8473,8474,8475,8476,8477,8478,8479,8480,8481,8482,8483,8484,8485,8486,8487,8488,8489,8490,8491,8497,8503,8509,8515,8521,8527,8533,8539,8545,8551,8557,8563,8569,8575,8581,8587,8593,8599,8605,8606,8607,8608,0,0,0,0,0,0,0,0,0,0,0,0,0,0,0,0,0,0,0,0,0,0,0,0,0,0,0,0,0,0,0,0,0,0,0,0,0,0,0,0,0,0,0,0,0,0,0,0,0,0,0,0,0,0,0,0,0,0,0,0,0,0,0,0,0,0,0,0,0,0,0,0,0,0,0,0,0,0,0,0,0,0,0,0,0,0,0,0,0,0,0,0,0,0,0,0,0,0,0,0,0,0,0,0,0,0,0,0,0,0,0,0,0,0,0,0,0,0,0,0,0,0,0,0,0,0,0,0,0,0,0,0,0,0,0,0,0,0,0,0,0,0,0,0,0,0,0,0,0,0,0,0,0,0,0,0,0,0,0,0,0,0,0,0,0,0,0,0,0,0,0,0,0,0,0,0,0,0,0,0,0,0,0,0,0,0,0,0,0,0,0,0,0,0,0,0,0,0,0,0,0,0,0,0,0,0,0,0,0,0,0,0,0,0,0,8609,8610,8611,8612,8613,8614,8615,8616,8617,8618,8619,8620,8621,8622,8623,8624,8625,8626,8627,8633,8639,8645,8651,8657,8663,8669,8675,8681,8687,8693,8699,8705,8711,8717,8723,8729,8735,8736,8737,8738,8739,0,0,0,0,0,0,0,0,0,0,0,0,0,0,0,0,0,0,0,0,0,0,0,0,0,0,0,0,0,0,0,0,0,0,0,0,0,0,0,0,0,0,0,0,0,0,0,0,0,0,0,0,0,0,0,0,0,0,0,0,0,0,0,0,0,0,0,0,0,0,0,0,0,0,0,0,0,0,0,0,0,0,0,0,0,0,0,0,0,0,0,0,0,0,0,0,0,0,0,0,0,0,0,0,0,0,0,0,0,0,0,0,0,0,0,0,0,0,0,0,0,0,0,0,0,0,0,0,0,0,0,0,0,0,0,0,0,0,0,0,0,0,0,0,0,0,0,0,0,0,0,0,0,0,0,0,0,0,0,0,0,0,0,0,0,0,0,0,0,0,0,0,0,0,0,0,0,0,0,0,0,0,0,0,0,0,0,0,0,0,0,0,0,0,0,0,0,0,0,0,0,0,0,0,0,0,0,0,0,0,0,0,0,0,0,8740,8741,8742,8743,8744,8745,8746,8747,8748,8749,8750,8751,8752,8753,8754,8755,8756,8757,8758,8759,8765,8771,8777,8783,8789,8795,8801,8807,8813,8819,8825,8831,8837,8843,8849,8855,8856,8857,8858,8859,8860,0,0,0,0,0,0,0,0,0,0,0,0,0,0,0,0,0,0,0,0,0,0,0,0,0,0,0,0,0,0,0,0,0,0,0,0,0,0,0,0,0,0,0,0,0,0,0,0,0,0,0,0,0,0,0,0,0,0,0,0,0,0,0,0,0,0,0,0,0,0,0,0,0,0,0,0,0,0,0,0,0,0,0,0,0,0,0,0,0,0,0,0,0,0,0,0,0,0,0,0,0,0,0,0,0,0,0,0,0,0,0,0,0,0,0,0,0,0,0,0,0,0,0,0,0,0,0,0,0,0,0,0,0,0,0,0,0,0,0,0,0,0,0,0,0,0,0,0,0,0,0,0,0,0,0,0,0,0,0,0,0,0,0,0,0,0,0,0,0,0,0,0,0,0,0,0,0,0,0,0,0,0,0,0,0,0,0,0,0,0,0,0,0,0,0,0,0,0,0,0,0,0,0,0,0,0,0,0,0,0,0,0,0,0,0,8861,8862,8863,8864,8865,8866,8867,8868,8869,8870,8871,8872,8873,8874,8875,8876,8877,8878,8879,8880,8881,8887,8893,8899,8905,8911,8917,8923,8929,8935,8941,8947,8953,8954,8955,8956,8957,8958,8959,8960,8961,0,0,0,0,0,0,0,0,0,0,0,0,0,0,0,0,0,0,0,0,0,0,0,0,0,0,0,0,0,0,0,0,0,0,0,0,0,0,0,0,0,0,0,0,0,0,0,0,0,0,0,0,0,0,0,0,0,0,0,0,0,0,0,0,0,0,0,0,0,0,0,0,0,0,0,0,0,0,0,0,0,0,0,0,0,0,0,0,0,0,0,0,0,0,0,0,0,0,0,0,0,0,0,0,0,0,0,0,0,0,0,0,0,0,0,0,0,0,0,0,0,0,0,0,0,0,0,0,0,0,0,0,0,0,0,0,0,0,0,0,0,0,0,0,0,0,0,0,0,0,0,0,0,0,0,0,0,0,0,0,0,0,0,0,0,0,0,0,0,0,0,0,0,0,0,0,0,0,0,0,0,0,0,0,0,0,0,0,0,0,0,0,0,0,0,0,0,0,0,0,0,0,0,0,0,0,0,0,0,0,0,0,0,0,0,8962,8963,8964,8965,8966,8967,8968,8969,8970,8971,8972,8973,8974,8975,8976,8977,8978,8979,8980,8981,8982,8983,8989,8995,9001,9007,9013,9019,9025,9031,9037,9043,9044,9045,9046,9047,9048,9049,9050,9051,9052,0,0,0,0,0,0,0,0,0,0,0,0,0,0,0,0,0,0,0,0,0,0,0,0,0,0,0,0,0,0,0,0,0,0,0,0,0,0,0,0,0,0,0,0,0,0,0,0,0,0,0,0,0,0,0,0,0,0,0,0,0,0,0,0,0,0,0,0,0,0,0,0,0,0,0,0,0,0,0,0,0,0,0,0,0,0,0,0,0,0,0,0,0,0,0,0,0,0,0,0,0,0,0,0,0,0,0,0,0,0,0,0,0,0,0,0,0,0,0,0,0,0,0,0,0,0,0,0,0,0,0,0,0,0,0,0,0,0,0,0,0,0,0,0,0,0,0,0,0,0,0,0,0,0,0,0,0,0,0,0,0,0,0,0,0,0,0,0,0,0,0,0,0,0,0,0,0,0,0,0,0,0,0,0,0,0,0,0,0,0,0,0,0,0,0,0,0,0,0,0,0,0,0,0,0,0,0,0,0,0,0,0,0,0,0,9053,9054,9055,9056,9057,9058,9059,9060,9061,9062,9063,9064,9065,9066,9067,9068,9069,9070,9071,9072,9073,9074,9075,9081,9087,9093,9099,9105,9111,9117,9123,9124,9125,9126,9127,9128,9129,9130,9131,9132,9133,0,0,0,0,0,0,0,0,0,0,0,0,0,0,0,0,0,0,0,0,0,0,0,0,0,0,0,0,0,0,0,0,0,0,0,0,0,0,0,0,0,0,0,0,0,0,0,0,0,0,0,0,0,0,0,0,0,0,0,0,0,0,0,0,0,0,0,0,0,0,0,0,0,0,0,0,0,0,0,0,0,0,0,0,0,0,0,0,0,0,0,0,0,0,0,0,0,0,0,0,0,0,0,0,0,0,0,0,0,0,0,0,0,0,0,0,0,0,0,0,0,0,0,0,0,0,0,0,0,0,0,0,0,0,0,0,0,0,0,0,0,0,0,0,0,0,0,0,0,0,0,0,0,0,0,0,0,0,0,0,0,0,0,0,0,0,0,0,0,0,0,0,0,0,0,0,0,0,0,0,0,0,0,0,0,0,0,0,0,0,0,0,0,0,0,0,0,0,0,0,0,0,0,0,0,0,0,0,0,0,0,0,0,0,0,9134,9135,9136,9137,9138,9139,9140,9141,9142,9143,9144,9145,9146,9147,9148,9149,9150,9151,9152,9153,9154,9155,9156,9162,9168,9174,9180,9186,9192,9198,9199,9200,9201,9202,9203,9204,9205,9206,9207,9208,9209,0,0,0,0,0,0,0,0,0,0,0,0,0,0,0,0,0,0,0,0,0,0,0,0,0,0,0,0,0,0,0,0,0,0,0,0,0,0,0,0,0,0,0,0,0,0,0,0,0,0,0,0,0,0,0,0,0,0,0,0,0,0,0,0,0,0,0,0,0,0,0,0,0,0,0,0,0,0,0,0,0,0,0,0,0,0,0,0,0,0,0,0,0,0,0,0,0,0,0,0,0,0,0,0,0,0,0,0,0,0,0,0,0,0,0,0,0,0,0,0,0,0,0,0,0,0,0,0,0,0,0,0,0,0,0,0,0,0,0,0,0,0,0,0,0,0,0,0,0,0,0,0,0,0,0,0,0,0,0,0,0,0,0,0,0,0,0,0,0,0,0,0,0,0,0,0,0,0,0,0,0,0,0,0,0,0,0,0,0,0,0,0,0,0,0,0,0,0,0,0,0,0,0,0,0,0,0,0,0,0,0,0,0,0,0,9210,9211,9212,9213,9214,9215,9216,9217,9218,9219,9220,9221,9222,9223,9224,9225,9226,9227,9228,9229,9230,9231,9237,9243,9249,9255,9261,9267,9273,9274,9275,9276,9277,9278,9279,9280,9281,9282,9283,9284,9285,0,0,0,0,0,0,0,0,0,0,0,0,0,0,0,0,0,0,0,0,0,0,0,0,0,0,0,0,0,0,0,0,0,0,0,0,0,0,0,0,0,0,0,0,0,0,0,0,0,0,0,0,0,0,0,0,0,0,0,0,0,0,0,0,0,0,0,0,0,0,0,0,0,0,0,0,0,0,0,0,0,0,0,0,0,0,0,0,0,0,0,0,0,0,0,0,0,0,0,0,0,0,0,0,0,0,0,0,0,0,0,0,0,0,0,0,0,0,0,0,0,0,0,0,0,0,0,0,0,0,0,0,0,0,0,0,0,0,0,0,0,0,0,0,0,0,0,0,0,0,0,0,0,0,0,0,0,0,0,0,0,0,0,0,0,0,0,0,0,0,0,0,0,0,0,0,0,0,0,0,0,0,0,0,0,0,0,0,0,0,0,0,0,0,0,0,0,0,0,0,0,0,0,0,0,0,0,0,0,0,0,0,0,0,0,9286,9287,9288,9289,9290,9291,9292,9293,9294,9295,9296,9297,9298,9299,9300,9301,9302,9303,9304,9305,9306,9307,9313,9319,9325,9331,9337,9343,9349,9350,9351,9352,9353,9354,9355,9356,9357,9358,9359,9360,9361,0,0,0,0,0,0,0,0,0,0,0,0,0,0,0,0,0,0,0,0,0,0,0,0,0,0,0,0,0,0,0,0,0,0,0,0,0,0,0,0,0,0,0,0,0,0,0,0,0,0,0,0,0,0,0,0,0,0,0,0,0,0,0,0,0,0,0,0,0,0,0,0,0,0,0,0,0,0,0,0,0,0,0,0,0,0,0,0,0,0,0,0,0,0,0,0,0,0,0,0,0,0,0,0,0,0,0,0,0,0,0,0,0,0,0,0,0,0,0,0,0,0,0,0,0,0,0,0,0,0,0,0,0,0,0,0,0,0,0,0,0,0,0,0,0,0,0,0,0,0,0,0,0,0,0,0,0,0,0,0,0,0,0,0,0,0,0,0,0,0,0,0,0,0,0,0,0,0,0,0,0,0,0,0,0,0,0,0,0,0,0,0,0,0,0,0,0,0,0,0,0,0,0,0,0,0,0,0,0,0,0,0,0,0,0,9362,9363,9364,9365,9366,9367,9368,9369,9370,9371,9372,9373,9374,9375,9376,9377,9378,9379,9380,9381,9382,9383,9389,9395,9401,9407,9413,9419,9425,9431,9432,9433,9434,9435,9436,9437,9438,9439,9440,9441,9442,0,0,0,0,0,0,0,0,0,0,0,0,0,0,0,0,0,0,0,0,0,0,0,0,0,0,0,0,0,0,0,0,0,0,0,0,0,0,0,0,0,0,0,0,0,0,0,0,0,0,0,0,0,0,0,0,0,0,0,0,0,0,0,0,0,0,0,0,0,0,0,0,0,0,0,0,0,0,0,0,0,0,0,0,0,0,0,0,0,0,0,0,0,0,0,0,0,0,0,0,0,0,0,0,0,0,0,0,0,0,0,0,0,0,0,0,0,0,0,0,0,0,0,0,0,0,0,0,0,0,0,0,0,0,0,0,0,0,0,0,0,0,0,0,0,0,0,0,0,0,0,0,0,0,0,0,0,0,0,0,0,0,0,0,0,0,0,0,0,0,0,0,0,0,0,0,0,0,0,0,0,0,0,0,0,0,0,0,0,0,0,0,0,0,0,0,0,0,0,0,0,0,0,0,0,0,0,0,0,0,0,0,0,0,0,9443,9444,9445,9446,9447,9448,9449,9450,9451,9452,9453,9454,9455,9456,9457,9458,9459,9460,9461,9462,9463,9464,9470,9476,9482,9488,9494,9500,9506,9512,9513,9514,9515,9516,9517,9518,9519,9520,9521,9522,9523,0,0,0,0,0,0,0,0,0,0,0,0,0,0,0,0,0,0,0,0,0,0,0,0,0,0,0,0,0,0,0,0,0,0,0,0,0,0,0,0,0,0,0,0,0,0,0,0,0,0,0,0,0,0,0,0,0,0,0,0,0,0,0,0,0,0,0,0,0,0,0,0,0,0,0,0,0,0,0,0,0,0,0,0,0,0,0,0,0,0,0,0,0,0,0,0,0,0,0,0,0,0,0,0,0,0,0,0,0,0,0,0,0,0,0,0,0,0,0,0,0,0,0,0,0,0,0,0,0,0,0,0,0,0,0,0,0,0,0,0,0,0,0,0,0,0,0,0,0,0,0,0,0,0,0,0,0,0,0,0,0,0,0,0,0,0,0,0,0,0,0,0,0,0,0,0,0,0,0,0,0,0,0,0,0,0,0,0,0,0,0,0,0,0,0,0,0,0,0,0,0,0,0,0,0,0,0,0,0,0,0,0,0,0,0,9524,9525,9526,9527,9528,9529,9530,9531,9532,9533,9534,9535,9536,9537,9538,9539,9540,9541,9542,9543,9544,9545,9546,9552,9558,9564,9570,9576,9582,9588,9589,9590,9591,9592,9593,9594,9595,9596,9597,9598,9599,0,0,0,0,0,0,0,0,0,0,0,0,0,0,0,0,0,0,0,0,0,0,0,0,0,0,0,0,0,0,0,0,0,0,0,0,0,0,0,0,0,0,0,0,0,0,0,0,0,0,0,0,0,0,0,0,0,0,0,0,0,0,0,0,0,0,0,0,0,0,0,0,0,0,0,0,0,0,0,0,0,0,0,0,0,0,0,0,0,0,0,0,0,0,0,0,0,0,0,0,0,0,0,0,0,0,0,0,0,0,0,0,0,0,0,0,0,0,0,0,0,0,0,0,0,0,0,0,0,0,0,0,0,0,0,0,0,0,0,0,0,0,0,0,0,0,0,0,0,0,0,0,0,0,0,0,0,0,0,0,0,0,0,0,0,0,0,0,0,0,0,0,0,0,0,0,0,0,0,0,0,0,0,0,0,0,0,0,0,0,0,0,0,0,0,0,0,0,0,0,0,0,0,0,0,0,0,0,0,0,0,0,0,0,0,9600,9601,9602,9603,9604,9605,9606,9607,9608,9609,9610,9611,9612,9613,9614,9615,9616,9617,9618,9619,9620,9621,9622,9628,9634,9640,9646,9652,9658,9664,9665,9666,9667,9668,9669,9670,9671,9672,9673,9674,9675,0,0,0,0,0,0,0,0,0,0,0,0,0,0,0,0,0,0,0,0,0,0,0,0,0,0,0,0,0,0,0,0,0,0,0,0,0,0,0,0,0,0,0,0,0,0,0,0,0,0,0,0,0,0,0,0,0,0,0,0,0,0,0,0,0,0,0,0,0,0,0,0,0,0,0,0,0,0,0,0,0,0,0,0,0,0,0,0,0,0,0,0,0,0,0,0,0,0,0,0,0,0,0,0,0,0,0,0,0,0,0,0,0,0,0,0,0,0,0,0,0,0,0,0,0,0,0,0,0,0,0,0,0,0,0,0,0,0,0,0,0,0,0,0,0,0,0,0,0,0,0,0,0,0,0,0,0,0,0,0,0,0,0,0,0,0,0,0,0,0,0,0,0,0,0,0,0,0,0,0,0,0,0,0,0,0,0,0,0,0,0,0,0,0,0,0,0,0,0,0,0,0,0,0,0,0,0,0,0,0,0,0,0,0,0,9676,9677,9678,9679,9680,9681,9682,9683,9684,9685,9686,9687,9688,9689,9690,9691,9692,9693,9694,9695,9696,9697,9698,9704,9710,9716,9722,9728,9734,9735,9736,9737,9738,9739,9740,9741,9742,9743,9744,9745,9746,0,0,0,0,0,0,0,0,0,0,0,0,0,0,0,0,0,0,0,0,0,0,0,0,0,0,0,0,0,0,0,0,0,0,0,0,0,0,0,0,0,0,0,0,0,0,0,0,0,0,0,0,0,0,0,0,0,0,0,0,0,0,0,0,0,0,0,0,0,0,0,0,0,0,0,0,0,0,0,0,0,0,0,0,0,0,0,0,0,0,0,0,0,0,0,0,0,0,0,0,0,0,0,0,0,0,0,0,0,0,0,0,0,0,0,0,0,0,0,0,0,0,0,0,0,0,0,0,0,0,0,0,0,0,0,0,0,0,0,0,0,0,0,0,0,0,0,0,0,0,0,0,0,0,0,0,0,0,0,0,0,0,0,0,0,0,0,0,0,0,0,0,0,0,0,0,0,0,0,0,0,0,0,0,0,0,0,0,0,0,0,0,0,0,0,0,0,0,0,0,0,0,0,0,0,0,0,0,0,0,0,0,0,0,0,9747,9748,9749,9750,9751,9752,9753,9754,9755,9756,9757,9758,9759,9760,9761,9762,9763,9764,9765,9766,9767,9768,9769,9775,9781,9787,9793,9799,9805,9806,9807,9808,9809,9810,9811,9812,9813,9814,9815,9816,9817,0,0,0,0,0,0,0,0,0,0,0,0,0,0,0,0,0,0,0,0,0,0,0,0,0,0,0,0,0,0,0,0,0,0,0,0,0,0,0,0,0,0,0,0,0,0,0,0,0,0,0,0,0,0,0,0,0,0,0,0,0,0,0,0,0,0,0,0,0,0,0,0,0,0,0,0,0,0,0,0,0,0,0,0,0,0,0,0,0,0,0,0,0,0,0,0,0,0,0,0,0,0,0,0,0,0,0,0,0,0,0,0,0,0,0,0,0,0,0,0,0,0,0,0,0,0,0,0,0,0,0,0,0,0,0,0,0,0,0,0,0,0,0,0,0,0,0,0,0,0,0,0,0,0,0,0,0,0,0,0,0,0,0,0,0,0,0,0,0,0,0,0,0,0,0,0,0,0,0,0,0,0,0,0,0,0,0,0,0,0,0,0,0,0,0,0,0,0,0,0,0,0,0,0,0,0,0,0,0,0,0,0,0,0,0,9818,9819,9820,9821,9822,9823,9824,9825,9826,9827,9828,9829,9830,9831,9832,9833,9834,9835,9836,9837,9838,9839,9845,9851,9857,9863,9869,9875,9881,9887,9888,9889,9890,9891,9892,9893,9894,9895,9896,9897,9898,0,0,0,0,0,0,0,0,0,0,0,0,0,0,0,0,0,0,0,0,0,0,0,0,0,0,0,0,0,0,0,0,0,0,0,0,0,0,0,0,0,0,0,0,0,0,0,0,0,0,0,0,0,0,0,0,0,0,0,0,0,0,0,0,0,0,0,0,0,0,0,0,0,0,0,0,0,0,0,0,0,0,0,0,0,0,0,0,0,0,0,0,0,0,0,0,0,0,0,0,0,0,0,0,0,0,0,0,0,0,0,0,0,0,0,0,0,0,0,0,0,0,0,0,0,0,0,0,0,0,0,0,0,0,0,0,0,0,0,0,0,0,0,0,0,0,0,0,0,0,0,0,0,0,0,0,0,0,0,0,0,0,0,0,0,0,0,0,0,0,0,0,0,0,0,0,0,0,0,0,0,0,0,0,0,0,0,0,0,0,0,0,0,0,0,0,0,0,0,0,0,0,0,0,0,0,0,0,0,0,0,0,0,0,0,9899,9900,9901,9902,9903,9904,9905,9906,9907,9908,9909,9910,9911,9912,9913,9914,9915,9916,9917,9918,9919,9920,9926,9932,9938,9944,9950,9956,9962,9968,9969,9970,9971,9972,9973,9974,9975,9976,9977,9978,9979,0,0,0,0,0,0,0,0,0,0,0,0,0,0,0,0,0,0,0,0,0,0,0,0,0,0,0,0,0,0,0,0,0,0,0,0,0,0,0,0,0,0,0,0,0,0,0,0,0,0,0,0,0,0,0,0,0,0,0,0,0,0,0,0,0,0,0,0,0,0,0,0,0,0,0,0,0,0,0,0,0,0,0,0,0,0,0,0,0,0,0,0,0,0,0,0,0,0,0,0,0,0,0,0,0,0,0,0,0,0,0,0,0,0,0,0,0,0,0,0,0,0,0,0,0,0,0,0,0,0,0,0,0,0,0,0,0,0,0,0,0,0,0,0,0,0,0,0,0,0,0,0,0,0,0,0,0,0,0,0,0,0,0,0,0,0,0,0,0,0,0,0,0,0,0,0,0,0,0,0,0,0,0,0,0,0,0,0,0,0,0,0,0,0,0,0,0,0,0,0,0,0,0,0,0,0,0,0,0,0,0,0,0,0,0,9980,9981,9982,9983,9984,9985,9986,9987,9988,9989,9990,9991,9992,9993,9994,9995,9996,9997,9998,9999,10000,10001,10007,10013,10019,10025,10031,10037,10043,10049,10050,10051,10052,10053,10054,10055,10056,10057,10058,10059,10060,0,0,0,0,0,0,0,0,0,0,0,0,0,0,0,0,0,0,0,0,0,0,0,0,0,0,0,0,0,0,0,0,0,0,0,0,0,0,0,0,0,0,0,0,0,0,0,0,0,0,0,0,0,0,0,0,0,0,0,0,0,0,0,0,0,0,0,0,0,0,0,0,0,0,0,0,0,0,0,0,0,0,0,0,0,0,0,0,0,0,0,0,0,0,0,0,0,0,0,0,0,0,0,0,0,0,0,0,0,0,0,0,0,0,0,0,0,0,0,0,0,0,0,0,0,0,0,0,0,0,0,0,0,0,0,0,0,0,0,0,0,0,0,0,0,0,0,0,0,0,0,0,0,0,0,0,0,0,0,0,0,0,0,0,0,0,0,0,0,0,0,0,0,0,0,0,0,0,0,0,0,0,0,0,0,0,0,0,0,0,0,0,0,0,0,0,0,0,0,0,0,0,0,0,0,0,0,0,0,0,0,0,0,0,0,10061,10062,10063,10064,10065,10066,10067,10068,10069,10070,10071,10072,10073,10074,10075,10076,10077,10078,10079,10080,10081,10082,10088,10094,10100,10106,10112,10118,10124,10130,10131,10132,10133,10134,10135,10136,10137,10138,10139,10140,10141,0,0,0,0,0,0,0,0,0,0,0,0,0,0,0,0,0,0,0,0,0,0,0,0,0,0,0,0,0,0,0,0,0,0,0,0,0,0,0,0,0,0,0,0,0,0,0,0,0,0,0,0,0,0,0,0,0,0,0,0,0,0,0,0,0,0,0,0,0,0,0,0,0,0,0,0,0,0,0,0,0,0,0,0,0,0,0,0,0,0,0,0,0,0,0,0,0,0,0,0,0,0,0,0,0,0,0,0,0,0,0,0,0,0,0,0,0,0,0,0,0,0,0,0,0,0,0,0,0,0,0,0,0,0,0,0,0,0,0,0,0,0,0,0,0,0,0,0,0,0,0,0,0,0,0,0,0,0,0,0,0,0,0,0,0,0,0,0,0,0,0,0,0,0,0,0,0,0,0,0,0,0,0,0,0,0,0,0,0,0,0,0,0,0,0,0,0,0,0,0,0,0,0,0,0,0,0,0,0,0,0,0,0,0,0,0,0,0,0,0,0,0,0,0,0,0,0,0,0,0,0,0,0,0,0,0,0,0,0,0,0,0,0,0,0,0,0,0,0,0,0,0,0,0,0,0,0,0,0,0,0,0,0,0,0,0,0,0,0,0,0,0,0,0,0,0,0,0,0,0,0,0,0,0,0,0,0,0,0,0,0,0,0,0,0,0,0,0,0,0,0,0,0,0,0,0,0,0,0,0,0,0,0,0,0,0,0,0,0,0,0,0,0,0,0,0,0,0,0,0,0,0,0,0,0,0,0,0,0,0,0,0,0,0,0,0,0,0,0,0,0,0,0,0,0,0,0,0,0,0,0,0,0,0,0,0,0,0,0,0,0,0,0,0,0,0,0,0,0,0,0,0,0,0,0,0,0,0,0,0,0,0,0,0,0,0,0,0,0,0,0,0,0,0,0,0,0,0,0,0,0,0,0,0,0,0,0,0,0,0,0,0,0,0,0,0,0,0,0,0,0,0,0,0,0,0,0,0,0,0,0,0,0,0,0,0,0,0,0,0,0,0,0,0,0,0,0,0,0,0,0,0,0,0,0,0,0,0,0,0,0,0,0,0,0,0,0,0,0,0,0,0,0,0,0,0,0,0,0,0,0,0,0,0,0,0,0,0,0,0,0,0,0,0,0,0,0,0,0,0,0,0,0,0,0,0,0,0,0,0,0,0,0,0,0,0,0,0,0,0,0,0,0,0,0,0,0,0,0,0,0,0,0,0,0,0,0,0,0,0,0,0,0,0,0,0,0,0,0,0,0,0,0,0,0,0,0,0,0,0,0,0,0,0,0,0,0,0,0,0,0,0,0,0,0,0,0,0,0,0,0,0,0,0,0,0,0,0,0,0,0,0,0,0,0,0,0,0,0,0,0,0,0,0,0,0,0,0,0,0,0,0,0,0,0,0,0,0,0,0,0,0,0,0,0,0,0,0,0,0,0,0,0,0,0,0,0,0,0,0,0,0,0,0,0,0,0,0,0,0,0,0,0,0,0,0,0,0,0,0,0,0,0,0,0,0,0,0,0,0,0,0,0,0,0,0,0,0,0,0,0,0,0,0,0,0,0,0,0,0,0,0,0,0,0,0,0,0,0,0,0,0,0,0,0,0,0,0,0,0,0,0,0,0,0,0,0,0,0,0,0,0,0,0,0,0,0,0,0,0,0,0,0,0,0,0,0,0,0,0,0,0,0,0,0,0,0,0,0,0,0,0,0,0,0,0,0,0,0,0,0,0,0,0,0,0,0,0,0,0,0,0,0,0,0,0,0,0,0,0,0,0,0,0,0,0,0,0,0,0,0,0,0,0,0,0,0,0,0,0,0,0,0,0,0,0,0,0,0,0,0,0,0,0,0,0,0,0,0,0,0,0,0,0,0,0,0,0,0,0,0,0,0,0,0,0,0,0,0,0,0,0,0,0,0,0,0,0,0,0,0,0,0,0,0,0,0,0,0,0,0,0,0,0,0,0,0,0,0,0,0,0,0,0,0,0,0,0,0,0,0,0,0,0,0,0,0,0,0,0,0,0,0,0,0,0,0,0,0,0,0,0,0,0,0,0,0,0,0,0,0,0,0,0,0,0,0,0,0,0,0,0,0,0,0,0,0,0,0,0,0,0,0,0,0,0,0,0,0,0,0,0,0,0,0,0,0,0,0,0,0,0,0,0,0,0,0,0,0,0,0,0,0,0,0,0,0,0,0,0,0,0,0,0,0,0,0,0,0,0,0,0,0,0,0,0,0,0,0,0,0,0,0,0,0,0,0,0,0,0,0,0,0,0,0,0,0,0,0,0,0,0,0,0,0,0,0,0,0,0,0,0,0,0,0,0,0,0,0,0,0,0,0,0,0,0,0,0,0,0,0,0,0,0,0,0,0,0,0,0,0,0,0,0,0,0,0,0,0,0,0,0,0,0,0,0,0,0,0,0,0,0,0,0,0,0,0,0,0,0,0,0,0,0,0,0,0,0,0,0,0,0,0,0,0,0,0,0,0,0,0,0,0,0,0,0,0,0,0,0,0,0,0,0,0,0,0,0,0,0,0,0,0,0,0,0,0,0,0,0,0,0,0,0,0,0,0,0,0,0,0,0,0,0,0,0,0,0,0,0,0,0,0,0,0,0,0,0,0,0,0,0,0,0,0,0,0,0,0,0,0,0,0,0,0,0,0,0,0,0,0,0,0,0,0,0,0,0,0,0,0,0,0,0,0,0,0,0,0,0,0,0,0,0,0,0,0,0,0,0,0,0,0,0,0,0,0,0,0,0,0,0,0,0,0,0,0,0,0,0,0,0,0,0,0,0,0,0,0,0,0,0,0,0,0,0,0,0,0,0,0,0,0,0,0,0,0,0,0,0,0,0,0,0,0,0,0,0,0,0,0,0,0,0,0,0,0,0,0,0,0,0,0,0,0,0,0,0,0,0,0,0,0,0,0,0,0,0,0,0,0,0,0,0,0,0,0,0,0,0,0,0,0,0,0,0,0,0,0,0,0,0,0,0,0,0,0,0,0,0,0,0,0,0,0,0,0,0,0,0,0,0,0,0,0,0,0,0,0,0,0,0,0,0,0,0,0,0,0,0,0,0,0,0,0,0,0,0,0,0,0,0,0,0,0,0,0,0,0,0,0,0,0,0,0,0,0,0,0,0,0,0,0,0,0,0,0,0,0,0,0,0,0,0,0,0,0,0,0,0,0,0,0,0,0,0,0,0,0,0,0,0,0,0,0,0,0,0,0,0,0,0,0,0,0,0,0,0,0,0,0,0,0,0,0,0,0,0,0,0,0,0,0,0,0,0,0,0,0,0,0,0,0,0,0,0,0,0,0,0,0,0,0,0,0,0,0,0,0,0,0,0,0,0,0,0,0,0,0,0,0,0,0,0,0,0,0,0,0,0,0,0,0,0,0,0,0,0,0,0,0,0,0,0,0,0,0,0,0,0,0,0,0,0,0,0,0,0,0,0,0,0,0,0,0,0,0,0,0,0,0,0,0,0,0,0,0,0,0,0,0,0,0,0,0,0,0,0,0,0,0,0,0,0,0,0,0,0,0,0,0,0,0,0,0,0,0,0,0,0,0,0,0,0,0,0,0,0,0,0,0,0,0,0,0,0,0,0,0,0,0,0,0,0,0,0,0,0,0,0,0,0,0,0,0,0,0,0,0,0,0,0,0,0,0,0,0,0,0,0,0,0,0,0,0,0,0,0,0,0,0,0,0,0,0,0,0,0,0,0,0,0,0,0,0,0,0,0,0,0,0,0,0,0,0,0,0,0,0,0,0,0,0,0,0,0,0,0,0,0,0,0,0,0,0,0,0,0,0,0,0,0,0,0,0,0,0,0,0,0,0,0,0,0,0,0,0,0,0,0,0,0,0,0,0,0,0,0,0,0,0,0,0,0,0,0,0,0,0,0,0,0,0,0,0,0,0,0,0,0,0,0,0,0,0,0,0,0,0,0,0,0,0,0,0,0,0,0,0,0,0,0,0,0,0,0,0,0,0,0,0,0,0,0,0,0,0,0,0,0,0,0,0,0,0,0,0,0,0,0,0,0,0,0,0,0,0,0,0,0,0,0,0,0,0,0,0,0,0,0,0,0,0,0,0,0,0,0,0,0,0,0,0,0,0,0,0,0,0,0,0,0,0,0,0,0,0,0,0,0,0,0,0,0,0,0,0,0,0,0,0,0,0,0,0,0,0,0,0,0,0,0,0,0,0,0,0,0,0,0,0,0,0,0,0,0,0,0,0,0,0,0,0,0,0,0,0,0,0,0,0,0,0,0,0,0,0,0,0,0,0,0,0,0,0,0,0,0,0,0,0,0,0,0,0,0,0,0,0,0,0,0,0,0,0,0,0,0,0,0,0,0,0,0,0,0,0,0,0,0,0,0,0,0,0,0,0,0,0,0,0,0,0,0,0,0,0,0,0,0,0,0,0,0,0,0,0,0,0,0,0,0,0,0,0,0,0,0,0,0,0,0,0,0,0,0,0,0,0,0,0,0,0,0,0,0,0,0,0,0,0,0,0,0,0,0,0,0,0,0,0,0,0,0,0,0,0,0,0,0,0,0,0,0,0,0,0,0,0,0,0,0,0,0,0,0,0,0,0,0,0,0,0,0,0,0,0,0,0,0,0,0,0,0,0,0,0,0,0,0,0,0,0,0,0,0,0,0,0,0,0,0,0,0,0,0,0,0,0,0,0,0,0,0,0,0,0,0,0,0,0,0,0,0,0,0,0,0,0,0,0,0,0,0,0,0,0,0,0,0,0,0,0,0,0,0,0,0,0,0,0,0,0,0,0,0,0,0,0,0,0,0,0,0,0,0,0,0,0,0,0,0,0,0,0,0,0,0,0,0,0,0,0,0,0,0,0,0,0,0,0,0,0,0,0,0,0,0,0,0,0,0,0,0,0,0,0,0,0,0,0,0,0,0,0,0,0,0,0,0,0,0,0,0,0,0,0,0,0,0,0,0,0,0,0,0,0,0,0,0,0,0,0,0,0,0,0,0,0,0,0,0,0,0,0,0,0,0,0,0,0,0,0,0,0,0,0,0,0,0,0,0,0,0,0,0,0,0,0,0,0,0,0,0,0,0,0,0,0,0,0,0,0,0,0,0,0,0,0,0,0,0,0,0,0,0,0,0,0,0,0,0,0,0,0,0,0,0,0,0,0,0,0,0,0,0,0,0,0,0,0,0,0,0,0,0,0,0,0,0,0,0,0,0,0,0,0,0,0,0,0,0,0,0,0,0,0,0,0,0,0,0,0,0,0,0,0,0,0,0,0,0,0,0,0,0,0,0,0,0,0,0,0,0,0,0,0,0,0,0,0,0,0,0,0,0,0,0,0,0,0,0,0,0,0,0,0,0,0,0,0,0,0,0,0,0,0,0,0,0,0,0,0,0,0,0,0,0,0,0,0,0,0,0,0,0,0,0,0,0,0,0,0,0,0,0,0,0,0,0,0,0,0,0,0,0,0,0,0,0,0,0,0,0,0,0,0,0,0,0,0,0,0,0,0,0,0,0,0,0,0,0,0,0,0,0,0,0,0,0,0,0,0,0,0,0,0,0,0,0,0,0,0,0,0,0,0,0,0,0,0,0,0,0,0,0,0,0,0,0,0,0,0,0,0,0,0,0,0,0,0,0,0,0,0,0,0,0,0,0,0,0,0,0,0,0,0,0,0,0,0,0,0,0,0,0,0,0,0,0,0,0,0,0,0,0,0,0,0,0,0,0,0,0,0,0,0,0,0,0,0,0,0,0,0,0,0,0,0,0,0,0,0,0,0,0,0,0,0,0,0,0,0,0,0,0,0,0,0,0,0,0,0,0,0,0,0,0,0,0,0,0,0,0,0,0,0,0,0,0,0,0,0,0,0,0,0,0,0,0,0,0,0,0,0,0,0,0,0,0,0,0,0,0,0,0,0,0,0,0,0,0,0,0,0,0,0,0,0,0,0,0,0,0,0,0,0,0,0,0,0,0,0,0,0,0,0,0,0,0,0,0,0,0,0,0,0,0,0,0,0,0,0,0,0,0,0,0,0,0,0,0,0,0,0,0,0,0,0,0,0,0,0,0,0,0,0,0,0,0,0,0,0,0,0,0,0,0,0,0,0,0,0,0,0,0,0,0,0,0,0,0,0,0,0,0,0,0,0,0,0,0,0,0,0,0,0,0,0,0,0,0,0,0,0,0,0,0,0,0,0,0,0,0,0,0,0,0,0,0,0,0,0,0,0,0,0,0,0,0,0,0,0,0,0,0,0,0,0,0,0,0,0,0,0,0,0,0,0,0,0,0,0,0,0,0,0,0,0,0,0,0,0,0,0,0,0,0,0,0,0,0,0,0,0,0,0,0,0,0,0,0,0,0,0,0,0,0,0,0,0,0,0,0,0,0,0,0,0,0,0,0,0,0,0,0,0,0,0,0,0,0,0,0,0,0,0,0,0,0,0,0,0,0,0,0,0,0,0,0,0,0,0,0,0,0,0,0,0,0,0,0,0,0,0,0,0,0,0,0,0,0,0,0,0,0,0,0,0,0,0,0,0,0,0,0,0,0,0,0,0,0,0,0,0,0,0,0,0,0,0,0,0,0,0,0,0,0,0,0,0,0,0,0,0,0,0,0,0,0,0,0,0,0,0,0,0,0,0,0,0,0,0,0,0,0,0,0,0,0,0,0,0,0,0,0,0,0,0,0,0,0,0,0,0,0,0,0,0,0,0,0,0,0,0,0,0,0,0,0,0,0,0,0,0,0,0,0,0,0,0,0,0,0,0,0,0,0,0,0,0,0,0,0,0,0,0,0,0,0,0,0,0,0,0,0,0,0,0,0,0,0,0,0,0,0,0,0,0,0,0,0,0,0,0,0,0,0,0,0,0,0,0,0,0,0,0,0,0,0,0,0,0,0,0,0,0,0,0,0,0,0,0,0,0,0,0,0,0,0,0,0,0,0,0,0,0,0,0,0,0,0,0,0,0,0,0,0,0,0,0,0,0,0,0,0,0,0,0,0,0,0,0,0,0,0,0,0,0,0,0,0,0,0,0,0,0,0,0,0,0,0,0,0,0,0,0,0,0,0,0,0,0,0,0,0,0,0,0,0,0,0,0,0,0,0,0,0,0,0,0,0,0,0,0,0,0,0,0,0,0,0,0,0,0,0,0,0,0,0,0,0,0,0,0,0,0,0,0,0,0,0,0,0,0,0,0,0,0,0,0,0,0,0,0,0,0,0,0,0,0,0,0,0,0,0,0,0,0,0,0,0,0,0,0,0,0,0,0,0,0,0,0,0,0,0,0,0,0,0,0,0,0,0,0,0,0,0,0,0,0,0,0,0,0,0,0,0,0,0,0,0,0,0,0,0,0,0,0,0,0,0,0,0,0,0,0,0,0,0,0,0,0,0,0,0,0,0,0,0,0,0,0,0,0,0,0,0,0,0,0,0,0,0,0,0,0,0,0,0,0,0,0,0,0,0,0,0,0,0,0,0,0,0,0,0,0,0,0,0,0,0,0,0,0,0,0,0,0,0,0,0,0,0,0,0,0,0,0,0,0,0,0,0,0,0,0,0,0,0,0,0,0,0,0,0,0,0,0,0,0,0,0,0,0,0,0,0,0,0,0,0,0,0,0,0,0,0,0,0,0,0,0,0,0,0,0,0,0,0,0,0,0,0,0,0,0,0,0,0,0,0,0,0,0,0,0,0,0,0,0,0,0,0,0,0,0,0,0,0,0,0,0,0,0,0,0,0,0,0,0,0,0,0,0,0,0,0,0,0,0,0,0,0,0,0,0,0,0,0,0,0,0,0,0,0,0,0,0,0,0,0,0,0,0,0,0,0,0,0,0,0,0,0,0,0,0,0,0,0,0,0,0,0,0,0,0,0,0,0,0,0,0,0,0,0,0,0,0,0,0,0,0,0,0,0,0,0,0,0,0,0,0,0,0,0,0,0,0,0,0,0,0,0,0,0,0,0,0,0,0,0,0,0,0,0,0,0,0,0,0,0,0,0,0,0,0,0,0,0,0,0,0,0,0,0,0,0,0,0,0,0,0,0,0,0,0,0,0,0,0,0,0,0,0,0,0,0,0,0,0,0,0,0,0,0,0,0,0,0,0,0,0,0,0,0,0,0,0,0,0,0,0,0,0,0,0,0,0,0,0,0,0,0,0,0,0,0,0,0,0,0,0,0,0,0,0,0,0,0,0,0,0,0,0,0,0,0,0,0,0,0,0,0,0,0,0,0,0,0,0,0,0,0,0,0,0,0,0,0,0,0,0,0,0,0,0,0,0,0,0,0,0,0,0,0,0,0,0,0,0,0,0,0,0,0,0,0,0,0,0,0,0,0,0,0,0,0,0,0,0,0,0,0,0,0,0,0,0,0,0,0,0,0,0,0,0,0,0,0,0,0,0,0,0,0,0,0,0,0,0,0,0,0,0,0,0,0,0,0,0,0,0,0,0,0,0,0,0,0,0,0,0,0,0,0,0,0,0,0,0,0,0,0,0,0,0,0,0,0,0,0,0,0,0,0,0,0,0,0,0,0,0,0,0,0,0,0,0,0,0,0,0,0,0,0,0,0,0,0,0,0,0,0,0,0,0,0,0,0,0,0,0,0,0,0,0,0,0,0,0,0,0,0,0,0,0,0,0,0,0,0,0,0,0,0,0,0,0,0,0,0,0,0,0,0,0,0,0,0,0,0,0,0,0,0,0,0,0,0,0,0,0,0,0,0,0,0,0,0,0,0,0,0,0,0,0,0,0,0,0,0,0,0,0,0,0,0,0,0,0,0,0,0,0,0,0,0,0,0,0,0,0,0,0,0,0,0,0,0,0,0,0,0,0,0,0,0,0,0,0,0,0,0,0,0,0,0,0,0,0,0,0,0,0,0,0,0,0,0,0,0,0,0,0,0,0,0,0,0,0,0,0,0,0,0,0,0,0,0,0,0,0,0,0,0,0,0,0,0,0,0,0,0,0,0,0,0,0,0,0,0,0,0,0,0,0,0,0,0,0,0,0,0,0,0,0,0,0,0,0,0,0,0,0,0,0,0,0,0,0,0,0,0,0,0,0,0,0,0,0,0,0,0,0,0,0,0,0,0,0,0,0,0,0,0,0,0,0,0,0,0,0,0,0,0,0,0,0,0,0,0,0,0,0,0,0,0,0,0,0,0,0,0,0,0,0,0,0,0,0,0,0,0,0,0,0,0,0,0,0,0,0,0,0,0,0,0,0,0,0,0,0,0,0,0,0,0,0,0,0,0,0,0,0,0,0,0,0,0,0,0,0,0,0,0,0,0,0,0,0,0,0,0,0,0,0,0,0,0,0,0,0,0,0,0,0,0,0,0,0,0,0,0,0,0,0,0,0,0,0,0,0,0,0,0,0,0,0,0,0,0,0,0,0,0,0,0,0,0,0,0,0,0,0,0,0,0,0,0,0,0,0,0,0,0,0,0,0,0,0,0,0,0,0,0,0,0,0,0,0,0,0,0,0,0,0,0,0,0,0,0,0,0,0,0,0,0,0,0,0,0,0,0,0,0,0,0,0,0,0,0,0,0,0,0,0,0,0,0,0,0,0,0,0,0,0,0,0,0,0,0,0,0,0,0,0,0,0,0,0,0,0,0,0,0,0,0,0,0,0,0,0,0,0,0,0,0,0,0,0,0,0,0,0,0,0,0,0,0,0,0,0,0,0,0,0,0,0,0,0,0,0,0,0,0,0,0,0,0,0,0,0,0,0,0,0,0,0,0,0,0,0,0,0,0,0,0,0,0,0,0,0,0,0,0,0,0,0,0,0,0,0,0,0,0,0,0,0,0,0,0,0,0,0,0,0,0,0,0,0,0,0,0,0,0,0,0,0,0,0,0,0,0,0,0,0,0,0,0,0,0,0,0,0,0,0,0,0,0,0,0,0,0,0,0,0,0,0,0,0,0,0,0,0,0,0,0,0,0,0,0,0,0,0,0,0,0,0,0,0,0,0,0,0,0,0,0,0,0,0,0,0,0,0,0,0,0,0,0,0,0,0,0,0,0,0,0,0,0,0,0,0,0,0,0,0,0,0,0,0,0,0,0,0,0,0,0,0,0,0,0,0,0,0,0,0,0,0,0,0,0,0,0,0,0,0,0,0,0,0,0,0,0,0,0,0,0,0,0,0,0,0,0,0,0,0,0,0,0,0,0,0,0,0,0,0,0,0,0,0,0,0,0,0,0,0,0,0,0,0,0,0,0,0,0,0,0,0,0,0,0,0,0,0,0,0,0,0,0,0,0,0,0,0,0,0,0,0,0,0,0,0,0,0,0,0,0,0,0,0,0,0,0,0,0,0,0,0,0,0,0,0,0,0,0,0,0,0,0,0,0,0,0,0,0,0,0,0,0,0,0,0,0,0,0,0,0,0,0,0,0,0,0,0,0,0,0,0,0,0,0,0,0,0,0,0,0,0,0,0,0,0,0,0,0,0,0,0,0,0,0,0,0,0,0,0,0,0,0,0,0,0,0,0,0,0,0,0,0,0,0,0,0,0,0,0,0,0,0,0,0,0,0,0,0,0,0,0,0,0,0,0,0,0,0,0,0,0,0,0,0,0,0,0,0,0,0,0,0,0,0,0,0,0,0,0,0,0,0,0,0,0,0,0,0,0,0,0,0,0,0,0,0,0,0,0,0,0,0,0,0,0,0,0,0,0,0,0,0,0,0,0,0,0,0,0,0,0,0,0,0,0,0,0,0,0,0,0,0,0,0,0,0,0,0,0,0,0,0,0,0,0,0,0,0,0,0,0,0,0,0,0,0,0,0,0,0,0,0,0,0,0,0,0,0,0,0,0,0,0,0,0,0,0,0,0,0,0,0,0,0,0,0,0,0,0,0,0,0,0,0,0,0,0,0,0,0,0,0,0,0,0,0,0,0,0,0,0,0,0,0,0,0,0,0,0,0,0,0,0,0,0,0,0,0,0,0,0,0,0,0,0,0,0,0,0,0,0,0,0,0,0,0,0,0,0,0,0,0,0,0,0,0,0,0,0,0,0,0,0,0,0,0,0,0,0,0,0,0,0,0,0,0,0,0,0,0,0,0,0,0,0,0,0,0,0,0,0,0,0,0,0,0,0,0,0,0,0,0,0,0,0,0,0,0,0,0,0,0,0,0,0,0,0,0,0,0,0,0,0,0,0,0,0,0,0,0,0,0,0,0,0,0,0,0,0,0,0,0,0,0,0,0,0,0,0,0,0,0,0,0,0,0,0,0,0,0,0,0,0,0,0,0,0,0,0,0,0,0,0,0,0,0,0,0,0,0,0,0,0,0,0,0,0,0,0,0,0,0,0,0,0,0,0,0,0,0,0,0,0,0,0,0,0,0,0,0,0,0,0,0,0,0,0,0,0,0,0,0,0,0,0,0,0,0,0,0,0,0,0,0,0,0,0,0,0,0,0,0,0,0,0,0,0,0,0,0,0,0,0,0,0,0,0,0,0,0,0,0,0,0,0,0,0,0,0,0,0,0,0,0,0,0,0,0,0,0,0,0,0,0,0,0,0,0,0,0,0,0,0,0,0,0,0,0,0,0,0,0,0,0,0,0,0,0,0,0,0,0,0,0,0,0,0,0,0,0,0,0,0,0,0,0,0,0,0,0,0,0,0,0,0,0,0,0,0,0,0,0,0,0,0,0,0,0,0,0,0,0,0,0,0,0,0,0,0,0,0,0,0,0,0,0,0,0,0,0,0,0,0,0,0,0,0,0,0,0,0,0,0,0,0,0,0,0,0,0,0,0,0,0,0,0,0,0,0,0,0,0,0,0,0,0,0,0,0,0,0,0,0,0,0,0,0,0,0,0,0,0,0,0,0,0,0,0,0,0,0,0,0,0,0,0,0,0,0,0,0,0,0,0,0,0,0,0,0,0,0,0,0,0,0,0,0,0,0,0,0,0,0,0,0,0,0,0,0,0,0,0,0,0,0,0,0,0,0,0,0,0,0,0,0,0,0,0,0,0,0,0,0,0,0,0,0,0,0,0,0,0,0,0,0,0,0,0,0,0,0,0,0,0,0,0,0,0,0,0,0,0,0,0,0,0,0,0,0,0,0,0,0,0,0,0,0,0,0,0,0,0,0,0,0,0,0,0,0,0,0,0,0,0,0,0,0,0,0,0,0,0,0,0,0,0,0,0,0,0,0,0,0,0,0,0,0,0,0,0,0,0,0,0,0,0,0,0,0,0,0,0,0,0,0,0,0,0,0,0,0,0,0,0,0,0,0,0,0,0,0,0,0,0,0,0,0,0,0,0,0,0,0,0,0,0,0,0,0,0,0,0,0,0,0,0,0,0,0,0,0,0,0,0,0,0,0,0,0,0,0,0,0,0,0,0,0,0,0,0,0,0,0,0,0,0,0,0,0,0,0,0,0,0,0,0,0,0,0,0,0,0,0,0,0,0,0,0,0,0,0,0,0,0,0,0,0,0,0,0,0,0,0,0,0,0,0,0,0,0,0,0,0,0,0,0,0,0,0,0,0,0,0,0,0,0,0,0,0,0,0,0,0,0,0,0,0,0,0,0,0,0,0,0,0,0,0,0,0,0,0,0,0,0,0,0,0,0,0,0,0,0,0,0,0,0,0,0,0,0,0,0,0,0,0,0,0,0,0,0,0,0,0,0,0,0,0,0,0,0,0,0,0,0,0,0,0,0,0,0,0,0,0,0,0,0,0,0,0,0,0,0,0,0,0,0,0,0,0,0,0,0,0,0,0,0,0,0,0,0,0,0,0,0,0,0,0,0,0,0,0,0,0,0,0,0,0,0,0,0,0,0,0,0,0,0,0,0,0,0,0,0,0,0,0,0,0,0,0,0,0,0,0,0,0,0,0,0,0,0,0,0,0,0,0,0,0,0,0,0,0,0,0,0,0,0,0,0,0,0,0,0,0,0,0,0,0,0,0,0,0,0,0,0,0,0,0,0,0,0,0,0,0,0,0,0,0,0,0,0,0,0,0,0,0,0,0,0,0,0,0,0,0,0,0,0,0,0,0,0,0,0,0,0,0,0,0,0,0,0,0,0,0,0,0,0,0,0,0,0,0,0,0,0,0,0,0,0,0,0,0,0,0,0,0,0,0,0,0,0,0,0,0,0,0,0,0,0,0,0,0,0,0,0,0,0,0,0,0,0,0,0,0,0,0,0,0,0,0,0,0,0,0,0,0,0,0,0,0,0,0,0,0,0,0,0,0,0,0,0,0,0,0,0,0,0,0,0,0,0,0,0,0,0,0,0,0,0,0,0,0,0,0,0,0,0,0,0,0,0,0,0,0,0,0,0,0,0,0,0,0,0,0,0,0,0,0,0,0,0,0,0,0,0,0,0,0,0,0,0,0,0,0,0,0,0,0,0,0,0,0,0,0,0,0,0,0,0,0,0,0,0,0,0,0,0,0,0,0,0,0,0,0,0,0,0,0,0,0,0,0,0,0,0,0,0,0,0,0,0,0,0,0,0,0,0,0,0,0,0,0,0,0,0,0,0,0,0,0,0,0,0,0,0,0,0,0,0,0,0,0,0,0,0,0,0,0,0,0,0,0,0,0,0,0,0,0,0,0,0,0,0,0,0,0,0,0,0,0,0,0,0,0,0,0,0,0,0,0,0,0,0,0,0,0,0,0,0,0,0,0,0,0,0,0,0,0,0,0,0,0,0,0,0,0,0,0,0,0,0,0,0,0,0,0,0,0,0,0,0,0,0,0,0,0,0,0,0,0,0,0,0,0,0,0,0,0,0,0,0,0,0,0,0,0,0,0,0,0,0,0,0,0,0,0,0,0,0,0,0,0,0,0,0,0,0,0,0,0,0,0,0,0,0,0,0,0,0,0,0,0,0,0,0,0,0,0,0,0,0,0,0,0,0,0,0,0,0,0,0,0,0,0,0,0,0,0,0,0,0,0,0,0,0,0,0,0,0,0,0,0,0,0,0,0,0,0,0,0,0,0,0,0,0,0,0,0,0,0,0,0,0,0,0,0,0,0,0,0,0,0,0,0,0,0,0,0,0,0,0,0,0,0,0,0,0,0,0,0,0,0,0,0,0,0,0,0,0,0,0,0,0,0,0,0,0,0,0,0,0,0,0,0,0,0,0,0,0,0,0,0,0,0,0,0,0,0,0,0,0,0,0,0,0,0,0,0,0,0,0,0,0,0,0,0,0,0,0,0,0,0,0,0,0,0,0,0,0,0,0,0,0,0,0,0,0,0,0,0,0,0,0,0,0,0,0,0,0,0,0,0,0,0,0,0,0,0,0,0,0,0,0,0,0,0,0,0,0,0,0,0,0,0,0,0,0,0,0,0,0,0,0,0,0,0,0,0,0,0,0,0,0,0,0,0,0,0,0,0,0,0,0,0,0,0,0,0,0,0,0,0,0,0,0,0,0,0,0,0,0,0,0,0,0,0,0,0,0,0,0,0,0,0,0,0,0,0,0,0,0,0,0,0,0,0,0,0,0,0,0,0,0,0,0,0,0,0,0,0,0,0,0,0,0,0,0,0,0,0,0,0,0,0,0,0,0,0,0,0,0,0,0,0,0,0,0,0,0,0,0,0,0,0,0,0,0,0,0,0,0,0,0,0,0,0,0,0,0,0,0,0,0,0,0,0,0,0,0,0,0,0,0,0,0,0,0,0,0,0,0,0,0,0,0,0,0,0,0,0,0,0,0,0,0,0,0,0,0,0,0,0,0,0,0,0,0,0,0,0,0,0,0,0,0,0,0,0,0,0,0,0,0,0,0,0,0,0,0,0,0,0,0,0,0,0,0,0,0,0,0,0,0,0,0,0,0,0,0,0,0,0,0,0,0,0,0,0,0,0,0,0,0,0,0,0,0,0,0,0,0,0,0,0,0,0,0,0,0,0,0,0,0,0,0,0,0,0,0,0,0,0,0,0,0,0,0,0,0,0,0,0,0,0,0,0,0,0,0,0,0,0,0,0,0,0,0,0,0,0,0,0,0,0,0,0,0,0,0,0,0,0,0,0,0,0,0,0,0,0,0,0,0,0,0,0,0,0,0,0,0,0,0,0,0,0,0,0,0,0,0,0,0,0,0,0,0,0,0,0,0,0,0,0,0,0,0,0,0,0,0,0,0,0,0,0,0,0,0,0,0,0,0,0,0,0,0,0,0,0,0,0,0,0,0,0,0,0,0,0,0,0,0,0,0,0,0,0,0,0,0,0,0,0,0,0,0,0,0,0,0,0,0,0,0,0,0,0,0,0,0,0,0,0,0,0,0,0,0,0,0,0,0,0,0,0,0,0,0,0,0,0,0,0,0,0,0,0,0,0,0,0,0,0,0,0,0,0,0,0,0,0,0,0,0,0,0,0,0,0,0,0,0,0,0,0,0,0,0,0,0,0,0,0,0,0,0,0,0,0,0,0,0,0,0,0,0,0,0,0,0,0,0,0,0,0,0,0,0,0,0,0,0,0,0,0,0,0,0,0,0,0,0,0,9620,9621,9622,9628,9634,9640,9646,9652,9658,9664,0,0,0,0,0,0,0,0,0,0,0,0,0,0,0,0,0,0,0,0,0,0,0,0,0,0,0,0,0,0,0,0,0,0,0,0,0,0,0,0,0,0,0,0,0,0,0,0,0,0,0,0,0,0,0,0,0,0,0,0,0,0,0,0,0,0,0,0,0,0,0,0,0,0,0,0,0,0,0,0,0,0,0,0,0,0,0,0,0,0,0,0,0,0,0,0,0,0,0,0,0,0,0,0,0,0,0,0,0,0,0,0,0,0,0,0,0,0,0,0,0,0,0,0,0,0,0,0,0,0,0,0,0,0,0,0,0,0,0,0,0,0,0,0,0,0,0,0,0,0,0,0,0,0,0,0,0,0,0,0,0,0,0,0,0,0,0,0,0,0,0,0,0,0,0,0,0,0,0,0,0,0,0,0,0,0,0,0,0,0,0,0,0,0,0,0,0,0,0,0,0,0,0,0,0,0,0,0,0,0,0,0,0,0,0,0,0,0,0,0,0,0,0,0,0,0,0,0,0,0,0,0,0,0,0,0,0,0,0,0,0,0,0,0,0,0,9696,9697,9698,9704,9710,9716,9722,9728,9734,9735,0,0,0,0,0,0,0,0,0,0,0,0,0,0,0,0,0,0,0,0,0,0,0,0,0,0,0,0,0,0,0,0,0,0,0,0,0,0,0,0,0,0,0,0,0,0,0,0,0,0,0,0,0,0,0,0,0,0,0,0,0,0,0,0,0,0,0,0,0,0,0,0,0,0,0,0,0,0,0,0,0,0,0,0,0,0,0,0,0,0,0,0,0,0,0,0,0,0,0,0,0,0,0,0,0,0,0,0,0,0,0,0,0,0,0,0,0,0,0,0,0,0,0,0,0,0,0,0,0,0,0,0,0,0,0,0,0,0,0,0,0,0,0,0,0,0,0,0,0,0,0,0,0,0,0,0,0,0,0,0,0,0,0,0,0,0,0,0,0,0,0,0,0,0,0,0,0,0,0,0,0,0,0,0,0,0,0,0,0,0,0,0,0,0,0,0,0,0,0,0,0,0,0,0,0,0,0,0,0,0,0,0,0,0,0,0,0,0,0,0,0,0,0,0,0,0,0,0,0,0,0,0,0,0,0,0,0,0,0,0,0,0,0,0,0,0,9620,9621,9622,9628,9634,9640,9646,9652,9658,9664,0,0,0,0,0,0,0,0,0,0,0,0,0,0,0,0,0,0,0,0,0,0,0,0,0,0,0,0,0,0,0,0,0,0,0,0,0,0,0,0,0,0,0,0,0,0,0,0,0,0,0,0,0,0,0,0,0,0,0,0,0,0,0,0,0,0,0,0,0,0,0,0,0,0,0,0,0,0,0,0,0,0,0,0,0,0,0,0,0,0,0,0,0,0,0,0,0,0,0,0,0,0,0,0,0,0,0,0,0,0,0,0,0,0,0,0,0,0,0,0,0,0,0,0,0,0,0,0,0,0,0,0,0,0,0,0,0,0,0,0,0,0,0,0,0,0,0,0,0,0,0,0,0,0,0,0,0,0,0,0,0,0,0,0,0,0,0,0,0,0,0,0,0,0,0,0,0,0,0,0,0,0,0,0,0,0,0,0,0,0,0,0,0,0,0,0,0,0,0,0,0,0,0,0,0,0,0,0,0,0,0,0,0,0,0,0,0,0,0,0,0,0,0,0,0,0,0,0,0,0,0,0,0,0,0,0,0,0,0,0,0,0,0,0,0,0,9696,9697,9698,9704,9710,9716,9722,9728,9734,9735,0,0,0,0,0,0,0,0,0,0,0,0,0,0,0,0,0,0,0,0,0,0,0,0,0,0,0,0,0,0,0,0,0,0,0,0,0,0,0,0,0,0,0,0,0,0,0,0,0,0,0,0,0,0,0,0,0,0,0,0,0,0,0,0,0,0,0,0,0,0,0,0,0,0,0,0,0,0,0,0,0,0,0,0,0,0,0,0,0,0,0,0,0,0,0,0,0,0,0,0,0,0,0,0,0,0,0,0,0,0,0,0,0,0,0,0,0,0,0,0,0,0,0,0,0,0,0,0,0,0,0,0,0,0,0,0,0,0,0,0,0,0,0,0,0,0,0,0,0,0,0,0,0,0,0,0,0,0,0,0,0,0,0,0,0,0,0,0,0,0,0,0,0,0,0,0,0,0,0,0,0,0,0,0,0,0,0,0,0,0,0,0,0,0,0,0,0,0,0,0,0,0,0,0,0,0,0,0,0,0,0,0,0,0,0,0,0,0,0,0,0,0,0,0,0,0,0,0,0,0,0,0,0,0,0,0,0,0,0,0,0,0,0,0,0,0,9620,9621,9622,9628,9634,9640,9646,9652,9658,9664,0,0,0,0,0,0,0,0,0,0,0,0,0,0,0,0,0,0,0,0,0,0,0,0,0,0,0,0,0,0,0,0,0,0,0,0,0,0,0,0,0,0,0,0,0,0,0,0,0,0,0,0,0,0,0,0,0,0,0,0,0,0,0,0,0,0,0,0,0,0,0,0,0,0,0,0,0,0,0,0,0,0,0,0,0,0,0,0,0,0,0,0,0,0,0,0,0,0,0,0,0,0,0,0,0,0,0,0,0,0,0,0,0,0,0,0,0,0,0,0,0,0,0,0,0,0,0,0,0,0,0,0,0,0,0,0,0,0,0,0,0,0,0,0,0,0,0,0,0,0,0,0,0,0,0,0,0,0,0,0,0,0,0,0,0,0,0,0,0,0,0,0,0,0,0,0,0,0,0,0,0,0,0,0,0,0,0,0,0,0,0,0,0,0,0,0,0,0,0,0,0,0,0,0,0,0,0,0,0,0,0,0,0,0,0,0,0,0,0,0,0,0,0,0,0,0,0,0,0,0,0,0,0,0,0,0,0,0,0,0,0,0,0,0,0,0,9696,9697,9698,9704,9710,9716,9722,9728,9734,9735,0,0,0,0,0,0,0,0,0,0,0,0,0,0,0,0,0,0,0,0,0,0,0,0,0,0,0,0,0,0,0,0,0,0,0,0,0,0,0,0,0,0,0,0,0,0,0,0,0,0,0,0,0,0,0,0,0,0,0,0,0,0,0,0,0,0,0,0,0,0,0,0,0,0,0,0,0,0,0,0,0,0,0,0,0,0,0,0,0,0,0,0,0,0,0,0,0,0,0,0,0,0,0,0,0,0,0,0,0,0,0,0,0,0,0,0,0,0,0,0,0,0,0,0,0,0,0,0,0,0,0,0,0,0,0,0,0,0,0,0,0,0,0,0,0,0,0,0,0,0,0,0,0,0,0,0,0,0,0,0,0,0,0,0,0,0,0,0,0,0,0,0,0,0,0,0,0,0,0,0,0,0,0,0,0,0,0,0,0,0,0,0,0,0,0,0,0,0,0,0,0,0,0,0,0,0,0,0,0,0,0,0,0,0,0,0,0,0,0,0,0,0,0,0,0,0,0,0,0,0,0,0,0,0,0,0,0,0,0,0,0,0,0,0,0,0,9620,9621,9622,9628,9634,9640,9646,9652,9658,9664,0,0,0,0,0,0,0,0,0,0,0,0,0,0,0,0,0,0,0,0,0,0,0,0,0,0,0,0,0,0,0,0,0,0,0,0,0,0,0,0,0,0,0,0,0,0,0,0,0,0,0,0,0,0,0,0,0,0,0,0,0,0,0,0,0,0,0,0,0,0,0,0,0,0,0,0,0,0,0,0,0,0,0,0,0,0,0,0,0,0,0,0,0,0,0,0,0,0,0,0,0,0,0,0,0,0,0,0,0,0,0,0,0,0,0,0,0,0,0,0,0,0,0,0,0,0,0,0,0,0,0,0,0,0,0,0,0,0,0,0,0,0,0,0,0,0,0,0,0,0,0,0,0,0,0,0,0,0,0,0,0,0,0,0,0,0,0,0,0,0,0,0,0,0,0,0,0,0,0,0,0,0,0,0,0,0,0,0,0,0,0,0,0,0,0,0,0,0,0,0,0,0,0,0,0,0,0,0,0,0,0,0,0,0,0,0,0,0,0,0,0,0,0,0,0,0,0,0,0,0,0,0,0,0,0,0,0,0,0,0,0,0,0,0,0,0,9696,9697,9698,9704,9710,9716,9722,9728,9734,9735,0,0,0,0,0,0,0,0,0,0,0,0,0,0,0,0,0,0,0,0,0,0,0,0,0,0,0,0,0,0,0,0,0,0,0,0,0,0,0,0,0,0,0,0,0,0,0,0,0,0,0,0,0,0,0,0,0,0,0,0,0,0,0,0,0,0,0,0,0,0,0,0,0,0,0,0,0,0,0,0,0,0,0,0,0,0,0,0,0,0,0,0,0,0,0,0,0,0,0,0,0,0,0,0,0,0,0,0,0,0,0,0,0,0,0,0,0,0,0,0,0,0,0,0,0,0,0,0,0,0,0,0,0,0,0,0,0,0,0,0,0,0,0,0,0,0,0,0,0,0,0,0,0,0,0,0,0,0,0,0,0,0,0,0,0,0,0,0,0,0,0,0,0,0,0,0,0,0,0,0,0,0,0,0,0,0,0,0,0,0,0,0,0,0,0,0,0,0,0,0,0,0,0,0,0,0,0,0,0,0,0,0,0,0,0,0,0,0,0,0,0,0,0,0,0,0,0,0,0,0,0,0,0,0,0,0,0,0,0,0,0,0,0,0,0,0,9620,9621,9622,9628,9634,9640,9646,9652,9658,9664,0,0,0,0,0,0,0,0,0,0,0,0,0,0,0,0,0,0,0,0,0,0,0,0,0,0,0,0,0,0,0,0,0,0,0,0,0,0,0,0,0,0,0,0,0,0,0,0,0,0,0,0,0,0,0,0,0,0,0,0,0,0,0,0,0,0,0,0,0,0,0,0,0,0,0,0,0,0,0,0,0,0,0,0,0,0,0,0,0,0,0,0,0,0,0,0,0,0,0,0,0,0,0,0,0,0,0,0,0,0,0,0,0,0,0,0,0,0,0,0,0,0,0,0,0,0,0,0,0,0,0,0,0,0,0,0,0,0,0,0,0,0,0,0,0,0,0,0,0,0,0,0,0,0,0,0,0,0,0,0,0,0,0,0,0,0,0,0,0,0,0,0,0,0,0,0,0,0,0,0,0,0,0,0,0,0,0,0,0,0,0,0,0,0,0,0,0,0,0,0,0,0,0,0,0,0,0,0,0,0,0,0,0,0,0,0,0,0,0,0,0,0,0,0,0,0,0,0,0,0,0,0,0,0,0,0,0,0,0,0,0,0,0,0,0,0,9696,9697,9698,9704,9710,9716,9722,9728,9734,9735,0,0,0,0,0,0,0,0,0,0,0,0,0,0,0,0,0,0,0,0,0,0,0,0,0,0,0,0,0,0,0,0,0,0,0,0,0,0,0,0,0,0,0,0,0,0,0,0,0,0,0,0,0,0,0,0,0,0,0,0,0,0,0,0,0,0,0,0,0,0,0,0,0,0,0,0,0,0,0,0,0,0,0,0,0,0,0,0,0,0,0,0,0,0,0,0,0,0,0,0,0,0,0,0,0,0,0,0,0,0,0,0,0,0,0,0,0,0,0,0,0,0,0,0,0,0,0,0,0,0,0,0,0,0,0,0,0,0,0,0,0,0,0,0,0,0,0,0,0,0,0,0,0,0,0,0,0,0,0,0,0,0,0,0,0,0,0,0,0,0,0,0,0,0,0,0,0,0,0,0,0,0,0,0,0,0,0,0,0,0,0,0,0,0,0,0,0,0,0,0,0,0,0,0,0,0,0,0,0,0,0,0,0,0,0,0,0,0,0,0,0,0,0,0,0,0,0,0,0,0,0,0,0,0,0,0,0,0,0,0,0,0,0,0,0,0,9620,9621,9622,9628,9634,9640,9646,9652,9658,9664,0,0,0,0,0,0,0,0,0,0,0,0,0,0,0,0,0,0,0,0,0,0,0,0,0,0,0,0,0,0,0,0,0,0,0,0,0,0,0,0,0,0,0,0,0,0,0,0,0,0,0,0,0,0,0,0,0,0,0,0,0,0,0,0,0,0,0,0,0,0,0,0,0,0,0,0,0,0,0,0,0,0,0,0,0,0,0,0,0,0,0,0,0,0,0,0,0,0,0,0,0,0,0,0,0,0,0,0,0,0,0,0,0,0,0,0,0,0,0,0,0,0,0,0,0,0,0,0,0,0,0,0,0,0,0,0,0,0,0,0,0,0,0,0,0,0,0,0,0,0,0,0,0,0,0,0,0,0,0,0,0,0,0,0,0,0,0,0,0,0,0,0,0,0,0,0,0,0,0,0,0,0,0,0,0,0,0,0,0,0,0,0,0,0,0,0,0,0,0,0,0,0,0,0,0,0,0,0,0,0,0,0,0,0,0,0,0,0,0,0,0,0,0,0,0,0,0,0,0,0,0,0,0,0,0,0,0,0,0,0,0,0,0,0,0,0,9696,9697,9698,9704,9710,9716,9722,9728,9734,9735,0,0,0,0,0,0,0,0,0,0,0,0,0,0,0,0,0,0,0,0,0,0,0,0,0,0,0,0,0,0,0,0,0,0,0,0,0,0,0,0,0,0,0,0,0,0,0,0,0,0,0,0,0,0,0,0,0,0,0,0,0,0,0,0,0,0,0,0,0,0,0,0,0,0,0,0,0,0,0,0,0,0,0,0,0,0,0,0,0,0,0,0,0,0,0,0,0,0,0,0,0,0,0,0,0,0,0,0,0,0,0,0,0,0,0,0,0,0,0,0,0,0,0,0,0,0,0,0,0,0,0,0,0,0,0,0,0,0,0,0,0,0,0,0,0,0,0,0,0,0,0,0,0,0,0,0,0,0,0,0,0,0,0,0,0,0,0,0,0,0,0,0,0,0,0,0,0,0,0,0,0,0,0,0,0,0,0,0,0,0,0,0,0,0,0,0,0,0,0,0,0,0,0,0,0,0,0,0,0,0,0,0,0,0,0,0,0,0,0,0,0,0,0,0,0,0,0,0,0,0,0,0,0,0,0,0,0,0,0,0,0,0,0,0,0,0,9620,9621,9622,9628,9634,9640,9646,9652,9658,9664,0,0,0,0,0,0,0,0,0,0,0,0,0,0,0,0,0,0,0,0,0,0,0,0,0,0,0,0,0,0,0,0,0,0,0,0,0,0,0,0,0,0,0,0,0,0,0,0,0,0,0,0,0,0,0,0,0,0,0,0,0,0,0,0,0,0,0,0,0,0,0,0,0,0,0,0,0,0,0,0,0,0,0,0,0,0,0,0,0,0,0,0,0,0,0,0,0,0,0,0,0,0,0,0,0,0,0,0,0,0,0,0,0,0,0,0,0,0,0,0,0,0,0,0,0,0,0,0,0,0,0,0,0,0,0,0,0,0,0,0,0,0,0,0,0,0,0,0,0,0,0,0,0,0,0,0,0,0,0,0,0,0,0,0,0,0,0,0,0,0,0,0,0,0,0,0,0,0,0,0,0,0,0,0,0,0,0,0,0,0,0,0,0,0,0,0,0,0,0,0,0,0,0,0,0,0,0,0,0,0,0,0,0,0,0,0,0,0,0,0,0,0,0,0,0,0,0,0,0,0,0,0,0,0,0,0,0,0,0,0,0,0,0,0,0,0,9696,9697,9698,9704,9710,9716,9722,9728,9734,9735,0,0,0,0,0,0,0,0,0,0,0,0,0,0,0,0,0,0,0,0,0,0,0,0,0,0,0,0,0,0,0,0,0,0,0,0,0,0,0,0,0,0,0,0,0,0,0,0,0,0,0,0,0,0,0,0,0,0,0,0,0,0,0,0,0,0,0,0,0,0,0,0,0,0,0,0,0,0,0,0,0,0,0,0,0,0,0,0,0,0,0,0,0,0,0,0,0,0,0,0,0,0,0,0,0,0,0,0,0,0,0,0,0,0,0,0,0,0,0,0,0,0,0,0,0,0,0,0,0,0,0,0,0,0,0,0,0,0,0,0,0,0,0,0,0,0,0,0,0,0,0,0,0,0,0,0,0,0,0,0,0,0,0,0,0,0,0,0,0,0,0,0,0,0,0,0,0,0,0,0,0,0,0,0,0,0,0,0,0,0,0,0,0,0,0,0,0,0,0,0,0,0,0,0,0,0,0,0,0,0,0,0,0,0,0,0,0,0,0,0,0,0,0,0,0,0,0,0,0,0,0,0,0,0,0,0,0,0,0,0,0,0,0,0,0,0,9620,9621,9622,9628,9634,9640,9646,9652,9658,9664,0,0,0,0,0,0,0,0,0,0,0,0,0,0,0,0,0,0,0,0,0,0,0,0,0,0,0,0,0,0,0,0,0,0,0,0,0,0,0,0,0,0,0,0,0,0,0,0,0,0,0,0,0,0,0,0,0,0,0,0,0,0,0,0,0,0,0,0,0,0,0,0,0,0,0,0,0,0,0,0,0,0,0,0,0,0,0,0,0,0,0,0,0,0,0,0,0,0,0,0,0,0,0,0,0,0,0,0,0,0,0,0,0,0,0,0,0,0,0,0,0,0,0,0,0,0,0,0,0,0,0,0,0,0,0,0,0,0,0,0,0,0,0,0,0,0,0,0,0,0,0,0,0,0,0,0,0,0,0,0,0,0,0,0,0,0,0,0,0,0,0,0,0,0,0,0,0,0,0,0,0,0,0,0,0,0,0,0,0,0,0,0,0,0,0,0,0,0,0,0,0,0,0,0,0,0,0,0,0,0,0,0,0,0,0,0,0,0,0,0,0,0,0,0,0,0,0,0,0,0,0,0,0,0,0,0,0,0,0,0,0,0,0,0,0,0,9696,9697,9698,9704,9710,9716,9722,9728,9734,9735,0,0,0,0,0,0,0,0,0,0,0,0,0,0,0,0,0,0,0,0,0,0,0,0,0,0,0,0,0,0,0,0,0,0,0,0,0,0,0,0,0,0,0,0,0,0,0,0,0,0,0,0,0,0,0,0,0,0,0,0,0,0,0,0,0,0,0,0,0,0,0,0,0,0,0,0,0,0,0,0,0,0,0,0,0,0,0,0,0,0,0,0,0,0,0,0,0,0,0,0,0,0,0,0,0,0,0,0,0,0,0,0,0,0,0,0,0,0,0,0,0,0,0,0,0,0,0,0,0,0,0,0,0,0,0,0,0,0,0,0,0,0,0,0,0,0,0,0,0,0,0,0,0,0,0,0,0,0,0,0,0,0,0,0,0,0,0,0,0,0,0,0,0,0,0,0,0,0,0,0,0,0,0,0,0,0,0,0,0,0,0,0,0,0,0,0,0,0,0,0,0,0,0,0,0,0,0,0,0,0,0,0,0,0,0,0,0,0,0,0,0,0,0,0,0,0,0,0,0,0,0,0,0,0,0,0,0,0,0,0,0,0,0,0,0,0,9620,9621,9622,9628,9634,9640,9646,9652,9658,9664,0,0,0,0,0,0,0,0,0,0,0,0,0,0,0,0,0,0,0,0,0,0,0,0,0,0,0,0,0,0,0,0,0,0,0,0,0,0,0,0,0,0,0,0,0,0,0,0,0,0,0,0,0,0,0,0,0,0,0,0,0,0,0,0,0,0,0,0,0,0,0,0,0,0,0,0,0,0,0,0,0,0,0,0,0,0,0,0,0,0,0,0,0,0,0,0,0,0,0,0,0,0,0,0,0,0,0,0,0,0,0,0,0,0,0,0,0,0,0,0,0,0,0,0,0,0,0,0,0,0,0,0,0,0,0,0,0,0,0,0,0,0,0,0,0,0,0,0,0,0,0,0,0,0,0,0,0,0,0,0,0,0,0,0,0,0,0,0,0,0,0,0,0,0,0,0,0,0,0,0,0,0,0,0,0,0,0,0,0,0,0,0,0,0,0,0,0,0,0,0,0,0,0,0,0,0,0,0,0,0,0,0,0,0,0,0,0,0,0,0,0,0,0,0,0,0,0,0,0,0,0,0,0,0,0,0,0,0,0,0,0,0,0,0,0,0,9696,9697,9698,9704,9710,9716,9722,9728,9734,9735,0,0,0,0,0,0,0,0,0,0,0,0,0,0,0,0,0,0,0,0,0,0,0,0,0,0,0,0,0,0,0,0,0,0,0,0,0,0,0,0,0,0,0,0,0,0,0,0,0,0,0,0,0,0,0,0,0,0,0,0,0,0,0,0,0,0,0,0,0,0,0,0,0,0,0,0,0,0,0,0,0,0,0,0,0,0,0,0,0,0,0,0,0,0,0,0,0,0,0,0,0,0,0,0,0,0,0,0,0,0,0,0,0,0,0,0,0,0,0,0,0,0,0,0,0,0,0,0,0,0,0,0,0,0,0,0,0,0,0,0,0,0,0,0,0,0,0,0,0,0,0,0,0,0,0,0,0,0,0,0,0,0,0,0,0,0,0,0,0,0,0,0,0,0,0,0,0,0,0,0,0,0,0,0,0,0,0,0,0,0,0,0,0,0,0,0,0,0,0,0,0,0,0,0,0,0,0,0,0,0,0,0,0,0,0,0,0,0,0,0,0,0,0,0,0,0,0,0,0,0,0,0,0,0,0,0,0,0,0,0,0,0,0,0,0,0,9620,9621,9622,9628,9634,9640,9646,9652,9658,9664,0,0,0,0,0,0,0,0,0,0,0,0,0,0,0,0,0,0,0,0,0,0,0,0,0,0,0,0,0,0,0,0,0,0,0,0,0,0,0,0,0,0,0,0,0,0,0,0,0,0,0,0,0,0,0,0,0,0,0,0,0,0,0,0,0,0,0,0,0,0,0,0,0,0,0,0,0,0,0,0,0,0,0,0,0,0,0,0,0,0,0,0,0,0,0,0,0,0,0,0,0,0,0,0,0,0,0,0,0,0,0,0,0,0,0,0,0,0,0,0,0,0,0,0,0,0,0,0,0,0,0,0,0,0,0,0,0,0,0,0,0,0,0,0,0,0,0,0,0,0,0,0,0,0,0,0,0,0,0,0,0,0,0,0,0,0,0,0,0,0,0,0,0,0,0,0,0,0,0,0,0,0,0,0,0,0,0,0,0,0,0,0,0,0,0,0,0,0,0,0,0,0,0,0,0,0,0,0,0,0,0,0,0,0,0,0,0,0,0,0,0,0,0,0,0,0,0,0,0,0,0,0,0,0,0,0,0,0,0,0,0,0,0,0,0,0,9696,9697,9698,9704,9710,9716,9722,9728,9734,9735,0,0,0,0,0,0,0,0,0,0,0,0,0,0,0,0,0,0,0,0,0,0,0,0,0,0,0,0,0,0,0,0,0,0,0,0,0,0,0,0,0,0,0,0,0,0,0,0,0,0,0,0,0,0,0,0,0,0,0,0,0,0,0,0,0,0,0,0,0,0,0,0,0,0,0,0,0,0,0,0,0,0,0,0,0,0,0,0,0,0,0,0,0,0,0,0,0,0,0,0,0,0,0,0,0,0,0,0,0,0,0,0,0,0,0,0,0,0,0,0,0,0,0,0,0,0,0,0,0,0,0,0,0,0,0,0,0,0,0,0,0,0,0,0,0,0,0,0,0,0,0,0,0,0,0,0,0,0,0,0,0,0,0,0,0,0,0,0,0,0,0,0,0,0,0,0,0,0,0,0,0,0,0,0,0,0,0,0,0,0,0,0,0,0,0,0,0,0,0,0,0,0,0,0,0,0,0,0,0,0,0,0,0,0,0,0,0,0,0,0,0,0,0,0,0,0,0,0,0,0,0,0,0,0,0,0,0,0,0,0,0,0,0,0,0,0,9620,9621,9622,9628,9634,9640,9646,9652,9658,9664,0,0,0,0,0,0,0,0,0,0,0,0,0,0,0,0,0,0,0,0,0,0,0,0,0,0,0,0,0,0,0,0,0,0,0,0,0,0,0,0,0,0,0,0,0,0,0,0,0,0,0,0,0,0,0,0,0,0,0,0,0,0,0,0,0,0,0,0,0,0,0,0,0,0,0,0,0,0,0,0,0,0,0,0,0,0,0,0,0,0,0,0,0,0,0,0,0,0,0,0,0,0,0,0,0,0,0,0,0,0,0,0,0,0,0,0,0,0,0,0,0,0,0,0,0,0,0,0,0,0,0,0,0,0,0,0,0,0,0,0,0,0,0,0,0,0,0,0,0,0,0,0,0,0,0,0,0,0,0,0,0,0,0,0,0,0,0,0,0,0,0,0,0,0,0,0,0,0,0,0,0,0,0,0,0,0,0,0,0,0,0,0,0,0,0,0,0,0,0,0,0,0,0,0,0,0,0,0,0,0,0,0,0,0,0,0,0,0,0,0,0,0,0,0,0,0,0,0,0,0,0,0,0,0,0,0,0,0,0,0,0,0,0,0,0,0,9696,9697,9698,9704,9710,9716,9722,9728,9734,9735,0,0,0,0,0,0,0,0,0,0,0,0,0,0,0,0,0,0,0,0,0,0,0,0,0,0,0,0,0,0,0,0,0,0,0,0,0,0,0,0,0,0,0,0,0,0,0,0,0,0,0,0,0,0,0,0,0,0,0,0,0,0,0,0,0,0,0,0,0,0,0,0,0,0,0,0,0,0,0,0,0,0,0,0,0,0,0,0,0,0,0,0,0,0,0,0,0,0,0,0,0,0,0,0,0,0,0,0,0,0,0,0,0,0,0,0,0,0,0,0,0,0,0,0,0,0,0,0,0,0,0,0,0,0,0,0,0,0,0,0,0,0,0,0,0,0,0,0,0,0,0,0,0,0,0,0,0,0,0,0,0,0,0,0,0,0,0,0,0,0,0,0,0,0,0,0,0,0,0,0,0,0,0,0,0,0,0,0,0,0,0,0,0,0,0,0,0,0,0,0,0,0,0,0,0,0,0,0,0,0,0,0,0,0,0,0,0,0,0,0,0,0,0,0,0,0,0,0,0,0,0,0,0,0,0,0,0,0,0,0,0,0,0,0,0,0,9620,9621,9622,9628,9634,9640,9646,9652,9658,9664,0,0,0,0,0,0,0,0,0,0,0,0,0,0,0,0,0,0,0,0,0,0,0,0,0,0,0,0,0,0,0,0,0,0,0,0,0,0,0,0,0,0,0,0,0,0,0,0,0,0,0,0,0,0,0,0,0,0,0,0,0,0,0,0,0,0,0,0,0,0,0,0,0,0,0,0,0,0,0,0,0,0,0,0,0,0,0,0,0,0,0,0,0,0,0,0,0,0,0,0,0,0,0,0,0,0,0,0,0,0,0,0,0,0,0,0,0,0,0,0,0,0,0,0,0,0,0,0,0,0,0,0,0,0,0,0,0,0,0,0,0,0,0,0,0,0,0,0,0,0,0,0,0,0,0,0,0,0,0,0,0,0,0,0,0,0,0,0,0,0,0,0,0,0,0,0,0,0,0,0,0,0,0,0,0,0,0,0,0,0,0,0,0,0,0,0,0,0,0,0,0,0,0,0,0,0,0,0,0,0,0,0,0,0,0,0,0,0,0,0,0,0,0,0,0,0,0,0,0,0,0,0,0,0,0,0,0,0,0,0,0,0,0,0,0,0,9696,9697,9698,9704,9710,9716,9722,9728,9734,9735,0,0,0,0,0,0,0,0,0,0,0,0,0,0,0,0,0,0,0,0,0,0,0,0,0,0,0,0,0,0,0,0,0,0,0,0,0,0,0,0,0,0,0,0,0,0,0,0,0,0,0,0,0,0,0,0,0,0,0,0,0,0,0,0,0,0,0,0,0,0,0,0,0,0,0,0,0,0,0,0,0,0,0,0,0,0,0,0,0,0,0,0,0,0,0,0,0,0,0,0,0,0,0,0,0,0,0,0,0,0,0,0,0,0,0,0,0,0,0,0,0,0,0,0,0,0,0,0,0,0,0,0,0,0,0,0,0,0,0,0,0,0,0,0,0,0,0,0,0,0,0,0,0,0,0,0,0,0,0,0,0,0,0,0,0,0,0,0,0,0,0,0,0,0,0,0,0,0,0,0,0,0,0,0,0,0,0,0,0,0,0,0,0,0,0,0,0,0,0,0,0,0,0,0,0,0,0,0,0,0,0,0,0,0,0,0,0,0,0,0,0,0,0,0,0,0,0,0,0,0,0,0,0,0,0,0,0,0,0,0,0,0,0,0,0,0,9620,9621,9622,9628,9634,9640,9646,9652,9658,9664,0,0,0,0,0,0,0,0,0,0,0,0,0,0,0,0,0,0,0,0,0,0,0,0,0,0,0,0,0,0,0,0,0,0,0,0,0,0,0,0,0,0,0,0,0,0,0,0,0,0,0,0,0,0,0,0,0,0,0,0,0,0,0,0,0,0,0,0,0,0,0,0,0,0,0,0,0,0,0,0,0,0,0,0,0,0,0,0,0,0,0,0,0,0,0,0,0,0,0,0,0,0,0,0,0,0,0,0,0,0,0,0,0,0,0,0,0,0,0,0,0,0,0,0,0,0,0,0,0,0,0,0,0,0,0,0,0,0,0,0,0,0,0,0,0,0,0,0,0,0,0,0,0,0,0,0,0,0,0,0,0,0,0,0,0,0,0,0,0,0,0,0,0,0,0,0,0,0,0,0,0,0,0,0,0,0,0,0,0,0,0,0,0,0,0,0,0,0,0,0,0,0,0,0,0,0,0,0,0,0,0,0,0,0,0,0,0,0,0,0,0,0,0,0,0,0,0,0,0,0,0,0,0,0,0,0,0,0,0,0,0,0,0,0,0,0,9696,9697,9698,9704,9710,9716,9722,9728,9734,9735,0,0,0,0,0,0,0,0,0,0,0,0,0,0,0,0,0,0,0,0,0,0,0,0,0,0,0,0,0,0,0,0,0,0,0,0,0,0,0,0,0,0,0,0,0,0,0,0,0,0,0,0,0,0,0,0,0,0,0,0,0,0,0,0,0,0,0,0,0,0,0,0,0,0,0,0,0,0,0,0,0,0,0,0,0,0,0,0,0,0,0,0,0,0,0,0,0,0,0,0,0,0,0,0,0,0,0,0,0,0,0,0,0,0,0,0,0,0,0,0,0,0,0,0,0,0,0,0,0,0,0,0,0,0,0,0,0,0,0,0,0,0,0,0,0,0,0,0,0,0,0,0,0,0,0,0,0,0,0,0,0,0,0,0,0,0,0,0,0,0,0,0,0,0,0,0,0,0,0,0,0,0,0,0,0,0,0,0,0,0,0,0,0,0,0,0,0,0,0,0,0,0,0,0,0,0,0,0,0,0,0,0,0,0,0,0,0,0,0,0,0,0,0,0,0,0,0,0,0,0,0,0,0,0,0,0,0,0,0,0,0,0,0,0,0,0,9620,9621,9622,9628,9634,9640,9646,9652,9658,9664,0,0,0,0,0,0,0,0,0,0,0,0,0,0,0,0,0,0,0,0,0,0,0,0,0,0,0,0,0,0,0,0,0,0,0,0,0,0,0,0,0,0,0,0,0,0,0,0,0,0,0,0,0,0,0,0,0,0,0,0,0,0,0,0,0,0,0,0,0,0,0,0,0,0,0,0,0,0,0,0,0,0,0,0,0,0,0,0,0,0,0,0,0,0,0,0,0,0,0,0,0,0,0,0,0,0,0,0,0,0,0,0,0,0,0,0,0,0,0,0,0,0,0,0,0,0,0,0,0,0,0,0,0,0,0,0,0,0,0,0,0,0,0,0,0,0,0,0,0,0,0,0,0,0,0,0,0,0,0,0,0,0,0,0,0,0,0,0,0,0,0,0,0,0,0,0,0,0,0,0,0,0,0,0,0,0,0,0,0,0,0,0,0,0,0,0,0,0,0,0,0,0,0,0,0,0,0,0,0,0,0,0,0,0,0,0,0,0,0,0,0,0,0,0,0,0,0,0,0,0,0,0,0,0,0,0,0,0,0,0,0,0,0,0,0,0,9696,9697,9698,9704,9710,9716,9722,9728,9734,9735,0,0,0,0,0,0,0,0,0,0,0,0,0,0,0,0,0,0,0,0,0,0,0,0,0,0,0,0,0,0,0,0,0,0,0,0,0,0,0,0,0,0,0,0,0,0,0,0,0,0,0,0,0,0,0,0,0,0,0,0,0,0,0,0,0,0,0,0,0,0,0,0,0,0,0,0,0,0,0,0,0,0,0,0,0,0,0,0,0,0,0,0,0,0,0,0,0,0,0,0,0,0,0,0,0,0,0,0,0,0,0,0,0,0,0,0,0,0,0,0,0,0,0,0,0,0,0,0,0,0,0,0,0,0,0,0,0,0,0,0,0,0,0,0,0,0,0,0,0,0,0,0,0,0,0,0,0,0,0,0,0,0,0,0,0,0,0,0,0,0,0,0,0,0,0,0,0,0,0,0,0,0,0,0,0,0,0,0,0,0,0,0,0,0,0,0,0,0,0,0,0,0,0,0,0,0,0,0,0,0,0,0,0,0,0,0,0,0,0,0,0,0,0,0,0,0,0,0,0,0,0,0,0,0,0,0,0,0,0,0,0,0,0,0,0,0,9620,9621,9622,9628,9634,9640,9646,9652,9658,9664,0,0,0,0,0,0,0,0,0,0,0,0,0,0,0,0,0,0,0,0,0,0,0,0,0,0,0,0,0,0,0,0,0,0,0,0,0,0,0,0,0,0,0,0,0,0,0,0,0,0,0,0,0,0,0,0,0,0,0,0,0,0,0,0,0,0,0,0,0,0,0,0,0,0,0,0,0,0,0,0,0,0,0,0,0,0,0,0,0,0,0,0,0,0,0,0,0,0,0,0,0,0,0,0,0,0,0,0,0,0,0,0,0,0,0,0,0,0,0,0,0,0,0,0,0,0,0,0,0,0,0,0,0,0,0,0,0,0,0,0,0,0,0,0,0,0,0,0,0,0,0,0,0,0,0,0,0,0,0,0,0,0,0,0,0,0,0,0,0,0,0,0,0,0,0,0,0,0,0,0,0,0,0,0,0,0,0,0,0,0,0,0,0,0,0,0,0,0,0,0,0,0,0,0,0,0,0,0,0,0,0,0,0,0,0,0,0,0,0,0,0,0,0,0,0,0,0,0,0,0,0,0,0,0,0,0,0,0,0,0,0,0,0,0,0,0,9696,9697,9698,9704,9710,9716,9722,9728,9734,9735,0,0,0,0,0,0,0,0,0,0,0,0,0,0,0,0,0,0,0,0,0,0,0,0,0,0,0,0,0,0,0,0,0,0,0,0,0,0,0,0,0,0,0,0,0,0,0,0,0,0,0,0,0,0,0,0,0,0,0,0,0,0,0,0,0,0,0,0,0,0,0,0,0,0,0,0,0,0,0,0,0,0,0,0,0,0,0,0,0,0,0,0,0,0,0,0,0,0,0,0,0,0,0,0,0,0,0,0,0,0,0,0,0,0,0,0,0,0,0,0,0,0,0,0,0,0,0,0,0,0,0,0,0,0,0,0,0,0,0,0,0,0,0,0,0,0,0,0,0,0,0,0,0,0,0,0,0,0,0,0,0,0,0,0,0,0,0,0,0,0,0,0,0,0,0,0,0,0,0,0,0,0,0,0,0,0,0,0,0,0,0,0,0,0,0,0,0,0,0,0,0,0,0,0,0,0,0,0,0,0,0,0,0,0,0,0,0,0,0,0,0,0,0,0,0,0,0,0,0,0,0,0,0,0,0,0,0,0,0,0,0,0,0,0,0,0,9620,9621,9622,9628,9634,9640,9646,9652,9658,9664,0,0,0,0,0,0,0,0,0,0,0,0,0,0,0,0,0,0,0,0,0,0,0,0,0,0,0,0,0,0,0,0,0,0,0,0,0,0,0,0,0,0,0,0,0,0,0,0,0,0,0,0,0,0,0,0,0,0,0,0,0,0,0,0,0,0,0,0,0,0,0,0,0,0,0,0,0,0,0,0,0,0,0,0,0,0,0,0,0,0,0,0,0,0,0,0,0,0,0,0,0,0,0,0,0,0,0,0,0,0,0,0,0,0,0,0,0,0,0,0,0,0,0,0,0,0,0,0,0,0,0,0,0,0,0,0,0,0,0,0,0,0,0,0,0,0,0,0,0,0,0,0,0,0,0,0,0,0,0,0,0,0,0,0,0,0,0,0,0,0,0,0,0,0,0,0,0,0,0,0,0,0,0,0,0,0,0,0,0,0,0,0,0,0,0,0,0,0,0,0,0,0,0,0,0,0,0,0,0,0,0,0,0,0,0,0,0,0,0,0,0,0,0,0,0,0,0,0,0,0,0,0,0,0,0,0,0,0,0,0,0,0,0,0,0,0,9696,9697,9698,9704,9710,9716,9722,9728,9734,9735,0,0,0,0,0,0,0,0,0,0,0,0,0,0,0,0,0,0,0,0,0,0,0,0,0,0,0,0,0,0,0,0,0,0,0,0,0,0,0,0,0,0,0,0,0,0,0,0,0,0,0,0,0,0,0,0,0,0,0,0,0,0,0,0,0,0,0,0,0,0,0,0,0,0,0,0,0,0,0,0,0,0,0,0,0,0,0,0,0,0,0,0,0,0,0,0,0,0,0,0,0,0,0,0,0,0,0,0,0,0,0,0,0,0,0,0,0,0,0,0,0,0,0,0,0,0,0,0,0,0,0,0,0,0,0,0,0,0,0,0,0,0,0,0,0,0,0,0,0,0,0,0,0,0,0,0,0,0,0,0,0,0,0,0,0,0,0,0,0,0,0,0,0,0,0,0,0,0,0,0,0,0,0,0,0,0,0,0,0,0,0,0,0,0,0,0,0,0,0,0,0,0,0,0,0,0,0,0,0,0,0,0,0,0,0,0,0,0,0,0,0,0,0,0,0,0,0,0,0,0,0,0,0,0,0,0,0,0,0,0,0,0,0,0,0,0,0,0,0,0,0,0,0,0,0,0,0,0,0,0,0,0,0,0,0,0,0,0,0,0,0,0,0,0,0,0,0,0,0,0,0,0,0,0,0,0,0,0,0,0,0,0,0,0,0,0,0,0,0,0,0,0,0,0,0,0,0,0,0,0,0,0,0,0,0,0,0,0,0,0,0,0,0,0,0,0,0,0,0,0,0,0,0,0,0,0,0,0,0,0,0,0,0,0,0,0,0,0,0,0,0,0,0,0,0,0,0,0,0,0,0,0,0,0,0,0,0,0,0,0,0,0,0,0,0,0,0,0,0,0,0,0,0,0,0,0,0,0,0,0,0,0,0,0,0,0,0,0,0,0,0,0,0,0,0,0,0,0,0,0,0,0,0,0,0,0,0,0,0,0,0,0,0,0,0,0,0,0,0,0,0,0,0,0,0,0,0,0,0,0,0,0,0,0,0,0,0,0,0,0,0,0,0,0,0,0,0,0,0,0,0,0,0,0,0,0,0,0,0,0,0,0,0,0,0,0,0,0,0,0,0,0,0,0,0,0,0,0,0,0,0,0,0,0,0,0,0,0,0,0,0,0,0,0,0,0,0,0,0,0,0,0,0,0,0,0,0,0,0,0,0,0,0,0,0,0,0,0,0,0,0,0,0,0,0,0,0,0,0,0,0,0,0,0,0,0,0,0,0,0,0,0,0,0,0,0,0,0,0,0,0,0,0,0,0,0,0,0,0,0,0,0,0,0,0,0,0,0,0,0,0,0,0,0,0,0,0,0,0,0,0,0,0,0,0,0,0,0,0,0,0,0,0,0,0,0,0,0,0,0,0,0,0,0,0,0,0,0,0,0,0,0,0,0,0,0,0,0,0,0,0,0,0,0,0,0,0,0,0,0,0,0,0,0,0,0,0,0,0,0,0,0,0,0,0,0,0,0,0,0,0,0,0,0,0,0,0,0,0,0,0,0,0,0,0,0,0,0,0,0,0,0,0,0,0,0,0,0,0,0,0,0,0,0,0,0,0,0,0,0,0,0,0,0,0,0,0,0,0,0,0,0,0,0,0,0,0,0,0,0,0,0,0,0,0,0,0,0,0,0,0,0,0,0,0,0,0,0,0,0,0,0,0,0,0,0,0,0,0,0,0,0,0,0,0,0,0,0,0,0,0,0,0,0,0,0,0,0,0,0,0,0,0,0,0,0,0,0,0,0,0,0,0,0,0,0,0,0,0,0,0,0,0,0,0,0,0,0,0,0,0,0,0,0,0,0,0,0,0,0,0,0,0,0,0,0,0,0,0,0,0,0,0,0,0,0,0,0,0,0,0,0,0,0,0,0,0,0,0,0,0,0,0,0,0,0,0,0,0,0,0,0,0,0,0,0,0,0,0,0,0,0,0,0,0,0,0,0,0,0,0,0,0,0,0,0,0,0,0,0,0,0,0,0,0,0,0,0,0,0,0,0,0,0,0,0,0,0,0,0,0,0,0,0,0,0,0,0,0,0,0,0,0,0,0,0,0,0,0,0,0,0,0,0,0,0,0,0,0,0,0,0,0,0,0,0,0,0,0,0,0,0,0,0,0,0,0,0,0,0,0,0,0,0,0,0,0,0,0,0,0,0,0,0,0,0,0,0,0,0,0,0,0,0,0,0,0,0,0,0,0,0,0,0,0,0,0,0,0,0,0,0,0,0,0,0,0,0,0,0,0,0,0,0,0,0,0,0,0,0,0,0,0,0,0,0,0,0,0,0,0,0,0,0,0,0,0,0,0,0,0,0,0,0,0,0,0,0,0,0,0,0,0,0,0,0,0,0,0,0,0,0,0,0,0,0,0,0,0,0,0,0,0,0,0,0,0,0,0,0,0,0,0,0,0,0,0,0,0,0,0,0,0,0,0,0,0,0,0,0,0,0,0,0,0,0,0,0,0,0,0,0,0,0,0,0,0,0,0,0,0,0,0,0,0,0,0,0,0,0,0,0,0,0,0,0,0,0,0,0,0,0,0,0,0,0,0,0,0,0,0,0,0,0,0,0,0,0,0,0,0,0,0,0,0,0,0,0,0,0,0,0,0,0,0,0,0,0,0,0,0,0,0,0,0,0,0,0,0,0,0,0,0,0,0,0,0,0,0,0,0,0,0,0,0,0,0,0,0,0,0,0,0,0,0,0,0,0,0,0,0,0,0,0,0,0,0,0,0,0,0,0,0,0,0,0,0,0,0,0,0,0,0,0,0,0,0,0,0,0,0,0,0,0,0,0,0,0,0,0,0,0,0,0,0,0,0,0,0,0,0,0,0,0,0,0,0,0,0,0,0,0,0,0,0,0,0,0,0,0,0,0,0,0,0,0,0,0,0,0,0,0,0,0,0,0,0,0,0,0,0,0,0,0,0,0,0,0,0,0,0,0,0,0,0,0,0,0,0,0,0,0,0,0,0,0,0,0,0,0,0,0,0,0,0,0,0,0,0,0,0,0,0,0,0,0,0,0,0,0,0,0,0,0,0,0,0,0,0,0,0,0,0,0,0,0,0,0,0,0,0,0,0,0,0,0,0,0,0,0,0,0,0,0,0,0,0,0,0,0,0,0,0,0,0,0,0,0,0,0,0,0,0,0,0,0,0,0,0,0,0,0,0,0,0,0,0,0,0,0,0,0,0,0,0,0,0,0,0,0,0,0,0,0,0,0,0,0,0,0,0,0,0,0,0,0,0,0,0,0,0,0,0,0,0,0,0,0,0,0,0,0,0,0,0,0,0,0,0,0,0,0,0,0,0,0,0,0,0,0,0,0,0,0,0,0,0,0,0,0,0,0,0,0,0,0,0,0,0,0,0,0,0,0,0,0,0,0,0,0,0,0,0,0,0,0,0,0,0,0,0,0,0,0,0,0,0,0,0,0,0,0,0,0,0,0,0,0,0,0,0,0,0,0,0,0,0,0,0,0,0,0,0,0,0,0,0,0,0,0,0,0,0,0,0,0,0,0,0,0,0,0,0,0,0,0,0,0,0,0,0,0,0,0,0,0,0,0,0,0,0,0,0,0,0,0,0,0,0,0,0,0,0,0,0,0,0,0,0,0,0,0,0,0,0,0,0,0,0,0,0,0,0,0,0,0,0,0,0,0,0,0,0,0,0,0,0,0,0,0,0,0,0,0,0,0,0,0,0,0,0,0,0,0,0,0,0,0,0,0,0,0,0,0,0,0,0,0,0,0,0,0,0,0,0,0,0,0,0,0,0,0,0,0,0,0,0,0,0,0,0,0,0,0,0,0,0,0,0,0,0,0,0,0,0,0,0,0,0,0,0,0,0,0,0,0,0,0,0,0,0,0,0,0,0,0,0,0,0,0,0,0,0,0,0,0,0,0,0,0,0,0,0,0,0,0,0,0,0,0,0,0,0,0,0,0,0,0,0,0,0,0,0,0,0,0,0,0,0,0,0,0,0,0,0,0,0,0,0,0,0,0,0,0,0,0,0,0,0,0,0,0,0,0,0,0,0,0,0,0,0,0,0,0,0,0,0,0,0,0,0,0,0,0,0,0,0,0,0,0,0,0,0,0,0,0,0,0,0,0,0,0,0,0,0,0,0,0,0,0,0,0,0,0,0,0,0,0,0,0,0,0,0,0,0,0,0,0,0,0,0,0,0,0,0,0,0,0,0,0,0,0,0,0,0,0,0,0,0,0,0,0,0,0,0,0,0,0,0,0,0,0,0,0,0,0,0,0,0,0,0,0,0,0,0,0,0,0,0,0,0,0,0,0,0,0,0,0,0,0,0,0,0,0,0,0,0,0,0,0,0,0,0,0,0,0,0,0,0,0,0,0,0,0,0,0,0,0,0,0,0,0,0,0,0,0,0,0,0,0,0,0,0,0,0,0,0,0,0,0,0,0,0,0,0,0,0,0,0,0,0,0,0,0,0,0,0,0,0,0,0,0,0,0,0,0,0,0,0,0,0,0,0,0,0,0,0,0,0,0,0,0,0,0,0,0,0,0,0,0,0,0,0,0,0,0,0,0,0,0,0,0,0,0,0,0,0,0,0,0,0,0,0,0,0,0,0,0,0,0,0,0,0,0,0,0,0,0,0,0,0,0,0,0,0,0,0,0,0,0,0,0,0,0,0,0,0,0,0,0,0,0,0,0,0,0,0,0,0,0,0,0,0,0,0,0,0,0,0,0,0,0,0,0,0,0,0,0,0,0,0,0,0,0,0,0,0,0,0,0,0,0,0,0,0,0,0,0,0,0,0,0,0,0,0,0,0,0,0,0,0,0,0,0,0,0,0,0,0,0,0,0,0,0,0,0,0,0,0,0,0,0,0,0,0,0,0,0,0,0,0,0,0,0,0,0,0,0,0,0,0,0,0,0,0,0,0,0,0,0,0,0,0,0,0,0,0,0,0,0,0,0,0,0,0,0,0,0,0,0,0,0,0,0,0,0,0,0,0,0,0,0,0,0,0,0,0,0,0,0,0,0,0,0,0,0,0,0,0,0,0,0,0,0,0,0,0,0,0,0,0,0,0,0,0,0,0,0,0,0,0,0,0,0,0,0,0,0,0,0,0,0,0,0,0,0,0,0,0,0,0,0,0,0,0,0,0,0,0,0,0,0,0,0,0,0,0,0,0,0,0,0,0,0,0,0,0,0,0,0,0,0,0,0,0,0,0,0,0,0,0,0,0,0,0,0,0,0,0,0,0,0,0,0,0,0,0,0,0,0,0,0,0,0,0,0,0,0,0,0,0,0,0,0,0,0,0,0,0,0,0,0,0,0,0,0,0,0,0,0,0,0,0,0,0,0,0,0,0,0,0,0,0,0,0,0,0,0,0,0,0,0,0,0,0,0,0,0,0,0,0,0,0,0,0,0,0,0,0,0,0,0,0,0,0,0,0,0,0,0,0,0,0,0,0,0,0,0,0,0,0,0,0,0,0,0,0,0,0,0,0,0,0,0,0,0,0,0,0,0,0,0,0,0,0,0,0,0,0,0,0,0,0,0,0,0,0,0,0,0,0,0,0,0,0,0,0,0,0,0,0,0,0,0,0,0,0,0,0,0,0,0,0,0,0,0,0,0,0,0,0,0,0,0,0,0,0,0,0,0,0,0,0,0,0,0,0,0,0,0,0,0,0,0,0,0,0,0,0,0,0,0,0,0,0,0,0,0,0,0,0,0,0,0,0,0,0,0,0,0,0,0,0,0,0,0,0,0,0,0,0,0,0,0,0,0,0,0,0,0,0,0,0,0,0,0,0,0,0,0,0,0,0,0,0,0,0,0,0,0,0,0,0,0,0,0,0,0,0,0,0,0,0,0,0,0,0,0,0,0,0,0,0,0,0,0,0,0,0,0,0,0,0,0,0,0,0,0,0,0,0,0,0,0,0,0,0,0,0,0,0,0,0,0,0,0,0,0,0,0,0,0,0,0,0,0,0,0,0,0,0,0,0,0,0,0,0,0,0,0,0,0,0,0,0,0,0,0,0,0,0,0,0,0,0,0,0,0,0,0,0,0,0,0,0,0,0,0,0,0,0,0,0,0,0,0,0,0,0,0,0,0,0,0,0,0,0,0,0,0,0,0,0,0,0,0,0,0,0,0,0,0,0,0,0,0,0,0,0,0,0,0,0,0,0,0,0,0,0,0,0,0,0,0,0,0,0,0,0,0,0,0,0,0,0,0,0,0,0,0,0,0,0,0,0,0,0,0,0,0,0,0,0,0,0,0,0,0,0,0,0,0,0,0,0,0,0,0,0,0,0,0,0,0,0,0,0,0,0,0,0,0,0,0,0,0,0,0,0,0,0,0,0,0,0,0,0,0,0,0,0,0,0,0,0,0,0,0,0,0,0,0,0,0,0,0,0,0,0,0,0,0,0,0,0,0,0,0,0,0,0,0,0,0,0,0,0,0,0,0,0,0,0,0,0,0,0,0,0,0,0,0,0,0,0,0,0,0,0,0,0,0,0,0,0,0,0,0,0,0,0,0,0,0,0,0,0,0,0,0,0,0,0,0,0,0,0,0,0,0,0,0,0,0,0,0,0,0,0,0,0,0,0,0,0,0,0,0,0,0,0,0,0,0,0,0,0,0,0,0,0,0,0,0,0,0,0,0,0,0,0,0,0,0,0,0,0,0,0,0,0,0,0,0,0,0,0,0,0,0,0,0,0,0,0,0,0,0,0,0,0,0,0,0,0,0,0,0,0,0,0,0,0,0,0,0,0,0,0,0,0,0,0,0,0,0,0,0,0,0,0,0,0,0,0,0,0,0,0,0,0,0,0,0,0,0,0,0,0,0,0,0,0,0,0,0,0,0,0,0,0,0,0,0,0,0,0,0,0,0,0,0,0,0,0,0,0,0,0,0,0,0,0,0,0,0,0,0,0,0,0,0,0,0,0,0,0,0,0,0,0,0,0,0,0,0,0,0,0,0,0,0,0,0,0,0,0,0,0,0,0,0,0,0,0,0,0,0,0,0,0,0,0,0,0,0,0,0,0,0,0,0,0,0,0,0,0,0,0,0,0,0,0,0,0,0,0,0,0,0,0,0,0,0,0,0,0,0,0,0,0,0,0,0,0,0,0,0,0,0,0,0,0,0,0,0,0,0,0,0,0,0,0,0,0,0,0,0,0,0,0,0,0,0,0,0,0,0,0,0,0,0,0,0,0,0,0,0,0,0,0,0,0,0,0,0,0,0,0,0,0,0,0,0,0,0,0,0,0,0,0,0,0,0,0,0,0,0,0,0,0,0,0,0,0,0,0,0,0,0,0,0,0,0,0,0,0,0,0,0,0,0,0,0,0,0,0,0,0,0,0,0,0,0,0,0,0,0,0,0,0,0,0,0,0,0,0,0,0,0,0,0,0,0,0,0,0,0,0,0,0,0,0,0,0,0,0,0,0,0,0,0,0,0,0,0,0,0,0,0,0,0,0,0,0,0,0,0,0,0,0,0,0,0,0,0,0,0,0,0,0,0,0,0,0,0,0,0,0,0,0,0,0,0,0,0,0,0,0,0,0,0,0,0,0,0,0,0,0,0,0,0,0,0,0,0,0,0,0,0,0,0,0,0,0,0,0,0,0,0,0,0,0,0,0,0,0,0,0,0,0,0,0,0,0,0,0,0,0,0,0,0,0,0,0,0,0,0,0,0,0,0,0,0,0,0,0,0,0,0,0,0,0,0,0,0,0,0,0,0,0,0,0,0,0,0,0,0,0,0,0,0,0,0,0,0,0,0,0,0,0,0,0,0,0,0,0,0,0,0,0,0,0,0,0,0,0,0,0,0,0,0,0,0,0,0,0,0,0,0,0,0,0,0,0,0,0,0,0,0,0,0,0,0,0,0,0,0,0,0,0,0,0,0,0,0,0,0,0,0,0,0,0,0,0,0,0,0,0,0,0,0,0,0,0,0,0,0,0,0,0,0,0,0,0,0,0,0,0,0,0,0,0,0,0,0,0,0,0,0,0,0,0,0,0,0,0,0,0,0,0,0,0,0,0,0,0,0,0,0,0,0,0,0,0,0,0,0,0,0,0,0,0,0,0,0,0,0,0,0,0,0,0,0,0,0,0,0,0,0,0,0,0,0,0,0,0,0,0,0,0,0,0,0,0,0,0,0,0,0,0,0,0,0,0,0,0,0,0,0,0,0,0,0,0,0,0,0,0,0,0,0,0,0,0,0,0,0,0,0,0,0,0,0,0,0,0,0,0,0,0,0,0,0,0,0,0,0,0,0,0,0,0,0,0,0,0,0,0,0,0,0,0,0,0,0,0,0,0,0,0,0,0,0,0,0,0,0,0,0,0,0,0,0,0,0,0,0,0,0,0,0,0,0,0,0,0,0,0,0,0,0,0,0,0,0,0,0,0,0,0,0,0,0,0,0,0,0,0,0,0,0,0,0,0,0,0,0,0,0,0,0,0,0,0,0,0,0,0,0,0,0,0,0,0,0,0,0,0,0,0,0,0,0,0,0,0,0,0,0,0,0,0,0,0,0,0,0,0,0,0,0,0,0,0,0,0,0,0,0,0,0,0,0,0,0,0,0,0,0,0,0,0,0,0,0,0,0,0,0,0,0,0,0,0,0,0,0,0,0,0,0,0,0,0,0,0,0,0,0,0,0,0,0,0,0,0,0,0,0,0,0,0,0,0,0,0,0,0,0,0,0,0,0,0,0,0,0,0,0,0,0,0,0,0,0,0,0,0,0,0,0,0,0,0,0,0,0,0,0,0,0,0,0,0,0,0,0,0,0,0,0,0,0,0,0,0,0,0,0,0,0,0,0,0,0,0,0,0,0,0,0,0,0,0,0,0,0,0,0,0,0,0,0,0,0,0,0,0,0,0,0,0,0,0,0,0,0,0,0,0,0,0,0,0,0,0,0,0,0,0,0,0,0,0,0,0,0,0,0,0,0,0,0,0,0,0,0,0,0,0,0,0,0,0,0,0,0,0,0,0,0,0,0,0,0,0,0,0,0,0,0,0,0,0,0,0,0,0,0,0,0,0,0,0,0,0,0,0,0,0,0,0,0,0,0,0,0,0,0,0,0,0,0,0,0,0,0,0,0,0,0,0,0,0,0,0,0,0,0,0,0,0,0,0,0,0,0,0,0,0,0,0,0,0,0,0,0,0,0,0,0,0,0,0,0,0,0,0,0,0,0,0,0,0,0,0,0,0,0,0,0,0,0,0,0,0,0,0,0,0,0,0,0,0,0,0,0,0,0,0,0,0,0,0,0,0,0,0,0,0,0,0,0,0,0,0,0,0,0,0,0,0,0,0,0,0,0,0,0,0,0,0,0,0,0,0,0,0,0,0,0,0,0,0,0,0,0,0,0,0,0,0,0,0,0,0,0,0,0,0,0,0,0,0,0,0,0,0,0,0,0,0,0,0,0,0,0,0,0,0,0,0,0,0,0,0,0,0,0,0,0,0,0,0,0,0,0,0,0,0,0,0,0,0,0,0,0,0,0,0,0,0,0,0,0,0,0,0,0,0,0,0,0,0,0,0,0,0,0,0,0,0,0,0,0,0,0,0,0,0,0,0,0,0,0,0,0,0,0,0,0,0,0,0,0,0,0,0,0,0,0,0,0,0,0,0,0,0,0,0,0,0,0,0,0,0,0,0,0,0,0,0,0,0,0,0,0,0,0,0,0,0,0,0,0,0,0,0,0,0,0,0,0,0,0,0,0,0,0,0,0,0,0,0,0,0,0,0,0,0,0,0,0,0,0,0,0,0,0,0,0,0,0,0,0,0,0,0,0,0,0,0,0,0,0,0,0,0,0,0,0,0,0,0,0,0,0,0,0,0,0,0,0,0,0,0,0,0,0,0,0,0,0,0,0,0,0,0,0,0,0,0,0,0,0,0,0,0,0,0,0,0,0,0,0,0,0,0,0,0,0,0,0,0,0,0,0,0,0,0,0,0,0,0,0,0,0,0,0,0,0,0,0,0,0,0,0,0,0,0,0,0,0,0,0,0,0,0,0,0,0,0,0,0,0,0,0,0,0,0,0,0,0,0,0,0,0,0,0,0,0,0,0,0,0,0,0,0,0,0,0,0,0,0,0,0,0,0,0,0,0,0,0,0,0,0,0,0,0,0,0,0,0,0,0,0,0,0,0,0,0,0,0,0,0,0,0,0,0,0,0,0,0,0,0,0,0,0,0,0,0,0,0,0,0,0,0,0,0,0,0,0,0,0,0,0,0,0,0,0,0,0,0,0,0,0,0,0,0,0,0,0,0,0,0,0,0,0,0,0,0,0,0,0,0,0,0,0,0,0,0,0,0,0,0,0,0,0,0,0,0,0,0,0,0,0,0,0,0,0,0,0,0,0,0,0,0,0,0,0,0,0,0,0,0,0,0,0,0,0,0,0,0,0,0,0,0,0,0,0,0,0,0,0,0,0,0,0,0,0,0,0,0,0,0,0,0,0,0,0,0,0,0,0,0,0,0,0,0,0,0,0,0,0,0,0,0,0,0,0,0,0,0,0,0,0,0,0,0,0,0,0,0,0,0,0,0,0,0,0,0,0,0,0,0,0,0,0,0,0,0,0,0,0,0,0,0,0,0,0,0,0,0,0,0,0,0,0,0,0,0,0,0,0,0,0,0,0,0,0,0,0,0,0,0,0,0,0,0,0,0,0,0,0,0,0,0,0,0,0,0,0,0,0,0,0,0,0,0,0,0,0,0,0,0,0,0,0,0,0,0,0,0,0,0,0,0,0,0,0,0,0,0,0,0,0,0,0,0,0,0,0,0,0,0,0,0,0,0,0,0,0,0,0,0,0,0,0,0,0,0,0,0,0,0,0,0,0,0,0,0,0,0,0,0,0,0,0,0,0,0,0,0,0,0,0,0,0,0,0,0,0,0,0,0,0,0,0,0,0,0,0,0,0,0,0,0,0,0,0,0,0,0,0,0,0,0,0,0,0,0,0,0,0,0,0,0,0,0,0,0,0,0,0,0,0,0,0,0,0,0,0,0,0,0,0,0,0,0,0,0,0,0,0,0,0,0,0,0,0,0,0,0,0,0,0,0,0,0,0,0,0,0,0,0,0,0,0,0,0,0,0,0,0,0,0,0,0,0,0,0,0,0,0,0,0,0,0,0,0,0,0,0,0,0,0,0,0,0,0,0,0,0,0,0,0,0,0,0,0,0,0,0,0,0,0,0,0,0,0,0,0,0,0,0,0,0,0,0,0,0,0,0,0,0,0,0,0,0,0,0,0,0,0,0,0,0,0,0,0,0,0,0,0,0,0,0,0,0,0,0,0,0,0,0,0,0,0,0,0,0,0,0,0,0,0,0,0,0,0,0,0,0,0,0,0,0,0,0,0,0,0,0,0,0,0,0,0,0,0,0,0,0,0,0,0,0,0,0,0,0,0,0,0,0,0,0,0,0,0,0,0,0,0,0,0,0,0,0,0,0,0,0,0,0,0,0,0,0,0,0,0,0,0,0,0,0,0,0,0,0,0,0,0,0,0,0,0,0,0,0,0,0,0,0,0,0,0,0,0,0,0,0,0,0,0,0,0,0,0,0,0,0,0,0,0,0,0,0,0,0,0,0,0,0,0,0,0,0,0,0,0,0,0,0,0,0,0,0,0,0,0,0,0,0,0,0,0,0,0,0,0,0,0,0,0,0,0,0,0,0,0,0,0,0,0,0,0,0,0,0,0,0,0,0,0,0,0,0,0,0,0,0,0,0,0,0,0,0,0,0,0,0,0,0,0,0,0,0,0,0,0,0,0,0,0,0,0,0,0,0,0,0,0,0,0,0,0,0,0,0,0,0,0,0,0,0,0,0,0,0,0,0,0,0,0,0,0,0,0,0,0,0,0,0,0,0,0,0,0,0,0,0,0,0,0,0,0,0,0,0,0,0,0,0,0,0,0,0,0,0,0,0,0,0,0,0,0,0,0,0,0,0,0,0,0,0,0,0,0,0,0,0,0,0,0,0,0,0,0,0,0,0,0,0,0,0,0,0,0,0,0,0,0,0,0,0,0,0,0,0,0,0,0,0,0,0,0,0,0,0,0,0,0,0,0,0,0,0,0,0,0,0,0,0,0,0,0,0,0,0,0,0,0,0,0,0,0,0,0,0,0,0,0,0,0,0,0,0,0,0,0,0,0,0,0,0,0,0,0,0,0,0,0,0,0,0,0,0,0,0,0,0,0,0,0,0,0,0,0,0,0,0,0,0,0,0,0,0,0,0,0,0,0,0,0,0,0,0,0,0,0,0,0,0,0,0,0,0,0,0,0,0,0,0,0,0,0,0,0,0,0,0,0,0,0,0,0,0,0,0,0,0,0,0,0,0,0,0,0,0,0,0,0,0,0,0,0,0,0,0,0,0,0,0,0,0,0,0,0,0,0,0,0,0,0,0,0,0,0,0,0,0,0,0,0,0,0,0,0,0,0,0,0,0,0,0,0,0,0,0,0,0,0,0,0,0,0,0,0,0,0,0,0,0,0,0,0,0,0,0,0,0,0,0,0,0,0,0,0,0,0,0,0,0,0,0,0,0,0,0,0,0,0,0,0,0,0,0,0,0,0,0,0,0,0,0,0,0,0,0,0,0,0,0,0,0,0,0,0,0,0,0,0,0,0,0,0,0,0,0,0,0,0,0,0,0,0,0,0,0,0,0,0,0,0,0,0,0,0,0,0,0,0,0,0,0,0,0,0,0,0,0,0,0,0,0,0,0,0,0,0,0,0,0,0,0,0,0,0,0,0,0,0,0,0,0,0,0,0,0,0,0,0,0,0,0,0,0,0,0,0,0,0,0,0,0,0,0,0,0,0,0,0,0,0,0,0,0,0,0,0,0,0,0,0,0,0,0,0,0,0,0,0,0,0,0,0,0,0,0,0,0,0,0,0,0,0,0,0,0,0,0,0,0,0,0,0,0,0,0,0,0,0,0,0,0,0,0,0,0,0,0,0,0,0,0,0,0,0,0,0,0,0,0,0,0,0,0,0,0,0,0,0,0,0,0,0,0,0,0,0,0,0,0,0,0,0,0,0,0,0,0,0,0,0,0,0,0,0,0,0,0,0,0,0,0,0,0,0,0,0,0,0,0,0,0,0,0,0,0,0,0,0,0,0,0,0,0,0,0,0,0,0,0,0,0,0,0,0,0,0,0,0,0,0,0,0,0,0,0,0,0,0,0,0,0,0,0,0,0,0,0,0,0,0,0,0,0,0,0,0,0,0,0,0,0,0,0,0,0,0,0,0,0,0,0,0,0,0,0,0,0,0,0,0,0,0,0,0,0,0,0,0,0,0,0,0,0,0,0,0,0,0,0,0,0,0,0,0,0,0,0,0,0,0,0,0,0,0,0,0,0,0,0,0,0,0,0,0,0,0,0,0,0,0,0,0,0,0,0,0,0,0,0,0,0,0,0,0,0,0,0,0,0,0,0,0,0,0,0,0,0,0,0,0,0,0,0,0,0,0,0,0,0,0,0,0,0,0,0,0,0,0,0,0,0,0,0,0,0,0,0,0,0,0,0,0,0,0,0,0,0,0,0,0,0,0,0,0,0,0,0,0,0,0,0,0,0,0,0,0,0,0,0,0,0,0,0,0,0,0,0,0,0,0,0,0,0,0,0,0,0,0,0,0,0,0,0,0,0,0,0,0,0,0,0,0,0,0,0,0,0,0,0,0,0,0,0,0,0,0,0,0,0,0,0,0,0,0,0,0,0,0,0,0,0,0,0,0,0,0,0,0,0,0,0,0,0,0,0,0,0,0,0,0,0,0,0,0,0,0,0,0,0,0,0,0,0,0,0,0,0,0,0,0,0,0,0,0,0,0,0,0,0,0,0,0,0,0,0,0,0,0,0,0,0,0,0,0,0,0,0,0,0,0,0,0,0,0,0,0,0,0,0,0,0,0,0,0,0,0,0,0,0,0,0,0,0,0,0,0,0,0,0,0,0,0,0,0,0,0,0,0,0,0,0,0,0,0,0,0,0,0,0,0,0,0,0,0,0,0,0,0,0,0,0,0,0,0,0,0,0,0,0,0,0,0,0,0,0,0,0,0,0,0,0,0,0,0,0,0,0,0,0,0,0,0,0,0,0,0,0,0,0,0,0,0,0,0,0,0,0,0,0,0,0,0,0,0,0,0,0,0,0,0,0,0,0,0,0,0,0,0,0,0,0,0,0,0,0,0,0,0,0,0,0,0,0,0,0,0,0,0,0,0,0,0,0,0,0,0,0,0,0,0,0,0,0,0,0,0,0,0,0,0,0,0,0,0,0,0,0,0,0,0,0,0,0,0,0,0,0,0,0,0,0,0,0,0,0,0,0,0,0,0,0,0,0,0,0,0,0,0,0,0,0,0,0,0,0,0,0,0,0,0,0,0,0,0,0,0,0,0,0,0,0,0,0,0,0,0,0,0,0,0,0,0,0,0,0,0,0,0,0,0,0,0,0,0,0,0,0,0,0,0,0,0,0,0,0,0,0,0,0,0,0,0,0,0,0,0,0,0,0,0,0,0,0,0,0,0,0,0,0,0,0,0,0,0,0,0,0,0,0,0,0,0,0,0,0,0,0,0,0,0,0,0,0,0,0,0,0,0,0,0,0,0,0,0,0,0,0,0,0,0,0,0,0,0,0,0,0,0,0,0,0,0,0,0,0,0,0,0,0,0,0,0,0,0,0,0,0,0,0,0,0,0,0,0,0,0,0,0,0,0,0,0,0,0,0,0,0,0,0,0,0,0,0,0,0,0,0,0,0,0,0,0,0,0,0,0,0,0,0,0,0,0,0,0,0,0,0,0,0,0,0,0,0,0,0,0,0,0,0,0,0,0,0,0,0,0,0,0,0,0,0,0,0,0,0,0,0,0,0,0,0,0,0,0,0,0,0,0,0,0,0,0,0,0,0,0,0,0,0,0,0,0,0,0,0,0,0,0,0,0,0,0,0,0,0,0,0,0,0,0,0,0,0,0,0,0,0,0,0,0,0,0,0,0,0,0,0,0,0,0,0,0,0,0,0,0,0,0,0,0,0,0,0,0,0,0,0,0,0,0,0,0,0,0,0,0,0,0,0,0,0,0,0,0,0,0,0,0,0,0,0,0,0,0,0,0,0,0,0,0,0,0,0,0,0,0,0,0,0,0,0,0,0,0,0,0,0,0,0,0,0,0,0,0,0,0,0,0,0,0,0,0,0,0,0,0,0,0,0,0,0,0,0,0,0,0,0,0,0,0,0,0,0,0,0,0,0,0,0,0,0,0,0,0,0,0,0,0,0,0,0,0,0,0,0,0,0,0,0,0,0,0,0,0,0,0,0,0,0,0,0,0,0,0,0,0,0,0,0,0,0,0,0,0,0,0,0,0,0,0,0,0,0,0,0,0,0,0,0,0,0,0,0,0,0,0,0,0,0,0,0,0,0,0,0,0,0,0,0,0,0,0,0,0,0,0,0,0,0,0,0,0,0,0,0,0,0,0,0,0,0,0,0,0,0,9620,9621,9622,9628,9634,9640,9646,9652,9658,9664,0,0,0,0,0,0,0,0,0,0,0,0,0,0,0,0,0,0,0,0,0,0,0,0,0,0,0,0,0,0,0,0,0,0,0,0,0,0,0,0,0,0,0,0,0,0,0,0,0,0,0,0,0,0,0,0,0,0,0,0,0,0,0,0,0,0,0,0,0,0,0,0,0,0,0,0,0,0,0,0,0,0,0,0,0,0,0,0,0,0,0,0,0,0,0,0,0,0,0,0,0,0,0,0,0,0,0,0,0,0,0,0,0,0,0,0,0,0,0,0,0,0,0,0,0,0,0,0,0,0,0,0,0,0,0,0,0,0,0,0,0,0,0,0,0,0,0,0,0,0,0,0,0,0,0,0,0,0,0,0,0,0,0,0,0,0,0,0,0,0,0,0,0,0,0,0,0,0,0,0,0,0,0,0,0,0,0,0,0,0,0,0,0,0,0,0,0,0,0,0,0,0,0,0,0,0,0,0,0,0,0,0,0,0,0,0,0,0,0,0,0,0,0,0,0,0,0,0,0,0,0,0,0,0,0,0,0,0,0,0,0,0,0,0,0,0,9696,9697,9698,9704,9710,9716,9722,9728,9734,9735,0,0,0,0,0,0,0,0,0,0,0,0,0,0,0,0,0,0,0,0,0,0,0,0,0,0,0,0,0,0,0,0,0,0,0,0,0,0,0,0,0,0,0,0,0,0,0,0,0,0,0,0,0,0,0,0,0,0,0,0,0,0,0,0,0,0,0,0,0,0,0,0,0,0,0,0,0,0,0,0,0,0,0,0,0,0,0,0,0,0,0,0,0,0,0,0,0,0,0,0,0,0,0,0,0,0,0,0,0,0,0,0,0,0,0,0,0,0,0,0,0,0,0,0,0,0,0,0,0,0,0,0,0,0,0,0,0,0,0,0,0,0,0,0,0,0,0,0,0,0,0,0,0,0,0,0,0,0,0,0,0,0,0,0,0,0,0,0,0,0,0,0,0,0,0,0,0,0,0,0,0,0,0,0,0,0,0,0,0,0,0,0,0,0,0,0,0,0,0,0,0,0,0,0,0,0,0,0,0,0,0,0,0,0,0,0,0,0,0,0,0,0,0,0,0,0,0,0,0,0,0,0,0,0,0,0,0,0,0,0,0,0,0,0,0,0,9620,9621,9622,9628,9634,9640,9646,9652,9658,9664,0,0,0,0,0,0,0,0,0,0,0,0,0,0,0,0,0,0,0,0,0,0,0,0,0,0,0,0,0,0,0,0,0,0,0,0,0,0,0,0,0,0,0,0,0,0,0,0,0,0,0,0,0,0,0,0,0,0,0,0,0,0,0,0,0,0,0,0,0,0,0,0,0,0,0,0,0,0,0,0,0,0,0,0,0,0,0,0,0,0,0,0,0,0,0,0,0,0,0,0,0,0,0,0,0,0,0,0,0,0,0,0,0,0,0,0,0,0,0,0,0,0,0,0,0,0,0,0,0,0,0,0,0,0,0,0,0,0,0,0,0,0,0,0,0,0,0,0,0,0,0,0,0,0,0,0,0,0,0,0,0,0,0,0,0,0,0,0,0,0,0,0,0,0,0,0,0,0,0,0,0,0,0,0,0,0,0,0,0,0,0,0,0,0,0,0,0,0,0,0,0,0,0,0,0,0,0,0,0,0,0,0,0,0,0,0,0,0,0,0,0,0,0,0,0,0,0,0,0,0,0,0,0,0,0,0,0,0,0,0,0,0,0,0,0,0,9696,9697,9698,9704,9710,9716,9722,9728,9734,9735,0,0,0,0,0,0,0,0,0,0,0,0,0,0,0,0,0,0,0,0,0,0,0,0,0,0,0,0,0,0,0,0,0,0,0,0,0,0,0,0,0,0,0,0,0,0,0,0,0,0,0,0,0,0,0,0,0,0,0,0,0,0,0,0,0,0,0,0,0,0,0,0,0,0,0,0,0,0,0,0,0,0,0,0,0,0,0,0,0,0,0,0,0,0,0,0,0,0,0,0,0,0,0,0,0,0,0,0,0,0,0,0,0,0,0,0,0,0,0,0,0,0,0,0,0,0,0,0,0,0,0,0,0,0,0,0,0,0,0,0,0,0,0,0,0,0,0,0,0,0,0,0,0,0,0,0,0,0,0,0,0,0,0,0,0,0,0,0,0,0,0,0,0,0,0,0,0,0,0,0,0,0,0,0,0,0,0,0,0,0,0,0,0,0,0,0,0,0,0,0,0,0,0,0,0,0,0,0,0,0,0,0,0,0,0,0,0,0,0,0,0,0,0,0,0,0,0,0,0,0,0,0,0,0,0,0,0,0,0,0,0,0,0,0,0,0,9620,9621,9622,9628,9634,9640,9646,9652,9658,9664,0,0,0,0,0,0,0,0,0,0,0,0,0,0,0,0,0,0,0,0,0,0,0,0,0,0,0,0,0,0,0,0,0,0,0,0,0,0,0,0,0,0,0,0,0,0,0,0,0,0,0,0,0,0,0,0,0,0,0,0,0,0,0,0,0,0,0,0,0,0,0,0,0,0,0,0,0,0,0,0,0,0,0,0,0,0,0,0,0,0,0,0,0,0,0,0,0,0,0,0,0,0,0,0,0,0,0,0,0,0,0,0,0,0,0,0,0,0,0,0,0,0,0,0,0,0,0,0,0,0,0,0,0,0,0,0,0,0,0,0,0,0,0,0,0,0,0,0,0,0,0,0,0,0,0,0,0,0,0,0,0,0,0,0,0,0,0,0,0,0,0,0,0,0,0,0,0,0,0,0,0,0,0,0,0,0,0,0,0,0,0,0,0,0,0,0,0,0,0,0,0,0,0,0,0,0,0,0,0,0,0,0,0,0,0,0,0,0,0,0,0,0,0,0,0,0,0,0,0,0,0,0,0,0,0,0,0,0,0,0,0,0,0,0,0,0,9696,9697,9698,9704,9710,9716,9722,9728,9734,9735,0,0,0,0,0,0,0,0,0,0,0,0,0,0,0,0,0,0,0,0,0,0,0,0,0,0,0,0,0,0,0,0,0,0,0,0,0,0,0,0,0,0,0,0,0,0,0,0,0,0,0,0,0,0,0,0,0,0,0,0,0,0,0,0,0,0,0,0,0,0,0,0,0,0,0,0,0,0,0,0,0,0,0,0,0,0,0,0,0,0,0,0,0,0,0,0,0,0,0,0,0,0,0,0,0,0,0,0,0,0,0,0,0,0,0,0,0,0,0,0,0,0,0,0,0,0,0,0,0,0,0,0,0,0,0,0,0,0,0,0,0,0,0,0,0,0,0,0,0,0,0,0,0,0,0,0,0,0,0,0,0,0,0,0,0,0,0,0,0,0,0,0,0,0,0,0,0,0,0,0,0,0,0,0,0,0,0,0,0,0,0,0,0,0,0,0,0,0,0,0,0,0,0,0,0,0,0,0,0,0,0,0,0,0,0,0,0,0,0,0,0,0,0,0,0,0,0,0,0,0,0,0,0,0,0,0,0,0,0,0,0,0,0,0,0,0,9620,9621,9622,9628,9634,9640,9646,9652,9658,9664,0,0,0,0,0,0,0,0,0,0,0,0,0,0,0,0,0,0,0,0,0,0,0,0,0,0,0,0,0,0,0,0,0,0,0,0,0,0,0,0,0,0,0,0,0,0,0,0,0,0,0,0,0,0,0,0,0,0,0,0,0,0,0,0,0,0,0,0,0,0,0,0,0,0,0,0,0,0,0,0,0,0,0,0,0,0,0,0,0,0,0,0,0,0,0,0,0,0,0,0,0,0,0,0,0,0,0,0,0,0,0,0,0,0,0,0,0,0,0,0,0,0,0,0,0,0,0,0,0,0,0,0,0,0,0,0,0,0,0,0,0,0,0,0,0,0,0,0,0,0,0,0,0,0,0,0,0,0,0,0,0,0,0,0,0,0,0,0,0,0,0,0,0,0,0,0,0,0,0,0,0,0,0,0,0,0,0,0,0,0,0,0,0,0,0,0,0,0,0,0,0,0,0,0,0,0,0,0,0,0,0,0,0,0,0,0,0,0,0,0,0,0,0,0,0,0,0,0,0,0,0,0,0,0,0,0,0,0,0,0,0,0,0,0,0,0,9696,9697,9698,9704,9710,9716,9722,9728,9734,9735,0,0,0,0,0,0,0,0,0,0,0,0,0,0,0,0,0,0,0,0,0,0,0,0,0,0,0,0,0,0,0,0,0,0,0,0,0,0,0,0,0,0,0,0,0,0,0,0,0,0,0,0,0,0,0,0,0,0,0,0,0,0,0,0,0,0,0,0,0,0,0,0,0,0,0,0,0,0,0,0,0,0,0,0,0,0,0,0,0,0,0,0,0,0,0,0,0,0,0,0,0,0,0,0,0,0,0,0,0,0,0,0,0,0,0,0,0,0,0,0,0,0,0,0,0,0,0,0,0,0,0,0,0,0,0,0,0,0,0,0,0,0,0,0,0,0,0,0,0,0,0,0,0,0,0,0,0,0,0,0,0,0,0,0,0,0,0,0,0,0,0,0,0,0,0,0,0,0,0,0,0,0,0,0,0,0,0,0,0,0,0,0,0,0,0,0,0,0,0,0,0,0,0,0,0,0,0,0,0,0,0,0,0,0,0,0,0,0,0,0,0,0,0,0,0,0,0,0,0,0,0,0,0,0,0,0,0,0,0,0,0,0,0,0,0,0,9620,9621,9622,9628,9634,9640,9646,9652,9658,9664,0,0,0,0,0,0,0,0,0,0,0,0,0,0,0,0,0,0,0,0,0,0,0,0,0,0,0,0,0,0,0,0,0,0,0,0,0,0,0,0,0,0,0,0,0,0,0,0,0,0,0,0,0,0,0,0,0,0,0,0,0,0,0,0,0,0,0,0,0,0,0,0,0,0,0,0,0,0,0,0,0,0,0,0,0,0,0,0,0,0,0,0,0,0,0,0,0,0,0,0,0,0,0,0,0,0,0,0,0,0,0,0,0,0,0,0,0,0,0,0,0,0,0,0,0,0,0,0,0,0,0,0,0,0,0,0,0,0,0,0,0,0,0,0,0,0,0,0,0,0,0,0,0,0,0,0,0,0,0,0,0,0,0,0,0,0,0,0,0,0,0,0,0,0,0,0,0,0,0,0,0,0,0,0,0,0,0,0,0,0,0,0,0,0,0,0,0,0,0,0,0,0,0,0,0,0,0,0,0,0,0,0,0,0,0,0,0,0,0,0,0,0,0,0,0,0,0,0,0,0,0,0,0,0,0,0,0,0,0,0,0,0,0,0,0,0,9696,9697,9698,9704,9710,9716,9722,9728,9734,9735,0,0,0,0,0,0,0,0,0,0,0,0,0,0,0,0,0,0,0,0,0,0,0,0,0,0,0,0,0,0,0,0,0,0,0,0,0,0,0,0,0,0,0,0,0,0,0,0,0,0,0,0,0,0,0,0,0,0,0,0,0,0,0,0,0,0,0,0,0,0,0,0,0,0,0,0,0,0,0,0,0,0,0,0,0,0,0,0,0,0,0,0,0,0,0,0,0,0,0,0,0,0,0,0,0,0,0,0,0,0,0,0,0,0,0,0,0,0,0,0,0,0,0,0,0,0,0,0,0,0,0,0,0,0,0,0,0,0,0,0,0,0,0,0,0,0,0,0,0,0,0,0,0,0,0,0,0,0,0,0,0,0,0,0,0,0,0,0,0,0,0,0,0,0,0,0,0,0,0,0,0,0,0,0,0,0,0,0,0,0,0,0,0,0,0,0,0,0,0,0,0,0,0,0,0,0,0,0,0,0,0,0,0,0,0,0,0,0,0,0,0,0,0,0,0,0,0,0,0,0,0,0,0,0,0,0,0,0,0,0,0,0,0,0,0,0,9620,9621,9622,9628,9634,9640,9646,9652,9658,9664,0,0,0,0,0,0,0,0,0,0,0,0,0,0,0,0,0,0,0,0,0,0,0,0,0,0,0,0,0,0,0,0,0,0,0,0,0,0,0,0,0,0,0,0,0,0,0,0,0,0,0,0,0,0,0,0,0,0,0,0,0,0,0,0,0,0,0,0,0,0,0,0,0,0,0,0,0,0,0,0,0,0,0,0,0,0,0,0,0,0,0,0,0,0,0,0,0,0,0,0,0,0,0,0,0,0,0,0,0,0,0,0,0,0,0,0,0,0,0,0,0,0,0,0,0,0,0,0,0,0,0,0,0,0,0,0,0,0,0,0,0,0,0,0,0,0,0,0,0,0,0,0,0,0,0,0,0,0,0,0,0,0,0,0,0,0,0,0,0,0,0,0,0,0,0,0,0,0,0,0,0,0,0,0,0,0,0,0,0,0,0,0,0,0,0,0,0,0,0,0,0,0,0,0,0,0,0,0,0,0,0,0,0,0,0,0,0,0,0,0,0,0,0,0,0,0,0,0,0,0,0,0,0,0,0,0,0,0,0,0,0,0,0,0,0,0,9696,9697,9698,9704,9710,9716,9722,9728,9734,9735,0,0,0,0,0,0,0,0,0,0,0,0,0,0,0,0,0,0,0,0,0,0,0,0,0,0,0,0,0,0,0,0,0,0,0,0,0,0,0,0,0,0,0,0,0,0,0,0,0,0,0,0,0,0,0,0,0,0,0,0,0,0,0,0,0,0,0,0,0,0,0,0,0,0,0,0,0,0,0,0,0,0,0,0,0,0,0,0,0,0,0,0,0,0,0,0,0,0,0,0,0,0,0,0,0,0,0,0,0,0,0,0,0,0,0,0,0,0,0,0,0,0,0,0,0,0,0,0,0,0,0,0,0,0,0,0,0,0,0,0,0,0,0,0,0,0,0,0,0,0,0,0,0,0,0,0,0,0,0,0,0,0,0,0,0,0,0,0,0,0,0,0,0,0,0,0,0,0,0,0,0,0,0,0,0,0,0,0,0,0,0,0,0,0,0,0,0,0,0,0,0,0,0,0,0,0,0,0,0,0,0,0,0,0,0,0,0,0,0,0,0,0,0,0,0,0,0,0,0,0,0,0,0,0,0,0,0,0,0,0,0,0,0,0,0,0,9620,9621,9622,9628,9634,9640,9646,9652,9658,9664,0,0,0,0,0,0,0,0,0,0,0,0,0,0,0,0,0,0,0,0,0,0,0,0,0,0,0,0,0,0,0,0,0,0,0,0,0,0,0,0,0,0,0,0,0,0,0,0,0,0,0,0,0,0,0,0,0,0,0,0,0,0,0,0,0,0,0,0,0,0,0,0,0,0,0,0,0,0,0,0,0,0,0,0,0,0,0,0,0,0,0,0,0,0,0,0,0,0,0,0,0,0,0,0,0,0,0,0,0,0,0,0,0,0,0,0,0,0,0,0,0,0,0,0,0,0,0,0,0,0,0,0,0,0,0,0,0,0,0,0,0,0,0,0,0,0,0,0,0,0,0,0,0,0,0,0,0,0,0,0,0,0,0,0,0,0,0,0,0,0,0,0,0,0,0,0,0,0,0,0,0,0,0,0,0,0,0,0,0,0,0,0,0,0,0,0,0,0,0,0,0,0,0,0,0,0,0,0,0,0,0,0,0,0,0,0,0,0,0,0,0,0,0,0,0,0,0,0,0,0,0,0,0,0,0,0,0,0,0,0,0,0,0,0,0,0,9696,9697,9698,9704,9710,9716,9722,9728,9734,9735,0,0,0,0,0,0,0,0,0,0,0,0,0,0,0,0,0,0,0,0,0,0,0,0,0,0,0,0,0,0,0,0,0,0,0,0,0,0,0,0,0,0,0,0,0,0,0,0,0,0,0,0,0,0,0,0,0,0,0,0,0,0,0,0,0,0,0,0,0,0,0,0,0,0,0,0,0,0,0,0,0,0,0,0,0,0,0,0,0,0,0,0,0,0,0,0,0,0,0,0,0,0,0,0,0,0,0,0,0,0,0,0,0,0,0,0,0,0,0,0,0,0,0,0,0,0,0,0,0,0,0,0,0,0,0,0,0,0,0,0,0,0,0,0,0,0,0,0,0,0,0,0,0,0,0,0,0,0,0,0,0,0,0,0,0,0,0,0,0,0,0,0,0,0,0,0,0,0,0,0,0,0,0,0,0,0,0,0,0,0,0,0,0,0,0,0,0,0,0,0,0,0,0,0,0,0,0,0,0,0,0,0,0,0,0,0,0,0,0,0,0,0,0,0,0,0,0,0,0,0,0,0,0,0,0,0,0,0,0,0,0,0,0,0,0,0,9620,9621,9622,9628,9634,9640,9646,9652,9658,9664,0,0,0,0,0,0,0,0,0,0,0,0,0,0,0,0,0,0,0,0,0,0,0,0,0,0,0,0,0,0,0,0,0,0,0,0,0,0,0,0,0,0,0,0,0,0,0,0,0,0,0,0,0,0,0,0,0,0,0,0,0,0,0,0,0,0,0,0,0,0,0,0,0,0,0,0,0,0,0,0,0,0,0,0,0,0,0,0,0,0,0,0,0,0,0,0,0,0,0,0,0,0,0,0,0,0,0,0,0,0,0,0,0,0,0,0,0,0,0,0,0,0,0,0,0,0,0,0,0,0,0,0,0,0,0,0,0,0,0,0,0,0,0,0,0,0,0,0,0,0,0,0,0,0,0,0,0,0,0,0,0,0,0,0,0,0,0,0,0,0,0,0,0,0,0,0,0,0,0,0,0,0,0,0,0,0,0,0,0,0,0,0,0,0,0,0,0,0,0,0,0,0,0,0,0,0,0,0,0,0,0,0,0,0,0,0,0,0,0,0,0,0,0,0,0,0,0,0,0,0,0,0,0,0,0,0,0,0,0,0,0,0,0,0,0,0,9696,9697,9698,9704,9710,9716,9722,9728,9734,9735,0,0,0,0,0,0,0,0,0,0,0,0,0,0,0,0,0,0,0,0,0,0,0,0,0,0,0,0,0,0,0,0,0,0,0,0,0,0,0,0,0,0,0,0,0,0,0,0,0,0,0,0,0,0,0,0,0,0,0,0,0,0,0,0,0,0,0,0,0,0,0,0,0,0,0,0,0,0,0,0,0,0,0,0,0,0,0,0,0,0,0,0,0,0,0,0,0,0,0,0,0,0,0,0,0,0,0,0,0,0,0,0,0,0,0,0,0,0,0,0,0,0,0,0,0,0,0,0,0,0,0,0,0,0,0,0,0,0,0,0,0,0,0,0,0,0,0,0,0,0,0,0,0,0,0,0,0,0,0,0,0,0,0,0,0,0,0,0,0,0,0,0,0,0,0,0,0,0,0,0,0,0,0,0,0,0,0,0,0,0,0,0,0,0,0,0,0,0,0,0,0,0,0,0,0,0,0,0,0,0,0,0,0,0,0,0,0,0,0,0,0,0,0,0,0,0,0,0,0,0,0,0,0,0,0,0,0,0,0,0,0,0,0,0,0,0,9620,9621,9622,9628,9634,9640,9646,9652,9658,9664,0,0,0,0,0,0,0,0,0,0,0,0,0,0,0,0,0,0,0,0,0,0,0,0,0,0,0,0,0,0,0,0,0,0,0,0,0,0,0,0,0,0,0,0,0,0,0,0,0,0,0,0,0,0,0,0,0,0,0,0,0,0,0,0,0,0,0,0,0,0,0,0,0,0,0,0,0,0,0,0,0,0,0,0,0,0,0,0,0,0,0,0,0,0,0,0,0,0,0,0,0,0,0,0,0,0,0,0,0,0,0,0,0,0,0,0,0,0,0,0,0,0,0,0,0,0,0,0,0,0,0,0,0,0,0,0,0,0,0,0,0,0,0,0,0,0,0,0,0,0,0,0,0,0,0,0,0,0,0,0,0,0,0,0,0,0,0,0,0,0,0,0,0,0,0,0,0,0,0,0,0,0,0,0,0,0,0,0,0,0,0,0,0,0,0,0,0,0,0,0,0,0,0,0,0,0,0,0,0,0,0,0,0,0,0,0,0,0,0,0,0,0,0,0,0,0,0,0,0,0,0,0,0,0,0,0,0,0,0,0,0,0,0,0,0,0,9696,9697,9698,9704,9710,9716,9722,9728,9734,9735,0,0,0,0,0,0,0,0,0,0,0,0,0,0,0,0,0,0,0,0,0,0,0,0,0,0,0,0,0,0,0,0,0,0,0,0,0,0,0,0,0,0,0,0,0,0,0,0,0,0,0,0,0,0,0,0,0,0,0,0,0,0,0,0,0,0,0,0,0,0,0,0,0,0,0,0,0,0,0,0,0,0,0,0,0,0,0,0,0,0,0,0,0,0,0,0,0,0,0,0,0,0,0,0,0,0,0,0,0,0,0,0,0,0,0,0,0,0,0,0,0,0,0,0,0,0,0,0,0,0,0,0,0,0,0,0,0,0,0,0,0,0,0,0,0,0,0,0,0,0,0,0,0,0,0,0,0,0,0,0,0,0,0,0,0,0,0,0,0,0,0,0,0,0,0,0,0,0,0,0,0,0,0,0,0,0,0,0,0,0,0,0,0,0,0,0,0,0,0,0,0,0,0,0,0,0,0,0,0,0,0,0,0,0,0,0,0,0,0,0,0,0,0,0,0,0,0,0,0,0,0,0,0,0,0,0,0,0,0,0,0,0,0,0,0,0,9620,9621,9622,9628,9634,9640,9646,9652,9658,9664,0,0,0,0,0,0,0,0,0,0,0,0,0,0,0,0,0,0,0,0,0,0,0,0,0,0,0,0,0,0,0,0,0,0,0,0,0,0,0,0,0,0,0,0,0,0,0,0,0,0,0,0,0,0,0,0,0,0,0,0,0,0,0,0,0,0,0,0,0,0,0,0,0,0,0,0,0,0,0,0,0,0,0,0,0,0,0,0,0,0,0,0,0,0,0,0,0,0,0,0,0,0,0,0,0,0,0,0,0,0,0,0,0,0,0,0,0,0,0,0,0,0,0,0,0,0,0,0,0,0,0,0,0,0,0,0,0,0,0,0,0,0,0,0,0,0,0,0,0,0,0,0,0,0,0,0,0,0,0,0,0,0,0,0,0,0,0,0,0,0,0,0,0,0,0,0,0,0,0,0,0,0,0,0,0,0,0,0,0,0,0,0,0,0,0,0,0,0,0,0,0,0,0,0,0,0,0,0,0,0,0,0,0,0,0,0,0,0,0,0,0,0,0,0,0,0,0,0,0,0,0,0,0,0,0,0,0,0,0,0,0,0,0,0,0,0,9696,9697,9698,9704,9710,9716,9722,9728,9734,9735,0,0,0,0,0,0,0,0,0,0,0,0,0,0,0,0,0,0,0,0,0,0,0,0,0,0,0,0,0,0,0,0,0,0,0,0,0,0,0,0,0,0,0,0,0,0,0,0,0,0,0,0,0,0,0,0,0,0,0,0,0,0,0,0,0,0,0,0,0,0,0,0,0,0,0,0,0,0,0,0,0,0,0,0,0,0,0,0,0,0,0,0,0,0,0,0,0,0,0,0,0,0,0,0,0,0,0,0,0,0,0,0,0,0,0,0,0,0,0,0,0,0,0,0,0,0,0,0,0,0,0,0,0,0,0,0,0,0,0,0,0,0,0,0,0,0,0,0,0,0,0,0,0,0,0,0,0,0,0,0,0,0,0,0,0,0,0,0,0,0,0,0,0,0,0,0,0,0,0,0,0,0,0,0,0,0,0,0,0,0,0,0,0,0,0,0,0,0,0,0,0,0,0,0,0,0,0,0,0,0,0,0,0,0,0,0,0,0,0,0,0,0,0,0,0,0,0,0,0,0,0,0,0,0,0,0,0,0,0,0,0,0,0,0,0,0,9620,9621,9622,9628,9634,9640,9646,9652,9658,9664,0,0,0,0,0,0,0,0,0,0,0,0,0,0,0,0,0,0,0,0,0,0,0,0,0,0,0,0,0,0,0,0,0,0,0,0,0,0,0,0,0,0,0,0,0,0,0,0,0,0,0,0,0,0,0,0,0,0,0,0,0,0,0,0,0,0,0,0,0,0,0,0,0,0,0,0,0,0,0,0,0,0,0,0,0,0,0,0,0,0,0,0,0,0,0,0,0,0,0,0,0,0,0,0,0,0,0,0,0,0,0,0,0,0,0,0,0,0,0,0,0,0,0,0,0,0,0,0,0,0,0,0,0,0,0,0,0,0,0,0,0,0,0,0,0,0,0,0,0,0,0,0,0,0,0,0,0,0,0,0,0,0,0,0,0,0,0,0,0,0,0,0,0,0,0,0,0,0,0,0,0,0,0,0,0,0,0,0,0,0,0,0,0,0,0,0,0,0,0,0,0,0,0,0,0,0,0,0,0,0,0,0,0,0,0,0,0,0,0,0,0,0,0,0,0,0,0,0,0,0,0,0,0,0,0,0,0,0,0,0,0,0,0,0,0,0,9696,9697,9698,9704,9710,9716,9722,9728,9734,9735,0,0,0,0,0,0,0,0,0,0,0,0,0,0,0,0,0,0,0,0,0,0,0,0,0,0,0,0,0,0,0,0,0,0,0,0,0,0,0,0,0,0,0,0,0,0,0,0,0,0,0,0,0,0,0,0,0,0,0,0,0,0,0,0,0,0,0,0,0,0,0,0,0,0,0,0,0,0,0,0,0,0,0,0,0,0,0,0,0,0,0,0,0,0,0,0,0,0,0,0,0,0,0,0,0,0,0,0,0,0,0,0,0,0,0,0,0,0,0,0,0,0,0,0,0,0,0,0,0,0,0,0,0,0,0,0,0,0,0,0,0,0,0,0,0,0,0,0,0,0,0,0,0,0,0,0,0,0,0,0,0,0,0,0,0,0,0,0,0,0,0,0,0,0,0,0,0,0,0,0,0,0,0,0,0,0,0,0,0,0,0,0,0,0,0,0,0,0,0,0,0,0,0,0,0,0,0,0,0,0,0,0,0,0,0,0,0,0,0,0,0,0,0,0,0,0,0,0,0,0,0,0,0,0,0,0,0,0,0,0,0,0,0,0,0,0,9620,9621,9622,9628,9634,9640,9646,9652,9658,9664,0,0,0,0,0,0,0,0,0,0,0,0,0,0,0,0,0,0,0,0,0,0,0,0,0,0,0,0,0,0,0,0,0,0,0,0,0,0,0,0,0,0,0,0,0,0,0,0,0,0,0,0,0,0,0,0,0,0,0,0,0,0,0,0,0,0,0,0,0,0,0,0,0,0,0,0,0,0,0,0,0,0,0,0,0,0,0,0,0,0,0,0,0,0,0,0,0,0,0,0,0,0,0,0,0,0,0,0,0,0,0,0,0,0,0,0,0,0,0,0,0,0,0,0,0,0,0,0,0,0,0,0,0,0,0,0,0,0,0,0,0,0,0,0,0,0,0,0,0,0,0,0,0,0,0,0,0,0,0,0,0,0,0,0,0,0,0,0,0,0,0,0,0,0,0,0,0,0,0,0,0,0,0,0,0,0,0,0,0,0,0,0,0,0,0,0,0,0,0,0,0,0,0,0,0,0,0,0,0,0,0,0,0,0,0,0,0,0,0,0,0,0,0,0,0,0,0,0,0,0,0,0,0,0,0,0,0,0,0,0,0,0,0,0,0,0,9696,9697,9698,9704,9710,9716,9722,9728,9734,9735,0,0,0,0,0,0,0,0,0,0,0,0,0,0,0,0,0,0,0,0,0,0,0,0,0,0,0,0,0,0,0,0,0,0,0,0,0,0,0,0,0,0,0,0,0,0,0,0,0,0,0,0,0,0,0,0,0,0,0,0,0,0,0,0,0,0,0,0,0,0,0,0,0,0,0,0,0,0,0,0,0,0,0,0,0,0,0,0,0,0,0,0,0,0,0,0,0,0,0,0,0,0,0,0,0,0,0,0,0,0,0,0,0,0,0,0,0,0,0,0,0,0,0,0,0,0,0,0,0,0,0,0,0,0,0,0,0,0,0,0,0,0,0,0,0,0,0,0,0,0,0,0,0,0,0,0,0,0,0,0,0,0,0,0,0,0,0,0,0,0,0,0,0,0,0,0,0,0,0,0,0,0,0,0,0,0,0,0,0,0,0,0,0,0,0,0,0,0,0,0,0,0,0,0,0,0,0,0,0,0,0,0,0,0,0,0,0,0,0,0,0,0,0,0,0,0,0,0,0,0,0,0,0,0,0,0,0,0,0,0,0,0,0,0,0,0,9620,9621,9622,9628,9634,9640,9646,9652,9658,9664,0,0,0,0,0,0,0,0,0,0,0,0,0,0,0,0,0,0,0,0,0,0,0,0,0,0,0,0,0,0,0,0,0,0,0,0,0,0,0,0,0,0,0,0,0,0,0,0,0,0,0,0,0,0,0,0,0,0,0,0,0,0,0,0,0,0,0,0,0,0,0,0,0,0,0,0,0,0,0,0,0,0,0,0,0,0,0,0,0,0,0,0,0,0,0,0,0,0,0,0,0,0,0,0,0,0,0,0,0,0,0,0,0,0,0,0,0,0,0,0,0,0,0,0,0,0,0,0,0,0,0,0,0,0,0,0,0,0,0,0,0,0,0,0,0,0,0,0,0,0,0,0,0,0,0,0,0,0,0,0,0,0,0,0,0,0,0,0,0,0,0,0,0,0,0,0,0,0,0,0,0,0,0,0,0,0,0,0,0,0,0,0,0,0,0,0,0,0,0,0,0,0,0,0,0,0,0,0,0,0,0,0,0,0,0,0,0,0,0,0,0,0,0,0,0,0,0,0,0,0,0,0,0,0,0,0,0,0,0,0,0,0,0,0,0,0,9696,9697,9698,9704,9710,9716,9722,9728,9734,9735,0,0,0,0,0,0,0,0,0,0,0,0,0,0,0,0,0,0,0,0,0,0,0,0,0,0,0,0,0,0,0,0,0,0,0,0,0,0,0,0,0,0,0,0,0,0,0,0,0,0,0,0,0,0,0,0,0,0,0,0,0,0,0,0,0,0,0,0,0,0,0,0,0,0,0,0,0,0,0,0,0,0,0,0,0,0,0,0,0,0,0,0,0,0,0,0,0,0,0,0,0,0,0,0,0,0,0,0,0,0,0,0,0,0,0,0,0,0,0,0,0,0,0,0,0,0,0,0,0,0,0,0,0,0,0,0,0,0,0,0,0,0,0,0,0,0,0,0,0,0,0,0,0,0,0,0,0,0,0,0,0,0,0,0,0,0,0,0,0,0,0,0,0,0,0,0,0,0,0,0,0,0,0,0,0,0,0,0,0,0,0,0,0,0,0,0,0,0,0,0,0,0,0,0,0,0,0,0,0,0,0,0,0,0,0,0,0,0,0,0,0,0,0,0,0,0,0,0,0,0,0,0,0,0,0,0,0,0,0,0,0,0,0,0,0,0,9620,9621,9622,9628,9634,9640,9646,9652,9658,9664,0,0,0,0,0,0,0,0,0,0,0,0,0,0,0,0,0,0,0,0,0,0,0,0,0,0,0,0,0,0,0,0,0,0,0,0,0,0,0,0,0,0,0,0,0,0,0,0,0,0,0,0,0,0,0,0,0,0,0,0,0,0,0,0,0,0,0,0,0,0,0,0,0,0,0,0,0,0,0,0,0,0,0,0,0,0,0,0,0,0,0,0,0,0,0,0,0,0,0,0,0,0,0,0,0,0,0,0,0,0,0,0,0,0,0,0,0,0,0,0,0,0,0,0,0,0,0,0,0,0,0,0,0,0,0,0,0,0,0,0,0,0,0,0,0,0,0,0,0,0,0,0,0,0,0,0,0,0,0,0,0,0,0,0,0,0,0,0,0,0,0,0,0,0,0,0,0,0,0,0,0,0,0,0,0,0,0,0,0,0,0,0,0,0,0,0,0,0,0,0,0,0,0,0,0,0,0,0,0,0,0,0,0,0,0,0,0,0,0,0,0,0,0,0,0,0,0,0,0,0,0,0,0,0,0,0,0,0,0,0,0,0,0,0,0,0,9696,9697,9698,9704,9710,9716,9722,9728,9734,9735,0,0,0,0,0,0,0,0,0,0,0,0,0,0,0,0,0,0,0,0,0,0,0,0,0,0,0,0,0,0,0,0,0,0,0,0,0,0,0,0,0,0,0,0,0,0,0,0,0,0,0,0,0,0,0,0,0,0,0,0,0,0,0,0,0,0,0,0,0,0,0,0,0,0,0,0,0,0,0,0,0,0,0,0,0,0,0,0,0,0,0,0,0,0,0,0,0,0,0,0,0,0,0,0,0,0,0,0,0,0,0,0,0,0,0,0,0,0,0,0,0,0,0,0,0,0,0,0,0,0,0,0,0,0,0,0,0,0,0,0,0,0,0,0,0,0,0,0,0,0,0,0,0,0,0,0,0,0,0,0,0,0,0,0,0,0,0,0,0,0,0,0,0,0,0,0,0,0,0,0,0,0,0,0,0,0,0,0,0,0,0,0,0,0,0,0,0,0,0,0,0,0,0,0,0,0,0,0,0,0,0,0,0,0,0,0,0,0,0,0,0,0,0,0,0,0,0,0,0,0,0,0,0,0,0,0,0,0,0,0,0,0,0,0,0,0,9620,9621,9622,9628,9634,9640,9646,9652,9658,9664,0,0,0,0,0,0,0,0,0,0,0,0,0,0,0,0,0,0,0,0,0,0,0,0,0,0,0,0,0,0,0,0,0,0,0,0,0,0,0,0,0,0,0,0,0,0,0,0,0,0,0,0,0,0,0,0,0,0,0,0,0,0,0,0,0,0,0,0,0,0,0,0,0,0,0,0,0,0,0,0,0,0,0,0,0,0,0,0,0,0,0,0,0,0,0,0,0,0,0,0,0,0,0,0,0,0,0,0,0,0,0,0,0,0,0,0,0,0,0,0,0,0,0,0,0,0,0,0,0,0,0,0,0,0,0,0,0,0,0,0,0,0,0,0,0,0,0,0,0,0,0,0,0,0,0,0,0,0,0,0,0,0,0,0,0,0,0,0,0,0,0,0,0,0,0,0,0,0,0,0,0,0,0,0,0,0,0,0,0,0,0,0,0,0,0,0,0,0,0,0,0,0,0,0,0,0,0,0,0,0,0,0,0,0,0,0,0,0,0,0,0,0,0,0,0,0,0,0,0,0,0,0,0,0,0,0,0,0,0,0,0,0,0,0,0,0,9696,9697,9698,9704,9710,9716,9722,9728,9734,9735,0,0,0,0,0,0,0,0,0,0,0,0,0,0,0,0,0,0,0,0,0,0,0,0,0,0,0,0,0,0,0,0,0,0,0,0,0,0,0,0,0,0,0,0,0,0,0,0,0,0,0,0,0,0,0,0,0,0,0,0,0,0,0,0,0,0,0,0,0,0,0,0,0,0,0,0,0,0,0,0,0,0,0,0,0,0,0,0,0,0,0,0,0,0,0,0,0,0,0,0,0,0,0,0,0,0,0,0,0,0,0,0,0,0,0,0,0,0,0,0,0,0,0,0,0,0,0,0,0,0,0,0,0,0,0,0,0,0,0,0,0,0,0,0,0,0,0,0,0,0,0,0,0,0,0,0,0,0,0,0,0,0,0,0,0,0,0,0,0,0,0,0,0,0,0,0,0,0,0,0,0,0,0,0,0,0,0,0,0,0,0,0,0,0,0,0,0,0,0,0,0,0,0,0,0,0,0,0,0,0,0,0,0,0,0,0,0,0,0,0,0,0,0,0,0,0,0,0,0,0,0,0,0,0,0,0,0,0,0,0,0,0,0,0,0,0,9620,9621,9622,9628,9634,9640,9646,9652,9658,9664,0,0,0,0,0,0,0,0,0,0,0,0,0,0,0,0,0,0,0,0,0,0,0,0,0,0,0,0,0,0,0,0,0,0,0,0,0,0,0,0,0,0,0,0,0,0,0,0,0,0,0,0,0,0,0,0,0,0,0,0,0,0,0,0,0,0,0,0,0,0,0,0,0,0,0,0,0,0,0,0,0,0,0,0,0,0,0,0,0,0,0,0,0,0,0,0,0,0,0,0,0,0,0,0,0,0,0,0,0,0,0,0,0,0,0,0,0,0,0,0,0,0,0,0,0,0,0,0,0,0,0,0,0,0,0,0,0,0,0,0,0,0,0,0,0,0,0,0,0,0,0,0,0,0,0,0,0,0,0,0,0,0,0,0,0,0,0,0,0,0,0,0,0,0,0,0,0,0,0,0,0,0,0,0,0,0,0,0,0,0,0,0,0,0,0,0,0,0,0,0,0,0,0,0,0,0,0,0,0,0,0,0,0,0,0,0,0,0,0,0,0,0,0,0,0,0,0,0,0,0,0,0,0,0,0,0,0,0,0,0,0,0,0,0,0,0,9696,9697,9698,9704,9710,9716,9722,9728,9734,9735,0,0,0,0,0,0,0,0,0,0,0,0,0,0,0,0,0,0,0,0,0,0,0,0,0,0,0,0,0,0,0,0,0,0,0,0,0,0,0,0,0,0,0,0,0,0,0,0,0,0,0,0,0,0,0,0,0,0,0,0,0,0,0,0,0,0,0,0,0,0,0,0,0,0,0,0,0,0,0,0,0,0,0,0,0,0,0,0,0,0,0,0,0,0,0,0,0,0,0,0,0,0,0,0,0,0,0,0,0,0,0,0,0,0,0,0,0,0,0,0,0,0,0,0,0,0,0,0,0,0,0,0,0,0,0,0,0,0,0,0,0,0,0,0,0,0,0,0,0,0,0,0,0,0,0,0,0,0,0,0,0,0,0,0,0,0,0,0,0,0,0,0,0,0,0,0,0,0,0,0,0,0,0,0,0,0,0,0,0,0,0,0,0,0,0,0,0,0,0,0,0,0,0,0,0,0,0,0,0,0,0,0,0,0,0,0,0,0,0,0,0,0,0,0,0,0,0,0,0,0,0,0,0,0,0,0,0,0,0,0,0,0,0,0,0,0,9620,9621,9622,9628,9634,9640,9646,9652,9658,9664,0,0,0,0,0,0,0,0,0,0,0,0,0,0,0,0,0,0,0,0,0,0,0,0,0,0,0,0,0,0,0,0,0,0,0,0,0,0,0,0,0,0,0,0,0,0,0,0,0,0,0,0,0,0,0,0,0,0,0,0,0,0,0,0,0,0,0,0,0,0,0,0,0,0,0,0,0,0,0,0,0,0,0,0,0,0,0,0,0,0,0,0,0,0,0,0,0,0,0,0,0,0,0,0,0,0,0,0,0,0,0,0,0,0,0,0,0,0,0,0,0,0,0,0,0,0,0,0,0,0,0,0,0,0,0,0,0,0,0,0,0,0,0,0,0,0,0,0,0,0,0,0,0,0,0,0,0,0,0,0,0,0,0,0,0,0,0,0,0,0,0,0,0,0,0,0,0,0,0,0,0,0,0,0,0,0,0,0,0,0,0,0,0,0,0,0,0,0,0,0,0,0,0,0,0,0,0,0,0,0,0,0,0,0,0,0,0,0,0,0,0,0,0,0,0,0,0,0,0,0,0,0,0,0,0,0,0,0,0,0,0,0,0,0,0,0,9696,9697,9698,9704,9710,9716,9722,9728,9734,9735,0,0,0,0,0,0,0,0,0,0,0,0,0,0,0,0,0,0,0,0,0,0,0,0,0,0,0,0,0,0,0,0,0,0,0,0,0,0,0,0,0,0,0,0,0,0,0,0,0,0,0,0,0,0,0,0,0,0,0,0,0,0,0,0,0,0,0,0,0,0,0,0,0,0,0,0,0,0,0,0,0,0,0,0,0,0,0,0,0,0,0,0,0,0,0,0,0,0,0,0,0,0,0,0,0,0,0,0,0,0,0,0,0,0,0,0,0,0,0,0,0,0,0,0,0,0,0,0,0,0,0,0,0,0,0,0,0,0,0,0,0,0,0,0,0,0,0,0,0,0,0,0,0,0,0,0,0,0,0,0,0,0,0,0,0,0,0,0,0,0,0,0,0,0,0,0,0,0,0,0,0,0,0,0,0,0,0,0,0,0,0,0,0,0,0,0,0,0,0,0,0,0,0,0,0,0,0,0,0,0,0,0,0,0,0,0,0,0,0,0,0,0,0,0,0,0,0,0,0,0,0,0,0,0,0,0,0,0,0,0,0,0,0,0,0,0,9620,9621,9622,9628,9634,9640,9646,9652,9658,9664,0,0,0,0,0,0,0,0,0,0,0,0,0,0,0,0,0,0,0,0,0,0,0,0,0,0,0,0,0,0,0,0,0,0,0,0,0,0,0,0,0,0,0,0,0,0,0,0,0,0,0,0,0,0,0,0,0,0,0,0,0,0,0,0,0,0,0,0,0,0,0,0,0,0,0,0,0,0,0,0,0,0,0,0,0,0,0,0,0,0,0,0,0,0,0,0,0,0,0,0,0,0,0,0,0,0,0,0,0,0,0,0,0,0,0,0,0,0,0,0,0,0,0,0,0,0,0,0,0,0,0,0,0,0,0,0,0,0,0,0,0,0,0,0,0,0,0,0,0,0,0,0,0,0,0,0,0,0,0,0,0,0,0,0,0,0,0,0,0,0,0,0,0,0,0,0,0,0,0,0,0,0,0,0,0,0,0,0,0,0,0,0,0,0,0,0,0,0,0,0,0,0,0,0,0,0,0,0,0,0,0,0,0,0,0,0,0,0,0,0,0,0,0,0,0,0,0,0,0,0,0,0,0,0,0,0,0,0,0,0,0,0,0,0,0,0,9696,9697,9698,9704,9710,9716,9722,9728,9734,9735,0,0,0,0,0,0,0,0,0,0,0,0,0,0,0,0,0,0,0,0,0,0,0,0,0,0,0,0,0,0,0,0,0,0,0,0,0,0,0,0,0,0,0,0,0,0,0,0,0,0,0,0,0,0,0,0,0,0,0,0,0,0,0,0,0,0,0,0,0,0,0,0,0,0,0,0,0,0,0,0,0,0,0,0,0,0,0,0,0,0,0,0,0,0,0,0,0,0,0,0,0,0,0,0,0,0,0,0,0,0,0,0,0,0,0,0,0,0,0,0,0,0,0,0,0,0,0,0,0,0,0,0,0,0,0,0,0,0,0,0,0,0,0,0,0,0,0,0,0,0,0,0,0,0,0,0,0,0,0,0,0,0,0,0,0,0,0,0,0,0,0,0,0,0,0,0,0,0,0,0,0,0,0,0,0,0,0,0,0,0,0,0,0,0,0,0,0,0,0,0,0,0,0,0,0,0,0,0,0,0,0,0,0,0,0,0,0,0,0,0,0,0,0,0,0,0,0,0,0,0,0,0,0,0,0,0,0,0,0,0,0,0,0,0,0,0,9620,9621,9622,9628,9634,9640,9646,9652,9658,9664,0,0,0,0,0,0,0,0,0,0,0,0,0,0,0,0,0,0,0,0,0,0,0,0,0,0,0,0,0,0,0,0,0,0,0,0,0,0,0,0,0,0,0,0,0,0,0,0,0,0,0,0,0,0,0,0,0,0,0,0,0,0,0,0,0,0,0,0,0,0,0,0,0,0,0,0,0,0,0,0,0,0,0,0,0,0,0,0,0,0,0,0,0,0,0,0,0,0,0,0,0,0,0,0,0,0,0,0,0,0,0,0,0,0,0,0,0,0,0,0,0,0,0,0,0,0,0,0,0,0,0,0,0,0,0,0,0,0,0,0,0,0,0,0,0,0,0,0,0,0,0,0,0,0,0,0,0,0,0,0,0,0,0,0,0,0,0,0,0,0,0,0,0,0,0,0,0,0,0,0,0,0,0,0,0,0,0,0,0,0,0,0,0,0,0,0,0,0,0,0,0,0,0,0,0,0,0,0,0,0,0,0,0,0,0,0,0,0,0,0,0,0,0,0,0,0,0,0,0,0,0,0,0,0,0,0,0,0,0,0,0,0,0,0,0,0,9696,9697,9698,9704,9710,9716,9722,9728,9734,9735,0,0,0,0,0,0,0,0,0,0,0,0,0,0,0,0,0,0,0,0,0,0,0,0,0,0,0,0,0,0,0,0,0,0,0,0,0,0,0,0,0,0,0,0,0,0,0,0,0,0,0,0,0,0,0,0,0,0,0,0,0,0,0,0,0,0,0,0,0,0,0,0,0,0,0,0,0,0,0,0,0,0,0,0,0,0,0,0,0,0,0,0,0,0,0,0,0,0,0,0,0,0,0,0,0,0,0,0,0,0,0,0,0,0,0,0,0,0,0,0,0,0,0,0,0,0,0,0,0,0,0,0,0,0,0,0,0,0,0,0,0,0,0,0,0,0,0,0,0,0,0,0,0,0,0,0,0,0,0,0,0,0,0,0,0,0,0,0,0,0,0,0,0,0,0,0,0,0,0,0,0,0,0,0,0,0,0,0,0,0,0,0,0,0,0,0,0,0,0,0,0,0,0,0,0,0,0,0,0,0,0,0,0,0,0,0,0,0,0,0,0,0,0,0,0,0,0,0,0,0,0,0,0,0,0,0,0,0,0,0,0,0,0,0,0,0,9620,9621,9622,9628,9634,9640,9646,9652,9658,9664,0,0,0,0,0,0,0,0,0,0,0,0,0,0,0,0,0,0,0,0,0,0,0,0,0,0,0,0,0,0,0,0,0,0,0,0,0,0,0,0,0,0,0,0,0,0,0,0,0,0,0,0,0,0,0,0,0,0,0,0,0,0,0,0,0,0,0,0,0,0,0,0,0,0,0,0,0,0,0,0,0,0,0,0,0,0,0,0,0,0,0,0,0,0,0,0,0,0,0,0,0,0,0,0,0,0,0,0,0,0,0,0,0,0,0,0,0,0,0,0,0,0,0,0,0,0,0,0,0,0,0,0,0,0,0,0,0,0,0,0,0,0,0,0,0,0,0,0,0,0,0,0,0,0,0,0,0,0,0,0,0,0,0,0,0,0,0,0,0,0,0,0,0,0,0,0,0,0,0,0,0,0,0,0,0,0,0,0,0,0,0,0,0,0,0,0,0,0,0,0,0,0,0,0,0,0,0,0,0,0,0,0,0,0,0,0,0,0,0,0,0,0,0,0,0,0,0,0,0,0,0,0,0,0,0,0,0,0,0,0,0,0,0,0,0,0,9696,9697,9698,9704,9710,9716,9722,9728,9734,9735,0,0,0,0,0,0,0,0,0,0,0,0,0,0,0,0,0,0,0,0,0,0,0,0,0,0,0,0,0,0,0,0,0,0,0,0,0,0,0,0,0,0,0,0,0,0,0,0,0,0,0,0,0,0,0,0,0,0,0,0,0,0,0,0,0,0,0,0,0,0,0,0,0,0,0,0,0,0,0,0,0,0,0,0,0,0,0,0,0,0,0,0,0,0,0,0,0,0,0,0,0,0,0,0,0,0,0,0,0,0,0,0,0,0,0,0,0,0,0,0,0,0,0,0,0,0,0,0,0,0,0,0,0,0,0,0,0,0,0,0,0,0,0,0,0,0,0,0,0,0,0,0,0,0,0,0,0,0,0,0,0,0,0,0,0,0,0,0,0,0,0,0,0,0,0,0,0,0,0,0,0,0,0,0,0,0,0,0,0,0,0,0,0,0,0,0,0,0,0,0,0,0,0,0,0,0,0,0,0,0,0,0,0,0,0,0,0,0,0,0,0,0,0,0,0,0,0,0,0,0,0,0,0,0,0,0,0,0,0,0,0,0,0,0,0,0,9620,9621,9622,9628,9634,9640,9646,9652,9658,9664,0,0,0,0,0,0,0,0,0,0,0,0,0,0,0,0,0,0,0,0,0,0,0,0,0,0,0,0,0,0,0,0,0,0,0,0,0,0,0,0,0,0,0,0,0,0,0,0,0,0,0,0,0,0,0,0,0,0,0,0,0,0,0,0,0,0,0,0,0,0,0,0,0,0,0,0,0,0,0,0,0,0,0,0,0,0,0,0,0,0,0,0,0,0,0,0,0,0,0,0,0,0,0,0,0,0,0,0,0,0,0,0,0,0,0,0,0,0,0,0,0,0,0]},{"id":4,"name":"eau_animee","type":"tilelayer","x":0,"y":0,"width":256,"height":192,"opacity":1,"visible":true,"data":[0,0,0,0,0,0,0,0,0,0,0,0,0,0,0,0,0,0,0,0,0,0,0,0,0,0,0,0,0,0,0,0,0,0,0,0,0,0,0,0,0,0,0,0,0,0,0,0,0,0,0,0,0,0,0,0,0,0,0,0,0,0,0,0,0,0,0,0,0,0,0,0,0,0,0,0,0,0,0,0,0,0,0,0,0,0,0,0,0,0,0,0,0,0,0,0,0,0,0,0,0,0,0,0,0,0,0,0,0,0,0,0,0,1415,1421,1427,1433,1439,1445,1451,1457,1463,1469,1475,1481,1487,1493,1499,1505,1511,1517,1523,1529,1535,1541,1547,1553,1559,0,0,0,0,0,0,0,0,0,0,0,0,0,0,0,0,0,0,0,0,0,0,0,0,0,0,0,0,0,0,0,0,0,0,0,0,0,0,0,0,0,0,0,0,0,0,0,0,0,0,0,0,0,0,0,0,0,0,0,0,0,0,0,0,0,0,0,0,0,0,0,0,0,0,0,0,0,0,0,0,0,0,0,0,0,0,0,0,0,0,0,0,0,0,0,0,0,0,0,0,0,0,0,0,0,0,0,0,0,0,0,0,0,0,0,0,0,0,0,0,0,0,0,0,0,0,0,0,0,0,0,0,0,0,0,0,0,0,0,0,0,0,0,0,0,0,0,0,0,0,0,0,0,0,0,0,0,0,0,0,0,0,0,0,0,0,0,0,0,0,0,0,0,0,0,0,0,0,0,0,0,0,0,0,0,0,0,0,0,0,0,0,0,0,0,0,0,0,0,0,0,0,0,0,0,0,0,0,0,0,0,0,0,0,0,0,0,0,0,0,0,0,0,0,0,0,0,0,0,0,0,1415,1421,1427,1433,1439,1445,1451,1457,1463,1469,1475,1481,1487,1493,1499,1505,1511,1517,1523,1529,1535,1541,1547,1553,1559,0,0,0,0,0,0,0,0,0,0,0,0,0,0,0,0,0,0,0,0,0,0,0,0,0,0,0,0,0,0,0,0,0,0,0,0,0,0,0,0,0,0,0,0,0,0,0,0,0,0,0,0,0,0,0,0,0,0,0,0,0,0,0,0,0,0,0,0,0,0,0,0,0,0,0,0,0,0,0,0,0,0,0,0,0,0,0,0,0,0,0,0,0,0,0,0,0,0,0,0,0,0,0,0,0,0,0,0,0,0,0,0,0,0,0,0,0,0,0,0,0,0,0,0,0,0,0,0,0,0,0,0,0,0,0,0,0,0,0,0,0,0,0,0,0,0,0,0,0,0,0,0,0,0,0,0,0,0,0,0,0,0,0,0,0,0,0,0,0,0,0,0,0,0,0,0,0,0,0,0,0,0,0,0,0,0,0,0,0,0,0,0,0,0,0,0,0,0,0,0,0,0,0,0,0,0,0,0,0,0,0,0,0,0,0,0,0,0,0,0,0,0,0,0,0,0,0,0,0,0,0,1415,1421,1427,1433,1439,1445,1451,1457,1463,1469,1475,1481,1487,1493,1499,1505,1511,1517,1523,1529,1535,1541,1547,1553,1559,0,0,0,0,0,0,0,0,0,0,0,0,0,0,0,0,0,0,0,0,0,0,0,0,0,0,0,0,0,0,0,0,0,0,0,0,0,0,0,0,0,0,0,0,0,0,0,0,0,0,0,0,0,0,0,0,0,0,0,0,0,0,0,0,0,0,0,0,0,0,0,0,0,0,0,0,0,0,0,0,0,0,0,0,0,0,0,0,0,0,0,0,0,0,0,0,0,0,0,0,0,0,0,0,0,0,0,0,0,0,0,0,0,0,0,0,0,0,0,0,0,0,0,0,0,0,0,0,0,0,0,0,0,0,0,0,0,0,0,0,0,0,0,0,0,0,0,0,0,0,0,0,0,0,0,0,0,0,0,0,0,0,0,0,0,0,0,0,0,0,0,0,0,0,0,0,0,0,0,0,0,0,0,0,0,0,0,0,0,0,0,0,0,0,0,0,0,0,0,0,0,0,0,0,0,0,0,0,0,0,0,0,0,0,0,0,0,0,0,0,0,0,0,0,0,0,0,0,0,0,0,1415,1421,1427,1433,1439,1445,1451,1457,1463,1469,1475,1481,1487,1493,1499,1505,1511,1517,1523,1529,1535,1541,1547,1553,1559,0,0,0,0,0,0,0,0,0,0,0,0,0,0,0,0,0,0,0,0,0,0,0,0,0,0,0,0,0,0,0,0,0,0,0,0,0,0,0,0,0,0,0,0,0,0,0,0,0,0,0,0,0,0,0,0,0,0,0,0,0,0,0,0,0,0,0,0,0,0,0,0,0,0,0,0,0,0,0,0,0,0,0,0,0,0,0,0,0,0,0,0,0,0,0,0,0,0,0,0,0,0,0,0,0,0,0,0,0,0,0,0,0,0,0,0,0,0,0,0,0,0,0,0,0,0,0,0,0,0,0,0,0,0,0,0,0,0,0,0,0,0,0,0,0,0,0,0,0,0,0,0,0,0,0,0,0,0,0,0,0,0,0,0,0,0,0,0,0,0,0,0,0,0,0,0,0,0,0,0,0,0,0,0,0,0,0,0,0,0,0,0,0,0,0,0,0,0,0,0,0,0,0,0,0,0,0,0,0,0,0,0,0,0,0,0,0,0,0,0,0,0,0,0,0,0,0,0,0,0,0,1415,1421,1427,1433,1439,1445,1451,1457,1463,1469,1475,1481,1487,1493,1499,1505,1511,1517,1523,1529,1535,1541,1547,1553,1559,0,0,0,0,0,0,0,0,0,0,0,0,0,0,0,0,0,0,0,0,0,0,0,0,0,0,0,0,0,0,0,0,0,0,0,0,0,0,0,0,0,0,0,0,0,0,0,0,0,0,0,0,0,0,0,0,0,0,0,0,0,0,0,0,0,0,0,0,0,0,0,0,0,0,0,0,0,0,0,0,0,0,0,0,0,0,0,0,0,0,0,0,0,0,0,0,0,0,0,0,0,0,0,0,0,0,0,0,0,0,0,0,0,0,0,0,0,0,0,0,0,0,0,0,0,0,0,0,0,0,0,0,0,0,0,0,0,0,0,0,0,0,0,0,0,0,0,0,0,0,0,0,0,0,0,0,0,0,0,0,0,0,0,0,0,0,0,0,0,0,0,0,0,0,0,0,0,0,0,0,0,0,0,0,0,0,0,0,0,0,0,0,0,0,0,0,0,0,0,0,0,0,0,0,0,0,0,0,0,0,0,0,0,0,0,0,0,0,0,0,0,0,0,0,0,0,0,0,0,0,0,1415,1421,1427,1433,1439,1445,1451,1457,1463,1469,1475,1481,1487,1493,1499,1505,1511,1517,1523,1529,1535,1541,1547,1553,1559,0,0,0,0,0,0,0,0,0,0,0,0,0,0,0,0,0,0,0,0,0,0,0,0,0,0,0,0,0,0,0,0,0,0,0,0,0,0,0,0,0,0,0,0,0,0,0,0,0,0,0,0,0,0,0,0,0,0,0,0,0,0,0,0,0,0,0,0,0,0,0,0,0,0,0,0,0,0,0,0,0,0,0,0,0,0,0,0,0,0,0,0,0,0,0,0,0,0,0,0,0,0,0,0,0,0,0,0,0,0,0,0,0,0,0,0,0,0,0,0,0,0,0,0,0,0,0,0,0,0,0,0,0,0,0,0,0,0,0,0,0,0,0,0,0,0,0,0,0,0,0,0,0,0,0,0,0,0,0,0,0,0,0,0,0,0,0,0,0,0,0,0,0,0,0,0,0,0,0,0,0,0,0,0,0,0,0,0,0,0,0,0,0,0,0,0,0,0,0,0,0,0,0,0,0,0,0,0,0,0,0,0,0,0,0,0,0,0,0,0,0,0,0,0,0,0,0,0,0,0,0,1415,1421,1427,1433,1439,1445,1451,1457,1463,1469,1475,1481,1487,1493,1499,1505,1511,1517,1523,1529,1535,1541,1547,1553,1559,0,0,0,0,0,0,0,0,0,0,0,0,0,0,0,0,0,0,0,0,0,0,0,0,0,0,0,0,0,0,0,0,0,0,0,0,0,0,0,0,0,0,0,0,0,0,0,0,0,0,0,0,0,0,0,0,0,0,0,0,0,0,0,0,0,0,0,0,0,0,0,0,0,0,0,0,0,0,0,0,0,0,0,0,0,0,0,0,0,0,0,0,0,0,0,0,0,0,0,0,0,0,0,0,0,0,0,0,0,0,0,0,0,0,0,0,0,0,0,0,0,0,0,0,0,0,0,0,0,0,0,0,0,0,0,0,0,0,0,0,0,0,0,0,0,0,0,0,0,0,0,0,0,0,0,0,0,0,0,0,0,0,0,0,0,0,0,0,0,0,0,0,0,0,0,0,0,0,0,0,0,0,0,0,0,0,0,0,0,0,0,0,0,0,0,0,0,0,0,0,0,0,0,0,0,0,0,0,0,0,0,0,0,0,0,0,0,0,0,0,0,0,0,0,0,0,0,0,0,0,0,1415,1421,1427,1433,1439,1445,1451,1457,1463,1469,1475,1481,1487,1493,1499,1505,1511,1517,1523,1529,1535,1541,1547,1553,1559,0,0,0,0,0,0,0,0,0,0,0,0,0,0,0,0,0,0,0,0,0,0,0,0,0,0,0,0,0,0,0,0,0,0,0,0,0,0,0,0,0,0,0,0,0,0,0,0,0,0,0,0,0,0,0,0,0,0,0,0,0,0,0,0,0,0,0,0,0,0,0,0,0,0,0,0,0,0,0,0,0,0,0,0,0,0,0,0,0,0,0,0,0,0,0,0,0,0,0,0,0,0,0,0,0,0,0,0,0,0,0,0,0,0,0,0,0,0,0,0,0,0,0,0,0,0,0,0,0,0,0,0,0,0,0,0,0,0,0,0,0,0,0,0,0,0,0,0,0,0,0,0,0,0,0,0,0,0,0,0,0,0,0,0,0,0,0,0,0,0,0,0,0,0,0,0,0,0,0,0,0,0,0,0,0,0,0,0,0,0,0,0,0,0,0,0,0,0,0,0,0,0,0,0,0,0,0,0,0,0,0,0,0,0,0,0,0,0,0,0,0,0,0,0,0,0,0,0,0,0,0,1415,1421,1427,1433,1439,1445,1451,1457,1463,1469,1475,1481,1487,1493,1499,1505,1511,1517,1523,1529,1535,1541,1547,1553,1559,0,0,0,0,0,0,0,0,0,0,0,0,0,0,0,0,0,0,0,0,0,0,0,0,0,0,0,0,0,0,0,0,0,0,0,0,0,0,0,0,0,0,0,0,0,0,0,0,0,0,0,0,0,0,0,0,0,0,0,0,0,0,0,0,0,0,0,0,0,0,0,0,0,0,0,0,0,0,0,0,0,0,0,0,0,0,0,0,0,0,0,0,0,0,0,0,0,0,0,0,0,0,0,0,0,0,0,0,0,0,0,0,0,0,0,0,0,0,0,0,0,0,0,0,0,0,0,0,0,0,0,0,0,0,0,0,0,0,0,0,0,0,0,0,0,0,0,0,0,0,0,0,0,0,0,0,0,0,0,0,0,0,0,0,0,0,0,0,0,0,0,0,0,0,0,0,0,0,0,0,0,0,0,0,0,0,0,0,0,0,0,0,0,0,0,0,0,0,0,0,0,0,0,0,0,0,0,0,0,0,0,0,0,0,0,0,0,0,0,0,0,0,0,0,0,0,0,0,0,0,0,1415,1421,1427,1433,1439,1445,1451,1457,1463,1469,1475,1481,1487,1493,1499,1505,1511,1517,1523,1529,1535,1541,1547,1553,1559,0,0,0,0,0,0,0,0,0,0,0,0,0,0,0,0,0,0,0,0,0,0,0,0,0,0,0,0,0,0,0,0,0,0,0,0,0,0,0,0,0,0,0,0,0,0,0,0,0,0,0,0,0,0,0,0,0,0,0,0,0,0,0,0,0,0,0,0,0,0,0,0,0,0,0,0,0,0,0,0,0,0,0,0,0,0,0,0,0,0,0,0,0,0,0,0,0,0,0,0,0,0,0,0,0,0,0,0,0,0,0,0,0,0,0,0,0,0,0,0,0,0,0,0,0,0,0,0,0,0,0,0,0,0,0,0,0,0,0,0,0,0,0,0,0,0,0,0,0,0,0,0,0,0,0,0,0,0,0,0,0,0,0,0,0,0,0,0,0,0,0,0,0,0,0,0,0,0,0,0,0,0,0,0,0,0,0,0,0,0,0,0,0,0,0,0,0,0,0,0,0,0,0,0,0,0,0,0,0,0,0,0,0,0,0,0,0,0,0,0,0,0,0,0,0,0,0,0,0,0,0,1415,1421,1427,1433,1439,1445,1451,1457,1463,1469,1475,1481,1487,1493,1499,1505,1511,1517,1523,1529,1535,1541,1547,1553,1559,0,0,0,0,0,0,0,0,0,0,0,0,0,0,0,0,0,0,0,0,0,0,0,0,0,0,0,0,0,0,0,0,0,0,0,0,0,0,0,0,0,0,0,0,0,0,0,0,0,0,0,0,0,0,0,0,0,0,0,0,0,0,0,0,0,0,0,0,0,0,0,0,0,0,0,0,0,0,0,0,0,0,0,0,0,0,0,0,0,0,0,0,0,0,0,0,0,0,0,0,0,0,0,0,0,0,0,0,0,0,0,0,0,0,0,0,0,0,0,0,0,0,0,0,0,0,0,0,0,0,0,0,0,0,0,0,0,0,0,0,0,0,0,0,0,0,0,0,0,0,0,0,0,0,0,0,0,0,0,0,0,0,0,0,0,0,0,0,0,0,0,0,0,0,0,0,0,0,0,0,0,0,0,0,0,0,0,0,0,0,0,0,0,0,0,0,0,0,0,0,0,0,0,0,0,0,0,0,0,0,0,0,0,0,0,0,0,0,0,0,0,0,0,0,0,0,0,0,0,1579,1585,1591,1597,1603,1609,1615,1621,1627,1633,1639,1645,1651,1657,1663,1669,1675,1681,1687,1693,1699,1705,1711,1717,1723,1729,1735,0,0,0,0,0,0,0,0,0,0,0,0,0,0,0,0,0,0,0,0,0,0,0,0,0,0,0,0,0,0,0,0,0,0,0,0,0,0,0,0,0,0,0,0,0,0,0,0,0,0,0,0,0,0,0,0,0,0,0,0,0,0,0,0,0,0,0,0,0,0,0,0,0,0,0,0,0,0,0,0,0,0,0,0,0,0,0,0,0,0,0,0,0,0,0,0,0,0,0,0,0,0,0,0,0,0,0,0,0,0,0,0,0,0,0,0,0,0,0,0,0,0,0,0,0,0,0,0,0,0,0,0,0,0,0,0,0,0,0,0,0,0,0,0,0,0,0,0,0,0,0,0,0,0,0,0,0,0,0,0,0,0,0,0,0,0,0,0,0,0,0,0,0,0,0,0,0,0,0,0,0,0,0,0,0,0,0,0,0,0,0,0,0,0,0,0,0,0,0,0,0,0,0,0,0,0,0,0,0,0,0,0,0,0,0,0,0,0,0,0,0,0,0,0,0,0,0,0,1754,1760,1766,1772,1778,1784,1790,1796,1802,1808,1814,1820,1826,1832,1838,1844,1850,1856,1862,1868,1874,1880,1886,1892,1898,1904,1910,1916,0,0,0,0,0,0,0,0,0,0,0,0,0,0,0,0,0,0,0,0,0,0,0,0,0,0,0,0,0,0,0,0,0,0,0,0,0,0,0,0,0,0,0,0,0,0,0,0,0,0,0,0,0,0,0,0,0,0,0,0,0,0,0,0,0,0,0,0,0,0,0,0,0,0,0,0,0,0,0,0,0,0,0,0,0,0,0,0,0,0,0,0,0,0,0,0,0,0,0,0,0,0,0,0,0,0,0,0,0,0,0,0,0,0,0,0,0,0,0,0,0,0,0,0,0,0,0,0,0,0,0,0,0,0,0,0,0,0,0,0,0,0,0,0,0,0,0,0,0,0,0,0,0,0,0,0,0,0,0,0,0,0,0,0,0,0,0,0,0,0,0,0,0,0,0,0,0,0,0,0,0,0,0,0,0,0,0,0,0,0,0,0,0,0,0,0,0,0,0,0,0,0,0,0,0,0,0,0,0,0,0,0,0,0,0,0,0,0,0,0,0,0,0,0,0,0,0,0,1935,1941,1947,1953,1959,1965,1971,1977,1983,1989,1995,2001,2007,2013,2019,2025,2031,2037,2043,2049,2055,2061,2067,2073,2079,2085,2091,0,0,0,0,0,0,0,0,0,0,0,0,0,0,0,0,0,0,0,0,0,0,0,0,0,0,0,0,0,0,0,0,0,0,0,0,0,0,0,0,0,0,0,0,0,0,0,0,0,0,0,0,0,0,0,0,0,0,0,0,0,0,0,0,0,0,0,0,0,0,0,0,0,0,0,0,0,0,0,0,0,0,0,0,0,0,0,0,0,0,0,0,0,0,0,0,0,0,0,0,0,0,0,0,0,0,0,0,0,0,0,0,0,0,0,0,0,0,0,0,0,0,0,0,0,0,0,0,0,0,0,0,0,0,0,0,0,0,0,0,0,0,0,0,0,0,0,0,0,0,0,0,0,0,0,0,0,0,0,0,0,0,0,0,0,0,0,0,0,0,0,0,0,0,0,0,0,0,0,0,0,0,0,0,0,0,0,0,0,0,0,0,0,0,0,0,0,0,0,0,0,0,0,0,0,0,0,0,0,0,0,0,0,0,0,0,0,0,0,0,0,0,0,0,0,0,0,2109,2115,2121,2127,2133,2139,2145,2151,2157,2163,2169,2175,2181,2187,2193,2199,2205,2211,2217,2223,2229,2235,2241,2247,2253,2259,2265,2271,2277,0,0,0,0,0,0,0,0,0,0,0,0,0,0,0,0,0,0,0,0,0,0,0,0,0,0,0,0,0,0,0,0,0,0,0,0,0,0,0,0,0,0,0,0,0,0,0,0,0,0,0,0,0,0,0,0,0,0,0,0,0,0,0,0,0,0,0,0,0,0,0,0,0,0,0,0,0,0,0,0,0,0,0,0,0,0,0,0,0,0,0,0,0,0,0,0,0,0,0,0,0,0,0,0,0,0,0,0,0,0,0,0,0,0,0,0,0,0,0,0,0,0,0,0,0,0,0,0,0,0,0,0,0,0,0,0,0,0,0,0,0,0,0,0,0,0,0,0,0,0,0,0,0,0,0,0,0,0,0,0,0,0,0,0,0,0,0,0,0,0,0,0,0,0,0,0,0,0,0,0,0,0,0,0,0,0,0,0,0,0,0,0,0,0,0,0,0,0,0,0,0,0,0,0,0,0,0,0,0,0,0,0,0,0,0,0,0,0,0,0,0,0,0,0,0,0,2294,2300,2306,2312,2318,2324,2330,2336,2342,2348,2354,2360,2366,2372,2378,2384,2390,2396,2402,2408,2414,2420,2426,2432,2438,2444,2450,2456,2462,2468,0,0,0,0,0,0,0,0,0,0,0,0,0,0,0,0,0,0,0,0,0,0,0,0,0,0,0,0,0,0,0,0,0,0,0,0,0,0,0,0,0,0,0,0,0,0,0,0,0,0,0,0,0,0,0,0,0,0,0,0,0,0,0,0,0,0,0,0,0,0,0,0,0,0,0,0,0,0,0,0,0,0,0,0,0,0,0,0,0,0,0,0,0,0,0,0,0,0,0,0,0,0,0,0,0,0,0,0,0,0,0,0,0,0,0,0,0,0,0,0,0,0,0,0,0,0,0,0,0,0,0,0,0,0,0,0,0,0,0,0,0,0,0,0,0,0,0,0,0,0,0,0,0,0,0,0,0,0,0,0,0,0,0,0,0,0,0,0,0,0,0,0,0,0,0,0,0,0,0,0,0,0,0,0,0,0,0,0,0,0,0,0,0,0,0,0,0,0,0,0,0,0,0,0,0,0,0,0,0,0,0,0,0,0,0,0,0,0,0,0,0,0,0,0,0,0,2485,2491,2497,2503,2509,2515,2521,2527,2533,2539,2545,2551,2557,2563,2569,2575,2581,2587,2593,2599,2605,2611,2617,2623,2629,2635,2641,2647,2653,2659,2665,0,0,0,0,0,0,0,0,0,0,0,0,0,0,0,0,0,0,0,0,0,0,0,0,0,0,0,0,0,0,0,0,0,0,0,0,0,0,0,0,0,0,0,0,0,0,0,0,0,0,0,0,0,0,0,0,0,0,0,0,0,0,0,0,0,0,0,0,0,0,0,0,0,0,0,0,0,0,0,0,0,0,0,0,0,0,0,0,0,0,0,0,0,0,0,0,0,0,0,0,0,0,0,0,0,0,0,0,0,0,0,0,0,0,0,0,0,0,0,0,0,0,0,0,0,0,0,0,0,0,0,0,0,0,0,0,0,0,0,0,0,0,0,0,0,0,0,0,0,0,0,0,0,0,0,0,0,0,0,0,0,0,0,0,0,0,0,0,0,0,0,0,0,0,0,0,0,0,0,0,0,0,0,0,0,0,0,0,0,0,0,0,0,0,0,0,0,0,0,0,0,0,0,0,0,0,0,0,0,0,0,0,0,0,0,0,0,0,0,0,0,0,0,0,2680,2686,2692,2698,2704,2710,2716,2722,2728,2734,2740,2746,2752,2758,2764,2770,2776,2782,2788,2794,2800,2806,2812,2818,2824,2830,2836,2842,2848,2854,2860,2866,2872,0,0,0,0,0,0,0,0,0,0,0,0,0,0,0,0,0,0,0,0,0,0,0,0,0,0,0,0,0,0,0,0,0,0,0,0,0,0,0,0,0,0,0,0,0,0,0,0,0,0,0,0,0,0,0,0,0,0,0,0,0,0,0,0,0,0,0,0,0,0,0,0,0,0,0,0,0,0,0,0,0,0,0,0,0,0,0,0,0,0,0,0,0,0,0,0,0,0,0,0,0,0,0,0,0,0,0,0,0,0,0,0,0,0,0,0,0,0,0,0,0,0,0,0,0,0,0,0,0,0,0,0,0,0,0,0,0,0,0,0,0,0,0,0,0,0,0,0,0,0,0,0,0,0,0,0,0,0,0,0,0,0,0,0,0,0,0,0,0,0,0,0,0,0,0,0,0,0,0,0,0,0,0,0,0,0,0,0,0,0,0,0,0,0,0,0,0,0,0,0,0,0,0,0,0,0,0,0,0,0,0,0,0,0,0,0,0,0,0,0,0,0,0,2886,2892,2898,2904,2910,2916,2922,2928,2934,2940,2946,2952,2958,2964,2970,2976,2982,2988,2994,3000,3006,3012,3018,3024,3030,3036,3042,3048,3054,3060,3066,3072,3078,3084,0,0,0,0,0,0,0,0,0,0,0,0,0,0,0,0,0,0,0,0,0,0,0,0,0,0,0,0,0,0,0,0,0,0,0,0,0,0,0,0,0,0,0,0,0,0,0,0,0,0,0,0,0,0,0,0,0,0,0,0,0,0,0,0,0,0,0,0,0,0,0,0,0,0,0,0,0,0,0,0,0,0,0,0,0,0,0,0,0,0,0,0,0,0,0,0,0,0,0,0,0,0,0,0,0,0,0,0,0,0,0,0,0,0,0,0,0,0,0,0,0,0,0,0,0,0,0,0,0,0,0,0,0,0,0,0,0,0,0,0,0,0,0,0,0,0,0,0,0,0,0,0,0,0,0,0,0,0,0,0,0,0,0,0,0,0,0,0,0,0,0,0,0,0,0,0,0,0,0,0,0,0,0,0,0,0,0,0,0,0,0,0,0,0,0,0,0,0,0,0,0,0,0,0,0,0,0,0,0,0,0,0,0,0,0,0,0,0,0,0,0,0,3097,3103,3109,3115,3121,3127,3133,3139,3145,0,0,0,0,0,0,0,0,3159,3165,3171,3177,3183,3189,3195,3201,3207,3213,3219,3225,3231,3237,3243,3249,3255,3261,0,0,0,0,0,0,0,0,0,0,0,0,0,0,0,0,0,0,0,0,0,0,0,0,0,0,0,0,0,0,0,0,0,0,0,0,0,0,0,0,0,0,0,0,0,0,0,0,0,0,0,0,0,0,0,0,0,0,0,0,0,0,0,0,0,0,0,0,0,0,0,0,0,0,0,0,0,0,0,0,0,0,0,0,0,0,0,0,0,0,0,0,0,0,0,0,0,0,0,0,0,0,0,0,0,0,0,0,0,0,0,0,0,0,0,0,0,0,0,0,0,0,0,0,0,0,0,0,0,0,0,0,0,0,0,0,0,0,0,0,0,0,0,0,0,0,0,0,0,0,0,0,0,0,0,0,0,0,0,0,0,0,0,0,0,0,0,0,0,0,0,0,0,0,0,0,0,0,0,0,0,0,0,0,0,0,0,0,0,0,0,0,0,0,0,0,0,0,0,0,0,0,0,0,0,0,0,0,0,0,0,0,0,0,0,0,0,0,0,0,0,3273,3279,3285,3291,3297,3303,3309,3315,3321,0,0,0,0,0,0,0,0,3335,3341,3347,3353,3359,3365,3371,3377,3383,3389,3395,3401,3407,3413,3419,3425,3431,3437,0,0,0,0,0,0,0,0,0,0,0,0,0,0,0,0,0,0,0,0,0,0,0,0,0,0,0,0,0,0,0,0,0,0,0,0,0,0,0,0,0,0,0,0,0,0,0,0,0,0,0,0,0,0,0,0,0,0,0,0,0,0,0,0,0,0,0,0,0,0,0,0,0,0,0,0,0,0,0,0,0,0,0,0,0,0,0,0,0,0,0,0,0,0,0,0,0,0,0,0,0,0,0,0,0,0,0,0,0,0,0,0,0,0,0,0,0,0,0,0,0,0,0,0,0,0,0,0,0,0,0,0,0,0,0,0,0,0,0,0,0,0,0,0,0,0,0,0,0,0,0,0,0,0,0,0,0,0,0,0,0,0,0,0,0,0,0,0,0,0,0,0,0,0,0,0,0,0,0,0,0,0,0,0,0,0,0,0,0,0,0,0,0,0,0,0,0,0,0,0,0,0,0,0,0,0,0,0,0,0,0,0,0,0,0,0,0,0,0,0,3448,3454,3460,3466,3472,3478,3484,3490,3496,0,0,0,0,0,0,0,0,0,0,3512,3518,3524,3530,3536,3542,3548,3554,3560,3566,3572,3578,3584,3590,3596,3602,3608,0,0,0,0,0,0,0,0,0,0,0,0,0,0,0,0,0,0,0,0,0,0,0,0,0,0,0,0,0,0,0,0,0,0,0,0,0,0,0,0,0,0,0,0,0,0,0,0,0,0,0,0,0,0,0,0,0,0,0,0,0,0,0,0,0,0,0,0,0,0,0,0,0,0,0,0,0,0,0,0,0,0,0,0,0,0,0,0,0,0,0,0,0,0,0,0,0,0,0,0,0,0,0,0,0,0,0,0,0,0,0,0,0,0,0,0,0,0,0,0,0,0,0,0,0,0,0,0,0,0,0,0,0,0,0,0,0,0,0,0,0,0,0,0,0,0,0,0,0,0,0,0,0,0,0,0,0,0,0,0,0,0,0,0,0,0,0,0,0,0,0,0,0,0,0,0,0,0,0,0,0,0,0,0,0,0,0,0,0,0,0,0,0,0,0,0,0,0,0,0,0,0,0,0,0,0,0,0,0,0,0,0,0,0,0,0,0,0,0,0,3619,3625,3631,3637,3643,3649,3655,3661,3667,3673,0,0,0,0,0,0,0,0,3687,3693,3699,3705,3711,3717,3723,3729,3735,3741,3747,3753,3759,3765,3771,3777,3783,3789,3795,0,0,0,0,0,0,0,0,0,0,0,0,0,0,0,0,0,0,0,0,0,0,0,0,0,0,0,0,0,0,0,0,0,0,0,0,0,0,0,0,0,0,0,0,0,0,0,0,0,0,0,0,0,0,0,0,0,0,0,0,0,0,0,0,0,0,0,0,0,0,0,0,0,0,0,0,0,0,0,0,0,0,0,0,0,0,0,0,0,0,0,0,0,0,0,0,0,0,0,0,0,0,0,0,0,0,0,0,0,0,0,0,0,0,0,0,0,0,0,0,0,0,0,0,0,0,0,0,0,0,0,0,0,0,0,0,0,0,0,0,0,0,0,0,0,0,0,0,0,0,0,0,0,0,0,0,0,0,0,0,0,0,0,0,0,0,0,0,0,0,0,0,0,0,0,0,0,0,0,0,0,0,0,0,0,0,0,0,0,0,0,0,0,0,0,0,0,0,0,0,0,0,0,0,0,0,0,0,0,0,0,0,0,0,0,0,0,0,0,3805,3811,3817,3823,3829,3835,3841,3847,3853,3859,3865,0,0,0,0,0,0,3877,3883,3889,3895,3901,3907,3913,3919,3925,3931,3937,3943,3949,3955,3961,3967,3973,3979,3985,3991,0,0,0,0,0,0,0,0,0,0,0,0,0,0,0,0,0,0,0,0,0,0,0,0,0,0,0,0,0,0,0,0,0,0,0,0,0,0,0,0,0,0,0,0,0,0,0,0,0,0,0,0,0,0,0,0,0,0,0,0,0,0,0,0,0,0,0,0,0,0,0,0,0,0,0,0,0,0,0,0,0,0,0,0,0,0,0,0,0,0,0,0,0,0,0,0,0,0,0,0,0,0,0,0,0,0,0,0,0,0,0,0,0,0,0,0,0,0,0,0,0,0,0,0,0,0,0,0,0,0,0,0,0,0,0,0,0,0,0,0,0,0,0,0,0,0,0,0,0,0,0,0,0,0,0,0,0,0,0,0,0,0,0,0,0,0,0,0,0,0,0,0,0,0,0,0,0,0,0,0,0,0,0,0,0,0,0,0,0,0,0,0,0,0,0,0,0,0,0,0,0,0,0,0,0,0,0,0,0,0,0,0,0,0,0,0,0,0,0,4001,4007,4013,4019,4025,4031,4037,4043,4049,4055,4061,4067,0,0,0,0,4077,4083,4089,4095,4101,4107,4113,4119,4125,4131,4137,4143,4149,4155,4161,4167,4173,4179,4185,4191,4197,0,0,0,0,0,0,0,0,0,0,0,0,0,0,0,0,0,0,0,0,0,0,0,0,0,0,0,0,0,0,0,0,0,0,0,0,0,0,0,0,0,0,0,0,0,0,0,0,0,0,0,0,0,0,0,0,0,0,0,0,0,0,0,0,0,0,0,0,0,0,0,0,0,0,0,0,0,0,0,0,0,0,0,0,0,0,0,0,0,0,0,0,0,0,0,0,0,0,0,0,0,0,0,0,0,0,0,0,0,0,0,0,0,0,0,0,0,0,0,0,0,0,0,0,0,0,0,0,0,0,0,0,0,0,0,0,0,0,0,0,0,0,0,0,0,0,0,0,0,0,0,0,0,0,0,0,0,0,0,0,0,0,0,0,0,0,0,0,0,0,0,0,0,0,0,0,0,0,0,0,0,0,0,0,0,0,0,0,0,0,0,0,0,0,0,0,0,0,0,0,0,0,0,0,0,0,0,0,0,0,0,0,0,0,0,0,0,0,0,0,4208,4214,4220,4226,4232,4238,4244,4250,4256,4262,4268,4274,4280,4286,4292,4298,4304,4310,4316,4322,4328,4334,4340,4346,4352,4358,4364,4370,4376,4382,4388,4394,4400,4406,4412,4418,0,0,0,0,0,0,0,0,0,0,0,0,0,0,0,0,0,0,0,0,0,0,0,0,0,0,0,0,0,0,0,0,0,0,0,0,0,0,0,0,0,0,0,0,0,0,0,0,0,0,0,0,0,0,0,0,0,0,0,0,0,0,0,0,0,0,0,0,0,0,0,0,0,0,0,0,0,0,0,0,0,0,0,0,0,0,0,0,0,0,0,0,0,0,0,0,0,0,0,0,0,0,0,0,0,0,0,0,0,0,0,0,0,0,0,0,0,0,0,0,0,0,0,0,0,0,0,0,0,0,0,0,0,0,0,0,0,0,0,0,0,0,0,0,0,0,0,0,0,0,0,0,0,0,0,0,0,0,0,0,0,0,0,0,0,0,0,0,0,0,0,0,0,0,0,0,0,0,0,0,0,0,0,0,0,0,0,0,0,0,0,0,0,0,0,0,0,0,0,0,0,0,0,0,0,0,0,0,0,0,0,0,0,0,0,0,0,0,0,0,4429,4435,4441,4447,4453,4459,4465,4471,4477,4483,4489,4495,4501,4507,4513,4519,4525,4531,4537,4543,4549,4555,4561,4567,4573,4579,4585,4591,4597,4603,4609,4615,4621,4627,4633,0,0,0,0,0,0,0,0,0,0,0,0,0,0,0,0,0,0,0,0,0,0,0,0,0,0,0,0,0,0,0,0,0,0,0,0,0,0,0,0,0,0,0,0,0,0,0,0,0,0,0,0,0,0,0,0,0,0,0,0,0,0,0,0,0,0,0,0,0,0,0,0,0,0,0,0,0,0,0,0,0,0,0,0,0,0,0,0,0,0,0,0,0,0,0,0,0,0,0,0,0,0,0,0,0,0,0,0,0,0,0,0,0,0,0,0,0,0,0,0,0,0,0,0,0,0,0,0,0,0,0,0,0,0,0,0,0,0,0,0,0,0,0,0,0,0,0,0,0,0,0,0,0,0,0,0,0,0,0,0,0,0,0,0,0,0,0,0,0,0,0,0,0,0,0,0,0,0,0,0,0,0,0,0,0,0,0,0,0,0,0,0,0,0,0,0,0,0,0,0,0,0,0,0,0,0,0,0,0,0,0,0,0,0,0,0,0,0,0,0,0,4645,4651,4657,4663,4669,4675,4681,4687,4693,4699,4705,4711,4717,4723,4729,4735,4741,4747,4753,4759,4765,4771,4777,4783,4789,4795,4801,4807,4813,4819,4825,4831,4837,4843,4849,0,0,0,0,0,0,0,0,0,0,0,0,0,0,0,0,0,0,0,0,0,0,0,0,0,0,0,0,0,0,0,0,0,0,0,0,0,0,0,0,0,0,0,0,0,0,0,0,0,0,0,0,0,0,0,0,0,0,0,0,0,0,0,0,0,0,0,0,0,0,0,0,0,0,0,0,0,0,0,0,0,0,0,0,0,0,0,0,0,0,0,0,0,0,0,0,0,0,0,0,0,0,0,0,0,0,0,0,0,0,0,0,0,0,0,0,0,0,0,0,0,0,0,0,0,0,0,0,0,0,0,0,0,0,0,0,0,0,0,0,0,0,0,0,0,0,0,0,0,0,0,0,0,0,0,0,0,0,0,0,0,0,0,0,0,0,0,0,0,0,0,0,0,0,0,0,0,0,0,0,0,0,0,0,0,0,0,0,0,0,0,0,0,0,0,0,0,0,0,0,0,0,0,0,0,0,0,0,0,0,0,0,0,0,0,0,0,0,0,0,0,4861,4867,4873,4879,4885,4891,4897,4903,4909,4915,4921,4927,4933,4939,4945,4951,4957,4963,4969,4975,4981,4987,4993,4999,5005,5011,5017,5023,5029,5035,5041,5047,5053,5059,5065,0,0,0,0,0,0,0,0,0,0,0,0,0,0,0,0,0,0,0,0,0,0,0,0,0,0,0,0,0,0,0,0,0,0,0,0,0,0,0,0,0,0,0,0,0,0,0,0,0,0,0,0,0,0,0,0,0,0,0,0,0,0,0,0,0,0,0,0,0,0,0,0,0,0,0,0,0,0,0,0,0,0,0,0,0,0,0,0,0,0,0,0,0,0,0,0,0,0,0,0,0,0,0,0,0,0,0,0,0,0,0,0,0,0,0,0,0,0,0,0,0,0,0,0,0,0,0,0,0,0,0,0,0,0,0,0,0,0,0,0,0,0,0,0,0,0,0,0,0,0,0,0,0,0,0,0,0,0,0,0,0,0,0,0,0,0,0,0,0,0,0,0,0,0,0,0,0,0,0,0,0,0,0,0,0,0,0,0,0,0,0,0,0,0,0,0,0,0,0,0,0,0,0,0,0,0,0,0,0,0,0,0,0,0,0,0,0,0,0,0,5076,5082,5088,5094,5100,5106,5112,5118,5124,5130,5136,5142,5148,5154,5160,5166,5172,5178,5184,5190,5196,5202,5208,5214,5220,5226,5232,5238,5244,5250,5256,5262,5268,5274,5280,5286,0,0,0,0,0,0,0,0,0,0,0,0,0,0,0,0,0,0,0,0,0,0,0,0,0,0,0,0,0,0,0,0,0,0,0,0,0,0,0,0,0,0,0,0,0,0,0,0,0,0,0,0,0,0,0,0,0,0,0,0,0,0,0,0,0,0,0,0,0,0,0,0,0,0,0,0,0,0,0,0,0,0,0,0,0,0,0,0,0,0,0,0,0,0,0,0,0,0,0,0,0,0,0,0,0,0,0,0,0,0,0,0,0,0,0,0,0,0,0,0,0,0,0,0,0,0,0,0,0,0,0,0,0,0,0,0,0,0,0,0,0,0,0,0,0,0,0,0,0,0,0,0,0,0,0,0,0,0,0,0,0,0,0,0,0,0,0,0,0,0,0,0,0,0,0,0,0,0,0,0,0,0,0,0,0,0,0,0,0,0,0,0,0,0,0,0,0,0,0,0,0,0,0,0,0,0,0,0,0,0,0,0,0,0,0,0,0,0,0,0,5297,5303,5309,5315,5321,5327,5333,5339,5345,5351,5357,5363,5369,5375,5381,5387,5393,5399,5405,5411,5417,5423,5429,5435,5441,5447,5453,5459,5465,5471,5477,5483,5489,5495,5501,5507,5513,0,0,0,0,0,0,0,0,0,0,0,0,0,0,0,0,0,0,0,0,0,0,0,0,0,0,0,0,0,0,0,0,0,0,0,0,0,0,0,0,0,0,0,0,0,0,0,0,0,0,0,0,0,0,0,0,0,0,0,0,0,0,0,0,0,0,0,0,0,0,0,0,0,0,0,0,0,0,0,0,0,0,0,0,0,0,0,0,0,0,0,0,0,0,0,0,0,0,0,0,0,0,0,0,0,0,0,0,0,0,0,0,0,0,0,0,0,0,0,0,0,0,0,0,0,0,0,0,0,0,0,0,0,0,0,0,0,0,0,0,0,0,0,0,0,0,0,0,0,0,0,0,0,0,0,0,0,0,0,0,0,0,0,0,0,0,0,0,0,0,0,0,0,0,0,0,0,0,0,0,0,0,0,0,0,0,0,0,0,0,0,0,0,0,0,0,0,0,0,0,0,0,0,0,0,0,0,0,0,0,0,0,0,0,0,0,0,0,0,5523,5529,5535,5541,5547,5553,5559,5565,5571,5577,5583,5589,5595,5601,5607,5613,5619,5625,5631,5637,5643,5649,0,0,0,0,0,5660,5666,5672,5678,5684,5690,5696,5702,5708,5714,0,0,0,0,0,0,0,0,0,0,0,0,0,0,0,0,0,0,0,0,0,0,0,0,0,0,0,0,0,0,0,0,0,0,0,0,0,0,0,0,0,0,0,0,0,0,0,0,0,0,0,0,0,0,0,0,0,0,0,0,0,0,0,0,0,0,0,0,0,0,0,0,0,0,0,0,0,0,0,0,0,0,0,0,0,0,0,0,0,0,0,0,0,0,0,0,0,0,0,0,0,0,0,0,0,0,0,0,0,0,0,0,0,0,0,0,0,0,0,0,0,0,0,0,0,0,0,0,0,0,0,0,0,0,0,0,0,0,0,0,0,0,0,0,0,0,0,0,0,0,0,0,0,0,0,0,0,0,0,0,0,0,0,0,0,0,0,0,0,0,0,0,0,0,0,0,0,0,0,0,0,0,0,0,0,0,0,0,0,0,0,0,0,0,0,0,0,0,0,0,0,0,0,0,0,0,0,0,0,0,0,0,0,0,0,0,0,0,0,5724,5730,5736,5742,5748,5754,5760,5766,5772,5778,5784,5790,5796,5802,5808,5814,5820,5826,5832,5838,5844,0,0,0,0,0,0,5856,5862,5868,5874,5880,5886,5892,5898,5904,5910,0,0,0,0,0,0,0,0,0,0,0,0,0,0,0,0,0,0,0,0,0,0,0,0,0,0,0,0,0,0,0,0,0,0,0,0,0,0,0,0,0,0,0,0,0,0,0,0,0,0,0,0,0,0,0,0,0,0,0,0,0,0,0,0,0,0,0,0,0,0,0,0,0,0,0,0,0,0,0,0,0,0,0,0,0,0,0,0,0,0,0,0,0,0,0,0,0,0,0,0,0,0,0,0,0,0,0,0,0,0,0,0,0,0,0,0,0,0,0,0,0,0,0,0,0,0,0,0,0,0,0,0,0,0,0,0,0,0,0,0,0,0,0,0,0,0,0,0,0,0,0,0,0,0,0,0,0,0,0,0,0,0,0,0,0,0,0,0,0,0,0,0,0,0,0,0,0,0,0,0,0,0,0,0,0,0,0,0,0,0,0,0,0,0,0,0,0,0,0,0,0,0,0,0,0,0,0,0,0,0,0,0,0,0,0,0,0,0,0,0,5921,5927,5933,5939,5945,5951,5957,5963,5969,5975,5981,5987,5993,5999,6005,6011,6017,6023,6029,0,0,0,0,0,0,0,0,6043,6049,6055,6061,6067,6073,6079,6085,6091,0,0,0,0,0,0,0,0,0,0,0,0,0,0,0,0,0,0,0,0,0,0,0,0,0,0,0,0,0,0,0,0,0,0,0,0,0,0,0,0,0,0,0,0,0,0,0,0,0,0,0,0,0,0,0,0,0,0,0,0,0,0,0,0,0,0,0,0,0,0,0,0,0,0,0,0,0,0,0,0,0,0,0,0,0,0,0,0,0,0,0,0,0,0,0,0,0,0,0,0,0,0,0,0,0,0,0,0,0,0,0,0,0,0,0,0,0,0,0,0,0,0,0,0,0,0,0,0,0,0,0,0,0,0,0,0,0,0,0,0,0,0,0,0,0,0,0,0,0,0,0,0,0,0,0,0,0,0,0,0,0,0,0,0,0,0,0,0,0,0,0,0,0,0,0,0,0,0,0,0,0,0,0,0,0,0,0,0,0,0,0,0,0,0,0,0,0,0,0,0,0,0,0,0,0,0,0,0,0,0,0,0,0,0,0,0,0,0,0,0,6102,6108,6114,6120,6126,6132,6138,6144,6150,6156,6162,6168,6174,6180,6186,6192,6198,6204,6210,0,0,0,0,0,0,0,0,6224,6230,6236,6242,6248,6254,6260,6266,0,0,0,0,0,0,0,0,0,0,0,0,0,0,0,0,0,0,0,0,0,0,0,0,0,0,0,0,0,0,0,0,0,0,0,0,0,0,0,0,0,0,0,0,0,0,0,0,0,0,0,0,0,0,0,0,0,0,0,0,0,0,0,0,0,0,0,0,0,0,0,0,0,0,0,0,0,0,0,0,0,0,0,0,0,0,0,0,0,0,0,0,0,0,0,0,0,0,0,0,0,0,0,0,0,0,0,0,0,0,0,0,0,0,0,0,0,0,0,0,0,0,0,0,0,0,0,0,0,0,0,0,0,0,0,0,0,0,0,0,0,0,0,0,0,0,0,0,0,0,0,0,0,0,0,0,0,0,0,0,0,0,0,0,0,0,0,0,0,0,0,0,0,0,0,0,0,0,0,0,0,0,0,0,0,0,0,0,0,0,0,0,0,0,0,0,0,0,0,0,0,0,0,0,0,0,0,0,0,0,0,0,0,0,0,0,0,0,0,0,0,6278,6284,6290,6296,6302,6308,6314,6320,6326,6332,6338,6344,6350,6356,6362,6368,6374,6380,6386,0,0,0,0,0,0,0,0,6400,6406,6412,6418,6424,6430,6436,6442,0,0,0,0,0,0,0,0,0,0,0,0,0,0,0,0,0,0,0,0,0,0,0,0,0,0,0,0,0,0,0,0,0,0,0,0,0,0,0,0,0,0,0,0,0,0,0,0,0,0,0,0,0,0,0,0,0,0,0,0,0,0,0,0,0,0,0,0,0,0,0,0,0,0,0,0,0,0,0,0,0,0,0,0,0,0,0,0,0,0,0,0,0,0,0,0,0,0,0,0,0,0,0,0,0,0,0,0,0,0,0,0,0,0,0,0,0,0,0,0,0,0,0,0,0,0,0,0,0,0,0,0,0,0,0,0,0,0,0,0,0,0,0,0,0,0,0,0,0,0,0,0,0,0,0,0,0,0,0,0,0,0,0,0,0,0,0,0,0,0,0,0,0,0,0,0,0,0,0,0,0,0,0,0,0,0,0,0,0,0,0,0,0,0,0,0,0,0,0,0,0,0,0,0,0,0,0,0,0,0,0,0,0,0,0,0,0,0,0,0,0,0,6455,6461,6467,6473,6479,6485,6491,6497,6503,6509,6515,6521,6527,6533,6539,6545,6551,0,0,0,0,0,0,0,0,0,0,6567,6573,6579,6585,6591,6597,6603,0,0,0,0,0,0,0,0,0,0,0,0,0,0,0,0,0,0,0,0,0,0,0,0,0,0,0,0,0,0,0,0,0,0,0,0,0,0,0,0,0,0,0,0,0,0,0,0,0,0,0,0,0,0,0,0,0,0,0,0,0,0,0,0,0,0,0,0,0,0,0,0,0,0,0,0,0,0,0,0,0,0,0,0,0,0,0,0,0,0,0,0,0,0,0,0,0,0,0,0,0,0,0,0,0,0,0,0,0,0,0,0,0,0,0,0,0,0,0,0,0,0,0,0,0,0,0,0,0,0,0,0,0,0,0,0,0,0,0,0,0,0,0,0,0,0,0,0,0,0,0,0,0,0,0,0,0,0,0,0,0,0,0,0,0,0,0,0,0,0,0,0,0,0,0,0,0,0,0,0,0,0,0,0,0,0,0,0,0,0,0,0,0,0,0,0,0,0,0,0,0,0,0,0,0,0,0,0,0,0,0,0,0,0,0,0,0,0,0,0,0,0,0,6617,6623,6629,6635,6641,6647,6653,6659,6665,6671,6677,6683,6689,6695,6701,6707,6713,0,0,0,0,0,0,0,0,6727,6733,6739,6745,6751,6757,6763,6769,0,0,0,0,0,0,0,0,0,0,0,0,0,0,0,0,0,0,0,0,0,0,0,0,0,0,0,0,0,0,0,0,0,0,0,0,0,0,0,0,0,0,0,0,0,0,0,0,0,0,0,0,0,0,0,0,0,0,0,0,0,0,0,0,0,0,0,0,0,0,0,0,0,0,0,0,0,0,0,0,0,0,0,0,0,0,0,0,0,0,0,0,0,0,0,0,0,0,0,0,0,0,0,0,0,0,0,0,0,0,0,0,0,0,0,0,0,0,0,0,0,0,0,0,0,0,0,0,0,0,0,0,0,0,0,0,0,0,0,0,0,0,0,0,0,0,0,0,0,0,0,0,0,0,0,0,0,0,0,0,0,0,0,0,0,0,0,0,0,0,0,0,0,0,0,0,0,0,0,0,0,0,0,0,0,0,0,0,0,0,0,0,0,0,0,0,0,0,0,0,0,0,0,0,0,0,0,0,0,0,0,0,0,0,0,0,0,0,0,0,0,0,0,0,0,6785,6791,6797,6803,6809,6815,6821,6827,6833,6839,6845,6851,6857,6863,6869,6875,0,0,0,0,0,0,6887,6893,6899,6905,6911,6917,6923,6929,6935,6941,0,0,0,0,0,0,0,0,0,0,0,0,0,0,0,0,0,0,0,0,0,0,0,0,0,0,0,0,0,0,0,0,0,0,0,0,0,0,0,0,0,0,0,0,0,0,0,0,0,0,0,0,0,0,0,0,0,0,0,0,0,0,0,0,0,0,0,0,0,0,0,0,0,0,0,0,0,0,0,0,0,0,0,0,0,0,0,0,0,0,0,0,0,0,0,0,0,0,0,0,0,0,0,0,0,0,0,0,0,0,0,0,0,0,0,0,0,0,0,0,0,0,0,0,0,0,0,0,0,0,0,0,0,0,0,0,0,0,0,0,0,0,0,0,0,0,0,0,0,0,0,0,0,0,0,0,0,0,0,0,0,0,0,0,0,0,0,0,0,0,0,0,0,0,0,0,0,0,0,0,0,0,0,0,0,0,0,0,0,0,0,0,0,0,0,0,0,0,0,0,0,0,0,0,0,0,0,0,0,0,0,0,0,0,0,0,0,0,0,0,0,0,0,0,0,0,6958,6964,6970,6976,6982,6988,6994,7000,7006,7012,7018,7024,7030,7036,7042,0,0,0,0,7052,7058,7064,7070,7076,7082,7088,7094,7100,7106,7112,0,0,0,0,0,0,0,0,0,0,0,0,0,0,0,0,0,0,0,0,0,0,0,0,0,0,0,0,0,0,0,0,0,0,0,0,0,0,0,0,0,0,0,0,0,0,0,0,0,0,0,0,0,0,0,0,0,0,0,0,0,0,0,0,0,0,0,0,0,0,0,0,0,0,0,0,0,0,0,0,0,0,0,0,0,0,0,0,0,0,0,0,0,0,0,0,0,0,0,0,0,0,0,0,0,0,0,0,0,0,0,0,0,0,0,0,0,0,0,0,0,0,0,0,0,0,0,0,0,0,0,0,0,0,0,0,0,0,0,0,0,0,0,0,0,0,0,0,0,0,0,0,0,0,0,0,0,0,0,0,0,0,0,0,0,0,0,0,0,0,0,0,0,0,0,0,0,0,0,0,0,0,0,0,0,0,0,0,0,0,0,0,0,0,0,0,0,0,0,0,0,0,0,0,0,0,0,0,0,0,0,0,0,0,0,0,0,0,0,0,0,0,0,0,0,0,0,7130,7136,7142,7148,7154,7160,7166,7172,7178,7184,7190,7196,7202,7208,7214,7220,7226,7232,7238,7244,7250,7256,7262,7268,7274,7280,7286,7292,7298,0,0,0,0,0,0,0,0,0,0,0,0,0,0,0,0,0,0,0,0,0,0,0,0,0,0,0,0,0,0,0,0,0,0,0,0,0,0,0,0,0,0,0,0,0,0,0,0,0,0,0,0,0,0,0,0,0,0,0,0,0,0,0,0,0,0,0,0,0,0,0,0,0,0,0,0,0,0,0,0,0,0,0,0,0,0,0,0,0,0,0,0,0,0,0,0,0,0,0,0,0,0,0,0,0,0,0,0,0,0,0,0,0,0,0,0,0,0,0,0,0,0,0,0,0,0,0,0,0,0,0,0,0,0,0,0,0,0,0,0,0,0,0,0,0,0,0,0,0,0,0,0,0,0,0,0,0,0,0,0,0,0,0,0,0,0,0,0,0,0,0,0,0,0,0,0,0,0,0,0,0,0,0,0,0,0,0,0,0,0,0,0,0,0,0,0,0,0,0,0,0,0,0,0,0,0,0,0,0,0,0,0,0,0,0,0,0,0,0,0,0,0,0,0,0,0,0,0,7317,7323,7329,7335,7341,7347,7353,7359,7365,7371,7377,7383,7389,7395,7401,7407,7413,7419,7425,7431,7437,7443,7449,7455,7461,7467,7473,7479,0,0,0,0,0,0,0,0,0,0,0,0,0,0,0,0,0,0,0,0,0,0,0,0,0,0,0,0,0,0,0,0,0,0,0,0,0,0,0,0,0,0,0,0,0,0,0,0,0,0,0,0,0,0,0,0,0,0,0,0,0,0,0,0,0,0,0,0,0,0,0,0,0,0,0,0,0,0,0,0,0,0,0,0,0,0,0,0,0,0,0,0,0,0,0,0,0,0,0,0,0,0,0,0,0,0,0,0,0,0,0,0,0,0,0,0,0,0,0,0,0,0,0,0,0,0,0,0,0,0,0,0,0,0,0,0,0,0,0,0,0,0,0,0,0,0,0,0,0,0,0,0,0,0,0,0,0,0,0,0,0,0,0,0,0,0,0,0,0,0,0,0,0,0,0,0,0,0,0,0,0,0,0,0,0,0,0,0,0,0,0,0,0,0,0,0,0,0,0,0,0,0,0,0,0,0,0,0,0,0,0,0,0,0,0,0,0,0,0,0,0,0,0,0,0,0,0,0,0,7499,7505,7511,7517,7523,7529,7535,7541,7547,7553,7559,7565,7571,7577,7583,7589,7595,7601,7607,7613,7619,7625,7631,7637,7643,7649,0,0,0,0,0,0,0,0,0,0,0,0,0,0,0,0,0,0,0,0,0,0,0,0,0,0,0,0,0,0,0,0,0,0,0,0,0,0,0,0,0,0,0,0,0,0,0,0,0,0,0,0,0,0,0,0,0,0,0,0,0,0,0,0,0,0,0,0,0,0,0,0,0,0,0,0,0,0,0,0,0,0,0,0,0,0,0,0,0,0,0,0,0,0,0,0,0,0,0,0,0,0,0,0,0,0,0,0,0,0,0,0,0,0,0,0,0,0,0,0,0,0,0,0,0,0,0,0,0,0,0,0,0,0,0,0,0,0,0,0,0,0,0,0,0,0,0,0,0,0,0,0,0,0,0,0,0,0,0,0,0,0,0,0,0,0,0,0,0,0,0,0,0,0,0,0,0,0,0,0,0,0,0,0,0,0,0,0,0,0,0,0,0,0,0,0,0,0,0,0,0,0,0,0,0,0,0,0,0,0,0,0,0,0,0,0,0,0,0,0,0,0,0,0,0,0,0,0,0,0,7670,7676,7682,7688,7694,7700,7706,7712,7718,7724,7730,7736,7742,7748,7754,7760,7766,7772,7778,7784,7790,7796,7802,7808,7814,7820,0,0,0,0,0,0,0,0,0,0,0,0,0,0,0,0,0,0,0,0,0,0,0,0,0,0,0,0,0,0,0,0,0,0,0,0,0,0,0,0,0,0,0,0,0,0,0,0,0,0,0,0,0,0,0,0,0,0,0,0,0,0,0,0,0,0,0,0,0,0,0,0,0,0,0,0,0,0,0,0,0,0,0,0,0,0,0,0,0,0,0,0,0,0,0,0,0,0,0,0,0,0,0,0,0,0,0,0,0,0,0,0,0,0,0,0,0,0,0,0,0,0,0,0,0,0,0,0,0,0,0,0,0,0,0,0,0,0,0,0,0,0,0,0,0,0,0,0,0,0,0,0,0,0,0,0,0,0,0,0,0,0,0,0,0,0,0,0,0,0,0,0,0,0,0,0,0,0,0,0,0,0,0,0,0,0,0,0,0,0,0,0,0,0,0,0,0,0,0,0,0,0,0,0,0,0,0,0,0,0,0,0,0,0,0,0,0,0,0,0,0,0,0,0,0,0,0,0,0,0,0,7842,7848,7854,7860,7866,7872,7878,7884,7890,7896,7902,7908,7914,7920,7926,7932,7938,7944,7950,7956,7962,7968,7974,7980,7986,0,0,0,0,0,0,0,0,0,0,0,0,0,0,0,0,0,0,0,0,0,0,0,0,0,0,0,0,0,0,0,0,0,0,0,0,0,0,0,0,0,0,0,0,0,0,0,0,0,0,0,0,0,0,0,0,0,0,0,0,0,0,0,0,0,0,0,0,0,0,0,0,0,0,0,0,0,0,0,0,0,0,0,0,0,0,0,0,0,0,0,0,0,0,0,0,0,0,0,0,0,0,0,0,0,0,0,0,0,0,0,0,0,0,0,0,0,0,0,0,0,0,0,0,0,0,0,0,0,0,0,0,0,0,0,0,0,0,0,0,0,0,0,0,0,0,0,0,0,0,0,0,0,0,0,0,0,0,0,0,0,0,0,0,0,0,0,0,0,0,0,0,0,0,0,0,0,0,0,0,0,0,0,0,0,0,0,0,0,0,0,0,0,0,0,0,0,0,0,0,0,0,0,0,0,0,0,0,0,0,0,0,0,0,0,0,0,0,0,0,0,0,0,0,0,0,0,0,0,0,0,8008,8014,8020,8026,8032,8038,8044,8050,8056,8062,8068,8074,8080,8086,8092,8098,8104,8110,8116,8122,8128,8134,8140,8146,8152,0,0,0,0,0,0,0,0,0,0,0,0,0,0,0,0,0,0,0,0,0,0,0,0,0,0,0,0,0,0,0,0,0,0,0,0,0,0,0,0,0,0,0,0,0,0,0,0,0,0,0,0,0,0,0,0,0,0,0,0,0,0,0,0,0,0,0,0,0,0,0,0,0,0,0,0,0,0,0,0,0,0,0,0,0,0,0,0,0,0,0,0,0,0,0,0,0,0,0,0,0,0,0,0,0,0,0,0,0,0,0,0,0,0,0,0,0,0,0,0,0,0,0,0,0,0,0,0,0,0,0,0,0,0,0,0,0,0,0,0,0,0,0,0,0,0,0,0,0,0,0,0,0,0,0,0,0,0,0,0,0,0,0,0,0,0,0,0,0,0,0,0,0,0,0,0,0,0,0,0,0,0,0,0,0,0,0,0,0,0,0,0,0,0,0,0,0,0,0,0,0,0,0,0,0,0,0,0,0,0,0,0,0,0,0,0,0,0,0,0,0,0,0,0,0,0,0,0,0,0,0,8174,8180,8186,8192,8198,8204,8210,8216,8222,8228,8234,8240,8246,8252,8258,8264,8270,8276,8282,8288,8294,8300,8306,8312,0,0,0,0,0,0,0,0,0,0,0,0,0,0,0,0,0,0,0,0,0,0,0,0,0,0,0,0,0,0,0,0,0,0,0,0,0,0,0,0,0,0,0,0,0,0,0,0,0,0,0,0,0,0,0,0,0,0,0,0,0,0,0,0,0,0,0,0,0,0,0,0,0,0,0,0,0,0,0,0,0,0,0,0,0,0,0,0,0,0,0,0,0,0,0,0,0,0,0,0,0,0,0,0,0,0,0,0,0,0,0,0,0,0,0,0,0,0,0,0,0,0,0,0,0,0,0,0,0,0,0,0,0,0,0,0,0,0,0,0,0,0,0,0,0,0,0,0,0,0,0,0,0,0,0,0,0,0,0,0,0,0,0,0,0,0,0,0,0,0,0,0,0,0,0,0,0,0,0,0,0,0,0,0,0,0,0,0,0,0,0,0,0,0,0,0,0,0,0,0,0,0,0,0,0,0,0,0,0,0,0,0,0,0,0,0,0,0,0,0,0,0,0,0,0,0,0,0,0,0,0,0,0,8336,8342,8348,8354,8360,8366,8372,8378,8384,8390,8396,8402,8408,8414,8420,8426,8432,8438,8444,8450,8456,8462,8468,0,0,0,0,0,0,0,0,0,0,0,0,0,0,0,0,0,0,0,0,0,0,0,0,0,0,0,0,0,0,0,0,0,0,0,0,0,0,0,0,0,0,0,0,0,0,0,0,0,0,0,0,0,0,0,0,0,0,0,0,0,0,0,0,0,0,0,0,0,0,0,0,0,0,0,0,0,0,0,0,0,0,0,0,0,0,0,0,0,0,0,0,0,0,0,0,0,0,0,0,0,0,0,0,0,0,0,0,0,0,0,0,0,0,0,0,0,0,0,0,0,0,0,0,0,0,0,0,0,0,0,0,0,0,0,0,0,0,0,0,0,0,0,0,0,0,0,0,0,0,0,0,0,0,0,0,0,0,0,0,0,0,0,0,0,0,0,0,0,0,0,0,0,0,0,0,0,0,0,0,0,0,0,0,0,0,0,0,0,0,0,0,0,0,0,0,0,0,0,0,0,0,0,0,0,0,0,0,0,0,0,0,0,0,0,0,0,0,0,0,0,0,0,0,0,0,0,0,0,0,0,0,0,0,0,0,0,8496,8502,8508,8514,8520,8526,8532,8538,8544,8550,8556,8562,8568,8574,8580,8586,8592,8598,8604,0,0,0,0,0,0,0,0,0,0,0,0,0,0,0,0,0,0,0,0,0,0,0,0,0,0,0,0,0,0,0,0,0,0,0,0,0,0,0,0,0,0,0,0,0,0,0,0,0,0,0,0,0,0,0,0,0,0,0,0,0,0,0,0,0,0,0,0,0,0,0,0,0,0,0,0,0,0,0,0,0,0,0,0,0,0,0,0,0,0,0,0,0,0,0,0,0,0,0,0,0,0,0,0,0,0,0,0,0,0,0,0,0,0,0,0,0,0,0,0,0,0,0,0,0,0,0,0,0,0,0,0,0,0,0,0,0,0,0,0,0,0,0,0,0,0,0,0,0,0,0,0,0,0,0,0,0,0,0,0,0,0,0,0,0,0,0,0,0,0,0,0,0,0,0,0,0,0,0,0,0,0,0,0,0,0,0,0,0,0,0,0,0,0,0,0,0,0,0,0,0,0,0,0,0,0,0,0,0,0,0,0,0,0,0,0,0,0,0,0,0,0,0,0,0,0,0,0,0,0,0,0,0,0,0,0,0,8632,8638,8644,8650,8656,8662,8668,8674,8680,8686,8692,8698,8704,8710,8716,8722,8728,8734,0,0,0,0,0,0,0,0,0,0,0,0,0,0,0,0,0,0,0,0,0,0,0,0,0,0,0,0,0,0,0,0,0,0,0,0,0,0,0,0,0,0,0,0,0,0,0,0,0,0,0,0,0,0,0,0,0,0,0,0,0,0,0,0,0,0,0,0,0,0,0,0,0,0,0,0,0,0,0,0,0,0,0,0,0,0,0,0,0,0,0,0,0,0,0,0,0,0,0,0,0,0,0,0,0,0,0,0,0,0,0,0,0,0,0,0,0,0,0,0,0,0,0,0,0,0,0,0,0,0,0,0,0,0,0,0,0,0,0,0,0,0,0,0,0,0,0,0,0,0,0,0,0,0,0,0,0,0,0,0,0,0,0,0,0,0,0,0,0,0,0,0,0,0,0,0,0,0,0,0,0,0,0,0,0,0,0,0,0,0,0,0,0,0,0,0,0,0,0,0,0,0,0,0,0,0,0,0,0,0,0,0,0,0,0,0,0,0,0,0,0,0,0,0,0,0,0,0,0,0,0,0,0,0,0,0,0,0,0,8764,8770,8776,8782,8788,8794,8800,8806,8812,8818,8824,8830,8836,8842,8848,8854,0,0,0,0,0,0,0,0,0,0,0,0,0,0,0,0,0,0,0,0,0,0,0,0,0,0,0,0,0,0,0,0,0,0,0,0,0,0,0,0,0,0,0,0,0,0,0,0,0,0,0,0,0,0,0,0,0,0,0,0,0,0,0,0,0,0,0,0,0,0,0,0,0,0,0,0,0,0,0,0,0,0,0,0,0,0,0,0,0,0,0,0,0,0,0,0,0,0,0,0,0,0,0,0,0,0,0,0,0,0,0,0,0,0,0,0,0,0,0,0,0,0,0,0,0,0,0,0,0,0,0,0,0,0,0,0,0,0,0,0,0,0,0,0,0,0,0,0,0,0,0,0,0,0,0,0,0,0,0,0,0,0,0,0,0,0,0,0,0,0,0,0,0,0,0,0,0,0,0,0,0,0,0,0,0,0,0,0,0,0,0,0,0,0,0,0,0,0,0,0,0,0,0,0,0,0,0,0,0,0,0,0,0,0,0,0,0,0,0,0,0,0,0,0,0,0,0,0,0,0,0,0,0,0,0,0,0,0,0,0,0,8886,8892,8898,8904,8910,8916,8922,8928,8934,8940,8946,8952,0,0,0,0,0,0,0,0,0,0,0,0,0,0,0,0,0,0,0,0,0,0,0,0,0,0,0,0,0,0,0,0,0,0,0,0,0,0,0,0,0,0,0,0,0,0,0,0,0,0,0,0,0,0,0,0,0,0,0,0,0,0,0,0,0,0,0,0,0,0,0,0,0,0,0,0,0,0,0,0,0,0,0,0,0,0,0,0,0,0,0,0,0,0,0,0,0,0,0,0,0,0,0,0,0,0,0,0,0,0,0,0,0,0,0,0,0,0,0,0,0,0,0,0,0,0,0,0,0,0,0,0,0,0,0,0,0,0,0,0,0,0,0,0,0,0,0,0,0,0,0,0,0,0,0,0,0,0,0,0,0,0,0,0,0,0,0,0,0,0,0,0,0,0,0,0,0,0,0,0,0,0,0,0,0,0,0,0,0,0,0,0,0,0,0,0,0,0,0,0,0,0,0,0,0,0,0,0,0,0,0,0,0,0,0,0,0,0,0,0,0,0,0,0,0,0,0,0,0,0,0,0,0,0,0,0,0,0,0,0,0,0,0,0,0,8988,8994,9000,9006,9012,9018,9024,9030,9036,9042,0,0,0,0,0,0,0,0,0,0,0,0,0,0,0,0,0,0,0,0,0,0,0,0,0,0,0,0,0,0,0,0,0,0,0,0,0,0,0,0,0,0,0,0,0,0,0,0,0,0,0,0,0,0,0,0,0,0,0,0,0,0,0,0,0,0,0,0,0,0,0,0,0,0,0,0,0,0,0,0,0,0,0,0,0,0,0,0,0,0,0,0,0,0,0,0,0,0,0,0,0,0,0,0,0,0,0,0,0,0,0,0,0,0,0,0,0,0,0,0,0,0,0,0,0,0,0,0,0,0,0,0,0,0,0,0,0,0,0,0,0,0,0,0,0,0,0,0,0,0,0,0,0,0,0,0,0,0,0,0,0,0,0,0,0,0,0,0,0,0,0,0,0,0,0,0,0,0,0,0,0,0,0,0,0,0,0,0,0,0,0,0,0,0,0,0,0,0,0,0,0,0,0,0,0,0,0,0,0,0,0,0,0,0,0,0,0,0,0,0,0,0,0,0,0,0,0,0,0,0,0,0,0,0,0,0,0,0,0,0,0,0,0,0,0,0,0,9080,9086,9092,9098,9104,9110,9116,9122,0,0,0,0,0,0,0,0,0,0,0,0,0,0,0,0,0,0,0,0,0,0,0,0,0,0,0,0,0,0,0,0,0,0,0,0,0,0,0,0,0,0,0,0,0,0,0,0,0,0,0,0,0,0,0,0,0,0,0,0,0,0,0,0,0,0,0,0,0,0,0,0,0,0,0,0,0,0,0,0,0,0,0,0,0,0,0,0,0,0,0,0,0,0,0,0,0,0,0,0,0,0,0,0,0,0,0,0,0,0,0,0,0,0,0,0,0,0,0,0,0,0,0,0,0,0,0,0,0,0,0,0,0,0,0,0,0,0,0,0,0,0,0,0,0,0,0,0,0,0,0,0,0,0,0,0,0,0,0,0,0,0,0,0,0,0,0,0,0,0,0,0,0,0,0,0,0,0,0,0,0,0,0,0,0,0,0,0,0,0,0,0,0,0,0,0,0,0,0,0,0,0,0,0,0,0,0,0,0,0,0,0,0,0,0,0,0,0,0,0,0,0,0,0,0,0,0,0,0,0,0,0,0,0,0,0,0,0,0,0,0,0,0,0,0,0,0,0,9161,9167,9173,9179,9185,9191,9197,0,0,0,0,0,0,0,0,0,0,0,0,0,0,0,0,0,0,0,0,0,0,0,0,0,0,0,0,0,0,0,0,0,0,0,0,0,0,0,0,0,0,0,0,0,0,0,0,0,0,0,0,0,0,0,0,0,0,0,0,0,0,0,0,0,0,0,0,0,0,0,0,0,0,0,0,0,0,0,0,0,0,0,0,0,0,0,0,0,0,0,0,0,0,0,0,0,0,0,0,0,0,0,0,0,0,0,0,0,0,0,0,0,0,0,0,0,0,0,0,0,0,0,0,0,0,0,0,0,0,0,0,0,0,0,0,0,0,0,0,0,0,0,0,0,0,0,0,0,0,0,0,0,0,0,0,0,0,0,0,0,0,0,0,0,0,0,0,0,0,0,0,0,0,0,0,0,0,0,0,0,0,0,0,0,0,0,0,0,0,0,0,0,0,0,0,0,0,0,0,0,0,0,0,0,0,0,0,0,0,0,0,0,0,0,0,0,0,0,0,0,0,0,0,0,0,0,0,0,0,0,0,0,0,0,0,0,0,0,0,0,0,0,0,0,0,0,0,9236,9242,9248,9254,9260,9266,9272,0,0,0,0,0,0,0,0,0,0,0,0,0,0,0,0,0,0,0,0,0,0,0,0,0,0,0,0,0,0,0,0,0,0,0,0,0,0,0,0,0,0,0,0,0,0,0,0,0,0,0,0,0,0,0,0,0,0,0,0,0,0,0,0,0,0,0,0,0,0,0,0,0,0,0,0,0,0,0,0,0,0,0,0,0,0,0,0,0,0,0,0,0,0,0,0,0,0,0,0,0,0,0,0,0,0,0,0,0,0,0,0,0,0,0,0,0,0,0,0,0,0,0,0,0,0,0,0,0,0,0,0,0,0,0,0,0,0,0,0,0,0,0,0,0,0,0,0,0,0,0,0,0,0,0,0,0,0,0,0,0,0,0,0,0,0,0,0,0,0,0,0,0,0,0,0,0,0,0,0,0,0,0,0,0,0,0,0,0,0,0,0,0,0,0,0,0,0,0,0,0,0,0,0,0,0,0,0,0,0,0,0,0,0,0,0,0,0,0,0,0,0,0,0,0,0,0,0,0,0,0,0,0,0,0,0,0,0,0,0,0,0,0,0,0,0,0,0,0,9312,9318,9324,9330,9336,9342,9348,0,0,0,0,0,0,0,0,0,0,0,0,0,0,0,0,0,0,0,0,0,0,0,0,0,0,0,0,0,0,0,0,0,0,0,0,0,0,0,0,0,0,0,0,0,0,0,0,0,0,0,0,0,0,0,0,0,0,0,0,0,0,0,0,0,0,0,0,0,0,0,0,0,0,0,0,0,0,0,0,0,0,0,0,0,0,0,0,0,0,0,0,0,0,0,0,0,0,0,0,0,0,0,0,0,0,0,0,0,0,0,0,0,0,0,0,0,0,0,0,0,0,0,0,0,0,0,0,0,0,0,0,0,0,0,0,0,0,0,0,0,0,0,0,0,0,0,0,0,0,0,0,0,0,0,0,0,0,0,0,0,0,0,0,0,0,0,0,0,0,0,0,0,0,0,0,0,0,0,0,0,0,0,0,0,0,0,0,0,0,0,0,0,0,0,0,0,0,0,0,0,0,0,0,0,0,0,0,0,0,0,0,0,0,0,0,0,0,0,0,0,0,0,0,0,0,0,0,0,0,0,0,0,0,0,0,0,0,0,0,0,0,0,0,0,0,0,0,0,9388,9394,9400,9406,9412,9418,9424,9430,0,0,0,0,0,0,0,0,0,0,0,0,0,0,0,0,0,0,0,0,0,0,0,0,0,0,0,0,0,0,0,0,0,0,0,0,0,0,0,0,0,0,0,0,0,0,0,0,0,0,0,0,0,0,0,0,0,0,0,0,0,0,0,0,0,0,0,0,0,0,0,0,0,0,0,0,0,0,0,0,0,0,0,0,0,0,0,0,0,0,0,0,0,0,0,0,0,0,0,0,0,0,0,0,0,0,0,0,0,0,0,0,0,0,0,0,0,0,0,0,0,0,0,0,0,0,0,0,0,0,0,0,0,0,0,0,0,0,0,0,0,0,0,0,0,0,0,0,0,0,0,0,0,0,0,0,0,0,0,0,0,0,0,0,0,0,0,0,0,0,0,0,0,0,0,0,0,0,0,0,0,0,0,0,0,0,0,0,0,0,0,0,0,0,0,0,0,0,0,0,0,0,0,0,0,0,0,0,0,0,0,0,0,0,0,0,0,0,0,0,0,0,0,0,0,0,0,0,0,0,0,0,0,0,0,0,0,0,0,0,0,0,0,0,0,0,0,0,9469,9475,9481,9487,9493,9499,9505,9511,0,0,0,0,0,0,0,0,0,0,0,0,0,0,0,0,0,0,0,0,0,0,0,0,0,0,0,0,0,0,0,0,0,0,0,0,0,0,0,0,0,0,0,0,0,0,0,0,0,0,0,0,0,0,0,0,0,0,0,0,0,0,0,0,0,0,0,0,0,0,0,0,0,0,0,0,0,0,0,0,0,0,0,0,0,0,0,0,0,0,0,0,0,0,0,0,0,0,0,0,0,0,0,0,0,0,0,0,0,0,0,0,0,0,0,0,0,0,0,0,0,0,0,0,0,0,0,0,0,0,0,0,0,0,0,0,0,0,0,0,0,0,0,0,0,0,0,0,0,0,0,0,0,0,0,0,0,0,0,0,0,0,0,0,0,0,0,0,0,0,0,0,0,0,0,0,0,0,0,0,0,0,0,0,0,0,0,0,0,0,0,0,0,0,0,0,0,0,0,0,0,0,0,0,0,0,0,0,0,0,0,0,0,0,0,0,0,0,0,0,0,0,0,0,0,0,0,0,0,0,0,0,0,0,0,0,0,0,0,0,0,0,0,0,0,0,0,0,0,9551,9557,9563,9569,9575,9581,9587,0,0,0,0,0,0,0,0,0,0,0,0,0,0,0,0,0,0,0,0,0,0,0,0,0,0,0,0,0,0,0,0,0,0,0,0,0,0,0,0,0,0,0,0,0,0,0,0,0,0,0,0,0,0,0,0,0,0,0,0,0,0,0,0,0,0,0,0,0,0,0,0,0,0,0,0,0,0,0,0,0,0,0,0,0,0,0,0,0,0,0,0,0,0,0,0,0,0,0,0,0,0,0,0,0,0,0,0,0,0,0,0,0,0,0,0,0,0,0,0,0,0,0,0,0,0,0,0,0,0,0,0,0,0,0,0,0,0,0,0,0,0,0,0,0,0,0,0,0,0,0,0,0,0,0,0,0,0,0,0,0,0,0,0,0,0,0,0,0,0,0,0,0,0,0,0,0,0,0,0,0,0,0,0,0,0,0,0,0,0,0,0,0,0,0,0,0,0,0,0,0,0,0,0,0,0,0,0,0,0,0,0,0,0,0,0,0,0,0,0,0,0,0,0,0,0,0,0,0,0,0,0,0,0,0,0,0,0,0,0,0,0,0,0,0,0,0,0,0,9627,9633,9639,9645,9651,9657,9663,0,0,0,0,0,0,0,0,0,0,0,0,0,0,0,0,0,0,0,0,0,0,0,0,0,0,0,0,0,0,0,0,0,0,0,0,0,0,0,0,0,0,0,0,0,0,0,0,0,0,0,0,0,0,0,0,0,0,0,0,0,0,0,0,0,0,0,0,0,0,0,0,0,0,0,0,0,0,0,0,0,0,0,0,0,0,0,0,0,0,0,0,0,0,0,0,0,0,0,0,0,0,0,0,0,0,0,0,0,0,0,0,0,0,0,0,0,0,0,0,0,0,0,0,0,0,0,0,0,0,0,0,0,0,0,0,0,0,0,0,0,0,0,0,0,0,0,0,0,0,0,0,0,0,0,0,0,0,0,0,0,0,0,0,0,0,0,0,0,0,0,0,0,0,0,0,0,0,0,0,0,0,0,0,0,0,0,0,0,0,0,0,0,0,0,0,0,0,0,0,0,0,0,0,0,0,0,0,0,0,0,0,0,0,0,0,0,0,0,0,0,0,0,0,0,0,0,0,0,0,0,0,0,0,0,0,0,0,0,0,0,0,0,0,0,0,0,0,0,9703,9709,9715,9721,9727,9733,0,0,0,0,0,0,0,0,0,0,0,0,0,0,0,0,0,0,0,0,0,0,0,0,0,0,0,0,0,0,0,0,0,0,0,0,0,0,0,0,0,0,0,0,0,0,0,0,0,0,0,0,0,0,0,0,0,0,0,0,0,0,0,0,0,0,0,0,0,0,0,0,0,0,0,0,0,0,0,0,0,0,0,0,0,0,0,0,0,0,0,0,0,0,0,0,0,0,0,0,0,0,0,0,0,0,0,0,0,0,0,0,0,0,0,0,0,0,0,0,0,0,0,0,0,0,0,0,0,0,0,0,0,0,0,0,0,0,0,0,0,0,0,0,0,0,0,0,0,0,0,0,0,0,0,0,0,0,0,0,0,0,0,0,0,0,0,0,0,0,0,0,0,0,0,0,0,0,0,0,0,0,0,0,0,0,0,0,0,0,0,0,0,0,0,0,0,0,0,0,0,0,0,0,0,0,0,0,0,0,0,0,0,0,0,0,0,0,0,0,0,0,0,0,0,0,0,0,0,0,0,0,0,0,0,0,0,0,0,0,0,0,0,0,0,0,0,0,0,0,9774,9780,9786,9792,9798,9804,0,0,0,0,0,0,0,0,0,0,0,0,0,0,0,0,0,0,0,0,0,0,0,0,0,0,0,0,0,0,0,0,0,0,0,0,0,0,0,0,0,0,0,0,0,0,0,0,0,0,0,0,0,0,0,0,0,0,0,0,0,0,0,0,0,0,0,0,0,0,0,0,0,0,0,0,0,0,0,0,0,0,0,0,0,0,0,0,0,0,0,0,0,0,0,0,0,0,0,0,0,0,0,0,0,0,0,0,0,0,0,0,0,0,0,0,0,0,0,0,0,0,0,0,0,0,0,0,0,0,0,0,0,0,0,0,0,0,0,0,0,0,0,0,0,0,0,0,0,0,0,0,0,0,0,0,0,0,0,0,0,0,0,0,0,0,0,0,0,0,0,0,0,0,0,0,0,0,0,0,0,0,0,0,0,0,0,0,0,0,0,0,0,0,0,0,0,0,0,0,0,0,0,0,0,0,0,0,0,0,0,0,0,0,0,0,0,0,0,0,0,0,0,0,0,0,0,0,0,0,0,0,0,0,0,0,0,0,0,0,0,0,0,0,0,0,0,0,0,9844,9850,9856,9862,9868,9874,9880,9886,0,0,0,0,0,0,0,0,0,0,0,0,0,0,0,0,0,0,0,0,0,0,0,0,0,0,0,0,0,0,0,0,0,0,0,0,0,0,0,0,0,0,0,0,0,0,0,0,0,0,0,0,0,0,0,0,0,0,0,0,0,0,0,0,0,0,0,0,0,0,0,0,0,0,0,0,0,0,0,0,0,0,0,0,0,0,0,0,0,0,0,0,0,0,0,0,0,0,0,0,0,0,0,0,0,0,0,0,0,0,0,0,0,0,0,0,0,0,0,0,0,0,0,0,0,0,0,0,0,0,0,0,0,0,0,0,0,0,0,0,0,0,0,0,0,0,0,0,0,0,0,0,0,0,0,0,0,0,0,0,0,0,0,0,0,0,0,0,0,0,0,0,0,0,0,0,0,0,0,0,0,0,0,0,0,0,0,0,0,0,0,0,0,0,0,0,0,0,0,0,0,0,0,0,0,0,0,0,0,0,0,0,0,0,0,0,0,0,0,0,0,0,0,0,0,0,0,0,0,0,0,0,0,0,0,0,0,0,0,0,0,0,0,0,0,0,0,0,9925,9931,9937,9943,9949,9955,9961,9967,0,0,0,0,0,0,0,0,0,0,0,0,0,0,0,0,0,0,0,0,0,0,0,0,0,0,0,0,0,0,0,0,0,0,0,0,0,0,0,0,0,0,0,0,0,0,0,0,0,0,0,0,0,0,0,0,0,0,0,0,0,0,0,0,0,0,0,0,0,0,0,0,0,0,0,0,0,0,0,0,0,0,0,0,0,0,0,0,0,0,0,0,0,0,0,0,0,0,0,0,0,0,0,0,0,0,0,0,0,0,0,0,0,0,0,0,0,0,0,0,0,0,0,0,0,0,0,0,0,0,0,0,0,0,0,0,0,0,0,0,0,0,0,0,0,0,0,0,0,0,0,0,0,0,0,0,0,0,0,0,0,0,0,0,0,0,0,0,0,0,0,0,0,0,0,0,0,0,0,0,0,0,0,0,0,0,0,0,0,0,0,0,0,0,0,0,0,0,0,0,0,0,0,0,0,0,0,0,0,0,0,0,0,0,0,0,0,0,0,0,0,0,0,0,0,0,0,0,0,0,0,0,0,0,0,0,0,0,0,0,0,0,0,0,0,0,0,0,10006,10012,10018,10024,10030,10036,10042,10048,0,0,0,0,0,0,0,0,0,0,0,0,0,0,0,0,0,0,0,0,0,0,0,0,0,0,0,0,0,0,0,0,0,0,0,0,0,0,0,0,0,0,0,0,0,0,0,0,0,0,0,0,0,0,0,0,0,0,0,0,0,0,0,0,0,0,0,0,0,0,0,0,0,0,0,0,0,0,0,0,0,0,0,0,0,0,0,0,0,0,0,0,0,0,0,0,0,0,0,0,0,0,0,0,0,0,0,0,0,0,0,0,0,0,0,0,0,0,0,0,0,0,0,0,0,0,0,0,0,0,0,0,0,0,0,0,0,0,0,0,0,0,0,0,0,0,0,0,0,0,0,0,0,0,0,0,0,0,0,0,0,0,0,0,0,0,0,0,0,0,0,0,0,0,0,0,0,0,0,0,0,0,0,0,0,0,0,0,0,0,0,0,0,0,0,0,0,0,0,0,0,0,0,0,0,0,0,0,0,0,0,0,0,0,0,0,0,0,0,0,0,0,0,0,0,0,0,0,0,0,0,0,0,0,0,0,0,0,0,0,0,0,0,0,0,0,0,0,10087,10093,10099,10105,10111,10117,10123,10129,0,0,0,0,0,0,0,0,0,0,0,0,0,0,0,0,0,0,0,0,0,0,0,0,0,0,0,0,0,0,0,0,0,0,0,0,0,0,0,0,0,0,0,0,0,0,0,0,0,0,0,0,0,0,0,0,0,0,0,0,0,0,0,0,0,0,0,0,0,0,0,0,0,0,0,0,0,0,0,0,0,0,0,0,0,0,0,0,0,0,0,0,0,0,0,0,0,0,0,0,0,0,0,0,0,0,0,0,0,0,0,0,0,0,0,0,0,0,0,0,0,0,0,0,0,0,0,0,0,0,0,0,0,0,0,0,0,0,0,0,0,0,0,0,0,0,0,0,0,0,0,0,0,0,0,0,0,0,0,0,0,0,0,0,0,0,0,0,0,0,0,0,0,0,0,0,0,0,0,0,0,0,0,0,0,0,0,0,0,0,0,0,0,0,0,0,0,0,0,0,0,0,0,0,0,0,0,0,0,0,0,0,0,0,0,0,0,0,0,0,0,0,0,0,0,0,0,0,0,0,0,0,0,0,0,0,0,0,0,0,0,0,0,0,0,0,0,0,10146,10151,10156,10161,10166,10171,10176,10181,0,0,0,0,0,0,0,0,0,0,0,0,0,0,0,0,0,0,0,0,0,0,0,0,0,0,0,0,0,0,0,0,0,0,0,0,0,0,0,0,0,0,0,0,0,0,0,0,0,0,0,0,0,0,0,0,0,0,0,0,0,0,0,0,0,0,0,0,0,0,0,0,0,0,0,0,0,0,0,0,0,0,0,0,0,0,0,0,0,0,0,0,0,0,0,0,0,0,0,0,0,0,0,0,0,0,0,0,0,0,0,0,0,0,0,0,0,0,0,0,0,0,0,0,0,0,0,0,0,0,0,0,0,0,0,0,0,0,0,0,0,0,0,0,0,0,0,0,0,0,0,0,0,0,0,0,0,0,0,0,0,0,0,0,0,0,0,0,0,0,0,0,0,0,0,0,0,0,0,0,0,0,0,0,0,0,0,0,0,0,0,0,0,0,0,0,0,0,0,0,0,0,0,0,0,0,0,0,0,0,0,0,0,0,0,0,0,0,0,0,0,0,0,0,0,0,0,0,0,0,0,0,0,0,0,0,0,0,0,0,0,0,0,0,0,0,0,0,10186,10191,10196,10201,10206,10211,10216,10221,0,0,0,0,0,0,0,0,0,0,0,0,0,0,0,0,0,0,0,0,0,0,0,0,0,0,0,0,0,0,0,0,0,0,0,0,0,0,0,0,0,0,0,0,0,0,0,0,0,0,0,0,0,0,0,0,0,0,0,0,0,0,0,0,0,0,0,0,0,0,0,0,0,0,0,0,0,0,0,0,0,0,0,0,0,0,0,0,0,0,0,0,0,0,0,0,0,0,0,0,0,0,0,0,0,0,0,0,0,0,0,0,0,0,0,0,0,0,0,0,0,0,0,0,0,0,0,0,0,0,0,0,0,0,0,0,0,0,0,0,0,0,0,0,0,0,0,0,0,0,0,0,0,0,0,0,0,0,0,0,0,0,0,0,0,0,0,0,0,0,0,0,0,0,0,0,0,0,0,0,0,0,0,0,0,0,0,0,0,0,0,0,0,0,0,0,0,0,0,0,0,0,0,0,0,0,0,0,0,0,0,0,0,0,0,0,0,0,0,0,0,0,0,0,0,0,0,0,0,0,0,0,0,0,0,0,0,0,0,0,0,0,0,0,0,0,0,0,10226,10231,10236,10241,10246,10251,10256,10261,0,0,0,0,0,0,0,0,0,0,0,0,0,0,0,0,0,0,0,0,0,0,0,0,0,0,0,0,0,0,0,0,0,0,0,0,0,0,0,0,0,0,0,0,0,0,0,0,0,0,0,0,0,0,0,0,0,0,0,0,0,0,0,0,0,0,0,0,0,0,0,0,0,0,0,0,0,0,0,0,0,0,0,0,0,0,0,0,0,0,0,0,0,0,0,0,0,0,0,0,0,0,0,0,0,0,0,0,0,0,0,0,0,0,0,0,0,0,0,0,0,0,0,0,0,0,0,0,0,0,0,0,0,0,0,0,0,0,0,0,0,0,0,0,0,0,0,0,0,0,0,0,0,0,0,0,0,0,0,0,0,0,0,0,0,0,0,0,0,0,0,0,0,0,0,0,0,0,0,0,0,0,0,0,0,0,0,0,0,0,0,0,0,0,0,0,0,0,0,0,0,0,0,0,0,0,0,0,0,0,0,0,0,0,0,0,0,0,0,0,0,0,0,0,0,0,0,0,0,0,0,0,0,0,0,0,0,0,0,0,0,0,0,0,0,0,0,0,10266,10271,10276,10281,10286,10291,10296,10301,0,0,0,0,0,0,0,0,0,0,0,0,0,0,0,0,0,0,0,0,0,0,0,0,0,0,0,0,0,0,0,0,0,0,0,0,0,0,0,0,0,0,0,0,0,0,0,0,0,0,0,0,0,0,0,0,0,0,0,0,0,0,0,0,0,0,0,0,0,0,0,0,0,0,0,0,0,0,0,0,0,0,0,0,0,0,0,0,0,0,0,0,0,0,0,0,0,0,0,0,0,0,0,0,0,0,0,0,0,0,0,0,0,0,0,0,0,0,0,0,0,0,0,0,0,0,0,0,0,0,0,0,0,0,0,0,0,0,0,0,0,0,0,0,0,0,0,0,0,0,0,0,0,0,0,0,0,0,0,0,0,0,0,0,0,0,0,0,0,0,0,0,0,0,0,0,0,0,0,0,0,0,0,0,0,0,0,0,0,0,0,0,0,0,0,0,0,0,0,0,0,0,0,0,0,0,0,0,0,0,0,0,0,0,0,0,0,0,0,0,0,0,0,0,0,0,0,0,0,0,0,0,0,0,0,0,0,0,0,0,0,0,0,0,0,0,0,0,10306,10311,10316,10321,10326,10331,10336,10341,0,0,0,0,0,0,0,0,0,0,0,0,0,0,0,0,0,0,0,0,0,0,0,0,0,0,0,0,0,0,0,0,0,0,0,0,0,0,0,0,0,0,0,0,0,0,0,0,0,0,0,0,0,0,0,0,0,0,0,0,0,0,0,0,0,0,0,0,0,0,0,0,0,0,0,0,0,0,0,0,0,0,0,0,0,0,0,0,0,0,0,0,0,0,0,0,0,0,0,0,0,0,0,0,0,0,0,0,0,0,0,0,0,0,0,0,0,0,0,0,0,0,0,0,0,0,0,0,0,0,0,0,0,0,0,0,0,0,0,0,0,0,0,0,0,0,0,0,0,0,0,0,0,0,0,0,0,0,0,0,0,0,0,0,0,0,0,0,0,0,0,0,0,0,0,0,0,0,0,0,0,0,0,0,0,0,0,0,0,0,0,0,0,0,0,0,0,0,0,0,0,0,0,0,0,0,0,0,0,0,0,0,0,0,0,0,0,0,0,0,0,0,0,0,0,0,0,0,0,0,0,0,0,0,0,0,0,0,0,0,0,0,0,0,0,0,0,0,10346,10351,10356,10361,10366,10371,10376,10381,0,0,0,0,0,0,0,0,0,0,0,0,0,0,0,0,0,0,0,0,0,0,0,0,0,0,0,0,0,0,0,0,0,0,0,0,0,0,0,0,0,0,0,0,0,0,0,0,0,0,0,0,0,0,0,0,0,0,0,0,0,0,0,0,0,0,0,0,0,0,0,0,0,0,0,0,0,0,0,0,0,0,0,0,0,0,0,0,0,0,0,0,0,0,0,0,0,0,0,0,0,0,0,0,0,0,0,0,0,0,0,0,0,0,0,0,0,0,0,0,0,0,0,0,0,0,0,0,0,0,0,0,0,0,0,0,0,0,0,0,0,0,0,0,0,0,0,0,0,0,0,0,0,0,0,0,0,0,0,0,0,0,0,0,0,0,0,0,0,0,0,0,0,0,0,0,0,0,0,0,0,0,0,0,0,0,0,0,0,0,0,0,0,0,0,0,0,0,0,0,0,0,0,0,0,0,0,0,0,0,0,0,0,0,0,0,0,0,0,0,0,0,0,0,0,0,0,0,0,0,0,0,0,0,0,0,0,0,0,0,0,0,0,0,0,0,0,0,10386,10391,10396,10401,10406,10411,10416,10421,0,0,0,0,0,0,0,0,0,0,0,0,0,0,0,0,0,0,0,0,0,0,0,0,0,0,0,0,0,0,0,0,0,0,0,0,0,0,0,0,0,0,0,0,0,0,0,0,0,0,0,0,0,0,0,0,0,0,0,0,0,0,0,0,0,0,0,0,0,0,0,0,0,0,0,0,0,0,0,0,0,0,0,0,0,0,0,0,0,0,0,0,0,0,0,0,0,0,0,0,0,0,0,0,0,0,0,0,0,0,0,0,0,0,0,0,0,0,0,0,0,0,0,0,0,0,0,0,0,0,0,0,0,0,0,0,0,0,0,0,0,0,0,0,0,0,0,0,0,0,0,0,0,0,0,0,0,0,0,0,0,0,0,0,0,0,0,0,0,0,0,0,0,0,0,0,0,0,0,0,0,0,0,0,0,0,0,0,0,0,0,0,0,0,0,0,0,0,0,0,0,0,0,0,0,0,0,0,0,0,0,0,0,0,0,0,0,0,0,0,0,0,0,0,0,0,0,0,0,0,0,0,0,0,0,0,0,0,0,0,0,0,0,0,0,0,0,0,10426,10431,10436,10441,10446,10451,10456,10461,0,0,0,0,0,0,0,0,0,0,0,0,0,0,0,0,0,0,0,0,0,0,0,0,0,0,0,0,0,0,0,0,0,0,0,0,0,0,0,0,0,0,0,0,0,0,0,0,0,0,0,0,0,0,0,0,0,0,0,0,0,0,0,0,0,0,0,0,0,0,0,0,0,0,0,0,0,0,0,0,0,0,0,0,0,0,0,0,0,0,0,0,0,0,0,0,0,0,0,0,0,0,0,0,0,0,0,0,0,0,0,0,0,0,0,0,0,0,0,0,0,0,0,0,0,0,0,0,0,0,0,0,0,0,0,0,0,0,0,0,0,0,0,0,0,0,0,0,0,0,0,0,0,0,0,0,0,0,0,0,0,0,0,0,0,0,0,0,0,0,0,0,0,0,0,0,0,0,0,0,0,0,0,0,0,0,0,0,0,0,0,0,0,0,0,0,0,0,0,0,0,0,0,0,0,0,0,0,0,0,0,0,0,0,0,0,0,0,0,0,0,0,0,0,0,0,0,0,0,0,0,0,0,0,0,0,0,0,0,0,0,0,0,0,0,0,0,0,10466,10471,10476,10481,10486,10491,10496,10501,0,0,0,0,0,0,0,0,0,0,0,0,0,0,0,0,0,0,0,0,0,0,0,0,0,0,0,0,0,0,0,0,0,0,0,0,0,0,0,0,0,0,0,0,0,0,0,0,0,0,0,0,0,0,0,0,0,0,0,0,0,0,0,0,0,0,0,0,0,0,0,0,0,0,0,0,0,0,0,0,0,0,0,0,0,0,0,0,0,0,0,0,0,0,0,0,0,0,0,0,0,0,0,0,0,0,0,0,0,0,0,0,0,0,0,0,0,0,0,0,0,0,0,0,0,0,0,0,0,0,0,0,0,0,0,0,0,0,0,0,0,0,0,0,0,0,0,0,0,0,0,0,0,0,0,0,0,0,0,0,0,0,0,0,0,0,0,0,0,0,0,0,0,0,0,0,0,0,0,0,0,0,0,0,0,0,0,0,0,0,0,0,0,0,0,0,0,0,0,0,0,0,0,0,0,0,0,0,0,0,0,0,0,0,0,0,0,0,0,0,0,0,0,0,0,0,0,0,0,0,0,0,0,0,0,0,0,0,0,0,0,0,0,0,0,0,0,0,10506,10511,10516,10521,10526,10531,10536,10541,0,0,0,0,0,0,0,0,0,0,0,0,0,0,0,0,0,0,0,0,0,0,0,0,0,0,0,0,0,0,0,0,0,0,0,0,0,0,0,0,0,0,0,0,0,0,0,0,0,0,0,0,0,0,0,0,0,0,0,0,0,0,0,0,0,0,0,0,0,0,0,0,0,0,0,0,0,0,0,0,0,0,0,0,0,0,0,0,0,0,0,0,0,0,0,0,0,0,0,0,0,0,0,0,0,0,0,0,0,0,0,0,0,0,0,0,0,0,0,0,0,0,0,0,0,0,0,0,0,0,0,0,0,0,0,0,0,0,0,0,0,0,0,0,0,0,0,0,0,0,0,0,0,0,0,0,0,0,0,0,0,0,0,0,0,0,0,0,0,0,0,0,0,0,0,0,0,0,0,0,0,0,0,0,0,0,0,0,0,0,0,0,0,0,0,0,0,0,0,0,0,0,0,0,0,0,0,0,0,0,0,0,0,0,0,0,0,0,0,0,0,0,0,0,0,0,0,0,0,0,0,0,0,0,0,0,0,0,0,0,0,0,0,0,0,0,0,0,10386,10391,10396,10401,10406,10411,10416,10421,0,0,0,0,0,0,0,0,0,0,0,0,0,0,0,0,0,0,0,0,0,0,0,0,0,0,0,0,0,0,0,0,0,0,0,0,0,0,0,0,0,0,0,0,0,0,0,0,0,0,0,0,0,0,0,0,0,0,0,0,0,0,0,0,0,0,0,0,0,0,0,0,0,0,0,0,0,0,0,0,0,0,0,0,0,0,0,0,0,0,0,0,0,0,0,0,0,0,0,0,0,0,0,0,0,0,0,0,0,0,0,0,0,0,0,0,0,0,0,0,0,0,0,0,0,0,0,0,0,0,0,0,0,0,0,0,0,0,0,0,0,0,0,0,0,0,0,0,0,0,0,0,0,0,0,0,0,0,0,0,0,0,0,0,0,0,0,0,0,0,0,0,0,0,0,0,0,0,0,0,0,0,0,0,0,0,0,0,0,0,0,0,0,0,0,0,0,0,0,0,0,0,0,0,0,0,0,0,0,0,0,0,0,0,0,0,0,0,0,0,0,0,0,0,0,0,0,0,0,0,0,0,0,0,0,0,0,0,0,0,0,0,0,0,0,0,0,0,10426,10431,10436,10441,10446,10451,10456,10461,0,0,0,0,0,0,0,0,0,0,0,0,0,0,0,0,0,0,0,0,0,0,0,0,0,0,0,0,0,0,0,0,0,0,0,0,0,0,0,0,0,0,0,0,0,0,0,0,0,0,0,0,0,0,0,0,0,0,0,0,0,0,0,0,0,0,0,0,0,0,0,0,0,0,0,0,0,0,0,0,0,0,0,0,0,0,0,0,0,0,0,0,0,0,0,0,0,0,0,0,0,0,0,0,0,0,0,0,0,0,0,0,0,0,0,0,0,0,0,0,0,0,0,0,0,0,0,0,0,0,0,0,0,0,0,0,0,0,0,0,0,0,0,0,0,0,0,0,0,0,0,0,0,0,0,0,0,0,0,0,0,0,0,0,0,0,0,0,0,0,0,0,0,0,0,0,0,0,0,0,0,0,0,0,0,0,0,0,0,0,0,0,0,0,0,0,0,0,0,0,0,0,0,0,0,0,0,0,0,0,0,0,0,0,0,0,0,0,0,0,0,0,0,0,0,0,0,0,0,0,0,0,0,0,0,0,0,0,0,0,0,0,0,0,0,0,0,0,10466,10471,10476,10481,10486,10491,10496,10501,0,0,0,0,0,0,0,0,0,0,0,0,0,0,0,0,0,0,0,0,0,0,0,0,0,0,0,0,0,0,0,0,0,0,0,0,0,0,0,0,0,0,0,0,0,0,0,0,0,0,0,0,0,0,0,0,0,0,0,0,0,0,0,0,0,0,0,0,0,0,0,0,0,0,0,0,0,0,0,0,0,0,0,0,0,0,0,0,0,0,0,0,0,0,0,0,0,0,0,0,0,0,0,0,0,0,0,0,0,0,0,0,0,0,0,0,0,0,0,0,0,0,0,0,0,0,0,0,0,0,0,0,0,0,0,0,0,0,0,0,0,0,0,0,0,0,0,0,0,0,0,0,0,0,0,0,0,0,0,0,0,0,0,0,0,0,0,0,0,0,0,0,0,0,0,0,0,0,0,0,0,0,0,0,0,0,0,0,0,0,0,0,0,0,0,0,0,0,0,0,0,0,0,0,0,0,0,0,0,0,0,0,0,0,0,0,0,0,0,0,0,0,0,0,0,0,0,0,0,0,0,0,0,0,0,0,0,0,0,0,0,0,0,0,0,0,0,0,10506,10511,10516,10521,10526,10531,10536,10541,0,0,0,0,0,0,0,0,0,0,0,0,0,0,0,0,0,0,0,0,0,0,0,0,0,0,0,0,0,0,0,0,0,0,0,0,0,0,0,0,0,0,0,0,0,0,0,0,0,0,0,0,0,0,0,0,0,0,0,0,0,0,0,0,0,0,0,0,0,0,0,0,0,0,0,0,0,0,0,0,0,0,0,0,0,0,0,0,0,0,0,0,0,0,0,0,0,0,0,0,0,0,0,0,0,0,0,0,0,0,0,0,0,0,0,0,0,0,0,0,0,0,0,0,0,0,0,0,0,0,0,0,0,0,0,0,0,0,0,0,0,0,0,0,0,0,0,0,0,0,0,0,0,0,0,0,0,0,0,0,0,0,0,0,0,0,0,0,0,0,0,0,0,0,0,0,0,0,0,0,0,0,0,0,0,0,0,0,0,0,0,0,0,0,0,0,0,0,0,0,0,0,0,0,0,0,0,0,0,0,0,0,0,0,0,0,0,0,0,0,0,0,0,0,0,0,0,0,0,0,0,0,0,0,0,0,0,0,0,0,0,0,0,0,0,0,0,0,10386,10391,10396,10401,10406,10411,10416,10421,0,0,0,0,0,0,0,0,0,0,0,0,0,0,0,0,0,0,0,0,0,0,0,0,0,0,0,0,0,0,0,0,0,0,0,0,0,0,0,0,0,0,0,0,0,0,0,0,0,0,0,0,0,0,0,0,0,0,0,0,0,0,0,0,0,0,0,0,0,0,0,0,0,0,0,0,0,0,0,0,0,0,0,0,0,0,0,0,0,0,0,0,0,0,0,0,0,0,0,0,0,0,0,0,0,0,0,0,0,0,0,0,0,0,0,0,0,0,0,0,0,0,0,0,0,0,0,0,0,0,0,0,0,0,0,0,0,0,0,0,0,0,0,0,0,0,0,0,0,0,0,0,0,0,0,0,0,0,0,0,0,0,0,0,0,0,0,0,0,0,0,0,0,0,0,0,0,0,0,0,0,0,0,0,0,0,0,0,0,0,0,0,0,0,0,0,0,0,0,0,0,0,0,0,0,0,0,0,0,0,0,0,0,0,0,0,0,0,0,0,0,0,0,0,0,0,0,0,0,0,0,0,0,0,0,0,0,0,0,0,0,0,0,0,0,0,0,0,10426,10431,10436,10441,10446,10451,10456,10461,0,0,0,0,0,0,0,0,0,0,0,0,0,0,0,0,0,0,0,0,0,0,0,0,0,0,0,0,0,0,0,0,0,0,0,0,0,0,0,0,0,0,0,0,0,0,0,0,0,0,0,0,0,0,0,0,0,0,0,0,0,0,0,0,0,0,0,0,0,0,0,0,0,0,0,0,0,0,0,0,0,0,0,0,0,0,0,0,0,0,0,0,0,0,0,0,0,0,0,0,0,0,0,0,0,0,0,0,0,0,0,0,0,0,0,0,0,0,0,0,0,0,0,0,0,0,0,0,0,0,0,0,0,0,0,0,0,0,0,0,0,0,0,0,0,0,0,0,0,0,0,0,0,0,0,0,0,0,0,0,0,0,0,0,0,0,0,0,0,0,0,0,0,0,0,0,0,0,0,0,0,0,0,0,0,0,0,0,0,0,0,0,0,0,0,0,0,0,0,0,0,0,0,0,0,0,0,0,0,0,0,0,0,0,0,0,0,0,0,0,0,0,0,0,0,0,0,0,0,0,0,0,0,0,0,0,0,0,0,0,0,0,0,0,0,0,0,0,10466,10471,10476,10481,10486,10491,10496,10501,0,0,0,0,0,0,0,0,0,0,0,0,0,0,0,0,0,0,0,0,0,0,0,0,0,0,0,0,0,0,0,0,0,0,0,0,0,0,0,0,0,0,0,0,0,0,0,0,0,0,0,0,0,0,0,0,0,0,0,0,0,0,0,0,0,0,0,0,0,0,0,0,0,0,0,0,0,0,0,0,0,0,0,0,0,0,0,0,0,0,0,0,0,0,0,0,0,0,0,0,0,0,0,0,0,0,0,0,0,0,0,0,0,0,0,0,0,0,0,0,0,0,0,0,0,0,0,0,0,0,0,0,0,0,0,0,0,0,0,0,0,0,0,0,0,0,0,0,0,0,0,0,0,0,0,0,0,0,0,0,0,0,0,0,0,0,0,0,0,0,0,0,0,0,0,0,0,0,0,0,0,0,0,0,0,0,0,0,0,0,0,0,0,0,0,0,0,0,0,0,0,0,0,0,0,0,0,0,0,0,0,0,0,0,0,0,0,0,0,0,0,0,0,0,0,0,0,0,0,0,0,0,0,0,0,0,0,0,0,0,0,0,0,0,0,0,0,0,10506,10511,10516,10521,10526,10531,10536,10541,0,0,0,0,0,0,0,0,0,0,0,0,0,0,0,0,0,0,0,0,0,0,0,0,0,0,0,0,0,0,0,0,0,0,0,0,0,0,0,0,0,0,0,0,0,0,0,0,0,0,0,0,0,0,0,0,0,0,0,0,0,0,0,0,0,0,0,0,0,0,0,0,0,0,0,0,0,0,0,0,0,0,0,0,0,0,0,0,0,0,0,0,0,0,0,0,0,0,0,0,0,0,0,0,0,0,0,0,0,0,0,0,0,0,0,0,0,0,0,0,0,0,0,0,0,0,0,0,0,0,0,0,0,0,0,0,0,0,0,0,0,0,0,0,0,0,0,0,0,0,0,0,0,0,0,0,0,0,0,0,0,0,0,0,0,0,0,0,0,0,0,0,0,0,0,0,0,0,0,0,0,0,0,0,0,0,0,0,0,0,0,0,0,0,0,0,0,0,0,0,0,0,0,0,0,0,0,0,0,0,0,0,0,0,0,0,0,0,0,0,0,0,0,0,0,0,0,0,0,0,0,0,0,0,0,0,0,0,0,0,0,0,0,0,0,0,0,0,10386,10391,10396,10401,10406,10411,10416,10421,0,0,0,0,0,0,0,0,0,0,0,0,0,0,0,0,0,0,0,0,0,0,0,0,0,0,0,0,0,0,0,0,0,0,0,0,0,0,0,0,0,0,0,0,0,0,0,0,0,0,0,0,0,0,0,0,0,0,0,0,0,0,0,0,0,0,0,0,0,0,0,0,0,0,0,0,0,0,0,0,0,0,0,0,0,0,0,0,0,0,0,0,0,0,0,0,0,0,0,0,0,0,0,0,0,0,0,0,0,0,0,0,0,0,0,0,0,0,0,0,0,0,0,0,0,0,0,0,0,0,0,0,0,0,0,0,0,0,0,0,0,0,0,0,0,0,0,0,0,0,0,0,0,0,0,0,0,0,0,0,0,0,0,0,0,0,0,0,0,0,0,0,0,0,0,0,0,0,0,0,0,0,0,0,0,0,0,0,0,0,0,0,0,0,0,0,0,0,0,0,0,0,0,0,0,0,0,0,0,0,0,0,0,0,0,0,0,0,0,0,0,0,0,0,0,0,0,0,0,0,0,0,0,0,0,0,0,0,0,0,0,0,0,0,0,0,0,0,10426,10431,10436,10441,10446,10451,10456,10461,0,0,0,0,0,0,0,0,0,0,0,0,0,0,0,0,0,0,0,0,0,0,0,0,0,0,0,0,0,0,0,0,0,0,0,0,0,0,0,0,0,0,0,0,0,0,0,0,0,0,0,0,0,0,0,0,0,0,0,0,0,0,0,0,0,0,0,0,0,0,0,0,0,0,0,0,0,0,0,0,0,0,0,0,0,0,0,0,0,0,0,0,0,0,0,0,0,0,0,0,0,0,0,0,0,0,0,0,0,0,0,0,0,0,0,0,0,0,0,0,0,0,0,0,0,0,0,0,0,0,0,0,0,0,0,0,0,0,0,0,0,0,0,0,0,0,0,0,0,0,0,0,0,0,0,0,0,0,0,0,0,0,0,0,0,0,0,0,0,0,0,0,0,0,0,0,0,0,0,0,0,0,0,0,0,0,0,0,0,0,0,0,0,0,0,0,0,0,0,0,0,0,0,0,0,0,0,0,0,0,0,0,0,0,0,0,0,0,0,0,0,0,0,0,0,0,0,0,0,0,0,0,0,0,0,0,0,0,0,0,0,0,0,0,0,0,0,0,10466,10471,10476,10481,10486,10491,10496,10501,0,0,0,0,0,0,0,0,0,0,0,0,0,0,0,0,0,0,0,0,0,0,0,0,0,0,0,0,0,0,0,0,0,0,0,0,0,0,0,0,0,0,0,0,0,0,0,0,0,0,0,0,0,0,0,0,0,0,0,0,0,0,0,0,0,0,0,0,0,0,0,0,0,0,0,0,0,0,0,0,0,0,0,0,0,0,0,0,0,0,0,0,0,0,0,0,0,0,0,0,0,0,0,0,0,0,0,0,0,0,0,0,0,0,0,0,0,0,0,0,0,0,0,0,0,0,0,0,0,0,0,0,0,0,0,0,0,0,0,0,0,0,0,0,0,0,0,0,0,0,0,0,0,0,0,0,0,0,0,0,0,0,0,0,0,0,0,0,0,0,0,0,0,0,0,0,0,0,0,0,0,0,0,0,0,0,0,0,0,0,0,0,0,0,0,0,0,0,0,0,0,0,0,0,0,0,0,0,0,0,0,0,0,0,0,0,0,0,0,0,0,0,0,0,0,0,0,0,0,0,0,0,0,0,0,0,0,0,0,0,0,0,0,0,0,0,0,0,10506,10511,10516,10521,10526,10531,10536,10541,0,0,0,0,0,0,0,0,0,0,0,0,0,0,0,0,0,0,0,0,0,0,0,0,0,0,0,0,0,0,0,0,0,0,0,0,0,0,0,0,0,0,0,0,0,0,0,0,0,0,0,0,0,0,0,0,0,0,0,0,0,0,0,0,0,0,0,0,0,0,0,0,0,0,0,0,0,0,0,0,0,0,0,0,0,0,0,0,0,0,0,0,0,0,0,0,0,0,0,0,0,0,0,0,0,0,0,0,0,0,0,0,0,0,0,0,0,0,0,0,0,0,0,0,0,0,0,0,0,0,0,0,0,0,0,0,0,0,0,0,0,0,0,0,0,0,0,0,0,0,0,0,0,0,0,0,0,0,0,0,0,0,0,0,0,0,0,0,0,0,0,0,0,0,0,0,0,0,0,0,0,0,0,0,0,0,0,0,0,0,0,0,0,0,0,0,0,0,0,0,0,0,0,0,0,0,0,0,0,0,0,0,0,0,0,0,0,0,0,0,0,0,0,0,0,0,0,0,0,0,0,0,0,0,0,0,0,0,0,0,0,0,0,0,0,0,0,0,10386,10391,10396,10401,10406,10411,10416,10421,0,0,0,0,0,0,0,0,0,0,0,0,0,0,0,0,0,0,0,0,0,0,0,0,0,0,0,0,0,0,0,0,0,0,0,0,0,0,0,0,0,0,0,0,0,0,0,0,0,0,0,0,0,0,0,0,0,0,0,0,0,0,0,0,0,0,0,0,0,0,0,0,0,0,0,0,0,0,0,0,0,0,0,0,0,0,0,0,0,0,0,0,0,0,0,0,0,0,0,0,0,0,0,0,0,0,0,0,0,0,0,0,0,0,0,0,0,0,0,0,0,0,0,0,0,0,0,0,0,0,0,0,0,0,0,0,0,0,0,0,0,0,0,0,0,0,0,0,0,0,0,0,0,0,0,0,0,0,0,0,0,0,0,0,0,0,0,0,0,0,0,0,0,0,0,0,0,0,0,0,0,0,0,0,0,0,0,0,0,0,0,0,0,0,0,0,0,0,0,0,0,0,0,0,0,0,0,0,0,0,0,0,0,0,0,0,0,0,0,0,0,0,0,0,0,0,0,0,0,0,0,0,0,0,0,0,0,0,0,0,0,0,0,0,0,0,0,0,10546,10551,10556,10561,10566,10571,10576,10581,0,0,0,0,0,0,0,0,0,0,0,0,0,0,0,0,0,0,0,0,0,0,0,0,0,0,0,0,0,0,0,0,0,0,0,0,0,0,0,0,0,0,0,0,0,0,0,0,0,0,0,0,0,0,0,0,0,0,0,0,0,0,0,0,0,0,0,0,0,0,0,0,0,0,0,0,0,0,0,0,0,0,0,0,0,0,0,0,0,0,0,0,0,0,0,0,0,0,0,0,0,0,0,0,0,0,0,0,0,0,0,0,0,0,0,0,0,0,0,0,0,0,0,0,0,0,0,0,0,0,0,0,0,0,0,0,0,0,0,0,0,0,0,0,0,0,0,0,0,0,0,0,0,0,0,0,0,0,0,0,0,0,0,0,0,0,0,0,0,0,0,0,0,0,0,0,0,0,0,0,0,0,0,0,0,0,0,0,0,0,0,0,0,0,0,0,0,0,0,0,0,0,0,0,0,0,0,0,0,0,0,0,0,0,0,0,0,0,0,0,0,0,0,0,0,0,0,0,0,0,0,0,0,0,0,0,0,0,0,0,0,0,0,0,0,0,0,0,10586,10591,10596,10601,10606,10611,10616,10621,0,0,0,0,0,0,0,0,0,0,0,0,0,0,0,0,0,0,0,0,0,0,0,0,0,0,0,0,0,0,0,0,0,0,0,0,0,0,0,0,0,0,0,0,0,0,0,0,0,0,0,0,0,0,0,0,0,0,0,0,0,0,0,0,0,0,0,0,0,0,0,0,0,0,0,0,0,0,0,0,0,0,0,0,0,0,0,0,0,0,0,0,0,0,0,0,0,0,0,0,0,0,0,0,0,0,0,0,0,0,0,0,0,0,0,0,0,0,0,0,0,0,0,0,0,0,0,0,0,0,0,0,0,0,0,0,0,0,0,0,0,0,0,0,0,0,0,0,0,0,0,0,0,0,0,0,0,0,0,0,0,0,0,0,0,0,0,0,0,0,0,0,0,0,0,0,0,0,0,0,0,0,0,0,0,0,0,0,0,0,0,0,0,0,0,0,0,0,0,0,0,0,0,0,0,0,0,0,0,0,0,0,0,0,0,0,0,0,0,0,0,0,0,0,0,0,0,0,0,0,0,0,0,0,0,0,0,0,0,0,0,0,0,0,0,0,0,0,0,0,0,0,0,0,0,0,0,0,0,0,0,0,0,0,0,0,0,0,0,0,0,0,0,0,0,0,0,0,0,0,0,0,0,0,0,0,0,0,0,0,0,0,0,0,0,0,0,0,0,0,0,0,0,0,0,0,0,0,0,0,0,0,0,0,0,0,0,0,0,0,0,0,0,0,0,0,0,0,0,0,0,0,0,0,0,0,0,0,0,0,0,0,0,0,0,0,0,0,0,0,0,0,0,0,0,0,0,0,0,0,0,0,0,0,0,0,0,0,0,0,0,0,0,0,0,0,0,0,0,0,0,0,0,0,0,0,0,0,0,0,0,0,0,0,0,0,0,0,0,0,0,0,0,0,0,0,0,0,0,0,0,0,0,0,0,0,0,0,0,0,0,0,0,0,0,0,0,0,0,0,0,0,0,0,0,0,0,0,0,0,0,0,0,0,0,0,0,0,0,0,0,0,0,0,0,0,0,0,0,0,0,0,0,0,0,0,0,0,0,0,0,0,0,0,0,0,0,0,0,0,0,0,0,0,0,0,0,0,0,0,0,0,0,0,0,0,0,0,0,0,0,0,0,0,0,9627,9633,9639,9645,9651,9657,9663,0,0,0,0,0,0,0,0,0,0,0,0,0,0,0,0,0,0,0,0,0,0,0,0,0,0,0,0,0,0,0,0,0,0,0,0,0,0,0,0,0,0,0,0,0,0,0,0,0,0,0,0,0,0,0,0,0,0,0,0,0,0,0,0,0,0,0,0,0,0,0,0,0,0,0,0,0,0,0,0,0,0,0,0,0,0,0,0,0,0,0,0,0,0,0,0,0,0,0,0,0,0,0,0,0,0,0,0,0,0,0,0,0,0,0,0,0,0,0,0,0,0,0,0,0,0,0,0,0,0,0,0,0,0,0,0,0,0,0,0,0,0,0,0,0,0,0,0,0,0,0,0,0,0,0,0,0,0,0,0,0,0,0,0,0,0,0,0,0,0,0,0,0,0,0,0,0,0,0,0,0,0,0,0,0,0,0,0,0,0,0,0,0,0,0,0,0,0,0,0,0,0,0,0,0,0,0,0,0,0,0,0,0,0,0,0,0,0,0,0,0,0,0,0,0,0,0,0,0,0,0,0,0,0,0,0,0,0,0,0,0,0,0,0,0,0,0,0,0,9703,9709,9715,9721,9727,9733,0,0,0,0,0,0,0,0,0,0,0,0,0,0,0,0,0,0,0,0,0,0,0,0,0,0,0,0,0,0,0,0,0,0,0,0,0,0,0,0,0,0,0,0,0,0,0,0,0,0,0,0,0,0,0,0,0,0,0,0,0,0,0,0,0,0,0,0,0,0,0,0,0,0,0,0,0,0,0,0,0,0,0,0,0,0,0,0,0,0,0,0,0,0,0,0,0,0,0,0,0,0,0,0,0,0,0,0,0,0,0,0,0,0,0,0,0,0,0,0,0,0,0,0,0,0,0,0,0,0,0,0,0,0,0,0,0,0,0,0,0,0,0,0,0,0,0,0,0,0,0,0,0,0,0,0,0,0,0,0,0,0,0,0,0,0,0,0,0,0,0,0,0,0,0,0,0,0,0,0,0,0,0,0,0,0,0,0,0,0,0,0,0,0,0,0,0,0,0,0,0,0,0,0,0,0,0,0,0,0,0,0,0,0,0,0,0,0,0,0,0,0,0,0,0,0,0,0,0,0,0,0,0,0,0,0,0,0,0,0,0,0,0,0,0,0,0,0,0,0,9627,9633,9639,9645,9651,9657,9663,0,0,0,0,0,0,0,0,0,0,0,0,0,0,0,0,0,0,0,0,0,0,0,0,0,0,0,0,0,0,0,0,0,0,0,0,0,0,0,0,0,0,0,0,0,0,0,0,0,0,0,0,0,0,0,0,0,0,0,0,0,0,0,0,0,0,0,0,0,0,0,0,0,0,0,0,0,0,0,0,0,0,0,0,0,0,0,0,0,0,0,0,0,0,0,0,0,0,0,0,0,0,0,0,0,0,0,0,0,0,0,0,0,0,0,0,0,0,0,0,0,0,0,0,0,0,0,0,0,0,0,0,0,0,0,0,0,0,0,0,0,0,0,0,0,0,0,0,0,0,0,0,0,0,0,0,0,0,0,0,0,0,0,0,0,0,0,0,0,0,0,0,0,0,0,0,0,0,0,0,0,0,0,0,0,0,0,0,0,0,0,0,0,0,0,0,0,0,0,0,0,0,0,0,0,0,0,0,0,0,0,0,0,0,0,0,0,0,0,0,0,0,0,0,0,0,0,0,0,0,0,0,0,0,0,0,0,0,0,0,0,0,0,0,0,0,0,0,0,9703,9709,9715,9721,9727,9733,0,0,0,0,0,0,0,0,0,0,0,0,0,0,0,0,0,0,0,0,0,0,0,0,0,0,0,0,0,0,0,0,0,0,0,0,0,0,0,0,0,0,0,0,0,0,0,0,0,0,0,0,0,0,0,0,0,0,0,0,0,0,0,0,0,0,0,0,0,0,0,0,0,0,0,0,0,0,0,0,0,0,0,0,0,0,0,0,0,0,0,0,0,0,0,0,0,0,0,0,0,0,0,0,0,0,0,0,0,0,0,0,0,0,0,0,0,0,0,0,0,0,0,0,0,0,0,0,0,0,0,0,0,0,0,0,0,0,0,0,0,0,0,0,0,0,0,0,0,0,0,0,0,0,0,0,0,0,0,0,0,0,0,0,0,0,0,0,0,0,0,0,0,0,0,0,0,0,0,0,0,0,0,0,0,0,0,0,0,0,0,0,0,0,0,0,0,0,0,0,0,0,0,0,0,0,0,0,0,0,0,0,0,0,0,0,0,0,0,0,0,0,0,0,0,0,0,0,0,0,0,0,0,0,0,0,0,0,0,0,0,0,0,0,0,0,0,0,0,0,9627,9633,9639,9645,9651,9657,9663,0,0,0,0,0,0,0,0,0,0,0,0,0,0,0,0,0,0,0,0,0,0,0,0,0,0,0,0,0,0,0,0,0,0,0,0,0,0,0,0,0,0,0,0,0,0,0,0,0,0,0,0,0,0,0,0,0,0,0,0,0,0,0,0,0,0,0,0,0,0,0,0,0,0,0,0,0,0,0,0,0,0,0,0,0,0,0,0,0,0,0,0,0,0,0,0,0,0,0,0,0,0,0,0,0,0,0,0,0,0,0,0,0,0,0,0,0,0,0,0,0,0,0,0,0,0,0,0,0,0,0,0,0,0,0,0,0,0,0,0,0,0,0,0,0,0,0,0,0,0,0,0,0,0,0,0,0,0,0,0,0,0,0,0,0,0,0,0,0,0,0,0,0,0,0,0,0,0,0,0,0,0,0,0,0,0,0,0,0,0,0,0,0,0,0,0,0,0,0,0,0,0,0,0,0,0,0,0,0,0,0,0,0,0,0,0,0,0,0,0,0,0,0,0,0,0,0,0,0,0,0,0,0,0,0,0,0,0,0,0,0,0,0,0,0,0,0,0,0,9703,9709,9715,9721,9727,9733,0,0,0,0,0,0,0,0,0,0,0,0,0,0,0,0,0,0,0,0,0,0,0,0,0,0,0,0,0,0,0,0,0,0,0,0,0,0,0,0,0,0,0,0,0,0,0,0,0,0,0,0,0,0,0,0,0,0,0,0,0,0,0,0,0,0,0,0,0,0,0,0,0,0,0,0,0,0,0,0,0,0,0,0,0,0,0,0,0,0,0,0,0,0,0,0,0,0,0,0,0,0,0,0,0,0,0,0,0,0,0,0,0,0,0,0,0,0,0,0,0,0,0,0,0,0,0,0,0,0,0,0,0,0,0,0,0,0,0,0,0,0,0,0,0,0,0,0,0,0,0,0,0,0,0,0,0,0,0,0,0,0,0,0,0,0,0,0,0,0,0,0,0,0,0,0,0,0,0,0,0,0,0,0,0,0,0,0,0,0,0,0,0,0,0,0,0,0,0,0,0,0,0,0,0,0,0,0,0,0,0,0,0,0,0,0,0,0,0,0,0,0,0,0,0,0,0,0,0,0,0,0,0,0,0,0,0,0,0,0,0,0,0,0,0,0,0,0,0,0,9627,9633,9639,9645,9651,9657,9663,0,0,0,0,0,0,0,0,0,0,0,0,0,0,0,0,0,0,0,0,0,0,0,0,0,0,0,0,0,0,0,0,0,0,0,0,0,0,0,0,0,0,0,0,0,0,0,0,0,0,0,0,0,0,0,0,0,0,0,0,0,0,0,0,0,0,0,0,0,0,0,0,0,0,0,0,0,0,0,0,0,0,0,0,0,0,0,0,0,0,0,0,0,0,0,0,0,0,0,0,0,0,0,0,0,0,0,0,0,0,0,0,0,0,0,0,0,0,0,0,0,0,0,0,0,0,0,0,0,0,0,0,0,0,0,0,0,0,0,0,0,0,0,0,0,0,0,0,0,0,0,0,0,0,0,0,0,0,0,0,0,0,0,0,0,0,0,0,0,0,0,0,0,0,0,0,0,0,0,0,0,0,0,0,0,0,0,0,0,0,0,0,0,0,0,0,0,0,0,0,0,0,0,0,0,0,0,0,0,0,0,0,0,0,0,0,0,0,0,0,0,0,0,0,0,0,0,0,0,0,0,0,0,0,0,0,0,0,0,0,0,0,0,0,0,0,0,0,0,9703,9709,9715,9721,9727,9733,0,0,0,0,0,0,0,0,0,0,0,0,0,0,0,0,0,0,0,0,0,0,0,0,0,0,0,0,0,0,0,0,0,0,0,0,0,0,0,0,0,0,0,0,0,0,0,0,0,0,0,0,0,0,0,0,0,0,0,0,0,0,0,0,0,0,0,0,0,0,0,0,0,0,0,0,0,0,0,0,0,0,0,0,0,0,0,0,0,0,0,0,0,0,0,0,0,0,0,0,0,0,0,0,0,0,0,0,0,0,0,0,0,0,0,0,0,0,0,0,0,0,0,0,0,0,0,0,0,0,0,0,0,0,0,0,0,0,0,0,0,0,0,0,0,0,0,0,0,0,0,0,0,0,0,0,0,0,0,0,0,0,0,0,0,0,0,0,0,0,0,0,0,0,0,0,0,0,0,0,0,0,0,0,0,0,0,0,0,0,0,0,0,0,0,0,0,0,0,0,0,0,0,0,0,0,0,0,0,0,0,0,0,0,0,0,0,0,0,0,0,0,0,0,0,0,0,0,0,0,0,0,0,0,0,0,0,0,0,0,0,0,0,0,0,0,0,0,0,0,9627,9633,9639,9645,9651,9657,9663,0,0,0,0,0,0,0,0,0,0,0,0,0,0,0,0,0,0,0,0,0,0,0,0,0,0,0,0,0,0,0,0,0,0,0,0,0,0,0,0,0,0,0,0,0,0,0,0,0,0,0,0,0,0,0,0,0,0,0,0,0,0,0,0,0,0,0,0,0,0,0,0,0,0,0,0,0,0,0,0,0,0,0,0,0,0,0,0,0,0,0,0,0,0,0,0,0,0,0,0,0,0,0,0,0,0,0,0,0,0,0,0,0,0,0,0,0,0,0,0,0,0,0,0,0,0,0,0,0,0,0,0,0,0,0,0,0,0,0,0,0,0,0,0,0,0,0,0,0,0,0,0,0,0,0,0,0,0,0,0,0,0,0,0,0,0,0,0,0,0,0,0,0,0,0,0,0,0,0,0,0,0,0,0,0,0,0,0,0,0,0,0,0,0,0,0,0,0,0,0,0,0,0,0,0,0,0,0,0,0,0,0,0,0,0,0,0,0,0,0,0,0,0,0,0,0,0,0,0,0,0,0,0,0,0,0,0,0,0,0,0,0,0,0,0,0,0,0,0,9703,9709,9715,9721,9727,9733,0,0,0,0,0,0,0,0,0,0,0,0,0,0,0,0,0,0,0,0,0,0,0,0,0,0,0,0,0,0,0,0,0,0,0,0,0,0,0,0,0,0,0,0,0,0,0,0,0,0,0,0,0,0,0,0,0,0,0,0,0,0,0,0,0,0,0,0,0,0,0,0,0,0,0,0,0,0,0,0,0,0,0,0,0,0,0,0,0,0,0,0,0,0,0,0,0,0,0,0,0,0,0,0,0,0,0,0,0,0,0,0,0,0,0,0,0,0,0,0,0,0,0,0,0,0,0,0,0,0,0,0,0,0,0,0,0,0,0,0,0,0,0,0,0,0,0,0,0,0,0,0,0,0,0,0,0,0,0,0,0,0,0,0,0,0,0,0,0,0,0,0,0,0,0,0,0,0,0,0,0,0,0,0,0,0,0,0,0,0,0,0,0,0,0,0,0,0,0,0,0,0,0,0,0,0,0,0,0,0,0,0,0,0,0,0,0,0,0,0,0,0,0,0,0,0,0,0,0,0,0,0,0,0,0,0,0,0,0,0,0,0,0,0,0,0,0,0,0,0,9627,9633,9639,9645,9651,9657,9663,0,0,0,0,0,0,0,0,0,0,0,0,0,0,0,0,0,0,0,0,0,0,0,0,0,0,0,0,0,0,0,0,0,0,0,0,0,0,0,0,0,0,0,0,0,0,0,0,0,0,0,0,0,0,0,0,0,0,0,0,0,0,0,0,0,0,0,0,0,0,0,0,0,0,0,0,0,0,0,0,0,0,0,0,0,0,0,0,0,0,0,0,0,0,0,0,0,0,0,0,0,0,0,0,0,0,0,0,0,0,0,0,0,0,0,0,0,0,0,0,0,0,0,0,0,0,0,0,0,0,0,0,0,0,0,0,0,0,0,0,0,0,0,0,0,0,0,0,0,0,0,0,0,0,0,0,0,0,0,0,0,0,0,0,0,0,0,0,0,0,0,0,0,0,0,0,0,0,0,0,0,0,0,0,0,0,0,0,0,0,0,0,0,0,0,0,0,0,0,0,0,0,0,0,0,0,0,0,0,0,0,0,0,0,0,0,0,0,0,0,0,0,0,0,0,0,0,0,0,0,0,0,0,0,0,0,0,0,0,0,0,0,0,0,0,0,0,0,0,9703,9709,9715,9721,9727,9733,0,0,0,0,0,0,0,0,0,0,0,0,0,0,0,0,0,0,0,0,0,0,0,0,0,0,0,0,0,0,0,0,0,0,0,0,0,0,0,0,0,0,0,0,0,0,0,0,0,0,0,0,0,0,0,0,0,0,0,0,0,0,0,0,0,0,0,0,0,0,0,0,0,0,0,0,0,0,0,0,0,0,0,0,0,0,0,0,0,0,0,0,0,0,0,0,0,0,0,0,0,0,0,0,0,0,0,0,0,0,0,0,0,0,0,0,0,0,0,0,0,0,0,0,0,0,0,0,0,0,0,0,0,0,0,0,0,0,0,0,0,0,0,0,0,0,0,0,0,0,0,0,0,0,0,0,0,0,0,0,0,0,0,0,0,0,0,0,0,0,0,0,0,0,0,0,0,0,0,0,0,0,0,0,0,0,0,0,0,0,0,0,0,0,0,0,0,0,0,0,0,0,0,0,0,0,0,0,0,0,0,0,0,0,0,0,0,0,0,0,0,0,0,0,0,0,0,0,0,0,0,0,0,0,0,0,0,0,0,0,0,0,0,0,0,0,0,0,0,0,9627,9633,9639,9645,9651,9657,9663,0,0,0,0,0,0,0,0,0,0,0,0,0,0,0,0,0,0,0,0,0,0,0,0,0,0,0,0,0,0,0,0,0,0,0,0,0,0,0,0,0,0,0,0,0,0,0,0,0,0,0,0,0,0,0,0,0,0,0,0,0,0,0,0,0,0,0,0,0,0,0,0,0,0,0,0,0,0,0,0,0,0,0,0,0,0,0,0,0,0,0,0,0,0,0,0,0,0,0,0,0,0,0,0,0,0,0,0,0,0,0,0,0,0,0,0,0,0,0,0,0,0,0,0,0,0,0,0,0,0,0,0,0,0,0,0,0,0,0,0,0,0,0,0,0,0,0,0,0,0,0,0,0,0,0,0,0,0,0,0,0,0,0,0,0,0,0,0,0,0,0,0,0,0,0,0,0,0,0,0,0,0,0,0,0,0,0,0,0,0,0,0,0,0,0,0,0,0,0,0,0,0,0,0,0,0,0,0,0,0,0,0,0,0,0,0,0,0,0,0,0,0,0,0,0,0,0,0,0,0,0,0,0,0,0,0,0,0,0,0,0,0,0,0,0,0,0,0,0,9703,9709,9715,9721,9727,9733,0,0,0,0,0,0,0,0,0,0,0,0,0,0,0,0,0,0,0,0,0,0,0,0,0,0,0,0,0,0,0,0,0,0,0,0,0,0,0,0,0,0,0,0,0,0,0,0,0,0,0,0,0,0,0,0,0,0,0,0,0,0,0,0,0,0,0,0,0,0,0,0,0,0,0,0,0,0,0,0,0,0,0,0,0,0,0,0,0,0,0,0,0,0,0,0,0,0,0,0,0,0,0,0,0,0,0,0,0,0,0,0,0,0,0,0,0,0,0,0,0,0,0,0,0,0,0,0,0,0,0,0,0,0,0,0,0,0,0,0,0,0,0,0,0,0,0,0,0,0,0,0,0,0,0,0,0,0,0,0,0,0,0,0,0,0,0,0,0,0,0,0,0,0,0,0,0,0,0,0,0,0,0,0,0,0,0,0,0,0,0,0,0,0,0,0,0,0,0,0,0,0,0,0,0,0,0,0,0,0,0,0,0,0,0,0,0,0,0,0,0,0,0,0,0,0,0,0,0,0,0,0,0,0,0,0,0,0,0,0,0,0,0,0,0,0,0,0,0,0,9627,9633,9639,9645,9651,9657,9663,0,0,0,0,0,0,0,0,0,0,0,0,0,0,0,0,0,0,0,0,0,0,0,0,0,0,0,0,0,0,0,0,0,0,0,0,0,0,0,0,0,0,0,0,0,0,0,0,0,0,0,0,0,0,0,0,0,0,0,0,0,0,0,0,0,0,0,0,0,0,0,0,0,0,0,0,0,0,0,0,0,0,0,0,0,0,0,0,0,0,0,0,0,0,0,0,0,0,0,0,0,0,0,0,0,0,0,0,0,0,0,0,0,0,0,0,0,0,0,0,0,0,0,0,0,0,0,0,0,0,0,0,0,0,0,0,0,0,0,0,0,0,0,0,0,0,0,0,0,0,0,0,0,0,0,0,0,0,0,0,0,0,0,0,0,0,0,0,0,0,0,0,0,0,0,0,0,0,0,0,0,0,0,0,0,0,0,0,0,0,0,0,0,0,0,0,0,0,0,0,0,0,0,0,0,0,0,0,0,0,0,0,0,0,0,0,0,0,0,0,0,0,0,0,0,0,0,0,0,0,0,0,0,0,0,0,0,0,0,0,0,0,0,0,0,0,0,0,0,9703,9709,9715,9721,9727,9733,0,0,0,0,0,0,0,0,0,0,0,0,0,0,0,0,0,0,0,0,0,0,0,0,0,0,0,0,0,0,0,0,0,0,0,0,0,0,0,0,0,0,0,0,0,0,0,0,0,0,0,0,0,0,0,0,0,0,0,0,0,0,0,0,0,0,0,0,0,0,0,0,0,0,0,0,0,0,0,0,0,0,0,0,0,0,0,0,0,0,0,0,0,0,0,0,0,0,0,0,0,0,0,0,0,0,0,0,0,0,0,0,0,0,0,0,0,0,0,0,0,0,0,0,0,0,0,0,0,0,0,0,0,0,0,0,0,0,0,0,0,0,0,0,0,0,0,0,0,0,0,0,0,0,0,0,0,0,0,0,0,0,0,0,0,0,0,0,0,0,0,0,0,0,0,0,0,0,0,0,0,0,0,0,0,0,0,0,0,0,0,0,0,0,0,0,0,0,0,0,0,0,0,0,0,0,0,0,0,0,0,0,0,0,0,0,0,0,0,0,0,0,0,0,0,0,0,0,0,0,0,0,0,0,0,0,0,0,0,0,0,0,0,0,0,0,0,0,0,0,9627,9633,9639,9645,9651,9657,9663,0,0,0,0,0,0,0,0,0,0,0,0,0,0,0,0,0,0,0,0,0,0,0,0,0,0,0,0,0,0,0,0,0,0,0,0,0,0,0,0,0,0,0,0,0,0,0,0,0,0,0,0,0,0,0,0,0,0,0,0,0,0,0,0,0,0,0,0,0,0,0,0,0,0,0,0,0,0,0,0,0,0,0,0,0,0,0,0,0,0,0,0,0,0,0,0,0,0,0,0,0,0,0,0,0,0,0,0,0,0,0,0,0,0,0,0,0,0,0,0,0,0,0,0,0,0,0,0,0,0,0,0,0,0,0,0,0,0,0,0,0,0,0,0,0,0,0,0,0,0,0,0,0,0,0,0,0,0,0,0,0,0,0,0,0,0,0,0,0,0,0,0,0,0,0,0,0,0,0,0,0,0,0,0,0,0,0,0,0,0,0,0,0,0,0,0,0,0,0,0,0,0,0,0,0,0,0,0,0,0,0,0,0,0,0,0,0,0,0,0,0,0,0,0,0,0,0,0,0,0,0,0,0,0,0,0,0,0,0,0,0,0,0,0,0,0,0,0,0,9703,9709,9715,9721,9727,9733,0,0,0,0,0,0,0,0,0,0,0,0,0,0,0,0,0,0,0,0,0,0,0,0,0,0,0,0,0,0,0,0,0,0,0,0,0,0,0,0,0,0,0,0,0,0,0,0,0,0,0,0,0,0,0,0,0,0,0,0,0,0,0,0,0,0,0,0,0,0,0,0,0,0,0,0,0,0,0,0,0,0,0,0,0,0,0,0,0,0,0,0,0,0,0,0,0,0,0,0,0,0,0,0,0,0,0,0,0,0,0,0,0,0,0,0,0,0,0,0,0,0,0,0,0,0,0,0,0,0,0,0,0,0,0,0,0,0,0,0,0,0,0,0,0,0,0,0,0,0,0,0,0,0,0,0,0,0,0,0,0,0,0,0,0,0,0,0,0,0,0,0,0,0,0,0,0,0,0,0,0,0,0,0,0,0,0,0,0,0,0,0,0,0,0,0,0,0,0,0,0,0,0,0,0,0,0,0,0,0,0,0,0,0,0,0,0,0,0,0,0,0,0,0,0,0,0,0,0,0,0,0,0,0,0,0,0,0,0,0,0,0,0,0,0,0,0,0,0,0,9627,9633,9639,9645,9651,9657,9663,0,0,0,0,0,0,0,0,0,0,0,0,0,0,0,0,0,0,0,0,0,0,0,0,0,0,0,0,0,0,0,0,0,0,0,0,0,0,0,0,0,0,0,0,0,0,0,0,0,0,0,0,0,0,0,0,0,0,0,0,0,0,0,0,0,0,0,0,0,0,0,0,0,0,0,0,0,0,0,0,0,0,0,0,0,0,0,0,0,0,0,0,0,0,0,0,0,0,0,0,0,0,0,0,0,0,0,0,0,0,0,0,0,0,0,0,0,0,0,0,0,0,0,0,0,0,0,0,0,0,0,0,0,0,0,0,0,0,0,0,0,0,0,0,0,0,0,0,0,0,0,0,0,0,0,0,0,0,0,0,0,0,0,0,0,0,0,0,0,0,0,0,0,0,0,0,0,0,0,0,0,0,0,0,0,0,0,0,0,0,0,0,0,0,0,0,0,0,0,0,0,0,0,0,0,0,0,0,0,0,0,0,0,0,0,0,0,0,0,0,0,0,0,0,0,0,0,0,0,0,0,0,0,0,0,0,0,0,0,0,0,0,0,0,0,0,0,0,0,9703,9709,9715,9721,9727,9733,0,0,0,0,0,0,0,0,0,0,0,0,0,0,0,0,0,0,0,0,0,0,0,0,0,0,0,0,0,0,0,0,0,0,0,0,0,0,0,0,0,0,0,0,0,0,0,0,0,0,0,0,0,0,0,0,0,0,0,0,0,0,0,0,0,0,0,0,0,0,0,0,0,0,0,0,0,0,0,0,0,0,0,0,0,0,0,0,0,0,0,0,0,0,0,0,0,0,0,0,0,0,0,0,0,0,0,0,0,0,0,0,0,0,0,0,0,0,0,0,0,0,0,0,0,0,0,0,0,0,0,0,0,0,0,0,0,0,0,0,0,0,0,0,0,0,0,0,0,0,0,0,0,0,0,0,0,0,0,0,0,0,0,0,0,0,0,0,0,0,0,0,0,0,0,0,0,0,0,0,0,0,0,0,0,0,0,0,0,0,0,0,0,0,0,0,0,0,0,0,0,0,0,0,0,0,0,0,0,0,0,0,0,0,0,0,0,0,0,0,0,0,0,0,0,0,0,0,0,0,0,0,0,0,0,0,0,0,0,0,0,0,0,0,0,0,0,0,0,0,9627,9633,9639,9645,9651,9657,9663,0,0,0,0,0,0,0,0,0,0,0,0,0,0,0,0,0,0,0,0,0,0,0,0,0,0,0,0,0,0,0,0,0,0,0,0,0,0,0,0,0,0,0,0,0,0,0,0,0,0,0,0,0,0,0,0,0,0,0,0,0,0,0,0,0,0,0,0,0,0,0,0,0,0,0,0,0,0,0,0,0,0,0,0,0,0,0,0,0,0,0,0,0,0,0,0,0,0,0,0,0,0,0,0,0,0,0,0,0,0,0,0,0,0,0,0,0,0,0,0,0,0,0,0,0,0,0,0,0,0,0,0,0,0,0,0,0,0,0,0,0,0,0,0,0,0,0,0,0,0,0,0,0,0,0,0,0,0,0,0,0,0,0,0,0,0,0,0,0,0,0,0,0,0,0,0,0,0,0,0,0,0,0,0,0,0,0,0,0,0,0,0,0,0,0,0,0,0,0,0,0,0,0,0,0,0,0,0,0,0,0,0,0,0,0,0,0,0,0,0,0,0,0,0,0,0,0,0,0,0,0,0,0,0,0,0,0,0,0,0,0,0,0,0,0,0,0,0,0,9703,9709,9715,9721,9727,9733,0,0,0,0,0,0,0,0,0,0,0,0,0,0,0,0,0,0,0,0,0,0,0,0,0,0,0,0,0,0,0,0,0,0,0,0,0,0,0,0,0,0,0,0,0,0,0,0,0,0,0,0,0,0,0,0,0,0,0,0,0,0,0,0,0,0,0,0,0,0,0,0,0,0,0,0,0,0,0,0,0,0,0,0,0,0,0,0,0,0,0,0,0,0,0,0,0,0,0,0,0,0,0,0,0,0,0,0,0,0,0,0,0,0,0,0,0,0,0,0,0,0,0,0,0,0,0,0,0,0,0,0,0,0,0,0,0,0,0,0,0,0,0,0,0,0,0,0,0,0,0,0,0,0,0,0,0,0,0,0,0,0,0,0,0,0,0,0,0,0,0,0,0,0,0,0,0,0,0,0,0,0,0,0,0,0,0,0,0,0,0,0,0,0,0,0,0,0,0,0,0,0,0,0,0,0,0,0,0,0,0,0,0,0,0,0,0,0,0,0,0,0,0,0,0,0,0,0,0,0,0,0,0,0,0,0,0,0,0,0,0,0,0,0,0,0,0,0,0,0,9627,9633,9639,9645,9651,9657,9663,0,0,0,0,0,0,0,0,0,0,0,0,0,0,0,0,0,0,0,0,0,0,0,0,0,0,0,0,0,0,0,0,0,0,0,0,0,0,0,0,0,0,0,0,0,0,0,0,0,0,0,0,0,0,0,0,0,0,0,0,0,0,0,0,0,0,0,0,0,0,0,0,0,0,0,0,0,0,0,0,0,0,0,0,0,0,0,0,0,0,0,0,0,0,0,0,0,0,0,0,0,0,0,0,0,0,0,0,0,0,0,0,0,0,0,0,0,0,0,0,0,0,0,0,0,0,0,0,0,0,0,0,0,0,0,0,0,0,0,0,0,0,0,0,0,0,0,0,0,0,0,0,0,0,0,0,0,0,0,0,0,0,0,0,0,0,0,0,0,0,0,0,0,0,0,0,0,0,0,0,0,0,0,0,0,0,0,0,0,0,0,0,0,0,0,0,0,0,0,0,0,0,0,0,0,0,0,0,0,0,0,0,0,0,0,0,0,0,0,0,0,0,0,0,0,0,0,0,0,0,0,0,0,0,0,0,0,0,0,0,0,0,0,0,0,0,0,0,0,9703,9709,9715,9721,9727,9733,0,0,0,0,0,0,0,0,0,0,0,0,0,0,0,0,0,0,0,0,0,0,0,0,0,0,0,0,0,0,0,0,0,0,0,0,0,0,0,0,0,0,0,0,0,0,0,0,0,0,0,0,0,0,0,0,0,0,0,0,0,0,0,0,0,0,0,0,0,0,0,0,0,0,0,0,0,0,0,0,0,0,0,0,0,0,0,0,0,0,0,0,0,0,0,0,0,0,0,0,0,0,0,0,0,0,0,0,0,0,0,0,0,0,0,0,0,0,0,0,0,0,0,0,0,0,0,0,0,0,0,0,0,0,0,0,0,0,0,0,0,0,0,0,0,0,0,0,0,0,0,0,0,0,0,0,0,0,0,0,0,0,0,0,0,0,0,0,0,0,0,0,0,0,0,0,0,0,0,0,0,0,0,0,0,0,0,0,0,0,0,0,0,0,0,0,0,0,0,0,0,0,0,0,0,0,0,0,0,0,0,0,0,0,0,0,0,0,0,0,0,0,0,0,0,0,0,0,0,0,0,0,0,0,0,0,0,0,0,0,0,0,0,0,0,0,0,0,0,0,9627,9633,9639,9645,9651,9657,9663,0,0,0,0,0,0,0,0,0,0,0,0,0,0,0,0,0,0,0,0,0,0,0,0,0,0,0,0,0,0,0,0,0,0,0,0,0,0,0,0,0,0,0,0,0,0,0,0,0,0,0,0,0,0,0,0,0,0,0,0,0,0,0,0,0,0,0,0,0,0,0,0,0,0,0,0,0,0,0,0,0,0,0,0,0,0,0,0,0,0,0,0,0,0,0,0,0,0,0,0,0,0,0,0,0,0,0,0,0,0,0,0,0,0,0,0,0,0,0,0,0,0,0,0,0,0,0,0,0,0,0,0,0,0,0,0,0,0,0,0,0,0,0,0,0,0,0,0,0,0,0,0,0,0,0,0,0,0,0,0,0,0,0,0,0,0,0,0,0,0,0,0,0,0,0,0,0,0,0,0,0,0,0,0,0,0,0,0,0,0,0,0,0,0,0,0,0,0,0,0,0,0,0,0,0,0,0,0,0,0,0,0,0,0,0,0,0,0,0,0,0,0,0,0,0,0,0,0,0,0,0,0,0,0,0,0,0,0,0,0,0,0,0,0,0,0,0,0,0,9703,9709,9715,9721,9727,9733,0,0,0,0,0,0,0,0,0,0,0,0,0,0,0,0,0,0,0,0,0,0,0,0,0,0,0,0,0,0,0,0,0,0,0,0,0,0,0,0,0,0,0,0,0,0,0,0,0,0,0,0,0,0,0,0,0,0,0,0,0,0,0,0,0,0,0,0,0,0,0,0,0,0,0,0,0,0,0,0,0,0,0,0,0,0,0,0,0,0,0,0,0,0,0,0,0,0,0,0,0,0,0,0,0,0,0,0,0,0,0,0,0,0,0,0,0,0,0,0,0,0,0,0,0,0,0,0,0,0,0,0,0,0,0,0,0,0,0,0,0,0,0,0,0,0,0,0,0,0,0,0,0,0,0,0,0,0,0,0,0,0,0,0,0,0,0,0,0,0,0,0,0,0,0,0,0,0,0,0,0,0,0,0,0,0,0,0,0,0,0,0,0,0,0,0,0,0,0,0,0,0,0,0,0,0,0,0,0,0,0,0,0,0,0,0,0,0,0,0,0,0,0,0,0,0,0,0,0,0,0,0,0,0,0,0,0,0,0,0,0,0,0,0,0,0,0,0,0,0,9627,9633,9639,9645,9651,9657,9663,0,0,0,0,0,0,0,0,0,0,0,0,0,0,0,0,0,0,0,0,0,0,0,0,0,0,0,0,0,0,0,0,0,0,0,0,0,0,0,0,0,0,0,0,0,0,0,0,0,0,0,0,0,0,0,0,0,0,0,0,0,0,0,0,0,0,0,0,0,0,0,0,0,0,0,0,0,0,0,0,0,0,0,0,0,0,0,0,0,0,0,0,0,0,0,0,0,0,0,0,0,0,0,0,0,0,0,0,0,0,0,0,0,0,0,0,0,0,0,0,0,0,0,0,0,0,0,0,0,0,0,0,0,0,0,0,0,0,0,0,0,0,0,0,0,0,0,0,0,0,0,0,0,0,0,0,0,0,0,0,0,0,0,0,0,0,0,0,0,0,0,0,0,0,0,0,0,0,0,0,0,0,0,0,0,0,0,0,0,0,0,0,0,0,0,0,0,0,0,0,0,0,0,0,0,0,0,0,0,0,0,0,0,0,0,0,0,0,0,0,0,0,0,0,0,0,0,0,0,0,0,0,0,0,0,0,0,0,0,0,0,0,0,0,0,0,0,0,0,9703,9709,9715,9721,9727,9733,0,0,0,0,0,0,0,0,0,0,0,0,0,0,0,0,0,0,0,0,0,0,0,0,0,0,0,0,0,0,0,0,0,0,0,0,0,0,0,0,0,0,0,0,0,0,0,0,0,0,0,0,0,0,0,0,0,0,0,0,0,0,0,0,0,0,0,0,0,0,0,0,0,0,0,0,0,0,0,0,0,0,0,0,0,0,0,0,0,0,0,0,0,0,0,0,0,0,0,0,0,0,0,0,0,0,0,0,0,0,0,0,0,0,0,0,0,0,0,0,0,0,0,0,0,0,0,0,0,0,0,0,0,0,0,0,0,0,0,0,0,0,0,0,0,0,0,0,0,0,0,0,0,0,0,0,0,0,0,0,0,0,0,0,0,0,0,0,0,0,0,0,0,0,0,0,0,0,0,0,0,0,0,0,0,0,0,0,0,0,0,0,0,0,0,0,0,0,0,0,0,0,0,0,0,0,0,0,0,0,0,0,0,0,0,0,0,0,0,0,0,0,0,0,0,0,0,0,0,0,0,0,0,0,0,0,0,0,0,0,0,0,0,0,0,0,0,0,0,0,9627,9633,9639,9645,9651,9657,9663,0,0,0,0,0,0,0,0,0,0,0,0,0,0,0,0,0,0,0,0,0,0,0,0,0,0,0,0,0,0,0,0,0,0,0,0,0,0,0,0,0,0,0,0,0,0,0,0,0,0,0,0,0,0,0,0,0,0,0,0,0,0,0,0,0,0,0,0,0,0,0,0,0,0,0,0,0,0,0,0,0,0,0,0,0,0,0,0,0,0,0,0,0,0,0,0,0,0,0,0,0,0,0,0,0,0,0,0,0,0,0,0,0,0,0,0,0,0,0,0,0,0,0,0,0,0,0,0,0,0,0,0,0,0,0,0,0,0,0,0,0,0,0,0,0,0,0,0,0,0,0,0,0,0,0,0,0,0,0,0,0,0,0,0,0,0,0,0,0,0,0,0,0,0,0,0,0,0,0,0,0,0,0,0,0,0,0,0,0,0,0,0,0,0,0,0,0,0,0,0,0,0,0,0,0,0,0,0,0,0,0,0,0,0,0,0,0,0,0,0,0,0,0,0,0,0,0,0,0,0,0,0,0,0,0,0,0,0,0,0,0,0,0,0,0,0,0,0,0,9703,9709,9715,9721,9727,9733,0,0,0,0,0,0,0,0,0,0,0,0,0,0,0,0,0,0,0,0,0,0,0,0,0,0,0,0,0,0,0,0,0,0,0,0,0,0,0,0,0,0,0,0,0,0,0,0,0,0,0,0,0,0,0,0,0,0,0,0,0,0,0,0,0,0,0,0,0,0,0,0,0,0,0,0,0,0,0,0,0,0,0,0,0,0,0,0,0,0,0,0,0,0,0,0,0,0,0,0,0,0,0,0,0,0,0,0,0,0,0,0,0,0,0,0,0,0,0,0,0,0,0,0,0,0,0,0,0,0,0,0,0,0,0,0,0,0,0,0,0,0,0,0,0,0,0,0,0,0,0,0,0,0,0,0,0,0,0,0,0,0,0,0,0,0,0,0,0,0,0,0,0,0,0,0,0,0,0,0,0,0,0,0,0,0,0,0,0,0,0,0,0,0,0,0,0,0,0,0,0,0,0,0,0,0,0,0,0,0,0,0,0,0,0,0,0,0,0,0,0,0,0,0,0,0,0,0,0,0,0,0,0,0,0,0,0,0,0,0,0,0,0,0,0,0,0,0,0,0,9627,9633,9639,9645,9651,9657,9663,0,0,0,0,0,0,0,0,0,0,0,0,0,0,0,0,0,0,0,0,0,0,0,0,0,0,0,0,0,0,0,0,0,0,0,0,0,0,0,0,0,0,0,0,0,0,0,0,0,0,0,0,0,0,0,0,0,0,0,0,0,0,0,0,0,0,0,0,0,0,0,0,0,0,0,0,0,0,0,0,0,0,0,0,0,0,0,0,0,0,0,0,0,0,0,0,0,0,0,0,0,0,0,0,0,0,0,0,0,0,0,0,0,0,0,0,0,0,0,0,0,0,0,0,0,0,0,0,0,0,0,0,0,0,0,0,0,0,0,0,0,0,0,0,0,0,0,0,0,0,0,0,0,0,0,0,0,0,0,0,0,0,0,0,0,0,0,0,0,0,0,0,0,0,0,0,0,0,0,0,0,0,0,0,0,0,0,0,0,0,0,0,0,0,0,0,0,0,0,0,0,0,0,0,0,0,0,0,0,0,0,0,0,0,0,0,0,0,0,0,0,0,0,0,0,0,0,0,0,0,0,0,0,0,0,0,0,0,0,0,0,0,0,0,0,0,0,0,0,9703,9709,9715,9721,9727,9733,0,0,0,0,0,0,0,0,0,0,0,0,0,0,0,0,0,0,0,0,0,0,0,0,0,0,0,0,0,0,0,0,0,0,0,0,0,0,0,0,0,0,0,0,0,0,0,0,0,0,0,0,0,0,0,0,0,0,0,0,0,0,0,0,0,0,0,0,0,0,0,0,0,0,0,0,0,0,0,0,0,0,0,0,0,0,0,0,0,0,0,0,0,0,0,0,0,0,0,0,0,0,0,0,0,0,0,0,0,0,0,0,0,0,0,0,0,0,0,0,0,0,0,0,0,0,0,0,0,0,0,0,0,0,0,0,0,0,0,0,0,0,0,0,0,0,0,0,0,0,0,0,0,0,0,0,0,0,0,0,0,0,0,0,0,0,0,0,0,0,0,0,0,0,0,0,0,0,0,0,0,0,0,0,0,0,0,0,0,0,0,0,0,0,0,0,0,0,0,0,0,0,0,0,0,0,0,0,0,0,0,0,0,0,0,0,0,0,0,0,0,0,0,0,0,0,0,0,0,0,0,0,0,0,0,0,0,0,0,0,0,0,0,0,0,0,0,0,0,10146,10151,10156,10161,10166,10171,10176,10181,0,0,0,0,0,0,0,0,0,0,0,0,0,0,0,0,0,0,0,0,0,0,0,0,0,0,0,0,0,0,0,0,0,0,0,0,0,0,0,0,0,0,0,0,0,0,0,0,0,0,0,0,0,0,0,0,0,0,0,0,0,0,0,0,0,0,0,0,0,0,0,0,0,0,0,0,0,0,0,0,0,0,0,0,0,0,0,0,0,0,0,0,0,0,0,0,0,0,0,0,0,0,0,0,0,0,0,0,0,0,0,0,0,0,0,0,0,0,0,0,0,0,0,0,0,0,0,0,0,0,0,0,0,0,0,0,0,0,0,0,0,0,0,0,0,0,0,0,0,0,0,0,0,0,0,0,0,0,0,0,0,0,0,0,0,0,0,0,0,0,0,0,0,0,0,0,0,0,0,0,0,0,0,0,0,0,0,0,0,0,0,0,0,0,0,0,0,0,0,0,0,0,0,0,0,0,0,0,0,0,0,0,0,0,0,0,0,0,0,0,0,0,0,0,0,0,0,0,0,0,0,0,0,0,0,0,0,0,0,0,0,0,0,0,0,0,0,0,10186,10191,10196,10201,10206,10211,10216,10221,0,0,0,0,0,0,0,0,0,0,0,0,0,0,0,0,0,0,0,0,0,0,0,0,0,0,0,0,0,0,0,0,0,0,0,0,0,0,0,0,0,0,0,0,0,0,0,0,0,0,0,0,0,0,0,0,0,0,0,0,0,0,0,0,0,0,0,0,0,0,0,0,0,0,0,0,0,0,0,0,0,0,0,0,0,0,0,0,0,0,0,0,0,0,0,0,0,0,0,0,0,0,0,0,0,0,0,0,0,0,0,0,0,0,0,0,0,0,0,0,0,0,0,0,0,0,0,0,0,0,0,0,0,0,0,0,0,0,0,0,0,0,0,0,0,0,0,0,0,0,0,0,0,0,0,0,0,0,0,0,0,0,0,0,0,0,0,0,0,0,0,0,0,0,0,0,0,0,0,0,0,0,0,0,0,0,0,0,0,0,0,0,0,0,0,0,0,0,0,0,0,0,0,0,0,0,0,0,0,0,0,0,0,0,0,0,0,0,0,0,0,0,0,0,0,0,0,0,0,0,0,0,0,0,0,0,0,0,0,0,0,0,0,0,0,0,0,0,10226,10231,10236,10241,10246,10251,10256,10261,0,0,0,0,0,0,0,0,0,0,0,0,0,0,0,0,0,0,0,0,0,0,0,0,0,0,0,0,0,0,0,0,0,0,0,0,0,0,0,0,0,0,0,0,0,0,0,0,0,0,0,0,0,0,0,0,0,0,0,0,0,0,0,0,0,0,0,0,0,0,0,0,0,0,0,0,0,0,0,0,0,0,0,0,0,0,0,0,0,0,0,0,0,0,0,0,0,0,0,0,0,0,0,0,0,0,0,0,0,0,0,0,0,0,0,0,0,0,0,0,0,0,0,0,0,0,0,0,0,0,0,0,0,0,0,0,0,0,0,0,0,0,0,0,0,0,0,0,0,0,0,0,0,0,0,0,0,0,0,0,0,0,0,0,0,0,0,0,0,0,0,0,0,0,0,0,0,0,0,0,0,0,0,0,0,0,0,0,0,0,0,0,0,0,0,0,0,0,0,0,0,0,0,0,0,0,0,0,0,0,0,0,0,0,0,0,0,0,0,0,0,0,0,0,0,0,0,0,0,0,0,0,0,0,0,0,0,0,0,0,0,0,0,0,0,0,0,0,10266,10271,10276,10281,10286,10291,10296,10301,0,0,0,0,0,0,0,0,0,0,0,0,0,0,0,0,0,0,0,0,0,0,0,0,0,0,0,0,0,0,0,0,0,0,0,0,0,0,0,0,0,0,0,0,0,0,0,0,0,0,0,0,0,0,0,0,0,0,0,0,0,0,0,0,0,0,0,0,0,0,0,0,0,0,0,0,0,0,0,0,0,0,0,0,0,0,0,0,0,0,0,0,0,0,0,0,0,0,0,0,0,0,0,0,0,0,0,0,0,0,0,0,0,0,0,0,0,0,0,0,0,0,0,0,0,0,0,0,0,0,0,0,0,0,0,0,0,0,0,0,0,0,0,0,0,0,0,0,0,0,0,0,0,0,0,0,0,0,0,0,0,0,0,0,0,0,0,0,0,0,0,0,0,0,0,0,0,0,0,0,0,0,0,0,0,0,0,0,0,0,0,0,0,0,0,0,0,0,0,0,0,0,0,0,0,0,0,0,0,0,0,0,0,0,0,0,0,0,0,0,0,0,0,0,0,0,0,0,0,0,0,0,0,0,0,0,0,0,0,0,0,0,0,0,0,0,0,0,10306,10311,10316,10321,10326,10331,10336,10341,0,0,0,0,0,0,0,0,0,0,0,0,0,0,0,0,0,0,0,0,0,0,0,0,0,0,0,0,0,0,0,0,0,0,0,0,0,0,0,0,0,0,0,0,0,0,0,0,0,0,0,0,0,0,0,0,0,0,0,0,0,0,0,0,0,0,0,0,0,0,0,0,0,0,0,0,0,0,0,0,0,0,0,0,0,0,0,0,0,0,0,0,0,0,0,0,0,0,0,0,0,0,0,0,0,0,0,0,0,0,0,0,0,0,0,0,0,0,0,0,0,0,0,0,0,0,0,0,0,0,0,0,0,0,0,0,0,0,0,0,0,0,0,0,0,0,0,0,0,0,0,0,0,0,0,0,0,0,0,0,0,0,0,0,0,0,0,0,0,0,0,0,0,0,0,0,0,0,0,0,0,0,0,0,0,0,0,0,0,0,0,0,0,0,0,0,0,0,0,0,0,0,0,0,0,0,0,0,0,0,0,0,0,0,0,0,0,0,0,0,0,0,0,0,0,0,0,0,0,0,0,0,0,0,0,0,0,0,0,0,0,0,0,0,0,0,0,0,10346,10351,10356,10361,10366,10371,10376,10381,0,0,0,0,0,0,0,0,0,0,0,0,0,0,0,0,0,0,0,0,0,0,0,0,0,0,0,0,0,0,0,0,0,0,0,0,0,0,0,0,0,0,0,0,0,0,0,0,0,0,0,0,0,0,0,0,0,0,0,0,0,0,0,0,0,0,0,0,0,0,0,0,0,0,0,0,0,0,0,0,0,0,0,0,0,0,0,0,0,0,0,0,0,0,0,0,0,0,0,0,0,0,0,0,0,0,0,0,0,0,0,0,0,0,0,0,0,0,0,0,0,0,0,0,0,0,0,0,0,0,0,0,0,0,0,0,0,0,0,0,0,0,0,0,0,0,0,0,0,0,0,0,0,0,0,0,0,0,0,0,0,0,0,0,0,0,0,0,0,0,0,0,0,0,0,0,0,0,0,0,0,0,0,0,0,0,0,0,0,0,0,0,0,0,0,0,0,0,0,0,0,0,0,0,0,0,0,0,0,0,0,0,0,0,0,0,0,0,0,0,0,0,0,0,0,0,0,0,0,0,0,0,0,0,0,0,0,0,0,0,0,0,0,0,0,0,0,0,10386,10391,10396,10401,10406,10411,10416,10421,0,0,0,0,0,0,0,0,0,0,0,0,0,0,0,0,0,0,0,0,0,0,0,0,0,0,0,0,0,0,0,0,0,0,0,0,0,0,0,0,0,0,0,0,0,0,0,0,0,0,0,0,0,0,0,0,0,0,0,0,0,0,0,0,0,0,0,0,0,0,0,0,0,0,0,0,0,0,0,0,0,0,0,0,0,0,0,0,0,0,0,0,0,0,0,0,0,0,0,0,0,0,0,0,0,0,0,0,0,0,0,0,0,0,0,0,0,0,0,0,0,0,0,0,0,0,0,0,0,0,0,0,0,0,0,0,0,0,0,0,0,0,0,0,0,0,0,0,0,0,0,0,0,0,0,0,0,0,0,0,0,0,0,0,0,0,0,0,0,0,0,0,0,0,0,0,0,0,0,0,0,0,0,0,0,0,0,0,0,0,0,0,0,0,0,0,0,0,0,0,0,0,0,0,0,0,0,0,0,0,0,0,0,0,0,0,0,0,0,0,0,0,0,0,0,0,0,0,0,0,0,0,0,0,0,0,0,0,0,0,0,0,0,0,0,0,0,0,10426,10431,10436,10441,10446,10451,10456,10461,0,0,0,0,0,0,0,0,0,0,0,0,0,0,0,0,0,0,0,0,0,0,0,0,0,0,0,0,0,0,0,0,0,0,0,0,0,0,0,0,0,0,0,0,0,0,0,0,0,0,0,0,0,0,0,0,0,0,0,0,0,0,0,0,0,0,0,0,0,0,0,0,0,0,0,0,0,0,0,0,0,0,0,0,0,0,0,0,0,0,0,0,0,0,0,0,0,0,0,0,0,0,0,0,0,0,0,0,0,0,0,0,0,0,0,0,0,0,0,0,0,0,0,0,0,0,0,0,0,0,0,0,0,0,0,0,0,0,0,0,0,0,0,0,0,0,0,0,0,0,0,0,0,0,0,0,0,0,0,0,0,0,0,0,0,0,0,0,0,0,0,0,0,0,0,0,0,0,0,0,0,0,0,0,0,0,0,0,0,0,0,0,0,0,0,0,0,0,0,0,0,0,0,0,0,0,0,0,0,0,0,0,0,0,0,0,0,0,0,0,0,0,0,0,0,0,0,0,0,0,0,0,0,0,0,0,0,0,0,0,0,0,0,0,0,0,0,0,10466,10471,10476,10481,10486,10491,10496,10501,0,0,0,0,0,0,0,0,0,0,0,0,0,0,0,0,0,0,0,0,0,0,0,0,0,0,0,0,0,0,0,0,0,0,0,0,0,0,0,0,0,0,0,0,0,0,0,0,0,0,0,0,0,0,0,0,0,0,0,0,0,0,0,0,0,0,0,0,0,0,0,0,0,0,0,0,0,0,0,0,0,0,0,0,0,0,0,0,0,0,0,0,0,0,0,0,0,0,0,0,0,0,0,0,0,0,0,0,0,0,0,0,0,0,0,0,0,0,0,0,0,0,0,0,0,0,0,0,0,0,0,0,0,0,0,0,0,0,0,0,0,0,0,0,0,0,0,0,0,0,0,0,0,0,0,0,0,0,0,0,0,0,0,0,0,0,0,0,0,0,0,0,0,0,0,0,0,0,0,0,0,0,0,0,0,0,0,0,0,0,0,0,0,0,0,0,0,0,0,0,0,0,0,0,0,0,0,0,0,0,0,0,0,0,0,0,0,0,0,0,0,0,0,0,0,0,0,0,0,0,0,0,0,0,0,0,0,0,0,0,0,0,0,0,0,0,0,0,10506,10511,10516,10521,10526,10531,10536,10541,0,0,0,0,0,0,0,0,0,0,0,0,0,0,0,0,0,0,0,0,0,0,0,0,0,0,0,0,0,0,0,0,0,0,0,0,0,0,0,0,0,0,0,0,0,0,0,0,0,0,0,0,0,0,0,0,0,0,0,0,0,0,0,0,0,0,0,0,0,0,0,0,0,0,0,0,0,0,0,0,0,0,0,0,0,0,0,0,0,0,0,0,0,0,0,0,0,0,0,0,0,0,0,0,0,0,0,0,0,0,0,0,0,0,0,0,0,0,0,0,0,0,0,0,0,0,0,0,0,0,0,0,0,0,0,0,0,0,0,0,0,0,0,0,0,0,0,0,0,0,0,0,0,0,0,0,0,0,0,0,0,0,0,0,0,0,0,0,0,0,0,0,0,0,0,0,0,0,0,0,0,0,0,0,0,0,0,0,0,0,0,0,0,0,0,0,0,0,0,0,0,0,0,0,0,0,0,0,0,0,0,0,0,0,0,0,0,0,0,0,0,0,0,0,0,0,0,0,0,0,0,0,0,0,0,0,0,0,0,0,0,0,0,0,0,0,0,0,10386,10391,10396,10401,10406,10411,10416,10421,0,0,0,0,0,0,0,0,0,0,0,0,0,0,0,0,0,0,0,0,0,0,0,0,0,0,0,0,0,0,0,0,0,0,0,0,0,0,0,0,0,0,0,0,0,0,0,0,0,0,0,0,0,0,0,0,0,0,0,0,0,0,0,0,0,0,0,0,0,0,0,0,0,0,0,0,0,0,0,0,0,0,0,0,0,0,0,0,0,0,0,0,0,0,0,0,0,0,0,0,0,0,0,0,0,0,0,0,0,0,0,0,0,0,0,0,0,0,0,0,0,0,0,0,0,0,0,0,0,0,0,0,0,0,0,0,0,0,0,0,0,0,0,0,0,0,0,0,0,0,0,0,0,0,0,0,0,0,0,0,0,0,0,0,0,0,0,0,0,0,0,0,0,0,0,0,0,0,0,0,0,0,0,0,0,0,0,0,0,0,0,0,0,0,0,0,0,0,0,0,0,0,0,0,0,0,0,0,0,0,0,0,0,0,0,0,0,0,0,0,0,0,0,0,0,0,0,0,0,0,0,0,0,0,0,0,0,0,0,0,0,0,0,0,0,0,0,0,10426,10431,10436,10441,10446,10451,10456,10461,0,0,0,0,0,0,0,0,0,0,0,0,0,0,0,0,0,0,0,0,0,0,0,0,0,0,0,0,0,0,0,0,0,0,0,0,0,0,0,0,0,0,0,0,0,0,0,0,0,0,0,0,0,0,0,0,0,0,0,0,0,0,0,0,0,0,0,0,0,0,0,0,0,0,0,0,0,0,0,0,0,0,0,0,0,0,0,0,0,0,0,0,0,0,0,0,0,0,0,0,0,0,0,0,0,0,0,0,0,0,0,0,0,0,0,0,0,0,0,0,0,0,0,0,0,0,0,0,0,0,0,0,0,0,0,0,0,0,0,0,0,0,0,0,0,0,0,0,0,0,0,0,0,0,0,0,0,0,0,0,0,0,0,0,0,0,0,0,0,0,0,0,0,0,0,0,0,0,0,0,0,0,0,0,0,0,0,0,0,0,0,0,0,0,0,0,0,0,0,0,0,0,0,0,0,0,0,0,0,0,0,0,0,0,0,0,0,0,0,0,0,0,0,0,0,0,0,0,0,0,0,0,0,0,0,0,0,0,0,0,0,0,0,0,0,0,0,0,10466,10471,10476,10481,10486,10491,10496,10501,0,0,0,0,0,0,0,0,0,0,0,0,0,0,0,0,0,0,0,0,0,0,0,0,0,0,0,0,0,0,0,0,0,0,0,0,0,0,0,0,0,0,0,0,0,0,0,0,0,0,0,0,0,0,0,0,0,0,0,0,0,0,0,0,0,0,0,0,0,0,0,0,0,0,0,0,0,0,0,0,0,0,0,0,0,0,0,0,0,0,0,0,0,0,0,0,0,0,0,0,0,0,0,0,0,0,0,0,0,0,0,0,0,0,0,0,0,0,0,0,0,0,0,0,0,0,0,0,0,0,0,0,0,0,0,0,0,0,0,0,0,0,0,0,0,0,0,0,0,0,0,0,0,0,0,0,0,0,0,0,0,0,0,0,0,0,0,0,0,0,0,0,0,0,0,0,0,0,0,0,0,0,0,0,0,0,0,0,0,0,0,0,0,0,0,0,0,0,0,0,0,0,0,0,0,0,0,0,0,0,0,0,0,0,0,0,0,0,0,0,0,0,0,0,0,0,0,0,0,0,0,0,0,0,0,0,0,0,0,0,0,0,0,0,0,0,0,0,10506,10511,10516,10521,10526,10531,10536,10541,0,0,0,0,0,0,0,0,0,0,0,0,0,0,0,0,0,0,0,0,0,0,0,0,0,0,0,0,0,0,0,0,0,0,0,0,0,0,0,0,0,0,0,0,0,0,0,0,0,0,0,0,0,0,0,0,0,0,0,0,0,0,0,0,0,0,0,0,0,0,0,0,0,0,0,0,0,0,0,0,0,0,0,0,0,0,0,0,0,0,0,0,0,0,0,0,0,0,0,0,0,0,0,0,0,0,0,0,0,0,0,0,0,0,0,0,0,0,0,0,0,0,0,0,0,0,0,0,0,0,0,0,0,0,0,0,0,0,0,0,0,0,0,0,0,0,0,0,0,0,0,0,0,0,0,0,0,0,0,0,0,0,0,0,0,0,0,0,0,0,0,0,0,0,0,0,0,0,0,0,0,0,0,0,0,0,0,0,0,0,0,0,0,0,0,0,0,0,0,0,0,0,0,0,0,0,0,0,0,0,0,0,0,0,0,0,0,0,0,0,0,0,0,0,0,0,0,0,0,0,0,0,0,0,0,0,0,0,0,0,0,0,0,0,0,0,0,0,10386,10391,10396,10401,10406,10411,10416,10421,0,0,0,0,0,0,0,0,0,0,0,0,0,0,0,0,0,0,0,0,0,0,0,0,0,0,0,0,0,0,0,0,0,0,0,0,0,0,0,0,0,0,0,0,0,0,0,0,0,0,0,0,0,0,0,0,0,0,0,0,0,0,0,0,0,0,0,0,0,0,0,0,0,0,0,0,0,0,0,0,0,0,0,0,0,0,0,0,0,0,0,0,0,0,0,0,0,0,0,0,0,0,0,0,0,0,0,0,0,0,0,0,0,0,0,0,0,0,0,0,0,0,0,0,0,0,0,0,0,0,0,0,0,0,0,0,0,0,0,0,0,0,0,0,0,0,0,0,0,0,0,0,0,0,0,0,0,0,0,0,0,0,0,0,0,0,0,0,0,0,0,0,0,0,0,0,0,0,0,0,0,0,0,0,0,0,0,0,0,0,0,0,0,0,0,0,0,0,0,0,0,0,0,0,0,0,0,0,0,0,0,0,0,0,0,0,0,0,0,0,0,0,0,0,0,0,0,0,0,0,0,0,0,0,0,0,0,0,0,0,0,0,0,0,0,0,0,0,10426,10431,10436,10441,10446,10451,10456,10461,0,0,0,0,0,0,0,0,0,0,0,0,0,0,0,0,0,0,0,0,0,0,0,0,0,0,0,0,0,0,0,0,0,0,0,0,0,0,0,0,0,0,0,0,0,0,0,0,0,0,0,0,0,0,0,0,0,0,0,0,0,0,0,0,0,0,0,0,0,0,0,0,0,0,0,0,0,0,0,0,0,0,0,0,0,0,0,0,0,0,0,0,0,0,0,0,0,0,0,0,0,0,0,0,0,0,0,0,0,0,0,0,0,0,0,0,0,0,0,0,0,0,0,0,0,0,0,0,0,0,0,0,0,0,0,0,0,0,0,0,0,0,0,0,0,0,0,0,0,0,0,0,0,0,0,0,0,0,0,0,0,0,0,0,0,0,0,0,0,0,0,0,0,0,0,0,0,0,0,0,0,0,0,0,0,0,0,0,0,0,0,0,0,0,0,0,0,0,0,0,0,0,0,0,0,0,0,0,0,0,0,0,0,0,0,0,0,0,0,0,0,0,0,0,0,0,0,0,0,0,0,0,0,0,0,0,0,0,0,0,0,0,0,0,0,0,0,0,10466,10471,10476,10481,10486,10491,10496,10501,0,0,0,0,0,0,0,0,0,0,0,0,0,0,0,0,0,0,0,0,0,0,0,0,0,0,0,0,0,0,0,0,0,0,0,0,0,0,0,0,0,0,0,0,0,0,0,0,0,0,0,0,0,0,0,0,0,0,0,0,0,0,0,0,0,0,0,0,0,0,0,0,0,0,0,0,0,0,0,0,0,0,0,0,0,0,0,0,0,0,0,0,0,0,0,0,0,0,0,0,0,0,0,0,0,0,0,0,0,0,0,0,0,0,0,0,0,0,0,0,0,0,0,0,0,0,0,0,0,0,0,0,0,0,0,0,0,0,0,0,0,0,0,0,0,0,0,0,0,0,0,0,0,0,0,0,0,0,0,0,0,0,0,0,0,0,0,0,0,0,0,0,0,0,0,0,0,0,0,0,0,0,0,0,0,0,0,0,0,0,0,0,0,0,0,0,0,0,0,0,0,0,0,0,0,0,0,0,0,0,0,0,0,0,0,0,0,0,0,0,0,0,0,0,0,0,0,0,0,0,0,0,0,0,0,0,0,0,0,0,0,0,0,0,0,0,0,0,10506,10511,10516,10521,10526,10531,10536,10541,0,0,0,0,0,0,0,0,0,0,0,0,0,0,0,0,0,0,0,0,0,0,0,0,0,0,0,0,0,0,0,0,0,0,0,0,0,0,0,0,0,0,0,0,0,0,0,0,0,0,0,0,0,0,0,0,0,0,0,0,0,0,0,0,0,0,0,0,0,0,0,0,0,0,0,0,0,0,0,0,0,0,0,0,0,0,0,0,0,0,0,0,0,0,0,0,0,0,0,0,0,0,0,0,0,0,0,0,0,0,0,0,0,0,0,0,0,0,0,0,0,0,0,0,0,0,0,0,0,0,0,0,0,0,0,0,0,0,0,0,0,0,0,0,0,0,0,0,0,0,0,0,0,0,0,0,0,0,0,0,0,0,0,0,0,0,0,0,0,0,0,0,0,0,0,0,0,0,0,0,0,0,0,0,0,0,0,0,0,0,0,0,0,0,0,0,0,0,0,0,0,0,0,0,0,0,0,0,0,0,0,0,0,0,0,0,0,0,0,0,0,0,0,0,0,0,0,0,0,0,0,0,0,0,0,0,0,0,0,0,0,0,0,0,0,0,0,0,10386,10391,10396,10401,10406,10411,10416,10421,0,0,0,0,0,0,0,0,0,0,0,0,0,0,0,0,0,0,0,0,0,0,0,0,0,0,0,0,0,0,0,0,0,0,0,0,0,0,0,0,0,0,0,0,0,0,0,0,0,0,0,0,0,0,0,0,0,0,0,0,0,0,0,0,0,0,0,0,0,0,0,0,0,0,0,0,0,0,0,0,0,0,0,0,0,0,0,0,0,0,0,0,0,0,0,0,0,0,0,0,0,0,0,0,0,0,0,0,0,0,0,0,0,0,0,0,0,0,0,0,0,0,0,0,0,0,0,0,0,0,0,0,0,0,0,0,0,0,0,0,0,0,0,0,0,0,0,0,0,0,0,0,0,0,0,0,0,0,0,0,0,0,0,0,0,0,0,0,0,0,0,0,0,0,0,0,0,0,0,0,0,0,0,0,0,0,0,0,0,0,0,0,0,0,0,0,0,0,0,0,0,0,0,0,0,0,0,0,0,0,0,0,0,0,0,0,0,0,0,0,0,0,0,0,0,0,0,0,0,0,0,0,0,0,0,0,0,0,0,0,0,0,0,0,0,0,0,0,10426,10431,10436,10441,10446,10451,10456,10461,0,0,0,0,0,0,0,0,0,0,0,0,0,0,0,0,0,0,0,0,0,0,0,0,0,0,0,0,0,0,0,0,0,0,0,0,0,0,0,0,0,0,0,0,0,0,0,0,0,0,0,0,0,0,0,0,0,0,0,0,0,0,0,0,0,0,0,0,0,0,0,0,0,0,0,0,0,0,0,0,0,0,0,0,0,0,0,0,0,0,0,0,0,0,0,0,0,0,0,0,0,0,0,0,0,0,0,0,0,0,0,0,0,0,0,0,0,0,0,0,0,0,0,0,0,0,0,0,0,0,0,0,0,0,0,0,0,0,0,0,0,0,0,0,0,0,0,0,0,0,0,0,0,0,0,0,0,0,0,0,0,0,0,0,0,0,0,0,0,0,0,0,0,0,0,0,0,0,0,0,0,0,0,0,0,0,0,0,0,0,0,0,0,0,0,0,0,0,0,0,0,0,0,0,0,0,0,0,0,0,0,0,0,0,0,0,0,0,0,0,0,0,0,0,0,0,0,0,0,0,0,0,0,0,0,0,0,0,0,0,0,0,0,0,0,0,0,0,10466,10471,10476,10481,10486,10491,10496,10501,0,0,0,0,0,0,0,0,0,0,0,0,0,0,0,0,0,0,0,0,0,0,0,0,0,0,0,0,0,0,0,0,0,0,0,0,0,0,0,0,0,0,0,0,0,0,0,0,0,0,0,0,0,0,0,0,0,0,0,0,0,0,0,0,0,0,0,0,0,0,0,0,0,0,0,0,0,0,0,0,0,0,0,0,0,0,0,0,0,0,0,0,0,0,0,0,0,0,0,0,0,0,0,0,0,0,0,0,0,0,0,0,0,0,0,0,0,0,0,0,0,0,0,0,0,0,0,0,0,0,0,0,0,0,0,0,0,0,0,0,0,0,0,0,0,0,0,0,0,0,0,0,0,0,0,0,0,0,0,0,0,0,0,0,0,0,0,0,0,0,0,0,0,0,0,0,0,0,0,0,0,0,0,0,0,0,0,0,0,0,0,0,0,0,0,0,0,0,0,0,0,0,0,0,0,0,0,0,0,0,0,0,0,0,0,0,0,0,0,0,0,0,0,0,0,0,0,0,0,0,0,0,0,0,0,0,0,0,0,0,0,0,0,0,0,0,0,0,10506,10511,10516,10521,10526,10531,10536,10541,0,0,0,0,0,0,0,0,0,0,0,0,0,0,0,0,0,0,0,0,0,0,0,0,0,0,0,0,0,0,0,0,0,0,0,0,0,0,0,0,0,0,0,0,0,0,0,0,0,0,0,0,0,0,0,0,0,0,0,0,0,0,0,0,0,0,0,0,0,0,0,0,0,0,0,0,0,0,0,0,0,0,0,0,0,0,0,0,0,0,0,0,0,0,0,0,0,0,0,0,0,0,0,0,0,0,0,0,0,0,0,0,0,0,0,0,0,0,0,0,0,0,0,0,0,0,0,0,0,0,0,0,0,0,0,0,0,0,0,0,0,0,0,0,0,0,0,0,0,0,0,0,0,0,0,0,0,0,0,0,0,0,0,0,0,0,0,0,0,0,0,0,0,0,0,0,0,0,0,0,0,0,0,0,0,0,0,0,0,0,0,0,0,0,0,0,0,0,0,0,0,0,0,0,0,0,0,0,0,0,0,0,0,0,0,0,0,0,0,0,0,0,0,0,0,0,0,0,0,0,0,0,0,0,0,0,0,0,0,0,0,0,0,0,0,0,0,0,10386,10391,10396,10401,10406,10411,10416,10421,0,0,0,0,0,0,0,0,0,0,0,0,0,0,0,0,0,0,0,0,0,0,0,0,0,0,0,0,0,0,0,0,0,0,0,0,0,0,0,0,0,0,0,0,0,0,0,0,0,0,0,0,0,0,0,0,0,0,0,0,0,0,0,0,0,0,0,0,0,0,0,0,0,0,0,0,0,0,0,0,0,0,0,0,0,0,0,0,0,0,0,0,0,0,0,0,0,0,0,0,0,0,0,0,0,0,0,0,0,0,0,0,0,0,0,0,0,0,0,0,0,0,0,0,0,0,0,0,0,0,0,0,0,0,0,0,0,0,0,0,0,0,0,0,0,0,0,0,0,0,0,0,0,0,0,0,0,0,0,0,0,0,0,0,0,0,0,0,0,0,0,0,0,0,0,0,0,0,0,0,0,0,0,0,0,0,0,0,0,0,0,0,0,0,0,0,0,0,0,0,0,0,0,0,0,0,0,0,0,0,0,0,0,0,0,0,0,0,0,0,0,0,0,0,0,0,0,0,0,0,0,0,0,0,0,0,0,0,0,0,0,0,0,0,0,0,0,0,10546,10551,10556,10561,10566,10571,10576,10581,0,0,0,0,0,0,0,0,0,0,0,0,0,0,0,0,0,0,0,0,0,0,0,0,0,0,0,0,0,0,0,0,0,0,0,0,0,0,0,0,0,0,0,0,0,0,0,0,0,0,0,0,0,0,0,0,0,0,0,0,0,0,0,0,0,0,0,0,0,0,0,0,0,0,0,0,0,0,0,0,0,0,0,0,0,0,0,0,0,0,0,0,0,0,0,0,0,0,0,0,0,0,0,0,0,0,0,0,0,0,0,0,0,0,0,0,0,0,0,0,0,0,0,0,0,0,0,0,0,0,0,0,0,0,0,0,0,0,0,0,0,0,0,0,0,0,0,0,0,0,0,0,0,0,0,0,0,0,0,0,0,0,0,0,0,0,0,0,0,0,0,0,0,0,0,0,0,0,0,0,0,0,0,0,0,0,0,0,0,0,0,0,0,0,0,0,0,0,0,0,0,0,0,0,0,0,0,0,0,0,0,0,0,0,0,0,0,0,0,0,0,0,0,0,0,0,0,0,0,0,0,0,0,0,0,0,0,0,0,0,0,0,0,0,0,0,0,0,10586,10591,10596,10601,10606,10611,10616,10621,0,0,0,0,0,0,0,0,0,0,0,0,0,0,0,0,0,0,0,0,0,0,0,0,0,0,0,0,0,0,0,0,0,0,0,0,0,0,0,0,0,0,0,0,0,0,0,0,0,0,0,0,0,0,0,0,0,0,0,0,0,0,0,0,0,0,0,0,0,0,0,0,0,0,0,0,0,0,0,0,0,0,0,0,0,0,0,0,0,0,0,0,0,0,0,0,0,0,0,0,0,0,0,0,0,0,0,0,0,0,0,0,0,0,0,0,0,0,0,0,0,0,0,0,0,0,0,0,0,0,0,0,0,0,0,0,0,0,0,0,0,0,0,0,0,0,0,0,0,0,0,0,0,0,0,0,0,0,0,0,0,0,0,0,0,0,0,0,0,0,0,0,0,0,0,0,0,0,0,0,0,0,0,0,0,0,0,0,0,0,0,0,0,0,0,0,0,0,0,0,0,0,0,0,0,0,0,0,0,0,0,0,0,0,0,0,0,0,0,0,0,0,0,0,0,0,0,0,0,0,0,0,0,0,0,0,0,0,0,0,0,0,0,0,0,0,0,0,0,0,0,0,0,0,0,0,0,0,0,0,0,0,0,0,0,0,0,0,0,0,0,0,0,0,0,0,0,0,0,0,0,0,0,0,0,0,0,0,0,0,0,0,0,0,0,0,0,0,0,0,0,0,0,0,0,0,0,0,0,0,0,0,0,0,0,0,0,0,0,0,0,0,0,0,0,0,0,0,0,0,0,0,0,0,0,0,0,0,0,0,0,0,0,0,0,0,0,0,0,0,0,0,0,0,0,0,0,0,0,0,0,0,0,0,0,0,0,0,0,0,0,0,0,0,0,0,0,0,0,0,0,0,0,0,0,0,0,0,0,0,0,0,0,0,0,0,0,0,0,0,0,0,0,0,0,0,0,0,0,0,0,0,0,0,0,0,0,0,0,0,0,0,0,0,0,0,0,0,0,0,0,0,0,0,0,0,0,0,0,0,0,0,0,0,0,0,0,0,0,0,0,0,0,0,0,0,0,0,0,0,0,0,0,0,0,0,0,0,0,0,0,0,0,0,0,0,0,0,0,0,0,0,0,0,0,0,0,0,0,0,0,0,0,0,0,0,0,0,0,0,0,0,0,0,0,9627,9633,9639,9645,9651,9657,9663,0,0,0,0,0,0,0,0,0,0,0,0,0,0,0,0,0,0,0,0,0,0,0,0,0,0,0,0,0,0,0,0,0,0,0,0,0,0,0,0,0,0,0,0,0,0,0,0,0,0,0,0,0,0,0,0,0,0,0,0,0,0,0,0,0,0,0,0,0,0,0,0,0,0,0,0,0,0,0,0,0,0,0,0,0,0,0,0,0,0,0,0,0,0,0,0,0,0,0,0,0,0,0,0,0,0,0,0,0,0,0,0,0,0,0,0,0,0,0,0,0,0,0,0,0,0,0,0,0,0,0,0,0,0,0,0,0,0,0,0,0,0,0,0,0,0,0,0,0,0,0,0,0,0,0,0,0,0,0,0,0,0,0,0,0,0,0,0,0,0,0,0,0,0,0,0,0,0,0,0,0,0,0,0,0,0,0,0,0,0,0,0,0,0,0,0,0,0,0,0,0,0,0,0,0,0,0,0,0,0,0,0,0,0,0,0,0,0,0,0,0,0,0,0,0,0,0,0,0,0,0,0,0,0,0,0,0,0,0,0,0,0,0,0,0,0,0,0,0,9703,9709,9715,9721,9727,9733,0,0,0,0,0,0,0,0,0,0,0,0,0,0,0,0,0,0,0,0,0,0,0,0,0,0,0,0,0,0,0,0,0,0,0,0,0,0,0,0,0,0,0,0,0,0,0,0,0,0,0,0,0,0,0,0,0,0,0,0,0,0,0,0,0,0,0,0,0,0,0,0,0,0,0,0,0,0,0,0,0,0,0,0,0,0,0,0,0,0,0,0,0,0,0,0,0,0,0,0,0,0,0,0,0,0,0,0,0,0,0,0,0,0,0,0,0,0,0,0,0,0,0,0,0,0,0,0,0,0,0,0,0,0,0,0,0,0,0,0,0,0,0,0,0,0,0,0,0,0,0,0,0,0,0,0,0,0,0,0,0,0,0,0,0,0,0,0,0,0,0,0,0,0,0,0,0,0,0,0,0,0,0,0,0,0,0,0,0,0,0,0,0,0,0,0,0,0,0,0,0,0,0,0,0,0,0,0,0,0,0,0,0,0,0,0,0,0,0,0,0,0,0,0,0,0,0,0,0,0,0,0,0,0,0,0,0,0,0,0,0,0,0,0,0,0,0,0,0,0,9627,9633,9639,9645,9651,9657,9663,0,0,0,0,0,0,0,0,0,0,0,0,0,0,0,0,0,0,0,0,0,0,0,0,0,0,0,0,0,0,0,0,0,0,0,0,0,0,0,0,0,0,0,0,0,0,0,0,0,0,0,0,0,0,0,0,0,0,0,0,0,0,0,0,0,0,0,0,0,0,0,0,0,0,0,0,0,0,0,0,0,0,0,0,0,0,0,0,0,0,0,0,0,0,0,0,0,0,0,0,0,0,0,0,0,0,0,0,0,0,0,0,0,0,0,0,0,0,0,0,0,0,0,0,0,0,0,0,0,0,0,0,0,0,0,0,0,0,0,0,0,0,0,0,0,0,0,0,0,0,0,0,0,0,0,0,0,0,0,0,0,0,0,0,0,0,0,0,0,0,0,0,0,0,0,0,0,0,0,0,0,0,0,0,0,0,0,0,0,0,0,0,0,0,0,0,0,0,0,0,0,0,0,0,0,0,0,0,0,0,0,0,0,0,0,0,0,0,0,0,0,0,0,0,0,0,0,0,0,0,0,0,0,0,0,0,0,0,0,0,0,0,0,0,0,0,0,0,0,9703,9709,9715,9721,9727,9733,0,0,0,0,0,0,0,0,0,0,0,0,0,0,0,0,0,0,0,0,0,0,0,0,0,0,0,0,0,0,0,0,0,0,0,0,0,0,0,0,0,0,0,0,0,0,0,0,0,0,0,0,0,0,0,0,0,0,0,0,0,0,0,0,0,0,0,0,0,0,0,0,0,0,0,0,0,0,0,0,0,0,0,0,0,0,0,0,0,0,0,0,0,0,0,0,0,0,0,0,0,0,0,0,0,0,0,0,0,0,0,0,0,0,0,0,0,0,0,0,0,0,0,0,0,0,0,0,0,0,0,0,0,0,0,0,0,0,0,0,0,0,0,0,0,0,0,0,0,0,0,0,0,0,0,0,0,0,0,0,0,0,0,0,0,0,0,0,0,0,0,0,0,0,0,0,0,0,0,0,0,0,0,0,0,0,0,0,0,0,0,0,0,0,0,0,0,0,0,0,0,0,0,0,0,0,0,0,0,0,0,0,0,0,0,0,0,0,0,0,0,0,0,0,0,0,0,0,0,0,0,0,0,0,0,0,0,0,0,0,0,0,0,0,0,0,0,0,0,0,9627,9633,9639,9645,9651,9657,9663,0,0,0,0,0,0,0,0,0,0,0,0,0,0,0,0,0,0,0,0,0,0,0,0,0,0,0,0,0,0,0,0,0,0,0,0,0,0,0,0,0,0,0,0,0,0,0,0,0,0,0,0,0,0,0,0,0,0,0,0,0,0,0,0,0,0,0,0,0,0,0,0,0,0,0,0,0,0,0,0,0,0,0,0,0,0,0,0,0,0,0,0,0,0,0,0,0,0,0,0,0,0,0,0,0,0,0,0,0,0,0,0,0,0,0,0,0,0,0,0,0,0,0,0,0,0,0,0,0,0,0,0,0,0,0,0,0,0,0,0,0,0,0,0,0,0,0,0,0,0,0,0,0,0,0,0,0,0,0,0,0,0,0,0,0,0,0,0,0,0,0,0,0,0,0,0,0,0,0,0,0,0,0,0,0,0,0,0,0,0,0,0,0,0,0,0,0,0,0,0,0,0,0,0,0,0,0,0,0,0,0,0,0,0,0,0,0,0,0,0,0,0,0,0,0,0,0,0,0,0,0,0,0,0,0,0,0,0,0,0,0,0,0,0,0,0,0,0,0,9703,9709,9715,9721,9727,9733,0,0,0,0,0,0,0,0,0,0,0,0,0,0,0,0,0,0,0,0,0,0,0,0,0,0,0,0,0,0,0,0,0,0,0,0,0,0,0,0,0,0,0,0,0,0,0,0,0,0,0,0,0,0,0,0,0,0,0,0,0,0,0,0,0,0,0,0,0,0,0,0,0,0,0,0,0,0,0,0,0,0,0,0,0,0,0,0,0,0,0,0,0,0,0,0,0,0,0,0,0,0,0,0,0,0,0,0,0,0,0,0,0,0,0,0,0,0,0,0,0,0,0,0,0,0,0,0,0,0,0,0,0,0,0,0,0,0,0,0,0,0,0,0,0,0,0,0,0,0,0,0,0,0,0,0,0,0,0,0,0,0,0,0,0,0,0,0,0,0,0,0,0,0,0,0,0,0,0,0,0,0,0,0,0,0,0,0,0,0,0,0,0,0,0,0,0,0,0,0,0,0,0,0,0,0,0,0,0,0,0,0,0,0,0,0,0,0,0,0,0,0,0,0,0,0,0,0,0,0,0,0,0,0,0,0,0,0,0,0,0,0,0,0,0,0,0,0,0,0,9627,9633,9639,9645,9651,9657,9663,0,0,0,0,0,0,0,0,0,0,0,0,0,0,0,0,0,0,0,0,0,0,0,0,0,0,0,0,0,0,0,0,0,0,0,0,0,0,0,0,0,0,0,0,0,0,0,0,0,0,0,0,0,0,0,0,0,0,0,0,0,0,0,0,0,0,0,0,0,0,0,0,0,0,0,0,0,0,0,0,0,0,0,0,0,0,0,0,0,0,0,0,0,0,0,0,0,0,0,0,0,0,0,0,0,0,0,0,0,0,0,0,0,0,0,0,0,0,0,0,0,0,0,0,0,0,0,0,0,0,0,0,0,0,0,0,0,0,0,0,0,0,0,0,0,0,0,0,0,0,0,0,0,0,0,0,0,0,0,0,0,0,0,0,0,0,0,0,0,0,0,0,0,0,0,0,0,0,0,0,0,0,0,0,0,0,0,0,0,0,0,0,0,0,0,0,0,0,0,0,0,0,0,0,0,0,0,0,0,0,0,0,0,0,0,0,0,0,0,0,0,0,0,0,0,0,0,0,0,0,0,0,0,0,0,0,0,0,0,0,0,0,0,0,0,0,0,0,0,9703,9709,9715,9721,9727,9733,0,0,0,0,0,0,0,0,0,0,0,0,0,0,0,0,0,0,0,0,0,0,0,0,0,0,0,0,0,0,0,0,0,0,0,0,0,0,0,0,0,0,0,0,0,0,0,0,0,0,0,0,0,0,0,0,0,0,0,0,0,0,0,0,0,0,0,0,0,0,0,0,0,0,0,0,0,0,0,0,0,0,0,0,0,0,0,0,0,0,0,0,0,0,0,0,0,0,0,0,0,0,0,0,0,0,0,0,0,0,0,0,0,0,0,0,0,0,0,0,0,0,0,0,0,0,0,0,0,0,0,0,0,0,0,0,0,0,0,0,0,0,0,0,0,0,0,0,0,0,0,0,0,0,0,0,0,0,0,0,0,0,0,0,0,0,0,0,0,0,0,0,0,0,0,0,0,0,0,0,0,0,0,0,0,0,0,0,0,0,0,0,0,0,0,0,0,0,0,0,0,0,0,0,0,0,0,0,0,0,0,0,0,0,0,0,0,0,0,0,0,0,0,0,0,0,0,0,0,0,0,0,0,0,0,0,0,0,0,0,0,0,0,0,0,0,0,0,0,0,9627,9633,9639,9645,9651,9657,9663,0,0,0,0,0,0,0,0,0,0,0,0,0,0,0,0,0,0,0,0,0,0,0,0,0,0,0,0,0,0,0,0,0,0,0,0,0,0,0,0,0,0,0,0,0,0,0,0,0,0,0,0,0,0,0,0,0,0,0,0,0,0,0,0,0,0,0,0,0,0,0,0,0,0,0,0,0,0,0,0,0,0,0,0,0,0,0,0,0,0,0,0,0,0,0,0,0,0,0,0,0,0,0,0,0,0,0,0,0,0,0,0,0,0,0,0,0,0,0,0,0,0,0,0,0,0,0,0,0,0,0,0,0,0,0,0,0,0,0,0,0,0,0,0,0,0,0,0,0,0,0,0,0,0,0,0,0,0,0,0,0,0,0,0,0,0,0,0,0,0,0,0,0,0,0,0,0,0,0,0,0,0,0,0,0,0,0,0,0,0,0,0,0,0,0,0,0,0,0,0,0,0,0,0,0,0,0,0,0,0,0,0,0,0,0,0,0,0,0,0,0,0,0,0,0,0,0,0,0,0,0,0,0,0,0,0,0,0,0,0,0,0,0,0,0,0,0,0,0,9703,9709,9715,9721,9727,9733,0,0,0,0,0,0,0,0,0,0,0,0,0,0,0,0,0,0,0,0,0,0,0,0,0,0,0,0,0,0,0,0,0,0,0,0,0,0,0,0,0,0,0,0,0,0,0,0,0,0,0,0,0,0,0,0,0,0,0,0,0,0,0,0,0,0,0,0,0,0,0,0,0,0,0,0,0,0,0,0,0,0,0,0,0,0,0,0,0,0,0,0,0,0,0,0,0,0,0,0,0,0,0,0,0,0,0,0,0,0,0,0,0,0,0,0,0,0,0,0,0,0,0,0,0,0,0,0,0,0,0,0,0,0,0,0,0,0,0,0,0,0,0,0,0,0,0,0,0,0,0,0,0,0,0,0,0,0,0,0,0,0,0,0,0,0,0,0,0,0,0,0,0,0,0,0,0,0,0,0,0,0,0,0,0,0,0,0,0,0,0,0,0,0,0,0,0,0,0,0,0,0,0,0,0,0,0,0,0,0,0,0,0,0,0,0,0,0,0,0,0,0,0,0,0,0,0,0,0,0,0,0,0,0,0,0,0,0,0,0,0,0,0,0,0,0,0,0,0,0,9627,9633,9639,9645,9651,9657,9663,0,0,0,0,0,0,0,0,0,0,0,0,0,0,0,0,0,0,0,0,0,0,0,0,0,0,0,0,0,0,0,0,0,0,0,0,0,0,0,0,0,0,0,0,0,0,0,0,0,0,0,0,0,0,0,0,0,0,0,0,0,0,0,0,0,0,0,0,0,0,0,0,0,0,0,0,0,0,0,0,0,0,0,0,0,0,0,0,0,0,0,0,0,0,0,0,0,0,0,0,0,0,0,0,0,0,0,0,0,0,0,0,0,0,0,0,0,0,0,0,0,0,0,0,0,0,0,0,0,0,0,0,0,0,0,0,0,0,0,0,0,0,0,0,0,0,0,0,0,0,0,0,0,0,0,0,0,0,0,0,0,0,0,0,0,0,0,0,0,0,0,0,0,0,0,0,0,0,0,0,0,0,0,0,0,0,0,0,0,0,0,0,0,0,0,0,0,0,0,0,0,0,0,0,0,0,0,0,0,0,0,0,0,0,0,0,0,0,0,0,0,0,0,0,0,0,0,0,0,0,0,0,0,0,0,0,0,0,0,0,0,0,0,0,0,0,0,0,0,9703,9709,9715,9721,9727,9733,0,0,0,0,0,0,0,0,0,0,0,0,0,0,0,0,0,0,0,0,0,0,0,0,0,0,0,0,0,0,0,0,0,0,0,0,0,0,0,0,0,0,0,0,0,0,0,0,0,0,0,0,0,0,0,0,0,0,0,0,0,0,0,0,0,0,0,0,0,0,0,0,0,0,0,0,0,0,0,0,0,0,0,0,0,0,0,0,0,0,0,0,0,0,0,0,0,0,0,0,0,0,0,0,0,0,0,0,0,0,0,0,0,0,0,0,0,0,0,0,0,0,0,0,0,0,0,0,0,0,0,0,0,0,0,0,0,0,0,0,0,0,0,0,0,0,0,0,0,0,0,0,0,0,0,0,0,0,0,0,0,0,0,0,0,0,0,0,0,0,0,0,0,0,0,0,0,0,0,0,0,0,0,0,0,0,0,0,0,0,0,0,0,0,0,0,0,0,0,0,0,0,0,0,0,0,0,0,0,0,0,0,0,0,0,0,0,0,0,0,0,0,0,0,0,0,0,0,0,0,0,0,0,0,0,0,0,0,0,0,0,0,0,0,0,0,0,0,0,0,9627,9633,9639,9645,9651,9657,9663,0,0,0,0,0,0,0,0,0,0,0,0,0,0,0,0,0,0,0,0,0,0,0,0,0,0,0,0,0,0,0,0,0,0,0,0,0,0,0,0,0,0,0,0,0,0,0,0,0,0,0,0,0,0,0,0,0,0,0,0,0,0,0,0,0,0,0,0,0,0,0,0,0,0,0,0,0,0,0,0,0,0,0,0,0,0,0,0,0,0,0,0,0,0,0,0,0,0,0,0,0,0,0,0,0,0,0,0,0,0,0,0,0,0,0,0,0,0,0,0,0,0,0,0,0,0,0,0,0,0,0,0,0,0,0,0,0,0,0,0,0,0,0,0,0,0,0,0,0,0,0,0,0,0,0,0,0,0,0,0,0,0,0,0,0,0,0,0,0,0,0,0,0,0,0,0,0,0,0,0,0,0,0,0,0,0,0,0,0,0,0,0,0,0,0,0,0,0,0,0,0,0,0,0,0,0,0,0,0,0,0,0,0,0,0,0,0,0,0,0,0,0,0,0,0,0,0,0,0,0,0,0,0,0,0,0,0,0,0,0,0,0,0,0,0,0,0,0,0,9703,9709,9715,9721,9727,9733,0,0,0,0,0,0,0,0,0,0,0,0,0,0,0,0,0,0,0,0,0,0,0,0,0,0,0,0,0,0,0,0,0,0,0,0,0,0,0,0,0,0,0,0,0,0,0,0,0,0,0,0,0,0,0,0,0,0,0,0,0,0,0,0,0,0,0,0,0,0,0,0,0,0,0,0,0,0,0,0,0,0,0,0,0,0,0,0,0,0,0,0,0,0,0,0,0,0,0,0,0,0,0,0,0,0,0,0,0,0,0,0,0,0,0,0,0,0,0,0,0,0,0,0,0,0,0,0,0,0,0,0,0,0,0,0,0,0,0,0,0,0,0,0,0,0,0,0,0,0,0,0,0,0,0,0,0,0,0,0,0,0,0,0,0,0,0,0,0,0,0,0,0,0,0,0,0,0,0,0,0,0,0,0,0,0,0,0,0,0,0,0,0,0,0,0,0,0,0,0,0,0,0,0,0,0,0,0,0,0,0,0,0,0,0,0,0,0,0,0,0,0,0,0,0,0,0,0,0,0,0,0,0,0,0,0,0,0,0,0,0,0,0,0,0,0,0,0,0,0,9627,9633,9639,9645,9651,9657,9663,0,0,0,0,0,0,0,0,0,0,0,0,0,0,0,0,0,0,0,0,0,0,0,0,0,0,0,0,0,0,0,0,0,0,0,0,0,0,0,0,0,0,0,0,0,0,0,0,0,0,0,0,0,0,0,0,0,0,0,0,0,0,0,0,0,0,0,0,0,0,0,0,0,0,0,0,0,0,0,0,0,0,0,0,0,0,0,0,0,0,0,0,0,0,0,0,0,0,0,0,0,0,0,0,0,0,0,0,0,0,0,0,0,0,0,0,0,0,0,0,0,0,0,0,0,0,0,0,0,0,0,0,0,0,0,0,0,0,0,0,0,0,0,0,0,0,0,0,0,0,0,0,0,0,0,0,0,0,0,0,0,0,0,0,0,0,0,0,0,0,0,0,0,0,0,0,0,0,0,0,0,0,0,0,0,0,0,0,0,0,0,0,0,0,0,0,0,0,0,0,0,0,0,0,0,0,0,0,0,0,0,0,0,0,0,0,0,0,0,0,0,0,0,0,0,0,0,0,0,0,0,0,0,0,0,0,0,0,0,0,0,0,0,0,0,0,0,0,0,9703,9709,9715,9721,9727,9733,0,0,0,0,0,0,0,0,0,0,0,0,0,0,0,0,0,0,0,0,0,0,0,0,0,0,0,0,0,0,0,0,0,0,0,0,0,0,0,0,0,0,0,0,0,0,0,0,0,0,0,0,0,0,0,0,0,0,0,0,0,0,0,0,0,0,0,0,0,0,0,0,0,0,0,0,0,0,0,0,0,0,0,0,0,0,0,0,0,0,0,0,0,0,0,0,0,0,0,0,0,0,0,0,0,0,0,0,0,0,0,0,0,0,0,0,0,0,0,0,0,0,0,0,0,0,0,0,0,0,0,0,0,0,0,0,0,0,0,0,0,0,0,0,0,0,0,0,0,0,0,0,0,0,0,0,0,0,0,0,0,0,0,0,0,0,0,0,0,0,0,0,0,0,0,0,0,0,0,0,0,0,0,0,0,0,0,0,0,0,0,0,0,0,0,0,0,0,0,0,0,0,0,0,0,0,0,0,0,0,0,0,0,0,0,0,0,0,0,0,0,0,0,0,0,0,0,0,0,0,0,0,0,0,0,0,0,0,0,0,0,0,0,0,0,0,0,0,0,0,9627,9633,9639,9645,9651,9657,9663,0,0,0,0,0,0,0,0,0,0,0,0,0,0,0,0,0,0,0,0,0,0,0,0,0,0,0,0,0,0,0,0,0,0,0,0,0,0,0,0,0,0,0,0,0,0,0,0,0,0,0,0,0,0,0,0,0,0,0,0,0,0,0,0,0,0,0,0,0,0,0,0,0,0,0,0,0,0,0,0,0,0,0,0,0,0,0,0,0,0,0,0,0,0,0,0,0,0,0,0,0,0,0,0,0,0,0,0,0,0,0,0,0,0,0,0,0,0,0,0,0,0,0,0,0,0,0,0,0,0,0,0,0,0,0,0,0,0,0,0,0,0,0,0,0,0,0,0,0,0,0,0,0,0,0,0,0,0,0,0,0,0,0,0,0,0,0,0,0,0,0,0,0,0,0,0,0,0,0,0,0,0,0,0,0,0,0,0,0,0,0,0,0,0,0,0,0,0,0,0,0,0,0,0,0,0,0,0,0,0,0,0,0,0,0,0,0,0,0,0,0,0,0,0,0,0,0,0,0,0,0,0,0,0,0,0,0,0,0,0,0,0,0,0,0,0,0,0,0,9703,9709,9715,9721,9727,9733,0,0,0,0,0,0,0,0,0,0,0,0,0,0,0,0,0,0,0,0,0,0,0,0,0,0,0,0,0,0,0,0,0,0,0,0,0,0,0,0,0,0,0,0,0,0,0,0,0,0,0,0,0,0,0,0,0,0,0,0,0,0,0,0,0,0,0,0,0,0,0,0,0,0,0,0,0,0,0,0,0,0,0,0,0,0,0,0,0,0,0,0,0,0,0,0,0,0,0,0,0,0,0,0,0,0,0,0,0,0,0,0,0,0,0,0,0,0,0,0,0,0,0,0,0,0,0,0,0,0,0,0,0,0,0,0,0,0,0,0,0,0,0,0,0,0,0,0,0,0,0,0,0,0,0,0,0,0,0,0,0,0,0,0,0,0,0,0,0,0,0,0,0,0,0,0,0,0,0,0,0,0,0,0,0,0,0,0,0,0,0,0,0,0,0,0,0,0,0,0,0,0,0,0,0,0,0,0,0,0,0,0,0,0,0,0,0,0,0,0,0,0,0,0,0,0,0,0,0,0,0,0,0,0,0,0,0,0,0,0,0,0,0,0,0,0,0,0,0,0,9627,9633,9639,9645,9651,9657,9663,0,0,0,0,0,0,0,0,0,0,0,0,0,0,0,0,0,0,0,0,0,0,0,0,0,0,0,0,0,0,0,0,0,0,0,0,0,0,0,0,0,0,0,0,0,0,0,0,0,0,0,0,0,0,0,0,0,0,0,0,0,0,0,0,0,0,0,0,0,0,0,0,0,0,0,0,0,0,0,0,0,0,0,0,0,0,0,0,0,0,0,0,0,0,0,0,0,0,0,0,0,0,0,0,0,0,0,0,0,0,0,0,0,0,0,0,0,0,0,0,0,0,0,0,0,0,0,0,0,0,0,0,0,0,0,0,0,0,0,0,0,0,0,0,0,0,0,0,0,0,0,0,0,0,0,0,0,0,0,0,0,0,0,0,0,0,0,0,0,0,0,0,0,0,0,0,0,0,0,0,0,0,0,0,0,0,0,0,0,0,0,0,0,0,0,0,0,0,0,0,0,0,0,0,0,0,0,0,0,0,0,0,0,0,0,0,0,0,0,0,0,0,0,0,0,0,0,0,0,0,0,0,0,0,0,0,0,0,0,0,0,0,0,0,0,0,0,0,0,9703,9709,9715,9721,9727,9733,0,0,0,0,0,0,0,0,0,0,0,0,0,0,0,0,0,0,0,0,0,0,0,0,0,0,0,0,0,0,0,0,0,0,0,0,0,0,0,0,0,0,0,0,0,0,0,0,0,0,0,0,0,0,0,0,0,0,0,0,0,0,0,0,0,0,0,0,0,0,0,0,0,0,0,0,0,0,0,0,0,0,0,0,0,0,0,0,0,0,0,0,0,0,0,0,0,0,0,0,0,0,0,0,0,0,0,0,0,0,0,0,0,0,0,0,0,0,0,0,0,0,0,0,0,0,0,0,0,0,0,0,0,0,0,0,0,0,0,0,0,0,0,0,0,0,0,0,0,0,0,0,0,0,0,0,0,0,0,0,0,0,0,0,0,0,0,0,0,0,0,0,0,0,0,0,0,0,0,0,0,0,0,0,0,0,0,0,0,0,0,0,0,0,0,0,0,0,0,0,0,0,0,0,0,0,0,0,0,0,0,0,0,0,0,0,0,0,0,0,0,0,0,0,0,0,0,0,0,0,0,0,0,0,0,0,0,0,0,0,0,0,0,0,0,0,0,0,0,0,9627,9633,9639,9645,9651,9657,9663,0,0,0,0,0,0,0,0,0,0,0,0,0,0,0,0,0,0,0,0,0,0,0,0,0,0,0,0,0,0,0,0,0,0,0,0,0,0,0,0,0,0,0,0,0,0,0,0,0,0,0,0,0,0,0,0,0,0,0,0,0,0,0,0,0,0,0,0,0,0,0,0,0,0,0,0,0,0,0,0,0,0,0,0,0,0,0,0,0,0,0,0,0,0,0,0,0,0,0,0,0,0,0,0,0,0,0,0,0,0,0,0,0,0,0,0,0,0,0,0,0,0,0,0,0,0,0,0,0,0,0,0,0,0,0,0,0,0,0,0,0,0,0,0,0,0,0,0,0,0,0,0,0,0,0,0,0,0,0,0,0,0,0,0,0,0,0,0,0,0,0,0,0,0,0,0,0,0,0,0,0,0,0,0,0,0,0,0,0,0,0,0,0,0,0,0,0,0,0,0,0,0,0,0,0,0,0,0,0,0,0,0,0,0,0,0,0,0,0,0,0,0,0,0,0,0,0,0,0,0,0,0,0,0,0,0,0,0,0,0,0,0,0,0,0,0,0,0,0,9703,9709,9715,9721,9727,9733,0,0,0,0,0,0,0,0,0,0,0,0,0,0,0,0,0,0,0,0,0,0,0,0,0,0,0,0,0,0,0,0,0,0,0,0,0,0,0,0,0,0,0,0,0,0,0,0,0,0,0,0,0,0,0,0,0,0,0,0,0,0,0,0,0,0,0,0,0,0,0,0,0,0,0,0,0,0,0,0,0,0,0,0,0,0,0,0,0,0,0,0,0,0,0,0,0,0,0,0,0,0,0,0,0,0,0,0,0,0,0,0,0,0,0,0,0,0,0,0,0,0,0,0,0,0,0,0,0,0,0,0,0,0,0,0,0,0,0,0,0,0,0,0,0,0,0,0,0,0,0,0,0,0,0,0,0,0,0,0,0,0,0,0,0,0,0,0,0,0,0,0,0,0,0,0,0,0,0,0,0,0,0,0,0,0,0,0,0,0,0,0,0,0,0,0,0,0,0,0,0,0,0,0,0,0,0,0,0,0,0,0,0,0,0,0,0,0,0,0,0,0,0,0,0,0,0,0,0,0,0,0,0,0,0,0,0,0,0,0,0,0,0,0,0,0,0,0,0,0,9627,9633,9639,9645,9651,9657,9663,0,0,0,0,0,0,0,0,0,0,0,0,0,0,0,0,0,0,0,0,0,0,0,0,0,0,0,0,0,0,0,0,0,0,0,0,0,0,0,0,0,0,0,0,0,0,0,0,0,0,0,0,0,0,0,0,0,0,0,0,0,0,0,0,0,0,0,0,0,0,0,0,0,0,0,0,0,0,0,0,0,0,0,0,0,0,0,0,0,0,0,0,0,0,0,0,0,0,0,0,0,0,0,0,0,0,0,0,0,0,0,0,0,0,0,0,0,0,0,0,0,0,0,0,0,0,0,0,0,0,0,0,0,0,0,0,0,0,0,0,0,0,0,0,0,0,0,0,0,0,0,0,0,0,0,0,0,0,0,0,0,0,0,0,0,0,0,0,0,0,0,0,0,0,0,0,0,0,0,0,0,0,0,0,0,0,0,0,0,0,0,0,0,0,0,0,0,0,0,0,0,0,0,0,0,0,0,0,0,0,0,0,0,0,0,0,0,0,0,0,0,0,0,0,0,0,0,0,0,0,0,0,0,0,0,0,0,0,0,0,0,0,0,0,0,0,0,0,0,9703,9709,9715,9721,9727,9733,0,0,0,0,0,0,0,0,0,0,0,0,0,0,0,0,0,0,0,0,0,0,0,0,0,0,0,0,0,0,0,0,0,0,0,0,0,0,0,0,0,0,0,0,0,0,0,0,0,0,0,0,0,0,0,0,0,0,0,0,0,0,0,0,0,0,0,0,0,0,0,0,0,0,0,0,0,0,0,0,0,0,0,0,0,0,0,0,0,0,0,0,0,0,0,0,0,0,0,0,0,0,0,0,0,0,0,0,0,0,0,0,0,0,0,0,0,0,0,0,0,0,0,0,0,0,0,0,0,0,0,0,0,0,0,0,0,0,0,0,0,0,0,0,0,0,0,0,0,0,0,0,0,0,0,0,0,0,0,0,0,0,0,0,0,0,0,0,0,0,0,0,0,0,0,0,0,0,0,0,0,0,0,0,0,0,0,0,0,0,0,0,0,0,0,0,0,0,0,0,0,0,0,0,0,0,0,0,0,0,0,0,0,0,0,0,0,0,0,0,0,0,0,0,0,0,0,0,0,0,0,0,0,0,0,0,0,0,0,0,0,0,0,0,0,0,0,0,0,0,9627,9633,9639,9645,9651,9657,9663,0,0,0,0,0,0,0,0,0,0,0,0,0,0,0,0,0,0,0,0,0,0,0,0,0,0,0,0,0,0,0,0,0,0,0,0,0,0,0,0,0,0,0,0,0,0,0,0,0,0,0,0,0,0,0,0,0,0,0,0,0,0,0,0,0,0,0,0,0,0,0,0,0,0,0,0,0,0,0,0,0,0,0,0,0,0,0,0,0,0,0,0,0,0,0,0,0,0,0,0,0,0,0,0,0,0,0,0,0,0,0,0,0,0,0,0,0,0,0,0,0,0,0,0,0,0,0,0,0,0,0,0,0,0,0,0,0,0,0,0,0,0,0,0,0,0,0,0,0,0,0,0,0,0,0,0,0,0,0,0,0,0,0,0,0,0,0,0,0,0,0,0,0,0,0,0,0,0,0,0,0,0,0,0,0,0,0,0,0,0,0,0,0,0,0,0,0,0,0,0,0,0,0,0,0,0,0,0,0,0,0,0,0,0,0,0,0,0,0,0,0,0,0,0,0,0,0,0,0,0,0,0,0,0,0,0,0,0,0,0,0,0,0,0,0,0,0,0,0,9703,9709,9715,9721,9727,9733,0,0,0,0,0,0,0,0,0,0,0,0,0,0,0,0,0,0,0,0,0,0,0,0,0,0,0,0,0,0,0,0,0,0,0,0,0,0,0,0,0,0,0,0,0,0,0,0,0,0,0,0,0,0,0,0,0,0,0,0,0,0,0,0,0,0,0,0,0,0,0,0,0,0,0,0,0,0,0,0,0,0,0,0,0,0,0,0,0,0,0,0,0,0,0,0,0,0,0,0,0,0,0,0,0,0,0,0,0,0,0,0,0,0,0,0,0,0,0,0,0,0,0,0,0,0,0,0,0,0,0,0,0,0,0,0,0,0,0,0,0,0,0,0,0,0,0,0,0,0,0,0,0,0,0,0,0,0,0,0,0,0,0,0,0,0,0,0,0,0,0,0,0,0,0,0,0,0,0,0,0,0,0,0,0,0,0,0,0,0,0,0,0,0,0,0,0,0,0,0,0,0,0,0,0,0,0,0,0,0,0,0,0,0,0,0,0,0,0,0,0,0,0,0,0,0,0,0,0,0,0,0,0,0,0,0,0,0,0,0,0,0,0,0,0,0,0,0,0,0,9627,9633,9639,9645,9651,9657,9663,0,0,0,0,0,0,0,0,0,0,0,0,0,0,0,0,0,0,0,0,0,0,0,0,0,0,0,0,0,0,0,0,0,0,0,0,0,0,0,0,0,0,0,0,0,0,0,0,0,0,0,0,0,0,0,0,0,0,0,0,0,0,0,0,0,0,0,0,0,0,0,0,0,0,0,0,0,0,0,0,0,0,0,0,0,0,0,0,0,0,0,0,0,0,0,0,0,0,0,0,0,0,0,0,0,0,0,0,0,0,0,0,0,0,0,0,0,0,0,0,0,0,0,0,0,0,0,0,0,0,0,0,0,0,0,0,0,0,0,0,0,0,0,0,0,0,0,0,0,0,0,0,0,0,0,0,0,0,0,0,0,0,0,0,0,0,0,0,0,0,0,0,0,0,0,0,0,0,0,0,0,0,0,0,0,0,0,0,0,0,0,0,0,0,0,0,0,0,0,0,0,0,0,0,0,0,0,0,0,0,0,0,0,0,0,0,0,0,0,0,0,0,0,0,0,0,0,0,0,0,0,0,0,0,0,0,0,0,0,0,0,0,0,0,0,0,0,0,0,9703,9709,9715,9721,9727,9733,0,0,0,0,0,0,0,0,0,0,0,0,0,0,0,0,0,0,0,0,0,0,0,0,0,0,0,0,0,0,0,0,0,0,0,0,0,0,0,0,0,0,0,0,0,0,0,0,0,0,0,0,0,0,0,0,0,0,0,0,0,0,0,0,0,0,0,0,0,0,0,0,0,0,0,0,0,0,0,0,0,0,0,0,0,0,0,0,0,0,0,0,0,0,0,0,0,0,0,0,0,0,0,0,0,0,0,0,0,0,0,0,0,0,0,0,0,0,0,0,0,0,0,0,0,0,0,0,0,0,0,0,0,0,0,0,0,0,0,0,0,0,0,0,0,0,0,0,0,0,0,0,0,0,0,0,0,0,0,0,0,0,0,0,0,0,0,0,0,0,0,0,0,0,0,0,0,0,0,0,0,0,0,0,0,0,0,0,0,0,0,0,0,0,0,0,0,0,0,0,0,0,0,0,0,0,0,0,0,0,0,0,0,0,0,0,0,0,0,0,0,0,0,0,0,0,0,0,0,0,0,0,0,0,0,0,0,0,0,0,0,0,0,0,0,0,0,0,0,0,9627,9633,9639,9645,9651,9657,9663,0,0,0,0,0,0,0,0,0,0,0,0,0,0,0,0,0,0,0,0,0,0,0,0,0,0,0,0,0,0,0,0,0,0,0,0,0,0,0,0,0,0,0,0,0,0,0,0,0,0,0,0,0,0,0,0,0,0,0,0,0,0,0,0,0,0,0,0,0,0,0,0,0,0,0,0,0,0,0,0,0,0,0,0,0,0,0,0,0,0,0,0,0,0,0,0,0,0,0,0,0,0,0,0,0,0,0,0,0,0,0,0,0,0,0,0,0,0,0,0,0,0,0,0,0,0,0,0,0,0,0,0,0,0,0,0,0,0,0,0,0,0,0,0,0,0,0,0,0,0,0,0,0,0,0,0,0,0,0,0,0,0,0,0,0,0,0,0,0,0,0,0,0,0,0,0,0,0,0,0,0,0,0,0,0,0,0,0,0,0,0,0,0,0,0,0,0,0,0,0,0,0,0,0,0,0,0,0,0,0,0,0,0,0,0,0,0,0,0,0,0,0,0,0,0,0,0,0,0,0,0,0,0,0,0,0,0,0,0,0,0,0,0,0,0,0,0,0,0,9703,9709,9715,9721,9727,9733,0,0,0,0,0,0,0,0,0,0,0,0,0,0,0,0,0,0,0,0,0,0,0,0,0,0,0,0,0,0,0,0,0,0,0,0,0,0,0,0,0,0,0,0,0,0,0,0,0,0,0,0,0,0,0,0,0,0,0,0,0,0,0,0,0,0,0,0,0,0,0,0,0,0,0,0,0,0,0,0,0,0,0,0,0,0,0,0,0,0,0,0,0,0,0,0,0,0,0,0,0,0,0,0,0,0,0,0,0,0,0,0,0,0,0,0,0,0,0,0,0,0,0,0,0,0,0,0,0,0,0,0,0,0,0,0,0,0,0,0,0,0,0,0,0,0,0,0,0,0,0,0,0,0,0,0,0,0,0,0,0,0,0,0,0,0,0,0,0,0,0,0,0,0,0,0,0,0,0,0,0,0,0,0,0,0,0,0,0,0,0,0,0,0,0,0,0,0,0,0,0,0,0,0,0,0,0,0,0,0,0,0,0,0,0,0,0,0,0,0,0,0,0,0,0,0,0,0,0,0,0,0,0,0,0,0,0,0,0,0,0,0,0,0,0,0,0,0,0,0,9627,9633,9639,9645,9651,9657,9663,0,0,0,0,0,0,0,0,0,0,0,0,0,0,0,0,0,0,0,0,0,0,0,0,0,0,0,0,0,0,0,0,0,0,0,0,0,0,0,0,0,0,0,0,0,0,0,0,0,0,0,0,0,0,0,0,0,0,0,0,0,0,0,0,0,0,0,0,0,0,0,0,0,0,0,0,0,0,0,0,0,0,0,0,0,0,0,0,0,0,0,0,0,0,0,0,0,0,0,0,0,0,0,0,0,0,0,0,0,0,0,0,0,0,0,0,0,0,0,0,0,0,0,0,0,0,0,0,0,0,0,0,0,0,0,0,0,0,0,0,0,0,0,0,0,0,0,0,0,0,0,0,0,0,0,0,0,0,0,0,0,0,0,0,0,0,0,0,0,0,0,0,0,0,0,0,0,0,0,0,0,0,0,0,0,0,0,0,0,0,0,0,0,0,0,0,0,0,0,0,0,0,0,0,0,0,0,0,0,0,0,0,0,0,0,0,0,0,0,0,0,0,0,0,0,0,0,0,0,0,0,0,0,0,0,0,0,0,0,0,0,0,0,0,0,0,0,0,0,9703,9709,9715,9721,9727,9733,0,0,0,0,0,0,0,0,0,0,0,0,0,0,0,0,0,0,0,0,0,0,0,0,0,0,0,0,0,0,0,0,0,0,0,0,0,0,0,0,0,0,0,0,0,0,0,0,0,0,0,0,0,0,0,0,0,0,0,0,0,0,0,0,0,0,0,0,0,0,0,0,0,0,0,0,0,0,0,0,0,0,0,0,0,0,0,0,0,0,0,0,0,0,0,0,0,0,0,0,0,0,0,0,0,0,0,0,0,0,0,0,0,0,0,0,0,0,0,0,0,0,0,0,0,0,0,0,0,0,0,0,0,0,0,0,0,0,0,0,0,0,0,0,0,0,0,0,0,0,0,0,0,0,0,0,0,0,0,0,0,0,0,0,0,0,0,0,0,0,0,0,0,0,0,0,0,0,0,0,0,0,0,0,0,0,0,0,0,0,0,0,0,0,0,0,0,0,0,0,0,0,0,0,0,0,0,0,0,0,0,0,0,0,0,0,0,0,0,0,0,0,0,0,0,0,0,0,0,0,0,0,0,0,0,0,0,0,0,0,0,0,0,0,0,0,0,0,0,0,9627,9633,9639,9645,9651,9657,9663,0,0,0,0,0,0,0,0,0,0,0,0,0,0,0,0,0,0,0,0,0,0,0,0,0,0,0,0,0,0,0,0,0,0,0,0,0,0,0,0,0,0,0,0,0,0,0,0,0,0,0,0,0,0,0,0,0,0,0,0,0,0,0,0,0,0,0,0,0,0,0,0,0,0,0,0,0,0,0,0,0,0,0,0,0,0,0,0,0,0,0,0,0,0,0,0,0,0,0,0,0,0,0,0,0,0,0,0,0,0,0,0,0,0,0,0,0,0,0,0,0,0,0,0,0,0,0,0,0,0,0,0,0,0,0,0,0,0,0,0,0,0,0,0,0,0,0,0,0,0,0,0,0,0,0,0,0,0,0,0,0,0,0,0,0,0,0,0,0,0,0,0,0,0,0,0,0,0,0,0,0,0,0,0,0,0,0,0,0,0,0,0,0,0,0,0,0,0,0,0,0,0,0,0,0,0,0,0,0,0,0,0,0,0,0,0,0,0,0,0,0,0,0,0,0,0,0,0,0,0,0,0,0,0,0,0,0,0,0,0,0,0,0,0,0,0,0,0,0,9703,9709,9715,9721,9727,9733,0,0,0,0,0,0,0,0,0,0,0,0,0,0,0,0,0,0,0,0,0,0,0,0,0,0,0,0,0,0,0,0,0,0,0,0,0,0,0,0,0,0,0,0,0,0,0,0,0,0,0,0,0,0,0,0,0,0,0,0,0,0,0,0,0,0,0,0,0,0,0,0,0,0,0,0,0,0,0,0,0,0,0,0,0,0,0,0,0,0,0,0,0,0,0,0,0,0,0,0,0,0,0,0,0,0,0,0,0,0,0,0,0,0,0,0,0,0,0,0,0,0,0,0,0,0,0,0,0,0,0,0,0,0,0,0,0,0,0,0,0,0,0,0,0,0,0,0,0,0,0,0,0,0,0,0,0,0,0,0,0,0,0,0,0,0,0,0,0,0,0,0,0,0,0,0,0,0,0,0,0,0,0,0,0,0,0,0,0,0,0,0,0,0,0,0,0,0,0,0,0,0,0,0,0,0,0,0,0,0,0,0,0,0,0,0,0,0,0,0,0,0,0,0,0,0,0,0,0,0,0,0,0,0,0,0,0,0,0,0,0,0,0,0,0,0,0,0,0,0,9627,9633,9639,9645,9651,9657,9663,0,0,0,0,0,0,0,0,0,0,0,0,0,0,0,0,0,0,0,0,0,0,0,0,0,0,0,0,0,0,0,0,0,0,0,0,0,0,0,0,0,0,0,0,0,0,0,0,0,0,0,0,0,0,0,0,0,0,0,0,0,0,0,0,0,0,0,0,0,0,0,0,0,0,0,0,0,0,0,0,0,0,0,0,0,0,0,0,0,0,0,0,0,0,0,0,0,0,0,0,0,0,0,0,0,0,0,0,0,0,0,0,0,0,0,0,0,0,0,0,0,0,0,0,0,0,0,0,0,0,0,0,0,0,0,0,0,0,0,0,0,0,0,0,0,0,0,0,0,0,0,0,0,0,0,0,0,0,0,0,0,0,0,0,0,0,0,0,0,0,0,0,0,0,0,0,0,0,0,0,0,0,0,0,0,0,0,0,0,0,0,0,0,0,0,0,0,0,0,0,0,0,0,0,0,0,0,0,0,0,0,0,0,0,0,0,0,0,0,0,0,0,0,0,0,0,0,0,0,0,0,0,0,0,0,0,0,0,0,0,0,0,0,0,0,0,0,0,0,9703,9709,9715,9721,9727,9733,0,0,0,0,0,0,0,0,0,0,0,0,0,0,0,0,0,0,0,0,0,0,0,0,0,0,0,0,0,0,0,0,0,0,0,0,0,0,0,0,0,0,0,0,0,0,0,0,0,0,0,0,0,0,0,0,0,0,0,0,0,0,0,0,0,0,0,0,0,0,0,0,0,0,0,0,0,0,0,0,0,0,0,0,0,0,0,0,0,0,0,0,0,0,0,0,0,0,0,0,0,0,0,0,0,0,0,0,0,0,0,0,0,0,0,0,0,0,0,0,0,0,0,0,0,0,0,0,0,0,0,0,0,0,0,0,0,0,0,0,0,0,0,0,0,0,0,0,0,0,0,0,0,0,0,0,0,0,0,0,0,0,0,0,0,0,0,0,0,0,0,0,0,0,0,0,0,0,0,0,0,0,0,0,0,0,0,0,0,0,0,0,0,0,0,0,0,0,0,0,0,0,0,0,0,0,0,0,0,0,0,0,0,0,0,0,0,0,0,0,0,0,0,0,0,0,0,0,0,0,0,0,0,0,0,0,0,0,0,0,0,0,0,0,0,0,0,0,0,0,9627,9633,9639,9645,9651,9657,9663,0,0,0,0,0,0,0,0,0,0,0,0,0,0,0,0,0,0,0,0,0,0,0,0,0,0,0,0,0,0,0,0,0,0,0,0,0,0,0,0,0,0,0,0,0,0,0,0,0,0,0,0,0,0,0,0,0,0,0,0,0,0,0,0,0,0,0,0,0,0,0,0,0,0,0,0,0,0,0,0,0,0,0,0,0,0,0,0,0,0,0,0,0,0,0,0,0,0,0,0,0,0,0,0,0,0,0,0,0,0,0,0,0,0,0,0,0,0,0,0,0,0,0,0,0,0,0,0,0,0,0,0,0,0,0,0,0,0,0,0,0,0,0,0,0,0,0,0,0,0,0,0,0,0,0,0,0,0,0,0,0,0,0,0,0,0,0,0,0,0,0,0,0,0,0,0,0,0,0,0,0,0,0,0,0,0,0,0,0,0,0,0,0,0,0,0,0,0,0,0,0,0,0,0,0,0,0,0,0,0,0,0,0,0,0,0,0,0,0,0,0,0,0,0,0,0,0,0,0,0,0,0,0,0,0,0,0,0,0,0,0,0,0,0,0,0,0,0,0,9703,9709,9715,9721,9727,9733,0,0,0,0,0,0,0,0,0,0,0,0,0,0,0,0,0,0,0,0,0,0,0,0,0,0,0,0,0,0,0,0,0,0,0,0,0,0,0,0,0,0,0,0,0,0,0,0,0,0,0,0,0,0,0,0,0,0,0,0,0,0,0,0,0,0,0,0,0,0,0,0,0,0,0,0,0,0,0,0,0,0,0,0,0,0,0,0,0,0,0,0,0,0,0,0,0,0,0,0,0,0,0,0,0,0,0,0,0,0,0,0,0,0,0,0,0,0,0,0,0,0,0,0,0,0,0,0,0,0,0,0,0,0,0,0,0,0,0,0,0,0,0,0,0,0,0,0,0,0,0,0,0,0,0,0,0,0,0,0,0,0,0,0,0,0,0,0,0,0,0,0,0,0,0,0,0,0,0,0,0,0,0,0,0,0,0,0,0,0,0,0,0,0,0,0,0,0,0,0,0,0,0,0,0,0,0,0,0,0,0,0,0,0,0,0,0,0,0,0,0,0,0,0,0,0,0,0,0,0,0,0,0,0,0,0,0,0,0,0,0,0,0,0,0,0,0,0,0,0,9627,9633,9639,9645,9651,9657,9663,0,0,0,0,0,0,0,0,0,0,0,0,0,0,0,0,0,0,0,0,0,0,0,0,0,0,0,0,0,0,0,0,0,0,0,0,0,0,0,0,0,0,0,0,0,0,0,0,0,0,0,0,0,0,0,0,0,0,0,0,0,0,0,0,0,0,0,0,0,0,0,0,0,0,0,0,0,0,0,0,0,0,0,0,0,0,0,0,0,0,0,0,0,0,0,0,0,0,0,0,0,0,0,0,0,0,0,0,0,0,0,0,0,0,0,0,0,0,0,0,0,0,0,0,0,0,0,0,0,0,0,0,0,0,0,0,0,0,0,0,0,0,0,0,0,0,0,0,0,0,0,0,0,0,0,0,0,0,0,0,0,0,0,0,0,0,0,0,0,0,0,0,0,0,0,0,0,0,0,0,0,0,0,0,0,0,0,0,0,0,0,0,0,0,0,0,0,0,0,0,0,0,0,0,0,0,0,0,0,0,0,0,0,0,0,0,0,0,0,0,0,0,0,0,0,0,0,0,0,0,0,0,0,0,0,0,0,0,0,0,0,0,0,0,0,0,0,0,0,9703,9709,9715,9721,9727,9733,0,0,0,0,0,0,0,0,0,0,0,0,0,0,0,0,0,0,0,0,0,0,0,0,0,0,0,0,0,0,0,0,0,0,0,0,0,0,0,0,0,0,0,0,0,0,0,0,0,0,0,0,0,0,0,0,0,0,0,0,0,0,0,0,0,0,0,0,0,0,0,0,0,0,0,0,0,0,0,0,0,0,0,0,0,0,0,0,0,0,0,0,0,0,0,0,0,0,0,0,0,0,0,0,0,0,0,0,0,0,0,0,0,0,0,0,0,0,0,0,0,0,0,0,0,0,0,0,0,0,0,0,0,0,0,0,0,0,0,0,0,0,0,0,0,0,0,0,0,0,0,0,0,0,0,0,0,0,0,0,0,0,0,0,0,0,0,0,0,0,0,0,0,0,0,0,0,0,0,0,0,0,0,0,0,0,0,0,0,0,0,0,0,0,0,0,0,0,0,0,0,0,0,0,0,0,0,0,0,0,0,0,0,0,0,0,0,0,0,0,0,0,0,0,0,0,0,0,0,0,0,0,0,0,0,0,0,0,0,0,0,0,0,0,0,0,0,0,0,0,9627,9633,9639,9645,9651,9657,9663,0,0,0,0,0,0,0,0,0,0,0,0,0,0,0,0,0,0,0,0,0,0,0,0,0,0,0,0,0,0,0,0,0,0,0,0,0,0,0,0,0,0,0,0,0,0,0,0,0,0,0,0,0,0,0,0,0,0,0,0,0,0,0,0,0,0,0,0,0,0,0,0,0,0,0,0,0,0,0,0,0,0,0,0,0,0,0,0,0,0,0,0,0,0,0,0,0,0,0,0,0,0,0,0,0,0,0,0,0,0,0,0,0,0,0,0,0,0,0,0,0,0,0,0]}],"tilesets":[{"firstgid":1,"source":"../Metano_Canonique_8px.tsj"}]}