{"type":"map","version":"1.10","orientation":"orthogonal","renderorder":"right-down","width":256,"height":192,"tilewidth":8,"tileheight":8,"infinite":false,"nextlayerid":3,"nextobjectid":1,"layers":[{"id":1,"name":"herbe","type":"tilelayer","x":0,"y":0,"width":256,"height":192,"opacity":1,"visible":true,"data":[1,2,3,4,5,6,7,8,9,10,11,12,13,14,15,16,1,2,3,4,5,6,7,8,9,10,11,12,13,14,15,16,1,2,3,4,5,6,7,8,9,10,11,12,13,14,15,16,1,2,3,4,5,6,7,8,9,10,11,12,13,14,15,16,1,2,3,4,5,6,7,8,9,10,11,12,13,14,15,16,1,2,3,4,5,6,7,8,9,10,11,12,13,14,15,16,1,2,3,4,5,6,7,8,9,10,11,12,13,14,15,16,1,2,3,4,5,6,7,8,9,10,11,12,13,14,15,16,1,2,3,4,5,6,7,8,9,10,11,12,13,14,15,16,1,2,3,4,5,6,7,8,9,10,11,12,13,14,15,16,1,2,3,4,5,6,7,8,9,10,11,12,13,14,15,16,1,2,3,4,5,6,7,8,9,10,11,12,13,14,15,16,1,2,3,4,5,6,7,8,9,10,11,12,13,14,15,16,1,2,3,4,5,6,7,8,9,10,11,12,13,14,15,16,1,2,3,4,5,6,7,8,9,10,11,12,13,14,15,16,1,2,3,4,5,6,7,8,9,10,11,12,13,14,15,16,17,18,19,20,21,22,23,24,25,26,27,28,29,30,31,32,17,18,19,20,21,22,23,24,25,26,27,28,29,30,31,32,17,18,19,20,21,22,23,24,25,26,27,28,29,30,31,32,17,18,19,20,21,22,23,24,25,26,27,28,29,30,31,32,17,18,19,20,21,22,23,24,25,26,27,28,29,30,31,32,17,18,19,20,21,22,23,24,25,26,27,28,29,30,31,32,17,18,19,20,21,22,23,24,25,26,27,28,29,30,31,32,17,18,19,20,21,22,23,24,25,26,27,28,29,30,31,32,17,18,19,20,21,22,23,24,25,26,27,28,29,30,31,32,17,18,19,20,21,22,23,24,25,26,27,28,29,30,31,32,17,18,19,20,21,22,23,24,25,26,27,28,29,30,31,32,17,18,19,20,21,22,23,24,25,26,27,28,29,30,31,32,17,18,19,20,21,22,23,24,25,26,27,28,29,30,31,32,17,18,19,20,21,22,23,24,25,26,27,28,29,30,31,32,17,18,19,20,21,22,23,24,25,26,27,28,29,30,31,32,17,18,19,20,21,22,23,24,25,26,27,28,29,30,31,32,33,34,35,36,37,38,39,40,41,42,43,44,45,46,47,48,33,34,35,36,37,38,39,40,41,42,43,44,45,46,47,48,33,34,35,36,37,38,39,40,41,42,43,44,45,46,47,48,33,34,35,36,37,38,39,40,41,42,43,44,45,46,47,48,33,34,35,36,37,38,39,40,41,42,43,44,45,46,47,48,33,34,35,36,37,38,39,40,41,42,43,44,45,46,47,48,33,34,35,36,37,38,39,40,41,42,43,44,45,46,47,48,33,34,35,36,37,38,39,40,41,42,43,44,45,46,47,48,33,34,35,36,37,38,39,40,41,42,43,44,45,46,47,48,33,34,35,36,37,38,39,40,41,42,43,44,45,46,47,48,33,34,35,36,37,38,39,40,41,42,43,44,45,46,47,48,33,34,35,36,37,38,39,40,41,42,43,44,45,46,47,48,33,34,35,36,37,38,39,40,41,42,43,44,45,46,47,48,33,34,35,36,37,38,39,40,41,42,43,44,45,46,47,48,33,34,35,36,37,38,39,40,41,42,43,44,45,46,47,48,33,34,35,36,37,38,39,40,41,42,43,44,45,46,47,48,49,50,51,52,53,54,55,56,57,58,59,60,61,62,63,64,49,50,51,52,53,54,55,56,57,58,59,60,61,62,63,64,49,50,51,52,53,54,55,56,57,58,59,60,61,62,63,64,49,50,51,52,53,54,55,56,57,58,59,60,61,62,63,64,49,50,51,52,53,54,55,56,57,58,59,60,61,62,63,64,49,50,51,52,53,54,55,56,57,58,59,60,61,62,63,64,49,50,51,52,53,54,55,56,57,58,59,60,61,62,63,64,49,50,51,52,53,54,55,56,57,58,59,60,61,62,63,64,49,50,51,52,53,54,55,56,57,58,59,60,61,62,63,64,49,50,51,52,53,54,55,56,57,58,59,60,61,62,63,64,49,50,51,52,53,54,55,56,57,58,59,60,61,62,63,64,49,50,51,52,53,54,55,56,57,58,59,60,61,62,63,64,49,50,51,52,53,54,55,56,57,58,59,60,61,62,63,64,49,50,51,52,53,54,55,56,57,58,59,60,61,62,63,64,49,50,51,52,53,54,55,56,57,58,59,60,61,62,63,64,49,50,51,52,53,54,55,56,57,58,59,60,61,62,63,64,65,66,67,68,69,70,71,72,73,74,75,76,77,78,79,80,65,66,67,68,69,70,71,72,73,74,75,76,77,78,79,80,65,66,67,68,69,70,71,72,73,74,75,76,77,78,79,80,65,66,67,68,69,70,71,72,73,74,75,76,77,78,79,80,65,66,67,68,69,70,71,72,73,74,75,76,77,78,79,80,65,66,67,68,69,70,71,72,73,74,75,76,77,78,79,80,65,66,67,68,69,70,71,72,73,74,75,76,77,78,79,80,65,66,67,68,69,70,71,72,73,74,75,76,77,78,79,80,65,66,67,68,69,70,71,72,73,74,75,76,77,78,79,80,65,66,67,68,69,70,71,72,73,74,75,76,77,78,79,80,65,66,67,68,69,70,71,72,73,74,75,76,77,78,79,80,65,66,67,68,69,70,71,72,73,74,75,76,77,78,79,80,65,66,67,68,69,70,71,72,73,74,75,76,77,78,79,80,65,66,67,68,69,70,71,72,73,74,75,76,77,78,79,80,65,66,67,68,69,70,71,72,73,74,75,76,77,78,79,80,65,66,67,68,69,70,71,72,73,74,75,76,77,78,79,80,81,82,83,84,85,86,87,88,89,90,91,92,93,94,95,96,81,82,83,84,85,86,87,88,89,90,91,92,93,94,95,96,81,82,83,84,85,86,87,88,89,90,91,92,93,94,95,96,81,82,83,84,85,86,87,88,89,90,91,92,93,94,95,96,81,82,83,84,85,86,87,88,89,90,91,92,93,94,95,96,81,82,83,84,85,86,87,88,89,90,91,92,93,94,95,96,81,82,83,84,85,86,87,88,89,90,91,92,93,94,95,96,81,82,83,84,85,86,87,88,89,90,91,92,93,94,95,96,81,82,83,84,85,86,87,88,89,90,91,92,93,94,95,96,81,82,83,84,85,86,87,88,89,90,91,92,93,94,95,96,81,82,83,84,85,86,87,88,89,90,91,92,93,94,95,96,81,82,83,84,85,86,87,88,89,90,91,92,93,94,95,96,81,82,83,84,85,86,87,88,89,90,91,92,93,94,95,96,81,82,83,84,85,86,87,88,89,90,91,92,93,94,95,96,81,82,83,84,85,86,87,88,89,90,91,92,93,94,95,96,81,82,83,84,85,86,87,88,89,90,91,92,93,94,95,96,97,98,99,100,101,102,103,104,105,106,107,108,109,110,111,112,97,98,99,100,101,102,103,104,105,106,107,108,109,110,111,112,97,98,99,100,101,102,103,104,105,106,107,108,109,110,111,112,97,98,99,100,101,102,103,104,105,106,107,108,109,110,111,112,97,98,99,100,101,102,103,104,105,106,107,108,109,110,111,112,97,98,99,100,101,102,103,104,105,106,107,108,109,110,111,112,97,98,99,100,101,102,103,104,105,106,107,108,109,110,111,112,97,98,99,100,101,102,103,104,105,106,107,108,109,110,111,112,97,98,99,100,101,102,103,104,105,106,107,108,109,110,111,112,97,98,99,100,101,102,103,104,105,106,107,108,109,110,111,112,97,98,99,100,101,102,103,104,105,106,107,108,109,110,111,112,97,98,99,100,101,102,103,104,105,106,107,108,109,110,111,112,97,98,99,100,101,102,103,104,105,106,107,108,109,110,111,112,97,98,99,100,101,102,103,104,105,106,107,108,109,110,111,112,97,98,99,100,101,102,103,104,105,106,107,108,109,110,111,112,97,98,99,100,101,102,103,104,105,106,107,108,109,110,111,112,113,114,115,116,117,118,119,120,121,122,123,124,125,126,127,128,113,114,115,116,117,118,119,120,121,122,123,124,125,126,127,128,113,114,115,116,117,118,119,120,121,122,123,124,125,126,127,128,113,114,115,116,117,118,119,120,121,122,123,124,125,126,127,128,113,114,115,116,117,118,119,120,121,122,123,124,125,126,127,128,113,114,115,116,117,118,119,120,121,122,123,124,125,126,127,128,113,114,115,116,117,118,119,120,121,122,123,124,125,126,127,128,113,114,115,116,117,118,119,120,121,122,123,124,125,126,127,128,113,114,115,116,117,118,119,120,121,122,123,124,125,126,127,128,113,114,115,116,117,118,119,120,121,122,123,124,125,126,127,128,113,114,115,116,117,118,119,120,121,122,123,124,125,126,127,128,113,114,115,116,117,118,119,120,121,122,123,124,125,126,127,128,113,114,115,116,117,118,119,120,121,122,123,124,125,126,127,128,113,114,115,116,117,118,119,120,121,122,123,124,125,126,127,128,113,114,115,116,117,118,119,120,121,122,123,124,125,126,127,128,113,114,115,116,117,118,119,120,121,122,123,124,125,126,127,128,129,130,131,132,133,134,135,136,137,138,139,140,141,142,143,144,129,130,131,132,133,134,135,136,137,138,139,140,141,142,143,144,129,130,131,132,133,134,135,136,137,138,139,140,141,142,143,144,129,130,131,132,133,134,135,136,137,138,139,140,141,142,143,144,129,130,131,132,133,134,135,136,137,138,139,140,141,142,143,144,129,130,131,132,133,134,135,136,137,138,139,140,141,142,143,144,129,130,131,132,133,134,135,136,137,138,139,140,141,142,143,144,129,130,131,132,133,134,135,136,137,138,139,140,141,142,143,144,129,130,131,132,133,134,135,136,137,138,139,140,141,142,143,144,129,130,131,132,133,134,135,136,137,138,139,140,141,142,143,144,129,130,131,132,133,134,135,136,137,138,139,140,141,142,143,144,129,130,131,132,133,134,135,136,137,138,139,140,141,142,143,144,129,130,131,132,133,134,135,136,137,138,139,140,141,142,143,144,129,130,131,132,133,134,135,136,137,138,139,140,141,142,143,144,129,130,131,132,133,134,135,136,137,138,139,140,141,142,143,144,129,130,131,132,133,134,135,136,137,138,139,140,141,142,143,144,145,146,147,148,149,150,151,152,153,154,155,156,157,158,159,160,145,146,147,148,149,150,151,152,153,154,155,156,157,158,159,160,145,146,147,148,149,150,151,152,153,154,155,156,157,158,159,160,145,146,147,148,149,150,151,152,153,154,155,156,157,158,159,160,145,146,147,148,149,150,151,152,153,154,155,156,157,158,159,160,145,146,147,148,149,150,151,152,153,154,155,156,157,158,159,160,145,146,147,148,149,150,151,152,153,154,155,156,157,158,159,160,145,146,147,148,149,150,151,152,153,154,155,156,157,158,159,160,145,146,147,148,149,150,151,152,153,154,155,156,157,158,159,160,145,146,147,148,149,150,151,152,153,154,155,156,157,158,159,160,145,146,147,148,149,150,151,152,153,154,155,156,157,158,159,160,145,146,147,148,149,150,151,152,153,154,155,156,157,158,159,160,145,146,147,148,149,150,151,152,153,154,155,156,157,158,159,160,145,146,147,148,149,150,151,152,153,154,155,156,157,158,159,160,145,146,147,148,149,150,151,152,153,154,155,156,157,158,159,160,145,146,147,148,149,150,151,152,153,154,155,156,157,158,159,160,161,162,163,164,165,166,167,168,169,170,171,172,173,174,175,176,161,162,163,164,165,166,167,168,169,170,171,172,173,174,175,176,161,162,163,164,165,166,167,168,169,170,171,172,173,174,175,176,161,162,163,164,165,166,167,168,169,170,171,172,173,174,175,176,161,162,163,164,165,166,167,168,169,170,171,172,173,174,175,176,161,162,163,164,165,166,167,168,169,170,171,172,173,174,175,176,161,162,163,164,165,166,167,168,169,170,171,172,173,174,175,176,161,162,163,164,165,166,167,168,169,170,171,172,173,174,175,176,161,162,163,164,165,166,167,168,169,170,171,172,173,174,175,176,161,162,163,164,165,166,167,168,169,170,171,172,173,174,175,176,161,162,163,164,165,166,167,168,169,170,171,172,173,174,175,176,161,162,163,164,165,166,167,168,169,170,171,172,173,174,175,176,161,162,163,164,165,166,167,168,169,170,171,172,173,174,175,176,161,162,163,164,165,166,167,168,169,170,171,172,173,174,175,176,161,162,163,164,165,166,167,168,169,170,171,172,173,174,175,176,161,162,163,164,165,166,167,168,169,170,171,172,173,174,175,176,177,178,179,180,181,182,183,184,185,186,187,188,189,190,191,192,177,178,179,180,181,182,183,184,185,186,187,188,189,190,191,192,177,178,179,180,181,182,183,184,185,186,187,188,189,190,191,192,177,178,179,180,181,182,183,184,185,186,187,188,189,190,191,192,177,178,179,180,181,182,183,184,185,186,187,188,189,190,191,192,177,178,179,180,181,182,183,184,185,186,187,188,189,190,191,192,177,178,179,180,181,182,183,184,185,186,187,188,189,190,191,192,177,178,179,180,181,182,183,184,185,186,187,188,189,190,191,192,177,178,179,180,181,182,183,184,185,186,187,188,189,190,191,192,177,178,179,180,181,182,183,184,185,186,187,188,189,190,191,192,177,178,179,180,181,182,183,184,185,186,187,188,189,190,191,192,177,178,179,180,181,182,183,184,185,186,187,188,189,190,191,192,177,178,179,180,181,182,183,184,185,186,187,188,189,190,191,192,177,178,179,180,181,182,183,184,185,186,187,188,189,190,191,192,177,178,179,180,181,182,183,184,185,186,187,188,189,190,191,192,177,178,179,180,181,182,183,184,185,186,187,188,189,190,191,192,193,194,195,196,197,198,199,200,201,202,203,204,205,206,207,208,193,194,195,196,197,198,199,200,201,202,203,204,205,206,207,208,193,194,195,196,197,198,199,200,201,202,203,204,205,206,207,208,193,194,195,196,197,198,199,200,201,202,203,204,205,206,207,208,193,194,195,196,197,198,199,200,201,202,203,204,205,206,207,208,193,194,195,196,197,198,199,200,201,202,203,204,205,206,207,208,193,194,195,196,197,198,199,200,201,202,203,204,205,206,207,208,193,194,195,196,197,198,199,200,201,202,203,204,205,206,207,208,193,194,195,196,197,198,199,200,201,202,203,204,205,206,207,208,193,194,195,196,197,198,199,200,201,202,203,204,205,206,207,208,193,194,195,196,197,198,199,200,201,202,203,204,205,206,207,208,193,194,195,196,197,198,199,200,201,202,203,204,205,206,207,208,193,194,195,196,197,198,199,200,201,202,203,204,205,206,207,208,193,194,195,196,197,198,199,200,201,202,203,204,205,206,207,208,193,194,195,196,197,198,199,200,201,202,203,204,205,206,207,208,193,194,195,196,197,198,199,200,201,202,203,204,205,206,207,208,209,210,211,212,213,214,215,216,217,218,219,220,221,222,223,224,209,210,211,212,213,214,215,216,217,218,219,220,221,222,223,224,209,210,211,212,213,214,215,216,217,218,219,220,221,222,223,224,209,210,211,212,213,214,215,216,217,218,219,220,221,222,223,224,209,210,211,212,213,214,215,216,217,218,219,220,221,222,223,224,209,210,211,212,213,214,215,216,217,218,219,220,221,222,223,224,209,210,211,212,213,214,215,216,217,218,219,220,221,222,223,224,209,210,211,212,213,214,215,216,217,218,219,220,221,222,223,224,209,210,211,212,213,214,215,216,217,218,219,220,221,222,223,224,209,210,211,212,213,214,215,216,217,218,219,220,221,222,223,224,209,210,211,212,213,214,215,216,217,218,219,220,221,222,223,224,209,210,211,212,213,214,215,216,217,218,219,220,221,222,223,224,209,210,211,212,213,214,215,216,217,218,219,220,221,222,223,224,209,210,211,212,213,214,215,216,217,218,219,220,221,222,223,224,209,210,211,212,213,214,215,216,217,218,219,220,221,222,223,224,209,210,211,212,213,214,215,216,217,218,219,220,221,222,223,224,225,226,227,228,229,230,231,232,233,234,235,236,237,238,239,240,225,226,227,228,229,230,231,232,233,234,235,236,237,238,239,240,225,226,227,228,229,230,231,232,233,234,235,236,237,238,239,240,225,226,227,228,229,230,231,232,233,234,235,236,237,238,239,240,225,226,227,228,229,230,231,232,233,234,235,236,237,238,239,240,225,226,227,228,229,230,231,232,233,234,235,236,237,238,239,240,225,226,227,228,229,230,231,232,233,234,235,236,237,238,239,240,225,226,227,228,229,230,231,232,233,234,235,236,237,238,239,240,225,226,227,228,229,230,231,232,233,234,235,236,237,238,239,240,225,226,227,228,229,230,231,232,233,234,235,236,237,238,239,240,225,226,227,228,229,230,231,232,233,234,235,236,237,238,239,240,225,226,227,228,229,230,231,232,233,234,235,236,237,238,239,240,225,226,227,228,229,230,231,232,233,234,235,236,237,238,239,240,225,226,227,228,229,230,231,232,233,234,235,236,237,238,239,240,225,226,227,228,229,230,231,232,233,234,235,236,237,238,239,240,225,226,227,228,229,230,231,232,233,234,235,236,237,238,239,240,241,242,243,244,245,246,247,248,249,250,251,252,253,254,255,256,241,242,243,244,245,246,247,248,249,250,251,252,253,254,255,256,241,242,243,244,245,246,247,248,249,250,251,252,253,254,255,256,241,242,243,244,245,246,247,248,249,250,251,252,253,254,255,256,241,242,243,244,245,246,247,248,249,250,251,252,253,254,255,256,241,242,243,244,245,246,247,248,249,250,251,252,253,254,255,256,241,242,243,244,245,246,247,248,249,250,251,252,253,254,255,256,241,242,243,244,245,246,247,248,249,250,251,252,253,254,255,256,241,242,243,244,245,246,247,248,249,250,251,252,253,254,255,256,241,242,243,244,245,246,247,248,249,250,251,252,253,254,255,256,241,242,243,244,245,246,247,248,249,250,251,252,253,254,255,256,241,242,243,244,245,246,247,248,249,250,251,252,253,254,255,256,241,242,243,244,245,246,247,248,249,250,251,252,253,254,255,256,241,242,243,244,245,246,247,248,249,250,251,252,253,254,255,256,241,242,243,244,245,246,247,248,249,250,251,252,253,254,255,256,241,242,243,244,245,246,247,248,249,250,251,252,253,254,255,256,1,2,3,4,5,6,7,8,9,10,11,12,13,14,15,16,1,2,3,4,5,6,7,8,9,10,11,12,13,14,15,16,1,2,3,4,5,6,7,8,9,10,11,12,13,14,15,16,1,2,3,4,5,6,7,8,9,10,11,12,13,14,15,16,1,2,3,4,5,6,7,8,9,10,11,12,13,14,15,16,1,2,3,4,5,6,7,8,9,10,11,12,13,14,15,16,1,2,3,4,5,6,7,8,9,10,11,12,13,14,15,16,1,2,3,4,5,6,7,8,9,10,11,12,13,14,15,16,1,2,3,4,5,6,7,8,9,10,11,12,13,14,15,16,1,2,3,4,5,6,7,8,9,10,11,12,13,14,15,16,1,2,3,4,5,6,7,8,9,10,11,12,13,14,15,16,1,2,3,4,5,6,7,8,9,10,11,12,13,14,15,16,1,2,3,4,5,6,7,8,9,10,11,12,13,14,15,16,1,2,3,4,5,6,7,8,9,10,11,12,13,14,15,16,1,2,3,4,5,6,7,8,9,10,11,12,13,14,15,16,1,2,3,4,5,6,7,8,9,10,11,12,13,14,15,16,17,18,19,20,21,22,23,24,25,26,27,28,29,30,31,32,17,18,19,20,21,22,23,24,25,26,27,28,29,30,31,32,17,18,19,20,21,22,23,24,25,26,27,28,29,30,31,32,17,18,19,20,21,22,23,24,25,26,27,28,29,30,31,32,17,18,19,20,21,22,23,24,25,26,27,28,29,30,31,32,17,18,19,20,21,22,23,24,25,26,27,28,29,30,31,32,17,18,19,20,21,22,23,24,25,26,27,28,29,30,31,32,17,18,19,20,21,22,23,24,25,26,27,28,29,30,31,32,17,18,19,20,21,22,23,24,25,26,27,28,29,30,31,32,17,18,19,20,21,22,23,24,25,26,27,28,29,30,31,32,17,18,19,20,21,22,23,24,25,26,27,28,29,30,31,32,17,18,19,20,21,22,23,24,25,26,27,28,29,30,31,32,17,18,19,20,21,22,23,24,25,26,27,28,29,30,31,32,17,18,19,20,21,22,23,24,25,26,27,28,29,30,31,32,17,18,19,20,21,22,23,24,25,26,27,28,29,30,31,32,17,18,19,20,21,22,23,24,25,26,27,28,29,30,31,32,33,34,35,36,37,38,39,40,41,42,43,44,45,46,47,48,33,34,35,36,37,38,39,40,41,42,43,44,45,46,47,48,33,34,35,36,37,38,39,40,41,42,43,44,45,46,47,48,33,34,35,36,37,38,39,40,41,42,43,44,45,46,47,48,33,34,35,36,37,38,39,40,41,42,43,44,45,46,47,48,33,34,35,36,37,38,39,40,41,42,43,44,45,46,47,48,33,34,35,36,37,38,39,40,41,42,43,44,45,46,47,48,33,34,35,36,37,38,39,40,41,42,43,44,45,46,47,48,33,34,35,36,37,38,39,40,41,42,43,44,45,46,47,48,33,34,35,36,37,38,39,40,41,42,43,44,45,46,47,48,33,34,35,36,37,38,39,40,41,42,43,44,45,46,47,48,33,34,35,36,37,38,39,40,41,42,43,44,45,46,47,48,33,34,35,36,37,38,39,40,41,42,43,44,45,46,47,48,33,34,35,36,37,38,39,40,41,42,43,44,45,46,47,48,33,34,35,36,37,38,39,40,41,42,43,44,45,46,47,48,33,34,35,36,37,38,39,40,41,42,43,44,45,46,47,48,49,50,51,52,53,54,55,56,57,58,59,60,61,62,63,64,49,50,51,52,53,54,55,56,57,58,59,60,61,62,63,64,49,50,51,52,53,54,55,56,57,58,59,60,61,62,63,64,49,50,51,52,53,54,55,56,57,58,59,60,61,62,63,64,49,50,51,52,53,54,55,56,57,58,59,60,61,62,63,64,49,50,51,52,53,54,55,56,57,58,59,60,61,62,63,64,49,50,51,52,53,54,55,56,57,58,59,60,61,62,63,64,49,50,51,52,53,54,55,56,57,58,59,60,61,62,63,64,49,50,51,52,53,54,55,56,57,58,59,60,61,62,63,64,49,50,51,52,53,54,55,56,57,58,59,60,61,62,63,64,49,50,51,52,53,54,55,56,57,58,59,60,61,62,63,64,49,50,51,52,53,54,55,56,57,58,59,60,61,62,63,64,49,50,51,52,53,54,55,56,57,58,59,60,61,62,63,64,49,50,51,52,53,54,55,56,57,58,59,60,61,62,63,64,49,50,51,52,53,54,55,56,57,58,59,60,61,62,63,64,49,50,51,52,53,54,55,56,57,58,59,60,61,62,63,64,65,66,67,68,69,70,71,72,73,74,75,76,77,78,79,80,65,66,67,68,69,70,71,72,73,74,75,76,77,78,79,80,65,66,67,68,69,70,71,72,73,74,75,76,77,78,79,80,65,66,67,68,69,70,71,72,73,74,75,76,77,78,79,80,65,66,67,68,69,70,71,72,73,74,75,76,77,78,79,80,65,66,67,68,69,70,71,72,73,74,75,76,77,78,79,80,65,66,67,68,69,70,71,72,73,74,75,76,77,78,79,80,65,66,67,68,69,70,71,72,73,74,75,76,77,78,79,80,65,66,67,68,69,70,71,72,73,74,75,76,77,78,79,80,65,66,67,68,69,70,71,72,73,74,75,76,77,78,79,80,65,66,67,68,69,70,71,72,73,74,75,76,77,78,79,80,65,66,67,68,69,70,71,72,73,74,75,76,77,78,79,80,65,66,67,68,69,70,71,72,73,74,75,76,77,78,79,80,65,66,67,68,69,70,71,72,73,74,75,76,77,78,79,80,65,66,67,68,69,70,71,72,73,74,75,76,77,78,79,80,65,66,67,68,69,70,71,72,73,74,75,76,77,78,79,80,81,82,83,84,85,86,87,88,89,90,91,92,93,94,95,96,81,82,83,84,85,86,87,88,89,90,91,92,93,94,95,96,81,82,83,84,85,86,87,88,89,90,91,92,93,94,95,96,81,82,83,84,85,86,87,88,89,90,91,92,93,94,95,96,81,82,83,84,85,86,87,88,89,90,91,92,93,94,95,96,81,82,83,84,85,86,87,88,89,90,91,92,93,94,95,96,81,82,83,84,85,86,87,88,89,90,91,92,93,94,95,96,81,82,83,84,85,86,87,88,89,90,91,92,93,94,95,96,81,82,83,84,85,86,87,88,89,90,91,92,93,94,95,96,81,82,83,84,85,86,87,88,89,90,91,92,93,94,95,96,81,82,83,84,85,86,87,88,89,90,91,92,93,94,95,96,81,82,83,84,85,86,87,88,89,90,91,92,93,94,95,96,81,82,83,84,85,86,87,88,89,90,91,92,93,94,95,96,81,82,83,84,85,86,87,88,89,90,91,92,93,94,95,96,81,82,83,84,85,86,87,88,89,90,91,92,93,94,95,96,81,82,83,84,85,86,87,88,89,90,91,92,93,94,95,96,97,98,99,100,101,102,103,104,105,106,107,108,109,110,111,112,97,98,99,100,101,102,103,104,105,106,107,108,109,110,111,112,97,98,99,100,101,102,103,104,105,106,107,108,109,110,111,112,97,98,99,100,101,102,103,104,105,106,107,108,109,110,111,112,97,98,99,100,101,102,103,104,105,106,107,108,109,110,111,112,97,98,99,100,101,102,103,104,105,106,107,108,109,110,111,112,97,98,99,100,101,102,103,104,105,106,107,108,109,110,111,112,97,98,99,100,101,102,103,104,105,106,107,108,109,110,111,112,97,98,99,100,101,102,103,104,105,106,107,108,109,110,111,112,97,98,99,100,101,102,103,104,105,106,107,108,109,110,111,112,97,98,99,100,101,102,103,104,105,106,107,108,109,110,111,112,97,98,99,100,101,102,103,104,105,106,107,108,109,110,111,112,97,98,99,100,101,102,103,104,105,106,107,108,109,110,111,112,97,98,99,100,101,102,103,104,105,106,107,108,109,110,111,112,97,98,99,100,101,102,103,104,105,106,107,108,109,110,111,112,97,98,99,100,101,102,103,104,105,106,107,108,109,110,111,112,113,114,115,116,117,118,119,120,121,122,123,124,125,126,127,128,113,114,115,116,117,118,119,120,121,122,123,124,125,126,127,128,113,114,115,116,117,118,119,120,121,122,123,124,125,126,127,128,113,114,115,116,117,118,119,120,121,122,123,124,125,126,127,128,113,114,115,116,117,118,119,120,121,122,123,124,125,126,127,128,113,114,115,116,117,118,119,120,121,122,123,124,125,126,127,128,113,114,115,116,117,118,119,120,121,122,123,124,125,126,127,128,113,114,115,116,117,118,119,120,121,122,123,124,125,126,127,128,113,114,115,116,117,118,119,120,121,122,123,124,125,126,127,128,113,114,115,116,117,118,119,120,121,122,123,124,125,126,127,128,113,114,115,116,117,118,119,120,121,122,123,124,125,126,127,128,113,114,115,116,117,118,119,120,121,122,123,124,125,126,127,128,113,114,115,116,117,118,119,120,121,122,123,124,125,126,127,128,113,114,115,116,117,118,119,120,121,122,123,124,125,126,127,128,113,114,115,116,117,118,119,120,121,122,123,124,125,126,127,128,113,114,115,116,117,118,119,120,121,122,123,124,125,126,127,128,129,130,131,132,133,134,135,136,137,138,139,140,141,142,143,144,129,130,131,132,133,134,135,136,137,138,139,140,141,142,143,144,129,130,131,132,133,134,135,136,137,138,139,140,141,142,143,144,129,130,131,132,133,134,135,136,137,138,139,140,141,142,143,144,129,130,131,132,133,134,135,136,137,138,139,140,141,142,143,144,129,130,131,132,133,134,135,136,137,138,139,140,141,142,143,144,129,130,131,132,133,134,135,136,137,138,139,140,141,142,143,144,129,130,131,132,133,134,135,136,137,138,139,140,141,142,143,144,129,130,131,132,133,134,135,136,137,138,139,140,141,142,143,144,129,130,131,132,133,134,135,136,137,138,139,140,141,142,143,144,129,130,131,132,133,134,135,136,137,138,139,140,141,142,143,144,129,130,131,132,133,134,135,136,137,138,139,140,141,142,143,144,129,130,131,132,133,134,135,136,137,138,139,140,141,142,143,144,129,130,131,132,133,134,135,136,137,138,139,140,141,142,143,144,129,130,131,132,133,134,135,136,137,138,139,140,141,142,143,144,129,130,131,132,133,134,135,136,137,138,139,140,141,142,143,144,145,146,147,148,149,150,151,152,153,154,155,156,157,158,159,160,145,146,147,148,149,150,151,152,153,154,155,156,157,158,159,160,145,146,147,148,149,150,151,152,153,154,155,156,157,158,159,160,145,146,147,148,149,150,151,152,153,154,155,156,157,158,159,160,145,146,147,148,149,150,151,152,153,154,155,156,157,158,159,160,145,146,147,148,149,150,151,152,153,154,155,156,157,158,159,160,145,146,147,148,149,150,151,152,153,154,155,156,157,158,159,160,145,146,147,148,149,150,151,152,153,154,155,156,157,158,159,160,145,146,147,148,149,150,151,152,153,154,155,156,157,158,159,160,145,146,147,148,149,150,151,152,153,154,155,156,157,158,159,160,145,146,147,148,149,150,151,152,153,154,155,156,157,158,159,160,145,146,147,148,149,150,151,152,153,154,155,156,157,158,159,160,145,146,147,148,149,150,151,152,153,154,155,156,157,158,159,160,145,146,147,148,149,150,151,152,153,154,155,156,157,158,159,160,145,146,147,148,149,150,151,152,153,154,155,156,157,158,159,160,145,146,147,148,149,150,151,152,153,154,155,156,157,158,159,160,161,162,163,164,165,166,167,168,169,170,171,172,173,174,175,176,161,162,163,164,165,166,167,168,169,170,171,172,173,174,175,176,161,162,163,164,165,166,167,168,169,170,171,172,173,174,175,176,161,162,163,164,165,166,167,168,169,170,171,172,173,174,175,176,161,162,163,164,165,166,167,168,169,170,171,172,173,174,175,176,161,162,163,164,165,166,167,168,169,170,171,172,173,174,175,176,161,162,163,164,165,166,167,168,169,170,171,172,173,174,175,176,161,162,163,164,165,166,167,168,169,170,171,172,173,174,175,176,161,162,163,164,165,166,167,168,169,170,171,172,173,174,175,176,161,162,163,164,165,166,167,168,169,170,171,172,173,174,175,176,161,162,163,164,165,166,167,168,169,170,171,172,173,174,175,176,161,162,163,164,165,166,167,168,169,170,171,172,173,174,175,176,161,162,163,164,165,166,167,168,169,170,171,172,173,174,175,176,161,162,163,164,165,166,167,168,169,170,171,172,173,174,175,176,161,162,163,164,165,166,167,168,169,170,171,172,173,174,175,176,161,162,163,164,165,166,167,168,169,170,171,172,173,174,175,176,177,178,179,180,181,182,183,184,185,186,187,188,189,190,191,192,177,178,179,180,181,182,183,184,185,186,187,188,189,190,191,192,177,178,179,180,181,182,183,184,185,186,187,188,189,190,191,192,177,178,179,180,181,182,183,184,185,186,187,188,189,190,191,192,177,178,179,180,181,182,183,184,185,186,187,188,189,190,191,192,177,178,179,180,181,182,183,184,185,186,187,188,189,190,191,192,177,178,179,180,181,182,183,184,185,186,187,188,189,190,191,192,177,178,179,180,181,182,183,184,185,186,187,188,189,190,191,192,177,178,179,180,181,182,183,184,185,186,187,188,189,190,191,192,177,178,179,180,181,182,183,184,185,186,187,188,189,190,191,192,177,178,179,180,181,182,183,184,185,186,187,188,189,190,191,192,177,178,179,180,181,182,183,184,185,186,187,188,189,190,191,192,177,178,179,180,181,182,183,184,185,186,187,188,189,190,191,192,177,178,179,180,181,182,183,184,185,186,187,188,189,190,191,192,177,178,179,180,181,182,183,184,185,186,187,188,189,190,191,192,177,178,179,180,181,182,183,184,185,186,187,188,189,190,191,192,193,194,195,196,197,198,199,200,201,202,203,204,205,206,207,208,193,194,195,196,197,198,199,200,201,202,203,204,205,206,207,208,193,194,195,196,197,198,199,200,201,202,203,204,205,206,207,208,193,194,195,196,197,198,199,200,201,202,203,204,205,206,207,208,193,194,195,196,197,198,199,200,201,202,203,204,205,206,207,208,193,194,195,196,197,198,199,200,201,202,203,204,205,206,207,208,193,194,195,196,197,198,199,200,201,202,203,204,205,206,207,208,193,194,195,196,197,198,199,200,201,202,203,204,205,206,207,208,193,194,195,196,197,198,199,200,201,202,203,204,205,206,207,208,193,194,195,196,197,198,199,200,201,202,203,204,205,206,207,208,193,194,195,196,197,198,199,200,201,202,203,204,205,206,207,208,193,194,195,196,197,198,199,200,201,202,203,204,205,206,207,208,193,194,195,196,197,198,199,200,201,202,203,204,205,206,207,208,193,194,195,196,197,198,199,200,201,202,203,204,205,206,207,208,193,194,195,196,197,198,199,200,201,202,203,204,205,206,207,208,193,194,195,196,197,198,199,200,201,202,203,204,205,206,207,208,209,210,211,212,213,214,215,216,217,218,219,220,221,222,223,224,209,210,211,212,213,214,215,216,217,218,219,220,221,222,223,224,209,210,211,212,213,214,215,216,217,218,219,220,221,222,223,224,209,210,211,212,213,214,215,216,217,218,219,220,221,222,223,224,209,210,211,212,213,214,215,216,217,218,219,220,221,222,223,224,209,210,211,212,213,214,215,216,217,218,219,220,221,222,223,224,209,210,211,212,213,214,215,216,217,218,219,220,221,222,223,224,209,210,211,212,213,214,215,216,217,218,219,220,221,222,223,224,209,210,211,212,213,214,215,216,217,218,219,220,221,222,223,224,209,210,211,212,213,214,215,216,217,218,219,220,221,222,223,224,209,210,211,212,213,214,215,216,217,218,219,220,221,222,223,224,209,210,211,212,213,214,215,216,217,218,219,220,221,222,223,224,209,210,211,212,213,214,215,216,217,218,219,220,221,222,223,224,209,210,211,212,213,214,215,216,217,218,219,220,221,222,223,224,209,210,211,212,213,214,215,216,217,218,219,220,221,222,223,224,209,210,211,212,213,214,215,216,217,218,219,220,221,222,223,224,225,226,227,228,229,230,231,232,233,234,235,236,237,238,239,240,225,226,227,228,229,230,231,232,233,234,235,236,237,238,239,240,225,226,227,228,229,230,231,232,233,234,235,236,237,238,239,240,225,226,227,228,229,230,231,232,233,234,235,236,237,238,239,240,225,226,227,228,229,230,231,232,233,234,235,236,237,238,239,240,225,226,227,228,229,230,231,232,233,234,235,236,237,238,239,240,225,226,227,228,229,230,231,232,233,234,235,236,237,238,239,240,225,226,227,228,229,230,231,232,233,234,235,236,237,238,239,240,225,226,227,228,229,230,231,232,233,234,235,236,237,238,239,240,225,226,227,228,229,230,231,232,233,234,235,236,237,238,239,240,225,226,227,228,229,230,231,232,233,234,235,236,237,238,239,240,225,226,227,228,229,230,231,232,233,234,235,236,237,238,239,240,225,226,227,228,229,230,231,232,233,234,235,236,237,238,239,240,225,226,227,228,229,230,231,232,233,234,235,236,237,238,239,240,225,226,227,228,229,230,231,232,233,234,235,236,237,238,239,240,225,226,227,228,229,230,231,232,233,234,235,236,237,238,239,240,241,242,243,244,245,246,247,248,249,250,251,252,253,254,255,256,241,242,243,244,245,246,247,248,249,250,251,252,253,254,255,256,241,242,243,244,245,246,247,248,249,250,251,252,253,254,255,256,241,242,243,244,245,246,247,248,249,250,251,252,253,254,255,256,241,242,243,244,245,246,247,248,249,250,251,252,253,254,255,256,241,242,243,244,245,246,247,248,249,250,251,252,253,254,255,256,241,242,243,244,245,246,247,248,249,250,251,252,253,254,255,256,241,242,243,244,245,246,247,248,249,250,251,252,253,254,255,256,241,242,243,244,245,246,247,248,249,250,251,252,253,254,255,256,241,242,243,244,245,246,247,248,249,250,251,252,253,254,255,256,241,242,243,244,245,246,247,248,249,250,251,252,253,254,255,256,241,242,243,244,245,246,247,248,249,250,251,252,253,254,255,256,241,242,243,244,245,246,247,248,249,250,251,252,253,254,255,256,241,242,243,244,245,246,247,248,249,250,251,252,253,254,255,256,241,242,243,244,245,246,247,248,249,250,251,252,253,254,255,256,241,242,243,244,245,246,247,248,249,250,251,252,253,254,255,256,1,2,3,4,5,6,7,8,9,10,11,12,13,14,15,16,1,2,3,4,5,6,7,8,9,10,11,12,13,14,15,16,1,2,3,4,5,6,7,8,9,10,11,12,13,14,15,16,1,2,3,4,5,6,7,8,9,10,11,12,13,14,15,16,1,2,3,4,5,6,7,8,9,10,11,12,13,14,15,16,1,2,3,4,5,6,7,8,9,10,11,12,13,14,15,16,1,2,3,4,5,6,7,8,9,10,11,12,13,14,15,16,1,2,3,4,5,6,7,8,9,10,11,12,13,14,15,16,1,2,3,4,5,6,7,8,9,10,11,12,13,14,15,16,1,2,3,4,5,6,7,8,9,10,11,12,13,14,15,16,1,2,3,4,5,6,7,8,9,10,11,12,13,14,15,16,1,2,3,4,5,6,7,8,9,10,11,12,13,14,15,16,1,2,3,4,5,6,7,8,9,10,11,12,13,14,15,16,1,2,3,4,5,6,7,8,9,10,11,12,13,14,15,16,1,2,3,4,5,6,7,8,9,10,11,12,13,14,15,16,1,2,3,4,5,6,7,8,9,10,11,12,13,14,15,16,17,18,19,20,21,22,23,24,25,26,27,28,29,30,31,32,17,18,19,20,21,22,23,24,25,26,27,28,29,30,31,32,17,18,19,20,21,22,23,24,25,26,27,28,29,30,31,32,17,18,19,20,21,22,23,24,25,26,27,28,29,30,31,32,17,18,19,20,21,22,23,24,25,26,27,28,29,30,31,32,17,18,19,20,21,22,23,24,25,26,27,28,29,30,31,32,17,18,19,20,21,22,23,24,25,26,27,28,29,30,31,32,17,18,19,20,21,22,23,24,25,26,27,28,29,30,31,32,17,18,19,20,21,22,23,24,25,26,27,28,29,30,31,32,17,18,19,20,21,22,23,24,25,26,27,28,29,30,31,32,17,18,19,20,21,22,23,24,25,26,27,28,29,30,31,32,17,18,19,20,21,22,23,24,25,26,27,28,29,30,31,32,17,18,19,20,21,22,23,24,25,26,27,28,29,30,31,32,17,18,19,20,21,22,23,24,25,26,27,28,29,30,31,32,17,18,19,20,21,22,23,24,25,26,27,28,29,30,31,32,17,18,19,20,21,22,23,24,25,26,27,28,29,30,31,32,33,34,35,36,37,38,39,40,41,42,43,44,45,46,47,48,33,34,35,36,37,38,39,40,41,42,43,44,45,46,47,48,33,34,35,36,37,38,39,40,41,42,43,44,45,46,47,48,33,34,35,36,37,38,39,40,41,42,43,44,45,46,47,48,33,34,35,36,37,38,39,40,41,42,43,44,45,46,47,48,33,34,35,36,37,38,39,40,41,42,43,44,45,46,47,48,33,34,35,36,37,38,39,40,41,42,43,44,45,46,47,48,33,34,35,36,37,38,39,40,41,42,43,44,45,46,47,48,33,34,35,36,37,38,39,40,41,42,43,44,45,46,47,48,33,34,35,36,37,38,39,40,41,42,43,44,45,46,47,48,33,34,35,36,37,38,39,40,41,42,43,44,45,46,47,48,33,34,35,36,37,38,39,40,41,42,43,44,45,46,47,48,33,34,35,36,37,38,39,40,41,42,43,44,45,46,47,48,33,34,35,36,37,38,39,40,41,42,43,44,45,46,47,48,33,34,35,36,37,38,39,40,41,42,43,44,45,46,47,48,33,34,35,36,37,38,39,40,41,42,43,44,45,46,47,48,49,50,51,52,53,54,55,56,57,58,59,60,61,62,63,64,49,50,51,52,53,54,55,56,57,58,59,60,61,62,63,64,49,50,51,52,53,54,55,56,57,58,59,60,61,62,63,64,49,50,51,52,53,54,55,56,57,58,59,60,61,62,63,64,49,50,51,52,53,54,55,56,57,58,59,60,61,62,63,64,49,50,51,52,53,54,55,56,57,58,59,60,61,62,63,64,49,50,51,52,53,54,55,56,57,58,59,60,61,62,63,64,49,50,51,52,53,54,55,56,57,58,59,60,61,62,63,64,49,50,51,52,53,54,55,56,57,58,59,60,61,62,63,64,49,50,51,52,53,54,55,56,57,58,59,60,61,62,63,64,49,50,51,52,53,54,55,56,57,58,59,60,61,62,63,64,49,50,51,52,53,54,55,56,57,58,59,60,61,62,63,64,49,50,51,52,53,54,55,56,57,58,59,60,61,62,63,64,49,50,51,52,53,54,55,56,57,58,59,60,61,62,63,64,49,50,51,52,53,54,55,56,57,58,59,60,61,62,63,64,49,50,51,52,53,54,55,56,57,58,59,60,61,62,63,64,65,66,67,68,69,70,71,72,73,74,75,76,77,78,79,80,65,66,67,68,69,70,71,72,73,74,75,76,77,78,79,80,65,66,67,68,69,70,71,72,73,74,75,76,77,78,79,80,65,66,67,68,69,70,71,72,73,74,75,76,77,78,79,80,65,66,67,68,69,70,71,72,73,74,75,76,77,78,79,80,65,66,67,68,69,70,71,72,73,74,75,76,77,78,79,80,65,66,67,68,69,70,71,72,73,74,75,76,77,78,79,80,65,66,67,68,69,70,71,72,73,74,75,76,77,78,79,80,65,66,67,68,69,70,71,72,73,74,75,76,77,78,79,80,65,66,67,68,69,70,71,72,73,74,75,76,77,78,79,80,65,66,67,68,69,70,71,72,73,74,75,76,77,78,79,80,65,66,67,68,69,70,71,72,73,74,75,76,77,78,79,80,65,66,67,68,69,70,71,72,73,74,75,76,77,78,79,80,65,66,67,68,69,70,71,72,73,74,75,76,77,78,79,80,65,66,67,68,69,70,71,72,73,74,75,76,77,78,79,80,65,66,67,68,69,70,71,72,73,74,75,76,77,78,79,80,81,82,83,84,85,86,87,88,89,90,91,92,93,94,95,96,81,82,83,84,85,86,87,88,89,90,91,92,93,94,95,96,81,82,83,84,85,86,87,88,89,90,91,92,93,94,95,96,81,82,83,84,85,86,87,88,89,90,91,92,93,94,95,96,81,82,83,84,85,86,87,88,89,90,91,92,93,94,95,96,81,82,83,84,85,86,87,88,89,90,91,92,93,94,95,96,81,82,83,84,85,86,87,88,89,90,91,92,93,94,95,96,81,82,83,84,85,86,87,88,89,90,91,92,93,94,95,96,81,82,83,84,85,86,87,88,89,90,91,92,93,94,95,96,81,82,83,84,85,86,87,88,89,90,91,92,93,94,95,96,81,82,83,84,85,86,87,88,89,90,91,92,93,94,95,96,81,82,83,84,85,86,87,88,89,90,91,92,93,94,95,96,81,82,83,84,85,86,87,88,89,90,91,92,93,94,95,96,81,82,83,84,85,86,87,88,89,90,91,92,93,94,95,96,81,82,83,84,85,86,87,88,89,90,91,92,93,94,95,96,81,82,83,84,85,86,87,88,89,90,91,92,93,94,95,96,97,98,99,100,101,102,103,104,105,106,107,108,109,110,111,112,97,98,99,100,101,102,103,104,105,106,107,108,109,110,111,112,97,98,99,100,101,102,103,104,105,106,107,108,109,110,111,112,97,98,99,100,101,102,103,104,105,106,107,108,109,110,111,112,97,98,99,100,101,102,103,104,105,106,107,108,109,110,111,112,97,98,99,100,101,102,103,104,105,106,107,108,109,110,111,112,97,98,99,100,101,102,103,104,105,106,107,108,109,110,111,112,97,98,99,100,101,102,103,104,105,106,107,108,109,110,111,112,97,98,99,100,101,102,103,104,105,106,107,108,109,110,111,112,97,98,99,100,101,102,103,104,105,106,107,108,109,110,111,112,97,98,99,100,101,102,103,104,105,106,107,108,109,110,111,112,97,98,99,100,101,102,103,104,105,106,107,108,109,110,111,112,97,98,99,100,101,102,103,104,105,106,107,108,109,110,111,112,97,98,99,100,101,102,103,104,105,106,107,108,109,110,111,112,97,98,99,100,101,102,103,104,105,106,107,108,109,110,111,112,97,98,99,100,101,102,103,104,105,106,107,108,109,110,111,112,113,114,115,116,117,118,119,120,121,122,123,124,125,126,127,128,113,114,115,116,117,118,119,120,121,122,123,124,125,126,127,128,113,114,115,116,117,118,119,120,121,122,123,124,125,126,127,128,113,114,115,116,117,118,119,120,121,122,123,124,125,126,127,128,113,114,115,116,117,118,119,120,121,122,123,124,125,126,127,128,113,114,115,116,117,118,119,120,121,122,123,124,125,126,127,128,113,114,115,116,117,118,119,120,121,122,123,124,125,126,127,128,113,114,115,116,117,118,119,120,121,122,123,124,125,126,127,128,113,114,115,116,117,118,119,120,121,122,123,124,125,126,127,128,113,114,115,116,117,118,119,120,121,122,123,124,125,126,127,128,113,114,115,116,117,118,119,120,121,122,123,124,125,126,127,128,113,114,115,116,117,118,119,120,121,122,123,124,125,126,127,128,113,114,115,116,117,118,119,120,121,122,123,124,125,126,127,128,113,114,115,116,117,118,119,120,121,122,123,124,125,126,127,128,113,114,115,116,117,118,119,120,121,122,123,124,125,126,127,128,113,114,115,116,117,118,119,120,121,122,123,124,125,126,127,128,129,130,131,132,133,134,135,136,137,138,139,140,141,142,143,144,129,130,131,132,133,134,135,136,137,138,139,140,141,142,143,144,129,130,131,132,133,134,135,136,137,138,139,140,141,142,143,144,129,130,131,132,133,134,135,136,137,138,139,140,141,142,143,144,129,130,131,132,133,134,135,136,137,138,139,140,141,142,143,144,129,130,131,132,133,134,135,136,137,138,139,140,141,142,143,144,129,130,131,132,133,134,135,136,137,138,139,140,141,142,143,144,129,130,131,132,133,134,135,136,137,138,139,140,141,142,143,144,129,130,131,132,133,134,135,136,137,138,139,140,141,142,143,144,129,130,131,132,133,134,135,136,137,138,139,140,141,142,143,144,129,130,131,132,133,134,135,136,137,138,139,140,141,142,143,144,129,130,131,132,133,134,135,136,137,138,139,140,141,142,143,144,129,130,131,132,133,134,135,136,137,138,139,140,141,142,143,144,129,130,131,132,133,134,135,136,137,138,139,140,141,142,143,144,129,130,131,132,133,134,135,136,137,138,139,140,141,142,143,144,129,130,131,132,133,134,135,136,137,138,139,140,141,142,143,144,145,146,147,148,149,150,151,152,153,154,155,156,157,158,159,160,145,146,147,148,149,150,151,152,153,154,155,156,157,158,159,160,145,146,147,148,149,150,151,152,153,154,155,156,157,158,159,160,145,146,147,148,149,150,151,152,153,154,155,156,157,158,159,160,145,146,147,148,149,150,151,152,153,154,155,156,157,158,159,160,145,146,147,148,149,150,151,152,153,154,155,156,157,158,159,160,145,146,147,148,149,150,151,152,153,154,155,156,157,158,159,160,145,146,147,148,149,150,151,152,153,154,155,156,157,158,159,160,145,146,147,148,149,150,151,152,153,154,155,156,157,158,159,160,145,146,147,148,149,150,151,152,153,154,155,156,157,158,159,160,145,146,147,148,149,150,151,152,153,154,155,156,157,158,159,160,145,146,147,148,149,150,151,152,153,154,155,156,157,158,159,160,145,146,147,148,149,150,151,152,153,154,155,156,157,158,159,160,145,146,147,148,149,150,151,152,153,154,155,156,157,158,159,160,145,146,147,148,149,150,151,152,153,154,155,156,157,158,159,160,145,146,147,148,149,150,151,152,153,154,155,156,157,158,159,160,161,162,163,164,165,166,167,168,169,170,171,172,173,174,175,176,161,162,163,164,165,166,167,168,169,170,171,172,173,174,175,176,161,162,163,164,165,166,167,168,169,170,171,172,173,174,175,176,161,162,163,164,165,166,167,168,169,170,171,172,173,174,175,176,161,162,163,164,165,166,167,168,169,170,171,172,173,174,175,176,161,162,163,164,165,166,167,168,169,170,171,172,173,174,175,176,161,162,163,164,165,166,167,168,169,170,171,172,173,174,175,176,161,162,163,164,165,166,167,168,169,170,171,172,173,174,175,176,161,162,163,164,165,166,167,168,169,170,171,172,173,174,175,176,161,162,163,164,165,166,167,168,169,170,171,172,173,174,175,176,161,162,163,164,165,166,167,168,169,170,171,172,173,174,175,176,161,162,163,164,165,166,167,168,169,170,171,172,173,174,175,176,161,162,163,164,165,166,167,168,169,170,171,172,173,174,175,176,161,162,163,164,165,166,167,168,169,170,171,172,173,174,175,176,161,162,163,164,165,166,167,168,169,170,171,172,173,174,175,176,161,162,163,164,165,166,167,168,169,170,171,172,173,174,175,176,177,178,179,180,181,182,183,184,185,186,187,188,189,190,191,192,177,178,179,180,181,182,183,184,185,186,187,188,189,190,191,192,177,178,179,180,181,182,183,184,185,186,187,188,189,190,191,192,177,178,179,180,181,182,183,184,185,186,187,188,189,190,191,192,177,178,179,180,181,182,183,184,185,186,187,188,189,190,191,192,177,178,179,180,181,182,183,184,185,186,187,188,189,190,191,192,177,178,179,180,181,182,183,184,185,186,187,188,189,190,191,192,177,178,179,180,181,182,183,184,185,186,187,188,189,190,191,192,177,178,179,180,181,182,183,184,185,186,187,188,189,190,191,192,177,178,179,180,181,182,183,184,185,186,187,188,189,190,191,192,177,178,179,180,181,182,183,184,185,186,187,188,189,190,191,192,177,178,179,180,181,182,183,184,185,186,187,188,189,190,191,192,177,178,179,180,181,182,183,184,185,186,187,188,189,190,191,192,177,178,179,180,181,182,183,184,185,186,187,188,189,190,191,192,177,178,179,180,181,182,183,184,185,186,187,188,189,190,191,192,177,178,179,180,181,182,183,184,185,186,187,188,189,190,191,192,193,194,195,196,197,198,199,200,201,202,203,204,205,206,207,208,193,194,195,196,197,198,199,200,201,202,203,204,205,206,207,208,193,194,195,196,197,198,199,200,201,202,203,204,205,206,207,208,193,194,195,196,197,198,199,200,201,202,203,204,205,206,207,208,193,194,195,196,197,198,199,200,201,202,203,204,205,206,207,208,193,194,195,196,197,198,199,200,201,202,203,204,205,206,207,208,193,194,195,196,197,198,199,200,201,202,203,204,205,206,207,208,193,194,195,196,197,198,199,200,201,202,203,204,205,206,207,208,193,194,195,196,197,198,199,200,201,202,203,204,205,206,207,208,193,194,195,196,197,198,199,200,201,202,203,204,205,206,207,208,193,194,195,196,197,198,199,200,201,202,203,204,205,206,207,208,193,194,195,196,197,198,199,200,201,202,203,204,205,206,207,208,193,194,195,196,197,198,199,200,201,202,203,204,205,206,207,208,193,194,195,196,197,198,199,200,201,202,203,204,205,206,207,208,193,194,195,196,197,198,199,200,201,202,203,204,205,206,207,208,193,194,195,196,197,198,199,200,201,202,203,204,205,206,207,208,209,210,211,212,213,214,215,216,217,218,219,220,221,222,223,224,209,210,211,212,213,214,215,216,217,218,219,220,221,222,223,224,209,210,211,212,213,214,215,216,217,218,219,220,221,222,223,224,209,210,211,212,213,214,215,216,217,218,219,220,221,222,223,224,209,210,211,212,213,214,215,216,217,218,219,220,221,222,223,224,209,210,211,212,213,214,215,216,217,218,219,220,221,222,223,224,209,210,211,212,213,214,215,216,217,218,219,220,221,222,223,224,209,210,211,212,213,214,215,216,217,218,219,220,221,222,223,224,209,210,211,212,213,214,215,216,217,218,219,220,221,222,223,224,209,210,211,212,213,214,215,216,217,218,219,220,221,222,223,224,209,210,211,212,213,214,215,216,217,218,219,220,221,222,223,224,209,210,211,212,213,214,215,216,217,218,219,220,221,222,223,224,209,210,211,212,213,214,215,216,217,218,219,220,221,222,223,224,209,210,211,212,213,214,215,216,217,218,219,220,221,222,223,224,209,210,211,212,213,214,215,216,217,218,219,220,221,222,223,224,209,210,211,212,213,214,215,216,217,218,219,220,221,222,223,224,225,226,227,228,229,230,231,232,233,234,235,236,237,238,239,240,225,226,227,228,229,230,231,232,233,234,235,236,237,238,239,240,225,226,227,228,229,230,231,232,233,234,235,236,237,238,239,240,225,226,227,228,229,230,231,232,233,234,235,236,237,238,239,240,225,226,227,228,229,230,231,232,233,234,235,236,237,238,239,240,225,226,227,228,229,230,231,232,233,234,235,236,237,238,239,240,225,226,227,228,229,230,231,232,233,234,235,236,237,238,239,240,225,226,227,228,229,230,231,232,233,234,235,236,237,238,239,240,225,226,227,228,229,230,231,232,233,234,235,236,237,238,239,240,225,226,227,228,229,230,231,232,233,234,235,236,237,238,239,240,225,226,227,228,229,230,231,232,233,234,235,236,237,238,239,240,225,226,227,228,229,230,231,232,233,234,235,236,237,238,239,240,225,226,227,228,229,230,231,232,233,234,235,236,237,238,239,240,225,226,227,228,229,230,231,232,233,234,235,236,237,238,239,240,225,226,227,228,229,230,231,232,233,234,235,236,237,238,239,240,225,226,227,228,229,230,231,232,233,234,235,236,237,238,239,240,241,242,243,244,245,246,247,248,249,250,251,252,253,254,255,256,241,242,243,244,245,246,247,248,249,250,251,252,253,254,255,256,241,242,243,244,245,246,247,248,249,250,251,252,253,254,255,256,241,242,243,244,245,246,247,248,249,250,251,252,253,254,255,256,241,242,243,244,245,246,247,248,249,250,251,252,253,254,255,256,241,242,243,244,245,246,247,248,249,250,251,252,253,254,255,256,241,242,243,244,245,246,247,248,249,250,251,252,253,254,255,256,241,242,243,244,245,246,247,248,249,250,251,252,253,254,255,256,241,242,243,244,245,246,247,248,249,250,251,252,253,254,255,256,241,242,243,244,245,246,247,248,249,250,251,252,253,254,255,256,241,242,243,244,245,246,247,248,249,250,251,252,253,254,255,256,241,242,243,244,245,246,247,248,249,250,251,252,253,254,255,256,241,242,243,244,245,246,247,248,249,250,251,252,253,254,255,256,241,242,243,244,245,246,247,248,249,250,251,252,253,254,255,256,241,242,243,244,245,246,247,248,249,250,251,252,253,254,255,256,241,242,243,244,245,246,247,248,249,250,251,252,253,254,255,256,1,2,3,4,5,6,7,8,9,10,11,12,13,14,15,16,1,2,3,4,5,6,7,8,9,10,11,12,13,14,15,16,1,2,3,4,5,6,7,8,9,10,11,12,13,14,15,16,1,2,3,4,5,6,7,8,9,10,11,12,13,14,15,16,1,2,3,4,5,6,7,8,9,10,11,12,13,14,15,16,1,2,3,4,5,6,7,8,9,10,11,12,13,14,15,16,1,2,3,4,5,6,7,8,9,10,11,12,13,14,15,16,1,2,3,4,5,6,7,8,9,10,11,12,13,14,15,16,1,2,3,4,5,6,7,8,9,10,11,12,13,14,15,16,1,2,3,4,5,6,7,8,9,10,11,12,13,14,15,16,1,2,3,4,5,6,7,8,9,10,11,12,13,14,15,16,1,2,3,4,5,6,7,8,9,10,11,12,13,14,15,16,1,2,3,4,5,6,7,8,9,10,11,12,13,14,15,16,1,2,3,4,5,6,7,8,9,10,11,12,13,14,15,16,1,2,3,4,5,6,7,8,9,10,11,12,13,14,15,16,1,2,3,4,5,6,7,8,9,10,11,12,13,14,15,16,17,18,19,20,21,22,23,24,25,26,27,28,29,30,31,32,17,18,19,20,21,22,23,24,25,26,27,28,29,30,31,32,17,18,19,20,21,22,23,24,25,26,27,28,29,30,31,32,17,18,19,20,21,22,23,24,25,26,27,28,29,30,31,32,17,18,19,20,21,22,23,24,25,26,27,28,29,30,31,32,17,18,19,20,21,22,23,24,25,26,27,28,29,30,31,32,17,18,19,20,21,22,23,24,25,26,27,28,29,30,31,32,17,18,19,20,21,22,23,24,25,26,27,28,29,30,31,32,17,18,19,20,21,22,23,24,25,26,27,28,29,30,31,32,17,18,19,20,21,22,23,24,25,26,27,28,29,30,31,32,17,18,19,20,21,22,23,24,25,26,27,28,29,30,31,32,17,18,19,20,21,22,23,24,25,26,27,28,29,30,31,32,17,18,19,20,21,22,23,24,25,26,27,28,29,30,31,32,17,18,19,20,21,22,23,24,25,26,27,28,29,30,31,32,17,18,19,20,21,22,23,24,25,26,27,28,29,30,31,32,17,18,19,20,21,22,23,24,25,26,27,28,29,30,31,32,33,34,35,36,37,38,39,40,41,42,43,44,45,46,47,48,33,34,35,36,37,38,39,40,41,42,43,44,45,46,47,48,33,34,35,36,37,38,39,40,41,42,43,44,45,46,47,48,33,34,35,36,37,38,39,40,41,42,43,44,45,46,47,48,33,34,35,36,37,38,39,40,41,42,43,44,45,46,47,48,33,34,35,36,37,38,39,40,41,42,43,44,45,46,47,48,33,34,35,36,37,38,39,40,41,42,43,44,45,46,47,48,33,34,35,36,37,38,39,40,41,42,43,44,45,46,47,48,33,34,35,36,37,38,39,40,41,42,43,44,45,46,47,48,33,34,35,36,37,38,39,40,41,42,43,44,45,46,47,48,33,34,35,36,37,38,39,40,41,42,43,44,45,46,47,48,33,34,35,36,37,38,39,40,41,42,43,44,45,46,47,48,33,34,35,36,37,38,39,40,41,42,43,44,45,46,47,48,33,34,35,36,37,38,39,40,41,42,43,44,45,46,47,48,33,34,35,36,37,38,39,40,41,42,43,44,45,46,47,48,33,34,35,36,37,38,39,40,41,42,43,44,45,46,47,48,49,50,51,52,53,54,55,56,57,58,59,60,61,62,63,64,49,50,51,52,53,54,55,56,57,58,59,60,61,62,63,64,49,50,51,52,53,54,55,56,57,58,59,60,61,62,63,64,49,50,51,52,53,54,55,56,57,58,59,60,61,62,63,64,49,50,51,52,53,54,55,56,57,58,59,60,61,62,63,64,49,50,51,52,53,54,55,56,57,58,59,60,61,62,63,64,49,50,51,52,53,54,55,56,57,58,59,60,61,62,63,64,49,50,51,52,53,54,55,56,57,58,59,60,61,62,63,64,49,50,51,52,53,54,55,56,57,58,59,60,61,62,63,64,49,50,51,52,53,54,55,56,57,58,59,60,61,62,63,64,49,50,51,52,53,54,55,56,57,58,59,60,61,62,63,64,49,50,51,52,53,54,55,56,57,58,59,60,61,62,63,64,49,50,51,52,53,54,55,56,57,58,59,60,61,62,63,64,49,50,51,52,53,54,55,56,57,58,59,60,61,62,63,64,49,50,51,52,53,54,55,56,57,58,59,60,61,62,63,64,49,50,51,52,53,54,55,56,57,58,59,60,61,62,63,64,65,66,67,68,69,70,71,72,73,74,75,76,77,78,79,80,65,66,67,68,69,70,71,72,73,74,75,76,77,78,79,80,65,66,67,68,69,70,71,72,73,74,75,76,77,78,79,80,65,66,67,68,69,70,71,72,73,74,75,76,77,78,79,80,65,66,67,68,69,70,71,72,73,74,75,76,77,78,79,80,65,66,67,68,69,70,71,72,73,74,75,76,77,78,79,80,65,66,67,68,69,70,71,72,73,74,75,76,77,78,79,80,65,66,67,68,69,70,71,72,73,74,75,76,77,78,79,80,65,66,67,68,69,70,71,72,73,74,75,76,77,78,79,80,65,66,67,68,69,70,71,72,73,74,75,76,77,78,79,80,65,66,67,68,69,70,71,72,73,74,75,76,77,78,79,80,65,66,67,68,69,70,71,72,73,74,75,76,77,78,79,80,65,66,67,68,69,70,71,72,73,74,75,76,77,78,79,80,65,66,67,68,69,70,71,72,73,74,75,76,77,78,79,80,65,66,67,68,69,70,71,72,73,74,75,76,77,78,79,80,65,66,67,68,69,70,71,72,73,74,75,76,77,78,79,80,81,82,83,84,85,86,87,88,89,90,91,92,93,94,95,96,81,82,83,84,85,86,87,88,89,90,91,92,93,94,95,96,81,82,83,84,85,86,87,88,89,90,91,92,93,94,95,96,81,82,83,84,85,86,87,88,89,90,91,92,93,94,95,96,81,82,83,84,85,86,87,88,89,90,91,92,93,94,95,96,81,82,83,84,85,86,87,88,89,90,91,92,93,94,95,96,81,82,83,84,85,86,87,88,89,90,91,92,93,94,95,96,81,82,83,84,85,86,87,88,89,90,91,92,93,94,95,96,81,82,83,84,85,86,87,88,89,90,91,92,93,94,95,96,81,82,83,84,85,86,87,88,89,90,91,92,93,94,95,96,81,82,83,84,85,86,87,88,89,90,91,92,93,94,95,96,81,82,83,84,85,86,87,88,89,90,91,92,93,94,95,96,81,82,83,84,85,86,87,88,89,90,91,92,93,94,95,96,81,82,83,84,85,86,87,88,89,90,91,92,93,94,95,96,81,82,83,84,85,86,87,88,89,90,91,92,93,94,95,96,81,82,83,84,85,86,87,88,89,90,91,92,93,94,95,96,97,98,99,100,101,102,103,104,105,106,107,108,109,110,111,112,97,98,99,100,101,102,103,104,105,106,107,108,109,110,111,112,97,98,99,100,101,102,103,104,105,106,107,108,109,110,111,112,97,98,99,100,101,102,103,104,105,106,107,108,109,110,111,112,97,98,99,100,101,102,103,104,105,106,107,108,109,110,111,112,97,98,99,100,101,102,103,104,105,106,107,108,109,110,111,112,97,98,99,100,101,102,103,104,105,106,107,108,109,110,111,112,97,98,99,100,101,102,103,104,105,106,107,108,109,110,111,112,97,98,99,100,101,102,103,104,105,106,107,108,109,110,111,112,97,98,99,100,101,102,103,104,105,106,107,108,109,110,111,112,97,98,99,100,101,102,103,104,105,106,107,108,109,110,111,112,97,98,99,100,101,102,103,104,105,106,107,108,109,110,111,112,97,98,99,100,101,102,103,104,105,106,107,108,109,110,111,112,97,98,99,100,101,102,103,104,105,106,107,108,109,110,111,112,97,98,99,100,101,102,103,104,105,106,107,108,109,110,111,112,97,98,99,100,101,102,103,104,105,106,107,108,109,110,111,112,113,114,115,116,117,118,119,120,121,122,123,124,125,126,127,128,113,114,115,116,117,118,119,120,121,122,123,124,125,126,127,128,113,114,115,116,117,118,119,120,121,122,123,124,125,126,127,128,113,114,115,116,117,118,119,120,121,122,123,124,125,126,127,128,113,114,115,116,117,118,119,120,121,122,123,124,125,126,127,128,113,114,115,116,117,118,119,120,121,122,123,124,125,126,127,128,113,114,115,116,117,118,119,120,121,122,123,124,125,126,127,128,113,114,115,116,117,118,119,120,121,122,123,124,125,126,127,128,113,114,115,116,117,118,119,120,121,122,123,124,125,126,127,128,113,114,115,116,117,118,119,120,121,122,123,124,125,126,127,128,113,114,115,116,117,118,119,120,121,122,123,124,125,126,127,128,113,114,115,116,117,118,119,120,121,122,123,124,125,126,127,128,113,114,115,116,117,118,119,120,121,122,123,124,125,126,127,128,113,114,115,116,117,118,119,120,121,122,123,124,125,126,127,128,113,114,115,116,117,118,119,120,121,122,123,124,125,126,127,128,113,114,115,116,117,118,119,120,121,122,123,124,125,126,127,128,129,130,131,132,133,134,135,136,137,138,139,140,141,142,143,144,129,130,131,132,133,134,135,136,137,138,139,140,141,142,143,144,129,130,131,132,133,134,135,136,137,138,139,140,141,142,143,144,129,130,131,132,133,134,135,136,137,138,139,140,141,142,143,144,129,130,131,132,133,134,135,136,137,138,139,140,141,142,143,144,129,130,131,132,133,134,135,136,137,138,139,140,141,142,143,144,129,130,131,132,133,134,135,136,137,138,139,140,141,142,143,144,129,130,131,132,133,134,135,136,137,138,139,140,141,142,143,144,129,130,131,132,133,134,135,136,137,138,139,140,141,142,143,144,129,130,131,132,133,134,135,136,137,138,139,140,141,142,143,144,129,130,131,132,133,134,135,136,137,138,139,140,141,142,143,144,129,130,131,132,133,134,135,136,137,138,139,140,141,142,143,144,129,130,131,132,133,134,135,136,137,138,139,140,141,142,143,144,129,130,131,132,133,134,135,136,137,138,139,140,141,142,143,144,129,130,131,132,133,134,135,136,137,138,139,140,141,142,143,144,129,130,131,132,133,134,135,136,137,138,139,140,141,142,143,144,145,146,147,148,149,150,151,152,153,154,155,156,157,158,159,160,145,146,147,148,149,150,151,152,153,154,155,156,157,158,159,160,145,146,147,148,149,150,151,152,153,154,155,156,157,158,159,160,145,146,147,148,149,150,151,152,153,154,155,156,157,158,159,160,145,146,147,148,149,150,151,152,153,154,155,156,157,158,159,160,145,146,147,148,149,150,151,152,153,154,155,156,157,158,159,160,145,146,147,148,149,150,151,152,153,154,155,156,157,158,159,160,145,146,147,148,149,150,151,152,153,154,155,156,157,158,159,160,145,146,147,148,149,150,151,152,153,154,155,156,157,158,159,160,145,146,147,148,149,150,151,152,153,154,155,156,157,158,159,160,145,146,147,148,149,150,151,152,153,154,155,156,157,158,159,160,145,146,147,148,149,150,151,152,153,154,155,156,157,158,159,160,145,146,147,148,149,150,151,152,153,154,155,156,157,158,159,160,145,146,147,148,149,150,151,152,153,154,155,156,157,158,159,160,145,146,147,148,149,150,151,152,153,154,155,156,157,158,159,160,145,146,147,148,149,150,151,152,153,154,155,156,157,158,159,160,161,162,163,164,165,166,167,168,169,170,171,172,173,174,175,176,161,162,163,164,165,166,167,168,169,170,171,172,173,174,175,176,161,162,163,164,165,166,167,168,169,170,171,172,173,174,175,176,161,162,163,164,165,166,167,168,169,170,171,172,173,174,175,176,161,162,163,164,165,166,167,168,169,170,171,172,173,174,175,176,161,162,163,164,165,166,167,168,169,170,171,172,173,174,175,176,161,162,163,164,165,166,167,168,169,170,171,172,173,174,175,176,161,162,163,164,165,166,167,168,169,170,171,172,173,174,175,176,161,162,163,164,165,166,167,168,169,170,171,172,173,174,175,176,161,162,163,164,165,166,167,168,169,170,171,172,173,174,175,176,161,162,163,164,165,166,167,168,169,170,171,172,173,174,175,176,161,162,163,164,165,166,167,168,169,170,171,172,173,174,175,176,161,162,163,164,165,166,167,168,169,170,171,172,173,174,175,176,161,162,163,164,165,166,167,168,169,170,171,172,173,174,175,176,161,162,163,164,165,166,167,168,169,170,171,172,173,174,175,176,161,162,163,164,165,166,167,168,169,170,171,172,173,174,175,176,177,178,179,180,181,182,183,184,185,186,187,188,189,190,191,192,177,178,179,180,181,182,183,184,185,186,187,188,189,190,191,192,177,178,179,180,181,182,183,184,185,186,187,188,189,190,191,192,177,178,179,180,181,182,183,184,185,186,187,188,189,190,191,192,177,178,179,180,181,182,183,184,185,186,187,188,189,190,191,192,177,178,179,180,181,182,183,184,185,186,187,188,189,190,191,192,177,178,179,180,181,182,183,184,185,186,187,188,189,190,191,192,177,178,179,180,181,182,183,184,185,186,187,188,189,190,191,192,177,178,179,180,181,182,183,184,185,186,187,188,189,190,191,192,177,178,179,180,181,182,183,184,185,186,187,188,189,190,191,192,177,178,179,180,181,182,183,184,185,186,187,188,189,190,191,192,177,178,179,180,181,182,183,184,185,186,187,188,189,190,191,192,177,178,179,180,181,182,183,184,185,186,187,188,189,190,191,192,177,178,179,180,181,182,183,184,185,186,187,188,189,190,191,192,177,178,179,180,181,182,183,184,185,186,187,188,189,190,191,192,177,178,179,180,181,182,183,184,185,186,187,188,189,190,191,192,193,194,195,196,197,198,199,200,201,202,203,204,205,206,207,208,193,194,195,196,197,198,199,200,201,202,203,204,205,206,207,208,193,194,195,196,197,198,199,200,201,202,203,204,205,206,207,208,193,194,195,196,197,198,199,200,201,202,203,204,205,206,207,208,193,194,195,196,197,198,199,200,201,202,203,204,205,206,207,208,193,194,195,196,197,198,199,200,201,202,203,204,205,206,207,208,193,194,195,196,197,198,199,200,201,202,203,204,205,206,207,208,193,194,195,196,197,198,199,200,201,202,203,204,205,206,207,208,193,194,195,196,197,198,199,200,201,202,203,204,205,206,207,208,193,194,195,196,197,198,199,200,201,202,203,204,205,206,207,208,193,194,195,196,197,198,199,200,201,202,203,204,205,206,207,208,193,194,195,196,197,198,199,200,201,202,203,204,205,206,207,208,193,194,195,196,197,198,199,200,201,202,203,204,205,206,207,208,193,194,195,196,197,198,199,200,201,202,203,204,205,206,207,208,193,194,195,196,197,198,199,200,201,202,203,204,205,206,207,208,193,194,195,196,197,198,199,200,201,202,203,204,205,206,207,208,209,210,211,212,213,214,215,216,217,218,219,220,221,222,223,224,209,210,211,212,213,214,215,216,217,218,219,220,221,222,223,224,209,210,211,212,213,214,215,216,217,218,219,220,221,222,223,224,209,210,211,212,213,214,215,216,217,218,219,220,221,222,223,224,209,210,211,212,213,214,215,216,217,218,219,220,221,222,223,224,209,210,211,212,213,214,215,216,217,218,219,220,221,222,223,224,209,210,211,212,213,214,215,216,217,218,219,220,221,222,223,224,209,210,211,212,213,214,215,216,217,218,219,220,221,222,223,224,209,210,211,212,213,214,215,216,217,218,219,220,221,222,223,224,209,210,211,212,213,214,215,216,217,218,219,220,221,222,223,224,209,210,211,212,213,214,215,216,217,218,219,220,221,222,223,224,209,210,211,212,213,214,215,216,217,218,219,220,221,222,223,224,209,210,211,212,213,214,215,216,217,218,219,220,221,222,223,224,209,210,211,212,213,214,215,216,217,218,219,220,221,222,223,224,209,210,211,212,213,214,215,216,217,218,219,220,221,222,223,224,209,210,211,212,213,214,215,216,217,218,219,220,221,222,223,224,225,226,227,228,229,230,231,232,233,234,235,236,237,238,239,240,225,226,227,228,229,230,231,232,233,234,235,236,237,238,239,240,225,226,227,228,229,230,231,232,233,234,235,236,237,238,239,240,225,226,227,228,229,230,231,232,233,234,235,236,237,238,239,240,225,226,227,228,229,230,231,232,233,234,235,236,237,238,239,240,225,226,227,228,229,230,231,232,233,234,235,236,237,238,239,240,225,226,227,228,229,230,231,232,233,234,235,236,237,238,239,240,225,226,227,228,229,230,231,232,233,234,235,236,237,238,239,240,225,226,227,228,229,230,231,232,233,234,235,236,237,238,239,240,225,226,227,228,229,230,231,232,233,234,235,236,237,238,239,240,225,226,227,228,229,230,231,232,233,234,235,236,237,238,239,240,225,226,227,228,229,230,231,232,233,234,235,236,237,238,239,240,225,226,227,228,229,230,231,232,233,234,235,236,237,238,239,240,225,226,227,228,229,230,231,232,233,234,235,236,237,238,239,240,225,226,227,228,229,230,231,232,233,234,235,236,237,238,239,240,225,226,227,228,229,230,231,232,233,234,235,236,237,238,239,240,241,242,243,244,245,246,247,248,249,250,251,252,253,254,255,256,241,242,243,244,245,246,247,248,249,250,251,252,253,254,255,256,241,242,243,244,245,246,247,248,249,250,251,252,253,254,255,256,241,242,243,244,245,246,247,248,249,250,251,252,253,254,255,256,241,242,243,244,245,246,247,248,249,250,251,252,253,254,255,256,241,242,243,244,245,246,247,248,249,250,251,252,253,254,255,256,241,242,243,244,245,246,247,248,249,250,251,252,253,254,255,256,241,242,243,244,245,246,247,248,249,250,251,252,253,254,255,256,241,242,243,244,245,246,247,248,249,250,251,252,253,254,255,256,241,242,243,244,245,246,247,248,249,250,251,252,253,254,255,256,241,242,243,244,245,246,247,248,249,250,251,252,253,254,255,256,241,242,243,244,245,246,247,248,249,250,251,252,253,254,255,256,241,242,243,244,245,246,247,248,249,250,251,252,253,254,255,256,241,242,243,244,245,246,247,248,249,250,251,252,253,254,255,256,241,242,243,244,245,246,247,248,249,250,251,252,253,254,255,256,241,242,243,244,245,246,247,248,249,250,251,252,253,254,255,256,1,2,3,4,5,6,7,8,9,10,11,12,13,14,15,16,1,2,3,4,5,6,7,8,9,10,11,12,13,14,15,16,1,2,3,4,5,6,7,8,9,10,11,12,13,14,15,16,1,2,3,4,5,6,7,8,9,10,11,12,13,14,15,16,1,2,3,4,5,6,7,8,9,10,11,12,13,14,15,16,1,2,3,4,5,6,7,8,9,10,11,12,13,14,15,16,1,2,3,4,5,6,7,8,9,10,11,12,13,14,15,16,1,2,3,4,5,6,7,8,9,10,11,12,13,14,15,16,1,2,3,4,5,6,7,8,9,10,11,12,13,14,15,16,1,2,3,4,5,6,7,8,9,10,11,12,13,14,15,16,1,2,3,4,5,6,7,8,9,10,11,12,13,14,15,16,1,2,3,4,5,6,7,8,9,10,11,12,13,14,15,16,1,2,3,4,5,6,7,8,9,10,11,12,13,14,15,16,1,2,3,4,5,6,7,8,9,10,11,12,13,14,15,16,1,2,3,4,5,6,7,8,9,10,11,12,13,14,15,16,1,2,3,4,5,6,7,8,9,10,11,12,13,14,15,16,17,18,19,20,21,22,23,24,25,26,27,28,29,30,31,32,17,18,19,20,21,22,23,24,25,26,27,28,29,30,31,32,17,18,19,20,21,22,23,24,25,26,27,28,29,30,31,32,17,18,19,20,21,22,23,24,25,26,27,28,29,30,31,32,17,18,19,20,21,22,23,24,25,26,27,28,29,30,31,32,17,18,19,20,21,22,23,24,25,26,27,28,29,30,31,32,17,18,19,20,21,22,23,24,25,26,27,28,29,30,31,32,17,18,19,20,21,22,23,24,25,26,27,28,29,30,31,32,17,18,19,20,21,22,23,24,25,26,27,28,29,30,31,32,17,18,19,20,21,22,23,24,25,26,27,28,29,30,31,32,17,18,19,20,21,22,23,24,25,26,27,28,29,30,31,32,17,18,19,20,21,22,23,24,25,26,27,28,29,30,31,32,17,18,19,20,21,22,23,24,25,26,27,28,29,30,31,32,17,18,19,20,21,22,23,24,25,26,27,28,29,30,31,32,17,18,19,20,21,22,23,24,25,26,27,28,29,30,31,32,17,18,19,20,21,22,23,24,25,26,27,28,29,30,31,32,33,34,35,36,37,38,39,40,41,42,43,44,45,46,47,48,33,34,35,36,37,38,39,40,41,42,43,44,45,46,47,48,33,34,35,36,37,38,39,40,41,42,43,44,45,46,47,48,33,34,35,36,37,38,39,40,41,42,43,44,45,46,47,48,33,34,35,36,37,38,39,40,41,42,43,44,45,46,47,48,33,34,35,36,37,38,39,40,41,42,43,44,45,46,47,48,33,34,35,36,37,38,39,40,41,42,43,44,45,46,47,48,33,34,35,36,37,38,39,40,41,42,43,44,45,46,47,48,33,34,35,36,37,38,39,40,41,42,43,44,45,46,47,48,33,34,35,36,37,38,39,40,41,42,43,44,45,46,47,48,33,34,35,36,37,38,39,40,41,42,43,44,45,46,47,48,33,34,35,36,37,38,39,40,41,42,43,44,45,46,47,48,33,34,35,36,37,38,39,40,41,42,43,44,45,46,47,48,33,34,35,36,37,38,39,40,41,42,43,44,45,46,47,48,33,34,35,36,37,38,39,40,41,42,43,44,45,46,47,48,33,34,35,36,37,38,39,40,41,42,43,44,45,46,47,48,49,50,51,52,53,54,55,56,57,58,59,60,61,62,63,64,49,50,51,52,53,54,55,56,57,58,59,60,61,62,63,64,49,50,51,52,53,54,55,56,57,58,59,60,61,62,63,64,49,50,51,52,53,54,55,56,57,58,59,60,61,62,63,64,49,50,51,52,53,54,55,56,57,58,59,60,61,62,63,64,49,50,51,52,53,54,55,56,57,58,59,60,61,62,63,64,49,50,51,52,53,54,55,56,57,58,59,60,61,62,63,64,49,50,51,52,53,54,55,56,57,58,59,60,61,62,63,64,49,50,51,52,53,54,55,56,57,58,59,60,61,62,63,64,49,50,51,52,53,54,55,56,57,58,59,60,61,62,63,64,49,50,51,52,53,54,55,56,57,58,59,60,61,62,63,64,49,50,51,52,53,54,55,56,57,58,59,60,61,62,63,64,49,50,51,52,53,54,55,56,57,58,59,60,61,62,63,64,49,50,51,52,53,54,55,56,57,58,59,60,61,62,63,64,49,50,51,52,53,54,55,56,57,58,59,60,61,62,63,64,49,50,51,52,53,54,55,56,57,58,59,60,61,62,63,64,65,66,67,68,69,70,71,72,73,74,75,76,77,78,79,80,65,66,67,68,69,70,71,72,73,74,75,76,77,78,79,80,65,66,67,68,69,70,71,72,73,74,75,76,77,78,79,80,65,66,67,68,69,70,71,72,73,74,75,76,77,78,79,80,65,66,67,68,69,70,71,72,73,74,75,76,77,78,79,80,65,66,67,68,69,70,71,72,73,74,75,76,77,78,79,80,65,66,67,68,69,70,71,72,73,74,75,76,77,78,79,80,65,66,67,68,69,70,71,72,73,74,75,76,77,78,79,80,65,66,67,68,69,70,71,72,73,74,75,76,77,78,79,80,65,66,67,68,69,70,71,72,73,74,75,76,77,78,79,80,65,66,67,68,69,70,71,72,73,74,75,76,77,78,79,80,65,66,67,68,69,70,71,72,73,74,75,76,77,78,79,80,65,66,67,68,69,70,71,72,73,74,75,76,77,78,79,80,65,66,67,68,69,70,71,72,73,74,75,76,77,78,79,80,65,66,67,68,69,70,71,72,73,74,75,76,77,78,79,80,65,66,67,68,69,70,71,72,73,74,75,76,77,78,79,80,81,82,83,84,85,86,87,88,89,90,91,92,93,94,95,96,81,82,83,84,85,86,87,88,89,90,91,92,93,94,95,96,81,82,83,84,85,86,87,88,89,90,91,92,93,94,95,96,81,82,83,84,85,86,87,88,89,90,91,92,93,94,95,96,81,82,83,84,85,86,87,88,89,90,91,92,93,94,95,96,81,82,83,84,85,86,87,88,89,90,91,92,93,94,95,96,81,82,83,84,85,86,87,88,89,90,91,92,93,94,95,96,81,82,83,84,85,86,87,88,89,90,91,92,93,94,95,96,81,82,83,84,85,86,87,88,89,90,91,92,93,94,95,96,81,82,83,84,85,86,87,88,89,90,91,92,93,94,95,96,81,82,83,84,85,86,87,88,89,90,91,92,93,94,95,96,81,82,83,84,85,86,87,88,89,90,91,92,93,94,95,96,81,82,83,84,85,86,87,88,89,90,91,92,93,94,95,96,81,82,83,84,85,86,87,88,89,90,91,92,93,94,95,96,81,82,83,84,85,86,87,88,89,90,91,92,93,94,95,96,81,82,83,84,85,86,87,88,89,90,91,92,93,94,95,96,97,98,99,100,101,102,103,104,105,106,107,108,109,110,111,112,97,98,99,100,101,102,103,104,105,106,107,108,109,110,111,112,97,98,99,100,101,102,103,104,105,106,107,108,109,110,111,112,97,98,99,100,101,102,103,104,105,106,107,108,109,110,111,112,97,98,99,100,101,102,103,104,105,106,107,108,109,110,111,112,97,98,99,100,101,102,103,104,105,106,107,108,109,110,111,112,97,98,99,100,101,102,103,104,105,106,107,108,109,110,111,112,97,98,99,100,101,102,103,104,105,106,107,108,109,110,111,112,97,98,99,100,101,102,103,104,105,106,107,108,109,110,111,112,97,98,99,100,101,102,103,104,105,106,107,108,109,110,111,112,97,98,99,100,101,102,103,104,105,106,107,108,109,110,111,112,97,98,99,100,101,102,103,104,105,106,107,108,109,110,111,112,97,98,99,100,101,102,103,104,105,106,107,108,109,110,111,112,97,98,99,100,101,102,103,104,105,106,107,108,109,110,111,112,97,98,99,100,101,102,103,104,105,106,107,108,109,110,111,112,97,98,99,100,101,102,103,104,105,106,107,108,109,110,111,112,113,114,115,116,117,118,119,120,121,122,123,124,125,126,127,128,113,114,115,116,117,118,119,120,121,122,123,124,125,126,127,128,113,114,115,116,117,118,119,120,121,122,123,124,125,126,127,128,113,114,115,116,117,118,119,120,121,122,123,124,125,126,127,128,113,114,115,116,117,118,119,120,121,122,123,124,125,126,127,128,113,114,115,116,117,118,119,120,121,122,123,124,125,126,127,128,113,114,115,116,117,118,119,120,121,122,123,124,125,126,127,128,113,114,115,116,117,118,119,120,121,122,123,124,125,126,127,128,113,114,115,116,117,118,119,120,121,122,123,124,125,126,127,128,113,114,115,116,117,118,119,120,121,122,123,124,125,126,127,128,113,114,115,116,117,118,119,120,121,122,123,124,125,126,127,128,113,114,115,116,117,118,119,120,121,122,123,124,125,126,127,128,113,114,115,116,117,118,119,120,121,122,123,124,125,126,127,128,113,114,115,116,117,118,119,120,121,122,123,124,125,126,127,128,113,114,115,116,117,118,119,120,121,122,123,124,125,126,127,128,113,114,115,116,117,118,119,120,121,122,123,124,125,126,127,128,129,130,131,132,133,134,135,136,137,138,139,140,141,142,143,144,129,130,131,132,133,134,135,136,137,138,139,140,141,142,143,144,129,130,131,132,133,134,135,136,137,138,139,140,141,142,143,144,129,130,131,132,133,134,135,136,137,138,139,140,141,142,143,144,129,130,131,132,133,134,135,136,137,138,139,140,141,142,143,144,129,130,131,132,133,134,135,136,137,138,139,140,141,142,143,144,129,130,131,132,133,134,135,136,137,138,139,140,141,142,143,144,129,130,131,132,133,134,135,136,137,138,139,140,141,142,143,144,129,130,131,132,133,134,135,136,137,138,139,140,141,142,143,144,129,130,131,132,133,134,135,136,137,138,139,140,141,142,143,144,129,130,131,132,133,134,135,136,137,138,139,140,141,142,143,144,129,130,131,132,133,134,135,136,137,138,139,140,141,142,143,144,129,130,131,132,133,134,135,136,137,138,139,140,141,142,143,144,129,130,131,132,133,134,135,136,137,138,139,140,141,142,143,144,129,130,131,132,133,134,135,136,137,138,139,140,141,142,143,144,129,130,131,132,133,134,135,136,137,138,139,140,141,142,143,144,145,146,147,148,149,150,151,152,153,154,155,156,157,158,159,160,145,146,147,148,149,150,151,152,153,154,155,156,157,158,159,160,145,146,147,148,149,150,151,152,153,154,155,156,157,158,159,160,145,146,147,148,149,150,151,152,153,154,155,156,157,158,159,160,145,146,147,148,149,150,151,152,153,154,155,156,157,158,159,160,145,146,147,148,149,150,151,152,153,154,155,156,157,158,159,160,145,146,147,148,149,150,151,152,153,154,155,156,157,158,159,160,145,146,147,148,149,150,151,152,153,154,155,156,157,158,159,160,145,146,147,148,149,150,151,152,153,154,155,156,157,158,159,160,145,146,147,148,149,150,151,152,153,154,155,156,157,158,159,160,145,146,147,148,149,150,151,152,153,154,155,156,157,158,159,160,145,146,147,148,149,150,151,152,153,154,155,156,157,158,159,160,145,146,147,148,149,150,151,152,153,154,155,156,157,158,159,160,145,146,147,148,149,150,151,152,153,154,155,156,157,158,159,160,145,146,147,148,149,150,151,152,153,154,155,156,157,158,159,160,145,146,147,148,149,150,151,152,153,154,155,156,157,158,159,160,161,162,163,164,165,166,167,168,169,170,171,172,173,174,175,176,161,162,163,164,165,166,167,168,169,170,171,172,173,174,175,176,161,162,163,164,165,166,167,168,169,170,171,172,173,174,175,176,161,162,163,164,165,166,167,168,169,170,171,172,173,174,175,176,161,162,163,164,165,166,167,168,169,170,171,172,173,174,175,176,161,162,163,164,165,166,167,168,169,170,171,172,173,174,175,176,161,162,163,164,165,166,167,168,169,170,171,172,173,174,175,176,161,162,163,164,165,166,167,168,169,170,171,172,173,174,175,176,161,162,163,164,165,166,167,168,169,170,171,172,173,174,175,176,161,162,163,164,165,166,167,168,169,170,171,172,173,174,175,176,161,162,163,164,165,166,167,168,169,170,171,172,173,174,175,176,161,162,163,164,165,166,167,168,169,170,171,172,173,174,175,176,161,162,163,164,165,166,167,168,169,170,171,172,173,174,175,176,161,162,163,164,165,166,167,168,169,170,171,172,173,174,175,176,161,162,163,164,165,166,167,168,169,170,171,172,173,174,175,176,161,162,163,164,165,166,167,168,169,170,171,172,173,174,175,176,177,178,179,180,181,182,183,184,185,186,187,188,189,190,191,192,177,178,179,180,181,182,183,184,185,186,187,188,189,190,191,192,177,178,179,180,181,182,183,184,185,186,187,188,189,190,191,192,177,178,179,180,181,182,183,184,185,186,187,188,189,190,191,192,177,178,179,180,181,182,183,184,185,186,187,188,189,190,191,192,177,178,179,180,181,182,183,184,185,186,187,188,189,190,191,192,177,178,179,180,181,182,183,184,185,186,187,188,189,190,191,192,177,178,179,180,181,182,183,184,185,186,187,188,189,190,191,192,177,178,179,180,181,182,183,184,185,186,187,188,189,190,191,192,177,178,179,180,181,182,183,184,185,186,187,188,189,190,191,192,177,178,179,180,181,182,183,184,185,186,187,188,189,190,191,192,177,178,179,180,181,182,183,184,185,186,187,188,189,190,191,192,177,178,179,180,181,182,183,184,185,186,187,188,189,190,191,192,177,178,179,180,181,182,183,184,185,186,187,188,189,190,191,192,177,178,179,180,181,182,183,184,185,186,187,188,189,190,191,192,177,178,179,180,181,182,183,184,185,186,187,188,189,190,191,192,193,194,195,196,197,198,199,200,201,202,203,204,205,206,207,208,193,194,195,196,197,198,199,200,201,202,203,204,205,206,207,208,193,194,195,196,197,198,199,200,201,202,203,204,205,206,207,208,193,194,195,196,197,198,199,200,201,202,203,204,205,206,207,208,193,194,195,196,197,198,199,200,201,202,203,204,205,206,207,208,193,194,195,196,197,198,199,200,201,202,203,204,205,206,207,208,193,194,195,196,197,198,199,200,201,202,203,204,205,206,207,208,193,194,195,196,197,198,199,200,201,202,203,204,205,206,207,208,193,194,195,196,197,198,199,200,201,202,203,204,205,206,207,208,193,194,195,196,197,198,199,200,201,202,203,204,205,206,207,208,193,194,195,196,197,198,199,200,201,202,203,204,205,206,207,208,193,194,195,196,197,198,199,200,201,202,203,204,205,206,207,208,193,194,195,196,197,198,199,200,201,202,203,204,205,206,207,208,193,194,195,196,197,198,199,200,201,202,203,204,205,206,207,208,193,194,195,196,197,198,199,200,201,202,203,204,205,206,207,208,193,194,195,196,197,198,199,200,201,202,203,204,205,206,207,208,209,210,211,212,213,214,215,216,217,218,219,220,221,222,223,224,209,210,211,212,213,214,215,216,217,218,219,220,221,222,223,224,209,210,211,212,213,214,215,216,217,218,219,220,221,222,223,224,209,210,211,212,213,214,215,216,217,218,219,220,221,222,223,224,209,210,211,212,213,214,215,216,217,218,219,220,221,222,223,224,209,210,211,212,213,214,215,216,217,218,219,220,221,222,223,224,209,210,211,212,213,214,215,216,217,218,219,220,221,222,223,224,209,210,211,212,213,214,215,216,217,218,219,220,221,222,223,224,209,210,211,212,213,214,215,216,217,218,219,220,221,222,223,224,209,210,211,212,213,214,215,216,217,218,219,220,221,222,223,224,209,210,211,212,213,214,215,216,217,218,219,220,221,222,223,224,209,210,211,212,213,214,215,216,217,218,219,220,221,222,223,224,209,210,211,212,213,214,215,216,217,218,219,220,221,222,223,224,209,210,211,212,213,214,215,216,217,218,219,220,221,222,223,224,209,210,211,212,213,214,215,216,217,218,219,220,221,222,223,224,209,210,211,212,213,214,215,216,217,218,219,220,221,222,223,224,225,226,227,228,229,230,231,232,233,234,235,236,237,238,239,240,225,226,227,228,229,230,231,232,233,234,235,236,237,238,239,240,225,226,227,228,229,230,231,232,233,234,235,236,237,238,239,240,225,226,227,228,229,230,231,232,233,234,235,236,237,238,239,240,225,226,227,228,229,230,231,232,233,234,235,236,237,238,239,240,225,226,227,228,229,230,231,232,233,234,235,236,237,238,239,240,225,226,227,228,229,230,231,232,233,234,235,236,237,238,239,240,225,226,227,228,229,230,231,232,233,234,235,236,237,238,239,240,225,226,227,228,229,230,231,232,233,234,235,236,237,238,239,240,225,226,227,228,229,230,231,232,233,234,235,236,237,238,239,240,225,226,227,228,229,230,231,232,233,234,235,236,237,238,239,240,225,226,227,228,229,230,231,232,233,234,235,236,237,238,239,240,225,226,227,228,229,230,231,232,233,234,235,236,237,238,239,240,225,226,227,228,229,230,231,232,233,234,235,236,237,238,239,240,225,226,227,228,229,230,231,232,233,234,235,236,237,238,239,240,225,226,227,228,229,230,231,232,233,234,235,236,237,238,239,240,241,242,243,244,245,246,247,248,249,250,251,252,253,254,255,256,241,242,243,244,245,246,247,248,249,250,251,252,253,254,255,256,241,242,243,244,245,246,247,248,249,250,251,252,253,254,255,256,241,242,243,244,245,246,247,248,249,250,251,252,253,254,255,256,241,242,243,244,245,246,247,248,249,250,251,252,253,254,255,256,241,242,243,244,245,246,247,248,249,250,251,252,253,254,255,256,241,242,243,244,245,246,247,248,249,250,251,252,253,254,255,256,241,242,243,244,245,246,247,248,249,250,251,252,253,254,255,256,241,242,243,244,245,246,247,248,249,250,251,252,253,254,255,256,241,242,243,244,245,246,247,248,249,250,251,252,253,254,255,256,241,242,243,244,245,246,247,248,249,250,251,252,253,254,255,256,241,242,243,244,245,246,247,248,249,250,251,252,253,254,255,256,241,242,243,244,245,246,247,248,249,250,251,252,253,254,255,256,241,242,243,244,245,246,247,248,249,250,251,252,253,254,255,256,241,242,243,244,245,246,247,248,249,250,251,252,253,254,255,256,241,242,243,244,245,246,247,248,249,250,251,252,253,254,255,256,1,2,3,4,5,6,7,8,9,10,11,12,13,14,15,16,1,2,3,4,5,6,7,8,9,10,11,12,13,14,15,16,1,2,3,4,5,6,7,8,9,10,11,12,13,14,15,16,1,2,3,4,5,6,7,8,9,10,11,12,13,14,15,16,1,2,3,4,5,6,7,8,9,10,11,12,13,14,15,16,1,2,3,4,5,6,7,8,9,10,11,12,13,14,15,16,1,2,3,4,5,6,7,8,9,10,11,12,13,14,15,16,1,2,3,4,5,6,7,8,9,10,11,12,13,14,15,16,1,2,3,4,5,6,7,8,9,10,11,12,13,14,15,16,1,2,3,4,5,6,7,8,9,10,11,12,13,14,15,16,1,2,3,4,5,6,7,8,9,10,11,12,13,14,15,16,1,2,3,4,5,6,7,8,9,10,11,12,13,14,15,16,1,2,3,4,5,6,7,8,9,10,11,12,13,14,15,16,1,2,3,4,5,6,7,8,9,10,11,12,13,14,15,16,1,2,3,4,5,6,7,8,9,10,11,12,13,14,15,16,1,2,3,4,5,6,7,8,9,10,11,12,13,14,15,16,17,18,19,20,21,22,23,24,25,26,27,28,29,30,31,32,17,18,19,20,21,22,23,24,25,26,27,28,29,30,31,32,17,18,19,20,21,22,23,24,25,26,27,28,29,30,31,32,17,18,19,20,21,22,23,24,25,26,27,28,29,30,31,32,17,18,19,20,21,22,23,24,25,26,27,28,29,30,31,32,17,18,19,20,21,22,23,24,25,26,27,28,29,30,31,32,17,18,19,20,21,22,23,24,25,26,27,28,29,30,31,32,17,18,19,20,21,22,23,24,25,26,27,28,29,30,31,32,17,18,19,20,21,22,23,24,25,26,27,28,29,30,31,32,17,18,19,20,21,22,23,24,25,26,27,28,29,30,31,32,17,18,19,20,21,22,23,24,25,26,27,28,29,30,31,32,17,18,19,20,21,22,23,24,25,26,27,28,29,30,31,32,17,18,19,20,21,22,23,24,25,26,27,28,29,30,31,32,17,18,19,20,21,22,23,24,25,26,27,28,29,30,31,32,17,18,19,20,21,22,23,24,25,26,27,28,29,30,31,32,17,18,19,20,21,22,23,24,25,26,27,28,29,30,31,32,33,34,35,36,37,38,39,40,41,42,43,44,45,46,47,48,33,34,35,36,37,38,39,40,41,42,43,44,45,46,47,48,33,34,35,36,37,38,39,40,41,42,43,44,45,46,47,48,33,34,35,36,37,38,39,40,41,42,43,44,45,46,47,48,33,34,35,36,37,38,39,40,41,42,43,44,45,46,47,48,33,34,35,36,37,38,39,40,41,42,43,44,45,46,47,48,33,34,35,36,37,38,39,40,41,42,43,44,45,46,47,48,33,34,35,36,37,38,39,40,41,42,43,44,45,46,47,48,33,34,35,36,37,38,39,40,41,42,43,44,45,46,47,48,33,34,35,36,37,38,39,40,41,42,43,44,45,46,47,48,33,34,35,36,37,38,39,40,41,42,43,44,45,46,47,48,33,34,35,36,37,38,39,40,41,42,43,44,45,46,47,48,33,34,35,36,37,38,39,40,41,42,43,44,45,46,47,48,33,34,35,36,37,38,39,40,41,42,43,44,45,46,47,48,33,34,35,36,37,38,39,40,41,42,43,44,45,46,47,48,33,34,35,36,37,38,39,40,41,42,43,44,45,46,47,48,49,50,51,52,53,54,55,56,57,58,59,60,61,62,63,64,49,50,51,52,53,54,55,56,57,58,59,60,61,62,63,64,49,50,51,52,53,54,55,56,57,58,59,60,61,62,63,64,49,50,51,52,53,54,55,56,57,58,59,60,61,62,63,64,49,50,51,52,53,54,55,56,57,58,59,60,61,62,63,64,49,50,51,52,53,54,55,56,57,58,59,60,61,62,63,64,49,50,51,52,53,54,55,56,57,58,59,60,61,62,63,64,49,50,51,52,53,54,55,56,57,58,59,60,61,62,63,64,49,50,51,52,53,54,55,56,57,58,59,60,61,62,63,64,49,50,51,52,53,54,55,56,57,58,59,60,61,62,63,64,49,50,51,52,53,54,55,56,57,58,59,60,61,62,63,64,49,50,51,52,53,54,55,56,57,58,59,60,61,62,63,64,49,50,51,52,53,54,55,56,57,58,59,60,61,62,63,64,49,50,51,52,53,54,55,56,57,58,59,60,61,62,63,64,49,50,51,52,53,54,55,56,57,58,59,60,61,62,63,64,49,50,51,52,53,54,55,56,57,58,59,60,61,62,63,64,65,66,67,68,69,70,71,72,73,74,75,76,77,78,79,80,65,66,67,68,69,70,71,72,73,74,75,76,77,78,79,80,65,66,67,68,69,70,71,72,73,74,75,76,77,78,79,80,65,66,67,68,69,70,71,72,73,74,75,76,77,78,79,80,65,66,67,68,69,70,71,72,73,74,75,76,77,78,79,80,65,66,67,68,69,70,71,72,73,74,75,76,77,78,79,80,65,66,67,68,69,70,71,72,73,74,75,76,77,78,79,80,65,66,67,68,69,70,71,72,73,74,75,76,77,78,79,80,65,66,67,68,69,70,71,72,73,74,75,76,77,78,79,80,65,66,67,68,69,70,71,72,73,74,75,76,77,78,79,80,65,66,67,68,69,70,71,72,73,74,75,76,77,78,79,80,65,66,67,68,69,70,71,72,73,74,75,76,77,78,79,80,65,66,67,68,69,70,71,72,73,74,75,76,77,78,79,80,65,66,67,68,69,70,71,72,73,74,75,76,77,78,79,80,65,66,67,68,69,70,71,72,73,74,75,76,77,78,79,80,65,66,67,68,69,70,71,72,73,74,75,76,77,78,79,80,81,82,83,84,85,86,87,88,89,90,91,92,93,94,95,96,81,82,83,84,85,86,87,88,89,90,91,92,93,94,95,96,81,82,83,84,85,86,87,88,89,90,91,92,93,94,95,96,81,82,83,84,85,86,87,88,89,90,91,92,93,94,95,96,81,82,83,84,85,86,87,88,89,90,91,92,93,94,95,96,81,82,83,84,85,86,87,88,89,90,91,92,93,94,95,96,81,82,83,84,85,86,87,88,89,90,91,92,93,94,95,96,81,82,83,84,85,86,87,88,89,90,91,92,93,94,95,96,81,82,83,84,85,86,87,88,89,90,91,92,93,94,95,96,81,82,83,84,85,86,87,88,89,90,91,92,93,94,95,96,81,82,83,84,85,86,87,88,89,90,91,92,93,94,95,96,81,82,83,84,85,86,87,88,89,90,91,92,93,94,95,96,81,82,83,84,85,86,87,88,89,90,91,92,93,94,95,96,81,82,83,84,85,86,87,88,89,90,91,92,93,94,95,96,81,82,83,84,85,86,87,88,89,90,91,92,93,94,95,96,81,82,83,84,85,86,87,88,89,90,91,92,93,94,95,96,97,98,99,100,101,102,103,104,105,106,107,108,109,110,111,112,97,98,99,100,101,102,103,104,105,106,107,108,109,110,111,112,97,98,99,100,101,102,103,104,105,106,107,108,109,110,111,112,97,98,99,100,101,102,103,104,105,106,107,108,109,110,111,112,97,98,99,100,101,102,103,104,105,106,107,108,109,110,111,112,97,98,99,100,101,102,103,104,105,106,107,108,109,110,111,112,97,98,99,100,101,102,103,104,105,106,107,108,109,110,111,112,97,98,99,100,101,102,103,104,105,106,107,108,109,110,111,112,97,98,99,100,101,102,103,104,105,106,107,108,109,110,111,112,97,98,99,100,101,102,103,104,105,106,107,108,109,110,111,112,97,98,99,100,101,102,103,104,105,106,107,108,109,110,111,112,97,98,99,100,101,102,103,104,105,106,107,108,109,110,111,112,97,98,99,100,101,102,103,104,105,106,107,108,109,110,111,112,97,98,99,100,101,102,103,104,105,106,107,108,109,110,111,112,97,98,99,100,101,102,103,104,105,106,107,108,109,110,111,112,97,98,99,100,101,102,103,104,105,106,107,108,109,110,111,112,113,114,115,116,117,118,119,120,121,122,123,124,125,126,127,128,113,114,115,116,117,118,119,120,121,122,123,124,125,126,127,128,113,114,115,116,117,118,119,120,121,122,123,124,125,126,127,128,113,114,115,116,117,118,119,120,121,122,123,124,125,126,127,128,113,114,115,116,117,118,119,120,121,122,123,124,125,126,127,128,113,114,115,116,117,118,119,120,121,122,123,124,125,126,127,128,113,114,115,116,117,118,119,120,121,122,123,124,125,126,127,128,113,114,115,116,117,118,119,120,121,122,123,124,125,126,127,128,113,114,115,116,117,118,119,120,121,122,123,124,125,126,127,128,113,114,115,116,117,118,119,120,121,122,123,124,125,126,127,128,113,114,115,116,117,118,119,120,121,122,123,124,125,126,127,128,113,114,115,116,117,118,119,120,121,122,123,124,125,126,127,128,113,114,115,116,117,118,119,120,121,122,123,124,125,126,127,128,113,114,115,116,117,118,119,120,121,122,123,124,125,126,127,128,113,114,115,116,117,118,119,120,121,122,123,124,125,126,127,128,113,114,115,116,117,118,119,120,121,122,123,124,125,126,127,128,129,130,131,132,133,134,135,136,137,138,139,140,141,142,143,144,129,130,131,132,133,134,135,136,137,138,139,140,141,142,143,144,129,130,131,132,133,134,135,136,137,138,139,140,141,142,143,144,129,130,131,132,133,134,135,136,137,138,139,140,141,142,143,144,129,130,131,132,133,134,135,136,137,138,139,140,141,142,143,144,129,130,131,132,133,134,135,136,137,138,139,140,141,142,143,144,129,130,131,132,133,134,135,136,137,138,139,140,141,142,143,144,129,130,131,132,133,134,135,136,137,138,139,140,141,142,143,144,129,130,131,132,133,134,135,136,137,138,139,140,141,142,143,144,129,130,131,132,133,134,135,136,137,138,139,140,141,142,143,144,129,130,131,132,133,134,135,136,137,138,139,140,141,142,143,144,129,130,131,132,133,134,135,136,137,138,139,140,141,142,143,144,129,130,131,132,133,134,135,136,137,138,139,140,141,142,143,144,129,130,131,132,133,134,135,136,137,138,139,140,141,142,143,144,129,130,131,132,133,134,135,136,137,138,139,140,141,142,143,144,129,130,131,132,133,134,135,136,137,138,139,140,141,142,143,144,145,146,147,148,149,150,151,152,153,154,155,156,157,158,159,160,145,146,147,148,149,150,151,152,153,154,155,156,157,158,159,160,145,146,147,148,149,150,151,152,153,154,155,156,157,158,159,160,145,146,147,148,149,150,151,152,153,154,155,156,157,158,159,160,145,146,147,148,149,150,151,152,153,154,155,156,157,158,159,160,145,146,147,148,149,150,151,152,153,154,155,156,157,158,159,160,145,146,147,148,149,150,151,152,153,154,155,156,157,158,159,160,145,146,147,148,149,150,151,152,153,154,155,156,157,158,159,160,145,146,147,148,149,150,151,152,153,154,155,156,157,158,159,160,145,146,147,148,149,150,151,152,153,154,155,156,157,158,159,160,145,146,147,148,149,150,151,152,153,154,155,156,157,158,159,160,145,146,147,148,149,150,151,152,153,154,155,156,157,158,159,160,145,146,147,148,149,150,151,152,153,154,155,156,157,158,159,160,145,146,147,148,149,150,151,152,153,154,155,156,157,158,159,160,145,146,147,148,149,150,151,152,153,154,155,156,157,158,159,160,145,146,147,148,149,150,151,152,153,154,155,156,157,158,159,160,161,162,163,164,165,166,167,168,169,170,171,172,173,174,175,176,161,162,163,164,165,166,167,168,169,170,171,172,173,174,175,176,161,162,163,164,165,166,167,168,169,170,171,172,173,174,175,176,161,162,163,164,165,166,167,168,169,170,171,172,173,174,175,176,161,162,163,164,165,166,167,168,169,170,171,172,173,174,175,176,161,162,163,164,165,166,167,168,169,170,171,172,173,174,175,176,161,162,163,164,165,166,167,168,169,170,171,172,173,174,175,176,161,162,163,164,165,166,167,168,169,170,171,172,173,174,175,176,161,162,163,164,165,166,167,168,169,170,171,172,173,174,175,176,161,162,163,164,165,166,167,168,169,170,171,172,173,174,175,176,161,162,163,164,165,166,167,168,169,170,171,172,173,174,175,176,161,162,163,164,165,166,167,168,169,170,171,172,173,174,175,176,161,162,163,164,165,166,167,168,169,170,171,172,173,174,175,176,161,162,163,164,165,166,167,168,169,170,171,172,173,174,175,176,161,162,163,164,165,166,167,168,169,170,171,172,173,174,175,176,161,162,163,164,165,166,167,168,169,170,171,172,173,174,175,176,177,178,179,180,181,182,183,184,185,186,187,188,189,190,191,192,177,178,179,180,181,182,183,184,185,186,187,188,189,190,191,192,177,178,179,180,181,182,183,184,185,186,187,188,189,190,191,192,177,178,179,180,181,182,183,184,185,186,187,188,189,190,191,192,177,178,179,180,181,182,183,184,185,186,187,188,189,190,191,192,177,178,179,180,181,182,183,184,185,186,187,188,189,190,191,192,177,178,179,180,181,182,183,184,185,186,187,188,189,190,191,192,177,178,179,180,181,182,183,184,185,186,187,188,189,190,191,192,177,178,179,180,181,182,183,184,185,186,187,188,189,190,191,192,177,178,179,180,181,182,183,184,185,186,187,188,189,190,191,192,177,178,179,180,181,182,183,184,185,186,187,188,189,190,191,192,177,178,179,180,181,182,183,184,185,186,187,188,189,190,191,192,177,178,179,180,181,182,183,184,185,186,187,188,189,190,191,192,177,178,179,180,181,182,183,184,185,186,187,188,189,190,191,192,177,178,179,180,181,182,183,184,185,186,187,188,189,190,191,192,177,178,179,180,181,182,183,184,185,186,187,188,189,190,191,192,193,194,195,196,197,198,199,200,201,202,203,204,205,206,207,208,193,194,195,196,197,198,199,200,201,202,203,204,205,206,207,208,193,194,195,196,197,198,199,200,201,202,203,204,205,206,207,208,193,194,195,196,197,198,199,200,201,202,203,204,205,206,207,208,193,194,195,196,197,198,199,200,201,202,203,204,205,206,207,208,193,194,195,196,197,198,199,200,201,202,203,204,205,206,207,208,193,194,195,196,197,198,199,200,201,202,203,204,205,206,207,208,193,194,195,196,197,198,199,200,201,202,203,204,205,206,207,208,193,194,195,196,197,198,199,200,201,202,203,204,205,206,207,208,193,194,195,196,197,198,199,200,201,202,203,204,205,206,207,208,193,194,195,196,197,198,199,200,201,202,203,204,205,206,207,208,193,194,195,196,197,198,199,200,201,202,203,204,205,206,207,208,193,194,195,196,197,198,199,200,201,202,203,204,205,206,207,208,193,194,195,196,197,198,199,200,201,202,203,204,205,206,207,208,193,194,195,196,197,198,199,200,201,202,203,204,205,206,207,208,193,194,195,196,197,198,199,200,201,202,203,204,205,206,207,208,209,210,211,212,213,214,215,216,217,218,219,220,221,222,223,224,209,210,211,212,213,214,215,216,217,218,219,220,221,222,223,224,209,210,211,212,213,214,215,216,217,218,219,220,221,222,223,224,209,210,211,212,213,214,215,216,217,218,219,220,221,222,223,224,209,210,211,212,213,214,215,216,217,218,219,220,221,222,223,224,209,210,211,212,213,214,215,216,217,218,219,220,221,222,223,224,209,210,211,212,213,214,215,216,217,218,219,220,221,222,223,224,209,210,211,212,213,214,215,216,217,218,219,220,221,222,223,224,209,210,211,212,213,214,215,216,217,218,219,220,221,222,223,224,209,210,211,212,213,214,215,216,217,218,219,220,221,222,223,224,209,210,211,212,213,214,215,216,217,218,219,220,221,222,223,224,209,210,211,212,213,214,215,216,217,218,219,220,221,222,223,224,209,210,211,212,213,214,215,216,217,218,219,220,221,222,223,224,209,210,211,212,213,214,215,216,217,218,219,220,221,222,223,224,209,210,211,212,213,214,215,216,217,218,219,220,221,222,223,224,209,210,211,212,213,214,215,216,217,218,219,220,221,222,223,224,225,226,227,228,229,230,231,232,233,234,235,236,237,238,239,240,225,226,227,228,229,230,231,232,233,234,235,236,237,238,239,240,225,226,227,228,229,230,231,232,233,234,235,236,237,238,239,240,225,226,227,228,229,230,231,232,233,234,235,236,237,238,239,240,225,226,227,228,229,230,231,232,233,234,235,236,237,238,239,240,225,226,227,228,229,230,231,232,233,234,235,236,237,238,239,240,225,226,227,228,229,230,231,232,233,234,235,236,237,238,239,240,225,226,227,228,229,230,231,232,233,234,235,236,237,238,239,240,225,226,227,228,229,230,231,232,233,234,235,236,237,238,239,240,225,226,227,228,229,230,231,232,233,234,235,236,237,238,239,240,225,226,227,228,229,230,231,232,233,234,235,236,237,238,239,240,225,226,227,228,229,230,231,232,233,234,235,236,237,238,239,240,225,226,227,228,229,230,231,232,233,234,235,236,237,238,239,240,225,226,227,228,229,230,231,232,233,234,235,236,237,238,239,240,225,226,227,228,229,230,231,232,233,234,235,236,237,238,239,240,225,226,227,228,229,230,231,232,233,234,235,236,237,238,239,240,241,242,243,244,245,246,247,248,249,250,251,252,253,254,255,256,241,242,243,244,245,246,247,248,249,250,251,252,253,254,255,256,241,242,243,244,245,246,247,248,249,250,251,252,253,254,255,256,241,242,243,244,245,246,247,248,249,250,251,252,253,254,255,256,241,242,243,244,245,246,247,248,249,250,251,252,253,254,255,256,241,242,243,244,245,246,247,248,249,250,251,252,253,254,255,256,241,242,243,244,245,246,247,248,249,250,251,252,253,254,255,256,241,242,243,244,245,246,247,248,249,250,251,252,253,254,255,256,241,242,243,244,245,246,247,248,249,250,251,252,253,254,255,256,241,242,243,244,245,246,247,248,249,250,251,252,253,254,255,256,241,242,243,244,245,246,247,248,249,250,251,252,253,254,255,256,241,242,243,244,245,246,247,248,249,250,251,252,253,254,255,256,241,242,243,244,245,246,247,248,249,250,251,252,253,254,255,256,241,242,243,244,245,246,247,248,249,250,251,252,253,254,255,256,241,242,243,244,245,246,247,248,249,250,251,252,253,254,255,256,241,242,243,244,245,246,247,248,249,250,251,252,253,254,255,256,1,2,3,4,5,6,7,8,9,10,11,12,13,14,15,16,1,2,3,4,5,6,7,8,9,10,11,12,13,14,15,16,1,2,3,4,5,6,7,8,9,10,11,12,13,14,15,16,1,2,3,4,5,6,7,8,9,10,11,12,13,14,15,16,1,2,3,4,5,6,7,8,9,10,11,12,13,14,15,16,1,2,3,4,5,6,7,8,9,10,11,12,13,14,15,16,1,2,3,4,5,6,7,8,9,10,11,12,13,14,15,16,1,2,3,4,5,6,7,8,9,10,11,12,13,14,15,16,1,2,3,4,5,6,7,8,9,10,11,12,13,14,15,16,1,2,3,4,5,6,7,8,9,10,11,12,13,14,15,16,1,2,3,4,5,6,7,8,9,10,11,12,13,14,15,16,1,2,3,4,5,6,7,8,9,10,11,12,13,14,15,16,1,2,3,4,5,6,7,8,9,10,11,12,13,14,15,16,1,2,3,4,5,6,7,8,9,10,11,12,13,14,15,16,1,2,3,4,5,6,7,8,9,10,11,12,13,14,15,16,1,2,3,4,5,6,7,8,9,10,11,12,13,14,15,16,17,18,19,20,21,22,23,24,25,26,27,28,29,30,31,32,17,18,19,20,21,22,23,24,25,26,27,28,29,30,31,32,17,18,19,20,21,22,23,24,25,26,27,28,29,30,31,32,17,18,19,20,21,22,23,24,25,26,27,28,29,30,31,32,17,18,19,20,21,22,23,24,25,26,27,28,29,30,31,32,17,18,19,20,21,22,23,24,25,26,27,28,29,30,31,32,17,18,19,20,21,22,23,24,25,26,27,28,29,30,31,32,17,18,19,20,21,22,23,24,25,26,27,28,29,30,31,32,17,18,19,20,21,22,23,24,25,26,27,28,29,30,31,32,17,18,19,20,21,22,23,24,25,26,27,28,29,30,31,32,17,18,19,20,21,22,23,24,25,26,27,28,29,30,31,32,17,18,19,20,21,22,23,24,25,26,27,28,29,30,31,32,17,18,19,20,21,22,23,24,25,26,27,28,29,30,31,32,17,18,19,20,21,22,23,24,25,26,27,28,29,30,31,32,17,18,19,20,21,22,23,24,25,26,27,28,29,30,31,32,17,18,19,20,21,22,23,24,25,26,27,28,29,30,31,32,33,34,35,36,37,38,39,40,41,42,43,44,45,46,47,48,33,34,35,36,37,38,39,40,41,42,43,44,45,46,47,48,33,34,35,36,37,38,39,40,41,42,43,44,45,46,47,48,33,34,35,36,37,38,39,40,41,42,43,44,45,46,47,48,33,34,35,36,37,38,39,40,41,42,43,44,45,46,47,48,33,34,35,36,37,38,39,40,41,42,43,44,45,46,47,48,33,34,35,36,37,38,39,40,41,42,43,44,45,46,47,48,33,34,35,36,37,38,39,40,41,42,43,44,45,46,47,48,33,34,35,36,37,38,39,40,41,42,43,44,45,46,47,48,33,34,35,36,37,38,39,40,41,42,43,44,45,46,47,48,33,34,35,36,37,38,39,40,41,42,43,44,45,46,47,48,33,34,35,36,37,38,39,40,41,42,43,44,45,46,47,48,33,34,35,36,37,38,39,40,41,42,43,44,45,46,47,48,33,34,35,36,37,38,39,40,41,42,43,44,45,46,47,48,33,34,35,36,37,38,39,40,41,42,43,44,45,46,47,48,33,34,35,36,37,38,39,40,41,42,43,44,45,46,47,48,49,50,51,52,53,54,55,56,57,58,59,60,61,62,63,64,49,50,51,52,53,54,55,56,57,58,59,60,61,62,63,64,49,50,51,52,53,54,55,56,57,58,59,60,61,62,63,64,49,50,51,52,53,54,55,56,57,58,59,60,61,62,63,64,49,50,51,52,53,54,55,56,57,58,59,60,61,62,63,64,49,50,51,52,53,54,55,56,57,58,59,60,61,62,63,64,49,50,51,52,53,54,55,56,57,58,59,60,61,62,63,64,49,50,51,52,53,54,55,56,57,58,59,60,61,62,63,64,49,50,51,52,53,54,55,56,57,58,59,60,61,62,63,64,49,50,51,52,53,54,55,56,57,58,59,60,61,62,63,64,49,50,51,52,53,54,55,56,57,58,59,60,61,62,63,64,49,50,51,52,53,54,55,56,57,58,59,60,61,62,63,64,49,50,51,52,53,54,55,56,57,58,59,60,61,62,63,64,49,50,51,52,53,54,55,56,57,58,59,60,61,62,63,64,49,50,51,52,53,54,55,56,57,58,59,60,61,62,63,64,49,50,51,52,53,54,55,56,57,58,59,60,61,62,63,64,65,66,67,68,69,70,71,72,73,74,75,76,77,78,79,80,65,66,67,68,69,70,71,72,73,74,75,76,77,78,79,80,65,66,67,68,69,70,71,72,73,74,75,76,77,78,79,80,65,66,67,68,69,70,71,72,73,74,75,76,77,78,79,80,65,66,67,68,69,70,71,72,73,74,75,76,77,78,79,80,65,66,67,68,69,70,71,72,73,74,75,76,77,78,79,80,65,66,67,68,69,70,71,72,73,74,75,76,77,78,79,80,65,66,67,68,69,70,71,72,73,74,75,76,77,78,79,80,65,66,67,68,69,70,71,72,73,74,75,76,77,78,79,80,65,66,67,68,69,70,71,72,73,74,75,76,77,78,79,80,65,66,67,68,69,70,71,72,73,74,75,76,77,78,79,80,65,66,67,68,69,70,71,72,73,74,75,76,77,78,79,80,65,66,67,68,69,70,71,72,73,74,75,76,77,78,79,80,65,66,67,68,69,70,71,72,73,74,75,76,77,78,79,80,65,66,67,68,69,70,71,72,73,74,75,76,77,78,79,80,65,66,67,68,69,70,71,72,73,74,75,76,77,78,79,80,81,82,83,84,85,86,87,88,89,90,91,92,93,94,95,96,81,82,83,84,85,86,87,88,89,90,91,92,93,94,95,96,81,82,83,84,85,86,87,88,89,90,91,92,93,94,95,96,81,82,83,84,85,86,87,88,89,90,91,92,93,94,95,96,81,82,83,84,85,86,87,88,89,90,91,92,93,94,95,96,81,82,83,84,85,86,87,88,89,90,91,92,93,94,95,96,81,82,83,84,85,86,87,88,89,90,91,92,93,94,95,96,81,82,83,84,85,86,87,88,89,90,91,92,93,94,95,96,81,82,83,84,85,86,87,88,89,90,91,92,93,94,95,96,81,82,83,84,85,86,87,88,89,90,91,92,93,94,95,96,81,82,83,84,85,86,87,88,89,90,91,92,93,94,95,96,81,82,83,84,85,86,87,88,89,90,91,92,93,94,95,96,81,82,83,84,85,86,87,88,89,90,91,92,93,94,95,96,81,82,83,84,85,86,87,88,89,90,91,92,93,94,95,96,81,82,83,84,85,86,87,88,89,90,91,92,93,94,95,96,81,82,83,84,85,86,87,88,89,90,91,92,93,94,95,96,97,98,99,100,101,102,103,104,105,106,107,108,109,110,111,112,97,98,99,100,101,102,103,104,105,106,107,108,109,110,111,112,97,98,99,100,101,102,103,104,105,106,107,108,109,110,111,112,97,98,99,100,101,102,103,104,105,106,107,108,109,110,111,112,97,98,99,100,101,102,103,104,105,106,107,108,109,110,111,112,97,98,99,100,101,102,103,104,105,106,107,108,109,110,111,112,97,98,99,100,101,102,103,104,105,106,107,108,109,110,111,112,97,98,99,100,101,102,103,104,105,106,107,108,109,110,111,112,97,98,99,100,101,102,103,104,105,106,107,108,109,110,111,112,97,98,99,100,101,102,103,104,105,106,107,108,109,110,111,112,97,98,99,100,101,102,103,104,105,106,107,108,109,110,111,112,97,98,99,100,101,102,103,104,105,106,107,108,109,110,111,112,97,98,99,100,101,102,103,104,105,106,107,108,109,110,111,112,97,98,99,100,101,102,103,104,105,106,107,108,109,110,111,112,97,98,99,100,101,102,103,104,105,106,107,108,109,110,111,112,97,98,99,100,101,102,103,104,105,106,107,108,109,110,111,112,113,114,115,116,117,118,119,120,121,122,123,124,125,126,127,128,113,114,115,116,117,118,119,120,121,122,123,124,125,126,127,128,113,114,115,116,117,118,119,120,121,122,123,124,125,126,127,128,113,114,115,116,117,118,119,120,121,122,123,124,125,126,127,128,113,114,115,116,117,118,119,120,121,122,123,124,125,126,127,128,113,114,115,116,117,118,119,120,121,122,123,124,125,126,127,128,113,114,115,116,117,118,119,120,121,122,123,124,125,126,127,128,113,114,115,116,117,118,119,120,121,122,123,124,125,126,127,128,113,114,115,116,117,118,119,120,121,122,123,124,125,126,127,128,113,114,115,116,117,118,119,120,121,122,123,124,125,126,127,128,113,114,115,116,117,118,119,120,121,122,123,124,125,126,127,128,113,114,115,116,117,118,119,120,121,122,123,124,125,126,127,128,113,114,115,116,117,118,119,120,121,122,123,124,125,126,127,128,113,114,115,116,117,118,119,120,121,122,123,124,125,126,127,128,113,114,115,116,117,118,119,120,121,122,123,124,125,126,127,128,113,114,115,116,117,118,119,120,121,122,123,124,125,126,127,128,129,130,131,132,133,134,135,136,137,138,139,140,141,142,143,144,129,130,131,132,133,134,135,136,137,138,139,140,141,142,143,144,129,130,131,132,133,134,135,136,137,138,139,140,141,142,143,144,129,130,131,132,133,134,135,136,137,138,139,140,141,142,143,144,129,130,131,132,133,134,135,136,137,138,139,140,141,142,143,144,129,130,131,132,133,134,135,136,137,138,139,140,141,142,143,144,129,130,131,132,133,134,135,136,137,138,139,140,141,142,143,144,129,130,131,132,133,134,135,136,137,138,139,140,141,142,143,144,129,130,131,132,133,134,135,136,137,138,139,140,141,142,143,144,129,130,131,132,133,134,135,136,137,138,139,140,141,142,143,144,129,130,131,132,133,134,135,136,137,138,139,140,141,142,143,144,129,130,131,132,133,134,135,136,137,138,139,140,141,142,143,144,129,130,131,132,133,134,135,136,137,138,139,140,141,142,143,144,129,130,131,132,133,134,135,136,137,138,139,140,141,142,143,144,129,130,131,132,133,134,135,136,137,138,139,140,141,142,143,144,129,130,131,132,133,134,135,136,137,138,139,140,141,142,143,144,145,146,147,148,149,150,151,152,153,154,155,156,157,158,159,160,145,146,147,148,149,150,151,152,153,154,155,156,157,158,159,160,145,146,147,148,149,150,151,152,153,154,155,156,157,158,159,160,145,146,147,148,149,150,151,152,153,154,155,156,157,158,159,160,145,146,147,148,149,150,151,152,153,154,155,156,157,158,159,160,145,146,147,148,149,150,151,152,153,154,155,156,157,158,159,160,145,146,147,148,149,150,151,152,153,154,155,156,157,158,159,160,145,146,147,148,149,150,151,152,153,154,155,156,157,158,159,160,145,146,147,148,149,150,151,152,153,154,155,156,157,158,159,160,145,146,147,148,149,150,151,152,153,154,155,156,157,158,159,160,145,146,147,148,149,150,151,152,153,154,155,156,157,158,159,160,145,146,147,148,149,150,151,152,153,154,155,156,157,158,159,160,145,146,147,148,149,150,151,152,153,154,155,156,157,158,159,160,145,146,147,148,149,150,151,152,153,154,155,156,157,158,159,160,145,146,147,148,149,150,151,152,153,154,155,156,157,158,159,160,145,146,147,148,149,150,151,152,153,154,155,156,157,158,159,160,161,162,163,164,165,166,167,168,169,170,171,172,173,174,175,176,161,162,163,164,165,166,167,168,169,170,171,172,173,174,175,176,161,162,163,164,165,166,167,168,169,170,171,172,173,174,175,176,161,162,163,164,165,166,167,168,169,170,171,172,173,174,175,176,161,162,163,164,165,166,167,168,169,170,171,172,173,174,175,176,161,162,163,164,165,166,167,168,169,170,171,172,173,174,175,176,161,162,163,164,165,166,167,168,169,170,171,172,173,174,175,176,161,162,163,164,165,166,167,168,169,170,171,172,173,174,175,176,161,162,163,164,165,166,167,168,169,170,171,172,173,174,175,176,161,162,163,164,165,166,167,168,169,170,171,172,173,174,175,176,161,162,163,164,165,166,167,168,169,170,171,172,173,174,175,176,161,162,163,164,165,166,167,168,169,170,171,172,173,174,175,176,161,162,163,164,165,166,167,168,169,170,171,172,173,174,175,176,161,162,163,164,165,166,167,168,169,170,171,172,173,174,175,176,161,162,163,164,165,166,167,168,169,170,171,172,173,174,175,176,161,162,163,164,165,166,167,168,169,170,171,172,173,174,175,176,177,178,179,180,181,182,183,184,185,186,187,188,189,190,191,192,177,178,179,180,181,182,183,184,185,186,187,188,189,190,191,192,177,178,179,180,181,182,183,184,185,186,187,188,189,190,191,192,177,178,179,180,181,182,183,184,185,186,187,188,189,190,191,192,177,178,179,180,181,182,183,184,185,186,187,188,189,190,191,192,177,178,179,180,181,182,183,184,185,186,187,188,189,190,191,192,177,178,179,180,181,182,183,184,185,186,187,188,189,190,191,192,177,178,179,180,181,182,183,184,185,186,187,188,189,190,191,192,177,178,179,180,181,182,183,184,185,186,187,188,189,190,191,192,177,178,179,180,181,182,183,184,185,186,187,188,189,190,191,192,177,178,179,180,181,182,183,184,185,186,187,188,189,190,191,192,177,178,179,180,181,182,183,184,185,186,187,188,189,190,191,192,177,178,179,180,181,182,183,184,185,186,187,188,189,190,191,192,177,178,179,180,181,182,183,184,185,186,187,188,189,190,191,192,177,178,179,180,181,182,183,184,185,186,187,188,189,190,191,192,177,178,179,180,181,182,183,184,185,186,187,188,189,190,191,192,193,194,195,196,197,198,199,200,201,202,203,204,205,206,207,208,193,194,195,196,197,198,199,200,201,202,203,204,205,206,207,208,193,194,195,196,197,198,199,200,201,202,203,204,205,206,207,208,193,194,195,196,197,198,199,200,201,202,203,204,205,206,207,208,193,194,195,196,197,198,199,200,201,202,203,204,205,206,207,208,193,194,195,196,197,198,199,200,201,202,203,204,205,206,207,208,193,194,195,196,197,198,199,200,201,202,203,204,205,206,207,208,193,194,195,196,197,198,199,200,201,202,203,204,205,206,207,208,193,194,195,196,197,198,199,200,201,202,203,204,205,206,207,208,193,194,195,196,197,198,199,200,201,202,203,204,205,206,207,208,193,194,195,196,197,198,199,200,201,202,203,204,205,206,207,208,193,194,195,196,197,198,199,200,201,202,203,204,205,206,207,208,193,194,195,196,197,198,199,200,201,202,203,204,205,206,207,208,193,194,195,196,197,198,199,200,201,202,203,204,205,206,207,208,193,194,195,196,197,198,199,200,201,202,203,204,205,206,207,208,193,194,195,196,197,198,199,200,201,202,203,204,205,206,207,208,209,210,211,212,213,214,215,216,217,218,219,220,221,222,223,224,209,210,211,212,213,214,215,216,217,218,219,220,221,222,223,224,209,210,211,212,213,214,215,216,217,218,219,220,221,222,223,224,209,210,211,212,213,214,215,216,217,218,219,220,221,222,223,224,209,210,211,212,213,214,215,216,217,218,219,220,221,222,223,224,209,210,211,212,213,214,215,216,217,218,219,220,221,222,223,224,209,210,211,212,213,214,215,216,217,218,219,220,221,222,223,224,209,210,211,212,213,214,215,216,217,218,219,220,221,222,223,224,209,210,211,212,213,214,215,216,217,218,219,220,221,222,223,224,209,210,211,212,213,214,215,216,217,218,219,220,221,222,223,224,209,210,211,212,213,214,215,216,217,218,219,220,221,222,223,224,209,210,211,212,213,214,215,216,217,218,219,220,221,222,223,224,209,210,211,212,213,214,215,216,217,218,219,220,221,222,223,224,209,210,211,212,213,214,215,216,217,218,219,220,221,222,223,224,209,210,211,212,213,214,215,216,217,218,219,220,221,222,223,224,209,210,211,212,213,214,215,216,217,218,219,220,221,222,223,224,225,226,227,228,229,230,231,232,233,234,235,236,237,238,239,240,225,226,227,228,229,230,231,232,233,234,235,236,237,238,239,240,225,226,227,228,229,230,231,232,233,234,235,236,237,238,239,240,225,226,227,228,229,230,231,232,233,234,235,236,237,238,239,240,225,226,227,228,229,230,231,232,233,234,235,236,237,238,239,240,225,226,227,228,229,230,231,232,233,234,235,236,237,238,239,240,225,226,227,228,229,230,231,232,233,234,235,236,237,238,239,240,225,226,227,228,229,230,231,232,233,234,235,236,237,238,239,240,225,226,227,228,229,230,231,232,233,234,235,236,237,238,239,240,225,226,227,228,229,230,231,232,233,234,235,236,237,238,239,240,225,226,227,228,229,230,231,232,233,234,235,236,237,238,239,240,225,226,227,228,229,230,231,232,233,234,235,236,237,238,239,240,225,226,227,228,229,230,231,232,233,234,235,236,237,238,239,240,225,226,227,228,229,230,231,232,233,234,235,236,237,238,239,240,225,226,227,228,229,230,231,232,233,234,235,236,237,238,239,240,225,226,227,228,229,230,231,232,233,234,235,236,237,238,239,240,241,242,243,244,245,246,247,248,249,250,251,252,253,254,255,256,241,242,243,244,245,246,247,248,249,250,251,252,253,254,255,256,241,242,243,244,245,246,247,248,249,250,251,252,253,254,255,256,241,242,243,244,245,246,247,248,249,250,251,252,253,254,255,256,241,242,243,244,245,246,247,248,249,250,251,252,253,254,255,256,241,242,243,244,245,246,247,248,249,250,251,252,253,254,255,256,241,242,243,244,245,246,247,248,249,250,251,252,253,254,255,256,241,242,243,244,245,246,247,248,249,250,251,252,253,254,255,256,241,242,243,244,245,246,247,248,249,250,251,252,253,254,255,256,241,242,243,244,245,246,247,248,249,250,251,252,253,254,255,256,241,242,243,244,245,246,247,248,249,250,251,252,253,254,255,256,241,242,243,244,245,246,247,248,249,250,251,252,253,254,255,256,241,242,243,244,245,246,247,248,249,250,251,252,253,254,255,256,241,242,243,244,245,246,247,248,249,250,251,252,253,254,255,256,241,242,243,244,245,246,247,248,249,250,251,252,253,254,255,256,241,242,243,244,245,246,247,248,249,250,251,252,253,254,255,256,1,2,3,4,5,6,7,8,9,10,11,12,13,14,15,16,1,2,3,4,5,6,7,8,9,10,11,12,13,14,15,16,1,2,3,4,5,6,7,8,9,10,11,12,13,14,15,16,1,2,3,4,5,6,7,8,9,10,11,12,13,14,15,16,1,2,3,4,5,6,7,8,9,10,11,12,13,14,15,16,1,2,3,4,5,6,7,8,9,10,11,12,13,14,15,16,1,2,3,4,5,6,7,8,9,10,11,12,13,14,15,16,1,2,3,4,5,6,7,8,9,10,11,12,13,14,15,16,1,2,3,4,5,6,7,8,9,10,11,12,13,14,15,16,1,2,3,4,5,6,7,8,9,10,11,12,13,14,15,16,1,2,3,4,5,6,7,8,9,10,11,12,13,14,15,16,1,2,3,4,5,6,7,8,9,10,11,12,13,14,15,16,1,2,3,4,5,6,7,8,9,10,11,12,13,14,15,16,1,2,3,4,5,6,7,8,9,10,11,12,13,14,15,16,1,2,3,4,5,6,7,8,9,10,11,12,13,14,15,16,1,2,3,4,5,6,7,8,9,10,11,12,13,14,15,16,17,18,19,20,21,22,23,24,25,26,27,28,29,30,31,32,17,18,19,20,21,22,23,24,25,26,27,28,29,30,31,32,17,18,19,20,21,22,23,24,25,26,27,28,29,30,31,32,17,18,19,20,21,22,23,24,25,26,27,28,29,30,31,32,17,18,19,20,21,22,23,24,25,26,27,28,29,30,31,32,17,18,19,20,21,22,23,24,25,26,27,28,29,30,31,32,17,18,19,20,21,22,23,24,25,26,27,28,29,30,31,32,17,18,19,20,21,22,23,24,25,26,27,28,29,30,31,32,17,18,19,20,21,22,23,24,25,26,27,28,29,30,31,32,17,18,19,20,21,22,23,24,25,26,27,28,29,30,31,32,17,18,19,20,21,22,23,24,25,26,27,28,29,30,31,32,17,18,19,20,21,22,23,24,25,26,27,28,29,30,31,32,17,18,19,20,21,22,23,24,25,26,27,28,29,30,31,32,17,18,19,20,21,22,23,24,25,26,27,28,29,30,31,32,17,18,19,20,21,22,23,24,25,26,27,28,29,30,31,32,17,18,19,20,21,22,23,24,25,26,27,28,29,30,31,32,33,34,35,36,37,38,39,40,41,42,43,44,45,46,47,48,33,34,35,36,37,38,39,40,41,42,43,44,45,46,47,48,33,34,35,36,37,38,39,40,41,42,43,44,45,46,47,48,33,34,35,36,37,38,39,40,41,42,43,44,45,46,47,48,33,34,35,36,37,38,39,40,41,42,43,44,45,46,47,48,33,34,35,36,37,38,39,40,41,42,43,44,45,46,47,48,33,34,35,36,37,38,39,40,41,42,43,44,45,46,47,48,33,34,35,36,37,38,39,40,41,42,43,44,45,46,47,48,33,34,35,36,37,38,39,40,41,42,43,44,45,46,47,48,33,34,35,36,37,38,39,40,41,42,43,44,45,46,47,48,33,34,35,36,37,38,39,40,41,42,43,44,45,46,47,48,33,34,35,36,37,38,39,40,41,42,43,44,45,46,47,48,33,34,35,36,37,38,39,40,41,42,43,44,45,46,47,48,33,34,35,36,37,38,39,40,41,42,43,44,45,46,47,48,33,34,35,36,37,38,39,40,41,42,43,44,45,46,47,48,33,34,35,36,37,38,39,40,41,42,43,44,45,46,47,48,49,50,51,52,53,54,55,56,57,58,59,60,61,62,63,64,49,50,51,52,53,54,55,56,57,58,59,60,61,62,63,64,49,50,51,52,53,54,55,56,57,58,59,60,61,62,63,64,49,50,51,52,53,54,55,56,57,58,59,60,61,62,63,64,49,50,51,52,53,54,55,56,57,58,59,60,61,62,63,64,49,50,51,52,53,54,55,56,57,58,59,60,61,62,63,64,49,50,51,52,53,54,55,56,57,58,59,60,61,62,63,64,49,50,51,52,53,54,55,56,57,58,59,60,61,62,63,64,49,50,51,52,53,54,55,56,57,58,59,60,61,62,63,64,49,50,51,52,53,54,55,56,57,58,59,60,61,62,63,64,49,50,51,52,53,54,55,56,57,58,59,60,61,62,63,64,49,50,51,52,53,54,55,56,57,58,59,60,61,62,63,64,49,50,51,52,53,54,55,56,57,58,59,60,61,62,63,64,49,50,51,52,53,54,55,56,57,58,59,60,61,62,63,64,49,50,51,52,53,54,55,56,57,58,59,60,61,62,63,64,49,50,51,52,53,54,55,56,57,58,59,60,61,62,63,64,65,66,67,68,69,70,71,72,73,74,75,76,77,78,79,80,65,66,67,68,69,70,71,72,73,74,75,76,77,78,79,80,65,66,67,68,69,70,71,72,73,74,75,76,77,78,79,80,65,66,67,68,69,70,71,72,73,74,75,76,77,78,79,80,65,66,67,68,69,70,71,72,73,74,75,76,77,78,79,80,65,66,67,68,69,70,71,72,73,74,75,76,77,78,79,80,65,66,67,68,69,70,71,72,73,74,75,76,77,78,79,80,65,66,67,68,69,70,71,72,73,74,75,76,77,78,79,80,65,66,67,68,69,70,71,72,73,74,75,76,77,78,79,80,65,66,67,68,69,70,71,72,73,74,75,76,77,78,79,80,65,66,67,68,69,70,71,72,73,74,75,76,77,78,79,80,65,66,67,68,69,70,71,72,73,74,75,76,77,78,79,80,65,66,67,68,69,70,71,72,73,74,75,76,77,78,79,80,65,66,67,68,69,70,71,72,73,74,75,76,77,78,79,80,65,66,67,68,69,70,71,72,73,74,75,76,77,78,79,80,65,66,67,68,69,70,71,72,73,74,75,76,77,78,79,80,81,82,83,84,85,86,87,88,89,90,91,92,93,94,95,96,81,82,83,84,85,86,87,88,89,90,91,92,93,94,95,96,81,82,83,84,85,86,87,88,89,90,91,92,93,94,95,96,81,82,83,84,85,86,87,88,89,90,91,92,93,94,95,96,81,82,83,84,85,86,87,88,89,90,91,92,93,94,95,96,81,82,83,84,85,86,87,88,89,90,91,92,93,94,95,96,81,82,83,84,85,86,87,88,89,90,91,92,93,94,95,96,81,82,83,84,85,86,87,88,89,90,91,92,93,94,95,96,81,82,83,84,85,86,87,88,89,90,91,92,93,94,95,96,81,82,83,84,85,86,87,88,89,90,91,92,93,94,95,96,81,82,83,84,85,86,87,88,89,90,91,92,93,94,95,96,81,82,83,84,85,86,87,88,89,90,91,92,93,94,95,96,81,82,83,84,85,86,87,88,89,90,91,92,93,94,95,96,81,82,83,84,85,86,87,88,89,90,91,92,93,94,95,96,81,82,83,84,85,86,87,88,89,90,91,92,93,94,95,96,81,82,83,84,85,86,87,88,89,90,91,92,93,94,95,96,97,98,99,100,101,102,103,104,105,106,107,108,109,110,111,112,97,98,99,100,101,102,103,104,105,106,107,108,109,110,111,112,97,98,99,100,101,102,103,104,105,106,107,108,109,110,111,112,97,98,99,100,101,102,103,104,105,106,107,108,109,110,111,112,97,98,99,100,101,102,103,104,105,106,107,108,109,110,111,112,97,98,99,100,101,102,103,104,105,106,107,108,109,110,111,112,97,98,99,100,101,102,103,104,105,106,107,108,109,110,111,112,97,98,99,100,101,102,103,104,105,106,107,108,109,110,111,112,97,98,99,100,101,102,103,104,105,106,107,108,109,110,111,112,97,98,99,100,101,102,103,104,105,106,107,108,109,110,111,112,97,98,99,100,101,102,103,104,105,106,107,108,109,110,111,112,97,98,99,100,101,102,103,104,105,106,107,108,109,110,111,112,97,98,99,100,101,102,103,104,105,106,107,108,109,110,111,112,97,98,99,100,101,102,103,104,105,106,107,108,109,110,111,112,97,98,99,100,101,102,103,104,105,106,107,108,109,110,111,112,97,98,99,100,101,102,103,104,105,106,107,108,109,110,111,112,113,114,115,116,117,118,119,120,121,122,123,124,125,126,127,128,113,114,115,116,117,118,119,120,121,122,123,124,125,126,127,128,113,114,115,116,117,118,119,120,121,122,123,124,125,126,127,128,113,114,115,116,117,118,119,120,121,122,123,124,125,126,127,128,113,114,115,116,117,118,119,120,121,122,123,124,125,126,127,128,113,114,115,116,117,118,119,120,121,122,123,124,125,126,127,128,113,114,115,116,117,118,119,120,121,122,123,124,125,126,127,128,113,114,115,116,117,118,119,120,121,122,123,124,125,126,127,128,113,114,115,116,117,118,119,120,121,122,123,124,125,126,127,128,113,114,115,116,117,118,119,120,121,122,123,124,125,126,127,128,113,114,115,116,117,118,119,120,121,122,123,124,125,126,127,128,113,114,115,116,117,118,119,120,121,122,123,124,125,126,127,128,113,114,115,116,117,118,119,120,121,122,123,124,125,126,127,128,113,114,115,116,117,118,119,120,121,122,123,124,125,126,127,128,113,114,115,116,117,118,119,120,121,122,123,124,125,126,127,128,113,114,115,116,117,118,119,120,121,122,123,124,125,126,127,128,129,130,131,132,133,134,135,136,137,138,139,140,141,142,143,144,129,130,131,132,133,134,135,136,137,138,139,140,141,142,143,144,129,130,131,132,133,134,135,136,137,138,139,140,141,142,143,144,129,130,131,132,133,134,135,136,137,138,139,140,141,142,143,144,129,130,131,132,133,134,135,136,137,138,139,140,141,142,143,144,129,130,131,132,133,134,135,136,137,138,139,140,141,142,143,144,129,130,131,132,133,134,135,136,137,138,139,140,141,142,143,144,129,130,131,132,133,134,135,136,137,138,139,140,141,142,143,144,129,130,131,132,133,134,135,136,137,138,139,140,141,142,143,144,129,130,131,132,133,134,135,136,137,138,139,140,141,142,143,144,129,130,131,132,133,134,135,136,137,138,139,140,141,142,143,144,129,130,131,132,133,134,135,136,137,138,139,140,141,142,143,144,129,130,131,132,133,134,135,136,137,138,139,140,141,142,143,144,129,130,131,132,133,134,135,136,137,138,139,140,141,142,143,144,129,130,131,132,133,134,135,136,137,138,139,140,141,142,143,144,129,130,131,132,133,134,135,136,137,138,139,140,141,142,143,144,145,146,147,148,149,150,151,152,153,154,155,156,157,158,159,160,145,146,147,148,149,150,151,152,153,154,155,156,157,158,159,160,145,146,147,148,149,150,151,152,153,154,155,156,157,158,159,160,145,146,147,148,149,150,151,152,153,154,155,156,157,158,159,160,145,146,147,148,149,150,151,152,153,154,155,156,157,158,159,160,145,146,147,148,149,150,151,152,153,154,155,156,157,158,159,160,145,146,147,148,149,150,151,152,153,154,155,156,157,158,159,160,145,146,147,148,149,150,151,152,153,154,155,156,157,158,159,160,145,146,147,148,149,150,151,152,153,154,155,156,157,158,159,160,145,146,147,148,149,150,151,152,153,154,155,156,157,158,159,160,145,146,147,148,149,150,151,152,153,154,155,156,157,158,159,160,145,146,147,148,149,150,151,152,153,154,155,156,157,158,159,160,145,146,147,148,149,150,151,152,153,154,155,156,157,158,159,160,145,146,147,148,149,150,151,152,153,154,155,156,157,158,159,160,145,146,147,148,149,150,151,152,153,154,155,156,157,158,159,160,145,146,147,148,149,150,151,152,153,154,155,156,157,158,159,160,161,162,163,164,165,166,167,168,169,170,171,172,173,174,175,176,161,162,163,164,165,166,167,168,169,170,171,172,173,174,175,176,161,162,163,164,165,166,167,168,169,170,171,172,173,174,175,176,161,162,163,164,165,166,167,168,169,170,171,172,173,174,175,176,161,162,163,164,165,166,167,168,169,170,171,172,173,174,175,176,161,162,163,164,165,166,167,168,169,170,171,172,173,174,175,176,161,162,163,164,165,166,167,168,169,170,171,172,173,174,175,176,161,162,163,164,165,166,167,168,169,170,171,172,173,174,175,176,161,162,163,164,165,166,167,168,169,170,171,172,173,174,175,176,161,162,163,164,165,166,167,168,169,170,171,172,173,174,175,176,161,162,163,164,165,166,167,168,169,170,171,172,173,174,175,176,161,162,163,164,165,166,167,168,169,170,171,172,173,174,175,176,161,162,163,164,165,166,167,168,169,170,171,172,173,174,175,176,161,162,163,164,165,166,167,168,169,170,171,172,173,174,175,176,161,162,163,164,165,166,167,168,169,170,171,172,173,174,175,176,161,162,163,164,165,166,167,168,169,170,171,172,173,174,175,176,177,178,179,180,181,182,183,184,185,186,187,188,189,190,191,192,177,178,179,180,181,182,183,184,185,186,187,188,189,190,191,192,177,178,179,180,181,182,183,184,185,186,187,188,189,190,191,192,177,178,179,180,181,182,183,184,185,186,187,188,189,190,191,192,177,178,179,180,181,182,183,184,185,186,187,188,189,190,191,192,177,178,179,180,181,182,183,184,185,186,187,188,189,190,191,192,177,178,179,180,181,182,183,184,185,186,187,188,189,190,191,192,177,178,179,180,181,182,183,184,185,186,187,188,189,190,191,192,177,178,179,180,181,182,183,184,185,186,187,188,189,190,191,192,177,178,179,180,181,182,183,184,185,186,187,188,189,190,191,192,177,178,179,180,181,182,183,184,185,186,187,188,189,190,191,192,177,178,179,180,181,182,183,184,185,186,187,188,189,190,191,192,177,178,179,180,181,182,183,184,185,186,187,188,189,190,191,192,177,178,179,180,181,182,183,184,185,186,187,188,189,190,191,192,177,178,179,180,181,182,183,184,185,186,187,188,189,190,191,192,177,178,179,180,181,182,183,184,185,186,187,188,189,190,191,192,193,194,195,196,197,198,199,200,201,202,203,204,205,206,207,208,193,194,195,196,197,198,199,200,201,202,203,204,205,206,207,208,193,194,195,196,197,198,199,200,201,202,203,204,205,206,207,208,193,194,195,196,197,198,199,200,201,202,203,204,205,206,207,208,193,194,195,196,197,198,199,200,201,202,203,204,205,206,207,208,193,194,195,196,197,198,199,200,201,202,203,204,205,206,207,208,193,194,195,196,197,198,199,200,201,202,203,204,205,206,207,208,193,194,195,196,197,198,199,200,201,202,203,204,205,206,207,208,193,194,195,196,197,198,199,200,201,202,203,204,205,206,207,208,193,194,195,196,197,198,199,200,201,202,203,204,205,206,207,208,193,194,195,196,197,198,199,200,201,202,203,204,205,206,207,208,193,194,195,196,197,198,199,200,201,202,203,204,205,206,207,208,193,194,195,196,197,198,199,200,201,202,203,204,205,206,207,208,193,194,195,196,197,198,199,200,201,202,203,204,205,206,207,208,193,194,195,196,197,198,199,200,201,202,203,204,205,206,207,208,193,194,195,196,197,198,199,200,201,202,203,204,205,206,207,208,209,210,211,212,213,214,215,216,217,218,219,220,221,222,223,224,209,210,211,212,213,214,215,216,217,218,219,220,221,222,223,224,209,210,211,212,213,214,215,216,217,218,219,220,221,222,223,224,209,210,211,212,213,214,215,216,217,218,219,220,221,222,223,224,209,210,211,212,213,214,215,216,217,218,219,220,221,222,223,224,209,210,211,212,213,214,215,216,217,218,219,220,221,222,223,224,209,210,211,212,213,214,215,216,217,218,219,220,221,222,223,224,209,210,211,212,213,214,215,216,217,218,219,220,221,222,223,224,209,210,211,212,213,214,215,216,217,218,219,220,221,222,223,224,209,210,211,212,213,214,215,216,217,218,219,220,221,222,223,224,209,210,211,212,213,214,215,216,217,218,219,220,221,222,223,224,209,210,211,212,213,214,215,216,217,218,219,220,221,222,223,224,209,210,211,212,213,214,215,216,217,218,219,220,221,222,223,224,209,210,211,212,213,214,215,216,217,218,219,220,221,222,223,224,209,210,211,212,213,214,215,216,217,218,219,220,221,222,223,224,209,210,211,212,213,214,215,216,217,218,219,220,221,222,223,224,225,226,227,228,229,230,231,232,233,234,235,236,237,238,239,240,225,226,227,228,229,230,231,232,233,234,235,236,237,238,239,240,225,226,227,228,229,230,231,232,233,234,235,236,237,238,239,240,225,226,227,228,229,230,231,232,233,234,235,236,237,238,239,240,225,226,227,228,229,230,231,232,233,234,235,236,237,238,239,240,225,226,227,228,229,230,231,232,233,234,235,236,237,238,239,240,225,226,227,228,229,230,231,232,233,234,235,236,237,238,239,240,225,226,227,228,229,230,231,232,233,234,235,236,237,238,239,240,225,226,227,228,229,230,231,232,233,234,235,236,237,238,239,240,225,226,227,228,229,230,231,232,233,234,235,236,237,238,239,240,225,226,227,228,229,230,231,232,233,234,235,236,237,238,239,240,225,226,227,228,229,230,231,232,233,234,235,236,237,238,239,240,225,226,227,228,229,230,231,232,233,234,235,236,237,238,239,240,225,226,227,228,229,230,231,232,233,234,235,236,237,238,239,240,225,226,227,228,229,230,231,232,233,234,235,236,237,238,239,240,225,226,227,228,229,230,231,232,233,234,235,236,237,238,239,240,241,242,243,244,245,246,247,248,249,250,251,252,253,254,255,256,241,242,243,244,245,246,247,248,249,250,251,252,253,254,255,256,241,242,243,244,245,246,247,248,249,250,251,252,253,254,255,256,241,242,243,244,245,246,247,248,249,250,251,252,253,254,255,256,241,242,243,244,245,246,247,248,249,250,251,252,253,254,255,256,241,242,243,244,245,246,247,248,249,250,251,252,253,254,255,256,241,242,243,244,245,246,247,248,249,250,251,252,253,254,255,256,241,242,243,244,245,246,247,248,249,250,251,252,253,254,255,256,241,242,243,244,245,246,247,248,249,250,251,252,253,254,255,256,241,242,243,244,245,246,247,248,249,250,251,252,253,254,255,256,241,242,243,244,245,246,247,248,249,250,251,252,253,254,255,256,241,242,243,244,245,246,247,248,249,250,251,252,253,254,255,256,241,242,243,244,245,246,247,248,249,250,251,252,253,254,255,256,241,242,243,244,245,246,247,248,249,250,251,252,253,254,255,256,241,242,243,244,245,246,247,248,249,250,251,252,253,254,255,256,241,242,243,244,245,246,247,248,249,250,251,252,253,254,255,256,1,2,3,4,5,6,7,8,9,10,11,12,13,14,15,16,1,2,3,4,5,6,7,8,9,10,11,12,13,14,15,16,1,2,3,4,5,6,7,8,9,10,11,12,13,14,15,16,1,2,3,4,5,6,7,8,9,10,11,12,13,14,15,16,1,2,3,4,5,6,7,8,9,10,11,12,13,14,15,16,1,2,3,4,5,6,7,8,9,10,11,12,13,14,15,16,1,2,3,4,5,6,7,8,9,10,11,12,13,14,15,16,1,2,3,4,5,6,7,8,9,10,11,12,13,14,15,16,1,2,3,4,5,6,7,8,9,10,11,12,13,14,15,16,1,2,3,4,5,6,7,8,9,10,11,12,13,14,15,16,1,2,3,4,5,6,7,8,9,10,11,12,13,14,15,16,1,2,3,4,5,6,7,8,9,10,11,12,13,14,15,16,1,2,3,4,5,6,7,8,9,10,11,12,13,14,15,16,1,2,3,4,5,6,7,8,9,10,11,12,13,14,15,16,1,2,3,4,5,6,7,8,9,10,11,12,13,14,15,16,1,2,3,4,5,6,7,8,9,10,11,12,13,14,15,16,17,18,19,20,21,22,23,24,25,26,27,28,29,30,31,32,17,18,19,20,21,22,23,24,25,26,27,28,29,30,31,32,17,18,19,20,21,22,23,24,25,26,27,28,29,30,31,32,17,18,19,20,21,22,23,24,25,26,27,28,29,30,31,32,17,18,19,20,21,22,23,24,25,26,27,28,29,30,31,32,17,18,19,20,21,22,23,24,25,26,27,28,29,30,31,32,17,18,19,20,21,22,23,24,25,26,27,28,29,30,31,32,17,18,19,20,21,22,23,24,25,26,27,28,29,30,31,32,17,18,19,20,21,22,23,24,25,26,27,28,29,30,31,32,17,18,19,20,21,22,23,24,25,26,27,28,29,30,31,32,17,18,19,20,21,22,23,24,25,26,27,28,29,30,31,32,17,18,19,20,21,22,23,24,25,26,27,28,29,30,31,32,17,18,19,20,21,22,23,24,25,26,27,28,29,30,31,32,17,18,19,20,21,22,23,24,25,26,27,28,29,30,31,32,17,18,19,20,21,22,23,24,25,26,27,28,29,30,31,32,17,18,19,20,21,22,23,24,25,26,27,28,29,30,31,32,33,34,35,36,37,38,39,40,41,42,43,44,45,46,47,48,33,34,35,36,37,38,39,40,41,42,43,44,45,46,47,48,33,34,35,36,37,38,39,40,41,42,43,44,45,46,47,48,33,34,35,36,37,38,39,40,41,42,43,44,45,46,47,48,33,34,35,36,37,38,39,40,41,42,43,44,45,46,47,48,33,34,35,36,37,38,39,40,41,42,43,44,45,46,47,48,33,34,35,36,37,38,39,40,41,42,43,44,45,46,47,48,33,34,35,36,37,38,39,40,41,42,43,44,45,46,47,48,33,34,35,36,37,38,39,40,41,42,43,44,45,46,47,48,33,34,35,36,37,38,39,40,41,42,43,44,45,46,47,48,33,34,35,36,37,38,39,40,41,42,43,44,45,46,47,48,33,34,35,36,37,38,39,40,41,42,43,44,45,46,47,48,33,34,35,36,37,38,39,40,41,42,43,44,45,46,47,48,33,34,35,36,37,38,39,40,41,42,43,44,45,46,47,48,33,34,35,36,37,38,39,40,41,42,43,44,45,46,47,48,33,34,35,36,37,38,39,40,41,42,43,44,45,46,47,48,49,50,51,52,53,54,55,56,57,58,59,60,61,62,63,64,49,50,51,52,53,54,55,56,57,58,59,60,61,62,63,64,49,50,51,52,53,54,55,56,57,58,59,60,61,62,63,64,49,50,51,52,53,54,55,56,57,58,59,60,61,62,63,64,49,50,51,52,53,54,55,56,57,58,59,60,61,62,63,64,49,50,51,52,53,54,55,56,57,58,59,60,61,62,63,64,49,50,51,52,53,54,55,56,57,58,59,60,61,62,63,64,49,50,51,52,53,54,55,56,57,58,59,60,61,62,63,64,49,50,51,52,53,54,55,56,57,58,59,60,61,62,63,64,49,50,51,52,53,54,55,56,57,58,59,60,61,62,63,64,49,50,51,52,53,54,55,56,57,58,59,60,61,62,63,64,49,50,51,52,53,54,55,56,57,58,59,60,61,62,63,64,49,50,51,52,53,54,55,56,57,58,59,60,61,62,63,64,49,50,51,52,53,54,55,56,57,58,59,60,61,62,63,64,49,50,51,52,53,54,55,56,57,58,59,60,61,62,63,64,49,50,51,52,53,54,55,56,57,58,59,60,61,62,63,64,65,66,67,68,69,70,71,72,73,74,75,76,77,78,79,80,65,66,67,68,69,70,71,72,73,74,75,76,77,78,79,80,65,66,67,68,69,70,71,72,73,74,75,76,77,78,79,80,65,66,67,68,69,70,71,72,73,74,75,76,77,78,79,80,65,66,67,68,69,70,71,72,73,74,75,76,77,78,79,80,65,66,67,68,69,70,71,72,73,74,75,76,77,78,79,80,65,66,67,68,69,70,71,72,73,74,75,76,77,78,79,80,65,66,67,68,69,70,71,72,73,74,75,76,77,78,79,80,65,66,67,68,69,70,71,72,73,74,75,76,77,78,79,80,65,66,67,68,69,70,71,72,73,74,75,76,77,78,79,80,65,66,67,68,69,70,71,72,73,74,75,76,77,78,79,80,65,66,67,68,69,70,71,72,73,74,75,76,77,78,79,80,65,66,67,68,69,70,71,72,73,74,75,76,77,78,79,80,65,66,67,68,69,70,71,72,73,74,75,76,77,78,79,80,65,66,67,68,69,70,71,72,73,74,75,76,77,78,79,80,65,66,67,68,69,70,71,72,73,74,75,76,77,78,79,80,81,82,83,84,85,86,87,88,89,90,91,92,93,94,95,96,81,82,83,84,85,86,87,88,89,90,91,92,93,94,95,96,81,82,83,84,85,86,87,88,89,90,91,92,93,94,95,96,81,82,83,84,85,86,87,88,89,90,91,92,93,94,95,96,81,82,83,84,85,86,87,88,89,90,91,92,93,94,95,96,81,82,83,84,85,86,87,88,89,90,91,92,93,94,95,96,81,82,83,84,85,86,87,88,89,90,91,92,93,94,95,96,81,82,83,84,85,86,87,88,89,90,91,92,93,94,95,96,81,82,83,84,85,86,87,88,89,90,91,92,93,94,95,96,81,82,83,84,85,86,87,88,89,90,91,92,93,94,95,96,81,82,83,84,85,86,87,88,89,90,91,92,93,94,95,96,81,82,83,84,85,86,87,88,89,90,91,92,93,94,95,96,81,82,83,84,85,86,87,88,89,90,91,92,93,94,95,96,81,82,83,84,85,86,87,88,89,90,91,92,93,94,95,96,81,82,83,84,85,86,87,88,89,90,91,92,93,94,95,96,81,82,83,84,85,86,87,88,89,90,91,92,93,94,95,96,97,98,99,100,101,102,103,104,105,106,107,108,109,110,111,112,97,98,99,100,101,102,103,104,105,106,107,108,109,110,111,112,97,98,99,100,101,102,103,104,105,106,107,108,109,110,111,112,97,98,99,100,101,102,103,104,105,106,107,108,109,110,111,112,97,98,99,100,101,102,103,104,105,106,107,108,109,110,111,112,97,98,99,100,101,102,103,104,105,106,107,108,109,110,111,112,97,98,99,100,101,102,103,104,105,106,107,108,109,110,111,112,97,98,99,100,101,102,103,104,105,106,107,108,109,110,111,112,97,98,99,100,101,102,103,104,105,106,107,108,109,110,111,112,97,98,99,100,101,102,103,104,105,106,107,108,109,110,111,112,97,98,99,100,101,102,103,104,105,106,107,108,109,110,111,112,97,98,99,100,101,102,103,104,105,106,107,108,109,110,111,112,97,98,99,100,101,102,103,104,105,106,107,108,109,110,111,112,97,98,99,100,101,102,103,104,105,106,107,108,109,110,111,112,97,98,99,100,101,102,103,104,105,106,107,108,109,110,111,112,97,98,99,100,101,102,103,104,105,106,107,108,109,110,111,112,113,114,115,116,117,118,119,120,121,122,123,124,125,126,127,128,113,114,115,116,117,118,119,120,121,122,123,124,125,126,127,128,113,114,115,116,117,118,119,120,121,122,123,124,125,126,127,128,113,114,115,116,117,118,119,120,121,122,123,124,125,126,127,128,113,114,115,116,117,118,119,120,121,122,123,124,125,126,127,128,113,114,115,116,117,118,119,120,121,122,123,124,125,126,127,128,113,114,115,116,117,118,119,120,121,122,123,124,125,126,127,128,113,114,115,116,117,118,119,120,121,122,123,124,125,126,127,128,113,114,115,116,117,118,119,120,121,122,123,124,125,126,127,128,113,114,115,116,117,118,119,120,121,122,123,124,125,126,127,128,113,114,115,116,117,118,119,120,121,122,123,124,125,126,127,128,113,114,115,116,117,118,119,120,121,122,123,124,125,126,127,128,113,114,115,116,117,118,119,120,121,122,123,124,125,126,127,128,113,114,115,116,117,118,119,120,121,122,123,124,125,126,127,128,113,114,115,116,117,118,119,120,121,122,123,124,125,126,127,128,113,114,115,116,117,118,119,120,121,122,123,124,125,126,127,128,129,130,131,132,133,134,135,136,137,138,139,140,141,142,143,144,129,130,131,132,133,134,135,136,137,138,139,140,141,142,143,144,129,130,131,132,133,134,135,136,137,138,139,140,141,142,143,144,129,130,131,132,133,134,135,136,137,138,139,140,141,142,143,144,129,130,131,132,133,134,135,136,137,138,139,140,141,142,143,144,129,130,131,132,133,134,135,136,137,138,139,140,141,142,143,144,129,130,131,132,133,134,135,136,137,138,139,140,141,142,143,144,129,130,131,132,133,134,135,136,137,138,139,140,141,142,143,144,129,130,131,132,133,134,135,136,137,138,139,140,141,142,143,144,129,130,131,132,133,134,135,136,137,138,139,140,141,142,143,144,129,130,131,132,133,134,135,136,137,138,139,140,141,142,143,144,129,130,131,132,133,134,135,136,137,138,139,140,141,142,143,144,129,130,131,132,133,134,135,136,137,138,139,140,141,142,143,144,129,130,131,132,133,134,135,136,137,138,139,140,141,142,143,144,129,130,131,132,133,134,135,136,137,138,139,140,141,142,143,144,129,130,131,132,133,134,135,136,137,138,139,140,141,142,143,144,145,146,147,148,149,150,151,152,153,154,155,156,157,158,159,160,145,146,147,148,149,150,151,152,153,154,155,156,157,158,159,160,145,146,147,148,149,150,151,152,153,154,155,156,157,158,159,160,145,146,147,148,149,150,151,152,153,154,155,156,157,158,159,160,145,146,147,148,149,150,151,152,153,154,155,156,157,158,159,160,145,146,147,148,149,150,151,152,153,154,155,156,157,158,159,160,145,146,147,148,149,150,151,152,153,154,155,156,157,158,159,160,145,146,147,148,149,150,151,152,153,154,155,156,157,158,159,160,145,146,147,148,149,150,151,152,153,154,155,156,157,158,159,160,145,146,147,148,149,150,151,152,153,154,155,156,157,158,159,160,145,146,147,148,149,150,151,152,153,154,155,156,157,158,159,160,145,146,147,148,149,150,151,152,153,154,155,156,157,158,159,160,145,146,147,148,149,150,151,152,153,154,155,156,157,158,159,160,145,146,147,148,149,150,151,152,153,154,155,156,157,158,159,160,145,146,147,148,149,150,151,152,153,154,155,156,157,158,159,160,145,146,147,148,149,150,151,152,153,154,155,156,157,158,159,160,161,162,163,164,165,166,167,168,169,170,171,172,173,174,175,176,161,162,163,164,165,166,167,168,169,170,171,172,173,174,175,176,161,162,163,164,165,166,167,168,169,170,171,172,173,174,175,176,161,162,163,164,165,166,167,168,169,170,171,172,173,174,175,176,161,162,163,164,165,166,167,168,169,170,171,172,173,174,175,176,161,162,163,164,165,166,167,168,169,170,171,172,173,174,175,176,161,162,163,164,165,166,167,168,169,170,171,172,173,174,175,176,161,162,163,164,165,166,167,168,169,170,171,172,173,174,175,176,161,162,163,164,165,166,167,168,169,170,171,172,173,174,175,176,161,162,163,164,165,166,167,168,169,170,171,172,173,174,175,176,161,162,163,164,165,166,167,168,169,170,171,172,173,174,175,176,161,162,163,164,165,166,167,168,169,170,171,172,173,174,175,176,161,162,163,164,165,166,167,168,169,170,171,172,173,174,175,176,161,162,163,164,165,166,167,168,169,170,171,172,173,174,175,176,161,162,163,164,165,166,167,168,169,170,171,172,173,174,175,176,161,162,163,164,165,166,167,168,169,170,171,172,173,174,175,176,177,178,179,180,181,182,183,184,185,186,187,188,189,190,191,192,177,178,179,180,181,182,183,184,185,186,187,188,189,190,191,192,177,178,179,180,181,182,183,184,185,186,187,188,189,190,191,192,177,178,179,180,181,182,183,184,185,186,187,188,189,190,191,192,177,178,179,180,181,182,183,184,185,186,187,188,189,190,191,192,177,178,179,180,181,182,183,184,185,186,187,188,189,190,191,192,177,178,179,180,181,182,183,184,185,186,187,188,189,190,191,192,177,178,179,180,181,182,183,184,185,186,187,188,189,190,191,192,177,178,179,180,181,182,183,184,185,186,187,188,189,190,191,192,177,178,179,180,181,182,183,184,185,186,187,188,189,190,191,192,177,178,179,180,181,182,183,184,185,186,187,188,189,190,191,192,177,178,179,180,181,182,183,184,185,186,187,188,189,190,191,192,177,178,179,180,181,182,183,184,185,186,187,188,189,190,191,192,177,178,179,180,181,182,183,184,185,186,187,188,189,190,191,192,177,178,179,180,181,182,183,184,185,186,187,188,189,190,191,192,177,178,179,180,181,182,183,184,185,186,187,188,189,190,191,192,193,194,195,196,197,198,199,200,201,202,203,204,205,206,207,208,193,194,195,196,197,198,199,200,201,202,203,204,205,206,207,208,193,194,195,196,197,198,199,200,201,202,203,204,205,206,207,208,193,194,195,196,197,198,199,200,201,202,203,204,205,206,207,208,193,194,195,196,197,198,199,200,201,202,203,204,205,206,207,208,193,194,195,196,197,198,199,200,201,202,203,204,205,206,207,208,193,194,195,196,197,198,199,200,201,202,203,204,205,206,207,208,193,194,195,196,197,198,199,200,201,202,203,204,205,206,207,208,193,194,195,196,197,198,199,200,201,202,203,204,205,206,207,208,193,194,195,196,197,198,199,200,201,202,203,204,205,206,207,208,193,194,195,196,197,198,199,200,201,202,203,204,205,206,207,208,193,194,195,196,197,198,199,200,201,202,203,204,205,206,207,208,193,194,195,196,197,198,199,200,201,202,203,204,205,206,207,208,193,194,195,196,197,198,199,200,201,202,203,204,205,206,207,208,193,194,195,196,197,198,199,200,201,202,203,204,205,206,207,208,193,194,195,196,197,198,199,200,201,202,203,204,205,206,207,208,209,210,211,212,213,214,215,216,217,218,219,220,221,222,223,224,209,210,211,212,213,214,215,216,217,218,219,220,221,222,223,224,209,210,211,212,213,214,215,216,217,218,219,220,221,222,223,224,209,210,211,212,213,214,215,216,217,218,219,220,221,222,223,224,209,210,211,212,213,214,215,216,217,218,219,220,221,222,223,224,209,210,211,212,213,214,215,216,217,218,219,220,221,222,223,224,209,210,211,212,213,214,215,216,217,218,219,220,221,222,223,224,209,210,211,212,213,214,215,216,217,218,219,220,221,222,223,224,209,210,211,212,213,214,215,216,217,218,219,220,221,222,223,224,209,210,211,212,213,214,215,216,217,218,219,220,221,222,223,224,209,210,211,212,213,214,215,216,217,218,219,220,221,222,223,224,209,210,211,212,213,214,215,216,217,218,219,220,221,222,223,224,209,210,211,212,213,214,215,216,217,218,219,220,221,222,223,224,209,210,211,212,213,214,215,216,217,218,219,220,221,222,223,224,209,210,211,212,213,214,215,216,217,218,219,220,221,222,223,224,209,210,211,212,213,214,215,216,217,218,219,220,221,222,223,224,225,226,227,228,229,230,231,232,233,234,235,236,237,238,239,240,225,226,227,228,229,230,231,232,233,234,235,236,237,238,239,240,225,226,227,228,229,230,231,232,233,234,235,236,237,238,239,240,225,226,227,228,229,230,231,232,233,234,235,236,237,238,239,240,225,226,227,228,229,230,231,232,233,234,235,236,237,238,239,240,225,226,227,228,229,230,231,232,233,234,235,236,237,238,239,240,225,226,227,228,229,230,231,232,233,234,235,236,237,238,239,240,225,226,227,228,229,230,231,232,233,234,235,236,237,238,239,240,225,226,227,228,229,230,231,232,233,234,235,236,237,238,239,240,225,226,227,228,229,230,231,232,233,234,235,236,237,238,239,240,225,226,227,228,229,230,231,232,233,234,235,236,237,238,239,240,225,226,227,228,229,230,231,232,233,234,235,236,237,238,239,240,225,226,227,228,229,230,231,232,233,234,235,236,237,238,239,240,225,226,227,228,229,230,231,232,233,234,235,236,237,238,239,240,225,226,227,228,229,230,231,232,233,234,235,236,237,238,239,240,225,226,227,228,229,230,231,232,233,234,235,236,237,238,239,240,241,242,243,244,245,246,247,248,249,250,251,252,253,254,255,256,241,242,243,244,245,246,247,248,249,250,251,252,253,254,255,256,241,242,243,244,245,246,247,248,249,250,251,252,253,254,255,256,241,242,243,244,245,246,247,248,249,250,251,252,253,254,255,256,241,242,243,244,245,246,247,248,249,250,251,252,253,254,255,256,241,242,243,244,245,246,247,248,249,250,251,252,253,254,255,256,241,242,243,244,245,246,247,248,249,250,251,252,253,254,255,256,241,242,243,244,245,246,247,248,249,250,251,252,253,254,255,256,241,242,243,244,245,246,247,248,249,250,251,252,253,254,255,256,241,242,243,244,245,246,247,248,249,250,251,252,253,254,255,256,241,242,243,244,245,246,247,248,249,250,251,252,253,254,255,256,241,242,243,244,245,246,247,248,249,250,251,252,253,254,255,256,241,242,243,244,245,246,247,248,249,250,251,252,253,254,255,256,241,242,243,244,245,246,247,248,249,250,251,252,253,254,255,256,241,242,243,244,245,246,247,248,249,250,251,252,253,254,255,256,241,242,243,244,245,246,247,248,249,250,251,252,253,254,255,256,1,2,3,4,5,6,7,8,9,10,11,12,13,14,15,16,1,2,3,4,5,6,7,8,9,10,11,12,13,14,15,16,1,2,3,4,5,6,7,8,9,10,11,12,13,14,15,16,1,2,3,4,5,6,7,8,9,10,11,12,13,14,15,16,1,2,3,4,5,6,7,8,9,10,11,12,13,14,15,16,1,2,3,4,5,6,7,8,9,10,11,12,13,14,15,16,1,2,3,4,5,6,7,8,9,10,11,12,13,14,15,16,1,2,3,4,5,6,7,8,9,10,11,12,13,14,15,16,1,2,3,4,5,6,7,8,9,10,11,12,13,14,15,16,1,2,3,4,5,6,7,8,9,10,11,12,13,14,15,16,1,2,3,4,5,6,7,8,9,10,11,12,13,14,15,16,1,2,3,4,5,6,7,8,9,10,11,12,13,14,15,16,1,2,3,4,5,6,7,8,9,10,11,12,13,14,15,16,1,2,3,4,5,6,7,8,9,10,11,12,13,14,15,16,1,2,3,4,5,6,7,8,9,10,11,12,13,14,15,16,1,2,3,4,5,6,7,8,9,10,11,12,13,14,15,16,17,18,19,20,21,22,23,24,25,26,27,28,29,30,31,32,17,18,19,20,21,22,23,24,25,26,27,28,29,30,31,32,17,18,19,20,21,22,23,24,25,26,27,28,29,30,31,32,17,18,19,20,21,22,23,24,25,26,27,28,29,30,31,32,17,18,19,20,21,22,23,24,25,26,27,28,29,30,31,32,17,18,19,20,21,22,23,24,25,26,27,28,29,30,31,32,17,18,19,20,21,22,23,24,25,26,27,28,29,30,31,32,17,18,19,20,21,22,23,24,25,26,27,28,29,30,31,32,17,18,19,20,21,22,23,24,25,26,27,28,29,30,31,32,17,18,19,20,21,22,23,24,25,26,27,28,29,30,31,32,17,18,19,20,21,22,23,24,25,26,27,28,29,30,31,32,17,18,19,20,21,22,23,24,25,26,27,28,29,30,31,32,17,18,19,20,21,22,23,24,25,26,27,28,29,30,31,32,17,18,19,20,21,22,23,24,25,26,27,28,29,30,31,32,17,18,19,20,21,22,23,24,25,26,27,28,29,30,31,32,17,18,19,20,21,22,23,24,25,26,27,28,29,30,31,32,33,34,35,36,37,38,39,40,41,42,43,44,45,46,47,48,33,34,35,36,37,38,39,40,41,42,43,44,45,46,47,48,33,34,35,36,37,38,39,40,41,42,43,44,45,46,47,48,33,34,35,36,37,38,39,40,41,42,43,44,45,46,47,48,33,34,35,36,37,38,39,40,41,42,43,44,45,46,47,48,33,34,35,36,37,38,39,40,41,42,43,44,45,46,47,48,33,34,35,36,37,38,39,40,41,42,43,44,45,46,47,48,33,34,35,36,37,38,39,40,41,42,43,44,45,46,47,48,33,34,35,36,37,38,39,40,41,42,43,44,45,46,47,48,33,34,35,36,37,38,39,40,41,42,43,44,45,46,47,48,33,34,35,36,37,38,39,40,41,42,43,44,45,46,47,48,33,34,35,36,37,38,39,40,41,42,43,44,45,46,47,48,33,34,35,36,37,38,39,40,41,42,43,44,45,46,47,48,33,34,35,36,37,38,39,40,41,42,43,44,45,46,47,48,33,34,35,36,37,38,39,40,41,42,43,44,45,46,47,48,33,34,35,36,37,38,39,40,41,42,43,44,45,46,47,48,49,50,51,52,53,54,55,56,57,58,59,60,61,62,63,64,49,50,51,52,53,54,55,56,57,58,59,60,61,62,63,64,49,50,51,52,53,54,55,56,57,58,59,60,61,62,63,64,49,50,51,52,53,54,55,56,57,58,59,60,61,62,63,64,49,50,51,52,53,54,55,56,57,58,59,60,61,62,63,64,49,50,51,52,53,54,55,56,57,58,59,60,61,62,63,64,49,50,51,52,53,54,55,56,57,58,59,60,61,62,63,64,49,50,51,52,53,54,55,56,57,58,59,60,61,62,63,64,49,50,51,52,53,54,55,56,57,58,59,60,61,62,63,64,49,50,51,52,53,54,55,56,57,58,59,60,61,62,63,64,49,50,51,52,53,54,55,56,57,58,59,60,61,62,63,64,49,50,51,52,53,54,55,56,57,58,59,60,61,62,63,64,49,50,51,52,53,54,55,56,57,58,59,60,61,62,63,64,49,50,51,52,53,54,55,56,57,58,59,60,61,62,63,64,49,50,51,52,53,54,55,56,57,58,59,60,61,62,63,64,49,50,51,52,53,54,55,56,57,58,59,60,61,62,63,64,65,66,67,68,69,70,71,72,73,74,75,76,77,78,79,80,65,66,67,68,69,70,71,72,73,74,75,76,77,78,79,80,65,66,67,68,69,70,71,72,73,74,75,76,77,78,79,80,65,66,67,68,69,70,71,72,73,74,75,76,77,78,79,80,65,66,67,68,69,70,71,72,73,74,75,76,77,78,79,80,65,66,67,68,69,70,71,72,73,74,75,76,77,78,79,80,65,66,67,68,69,70,71,72,73,74,75,76,77,78,79,80,65,66,67,68,69,70,71,72,73,74,75,76,77,78,79,80,65,66,67,68,69,70,71,72,73,74,75,76,77,78,79,80,65,66,67,68,69,70,71,72,73,74,75,76,77,78,79,80,65,66,67,68,69,70,71,72,73,74,75,76,77,78,79,80,65,66,67,68,69,70,71,72,73,74,75,76,77,78,79,80,65,66,67,68,69,70,71,72,73,74,75,76,77,78,79,80,65,66,67,68,69,70,71,72,73,74,75,76,77,78,79,80,65,66,67,68,69,70,71,72,73,74,75,76,77,78,79,80,65,66,67,68,69,70,71,72,73,74,75,76,77,78,79,80,81,82,83,84,85,86,87,88,89,90,91,92,93,94,95,96,81,82,83,84,85,86,87,88,89,90,91,92,93,94,95,96,81,82,83,84,85,86,87,88,89,90,91,92,93,94,95,96,81,82,83,84,85,86,87,88,89,90,91,92,93,94,95,96,81,82,83,84,85,86,87,88,89,90,91,92,93,94,95,96,81,82,83,84,85,86,87,88,89,90,91,92,93,94,95,96,81,82,83,84,85,86,87,88,89,90,91,92,93,94,95,96,81,82,83,84,85,86,87,88,89,90,91,92,93,94,95,96,81,82,83,84,85,86,87,88,89,90,91,92,93,94,95,96,81,82,83,84,85,86,87,88,89,90,91,92,93,94,95,96,81,82,83,84,85,86,87,88,89,90,91,92,93,94,95,96,81,82,83,84,85,86,87,88,89,90,91,92,93,94,95,96,81,82,83,84,85,86,87,88,89,90,91,92,93,94,95,96,81,82,83,84,85,86,87,88,89,90,91,92,93,94,95,96,81,82,83,84,85,86,87,88,89,90,91,92,93,94,95,96,81,82,83,84,85,86,87,88,89,90,91,92,93,94,95,96,97,98,99,100,101,102,103,104,105,106,107,108,109,110,111,112,97,98,99,100,101,102,103,104,105,106,107,108,109,110,111,112,97,98,99,100,101,102,103,104,105,106,107,108,109,110,111,112,97,98,99,100,101,102,103,104,105,106,107,108,109,110,111,112,97,98,99,100,101,102,103,104,105,106,107,108,109,110,111,112,97,98,99,100,101,102,103,104,105,106,107,108,109,110,111,112,97,98,99,100,101,102,103,104,105,106,107,108,109,110,111,112,97,98,99,100,101,102,103,104,105,106,107,108,109,110,111,112,97,98,99,100,101,102,103,104,105,106,107,108,109,110,111,112,97,98,99,100,101,102,103,104,105,106,107,108,109,110,111,112,97,98,99,100,101,102,103,104,105,106,107,108,109,110,111,112,97,98,99,100,101,102,103,104,105,106,107,108,109,110,111,112,97,98,99,100,101,102,103,104,105,106,107,108,109,110,111,112,97,98,99,100,101,102,103,104,105,106,107,108,109,110,111,112,97,98,99,100,101,102,103,104,105,106,107,108,109,110,111,112,97,98,99,100,101,102,103,104,105,106,107,108,109,110,111,112,113,114,115,116,117,118,119,120,121,122,123,124,125,126,127,128,113,114,115,116,117,118,119,120,121,122,123,124,125,126,127,128,113,114,115,116,117,118,119,120,121,122,123,124,125,126,127,128,113,114,115,116,117,118,119,120,121,122,123,124,125,126,127,128,113,114,115,116,117,118,119,120,121,122,123,124,125,126,127,128,113,114,115,116,117,118,119,120,121,122,123,124,125,126,127,128,113,114,115,116,117,118,119,120,121,122,123,124,125,126,127,128,113,114,115,116,117,118,119,120,121,122,123,124,125,126,127,128,113,114,115,116,117,118,119,120,121,122,123,124,125,126,127,128,113,114,115,116,117,118,119,120,121,122,123,124,125,126,127,128,113,114,115,116,117,118,119,120,121,122,123,124,125,126,127,128,113,114,115,116,117,118,119,120,121,122,123,124,125,126,127,128,113,114,115,116,117,118,119,120,121,122,123,124,125,126,127,128,113,114,115,116,117,118,119,120,121,122,123,124,125,126,127,128,113,114,115,116,117,118,119,120,121,122,123,124,125,126,127,128,113,114,115,116,117,118,119,120,121,122,123,124,125,126,127,128,129,130,131,132,133,134,135,136,137,138,139,140,141,142,143,144,129,130,131,132,133,134,135,136,137,138,139,140,141,142,143,144,129,130,131,132,133,134,135,136,137,138,139,140,141,142,143,144,129,130,131,132,133,134,135,136,137,138,139,140,141,142,143,144,129,130,131,132,133,134,135,136,137,138,139,140,141,142,143,144,129,130,131,132,133,134,135,136,137,138,139,140,141,142,143,144,129,130,131,132,133,134,135,136,137,138,139,140,141,142,143,144,129,130,131,132,133,134,135,136,137,138,139,140,141,142,143,144,129,130,131,132,133,134,135,136,137,138,139,140,141,142,143,144,129,130,131,132,133,134,135,136,137,138,139,140,141,142,143,144,129,130,131,132,133,134,135,136,137,138,139,140,141,142,143,144,129,130,131,132,133,134,135,136,137,138,139,140,141,142,143,144,129,130,131,132,133,134,135,136,137,138,139,140,141,142,143,144,129,130,131,132,133,134,135,136,137,138,139,140,141,142,143,144,129,130,131,132,133,134,135,136,137,138,139,140,141,142,143,144,129,130,131,132,133,134,135,136,137,138,139,140,141,142,143,144,145,146,147,148,149,150,151,152,153,154,155,156,157,158,159,160,145,146,147,148,149,150,151,152,153,154,155,156,157,158,159,160,145,146,147,148,149,150,151,152,153,154,155,156,157,158,159,160,145,146,147,148,149,150,151,152,153,154,155,156,157,158,159,160,145,146,147,148,149,150,151,152,153,154,155,156,157,158,159,160,145,146,147,148,149,150,151,152,153,154,155,156,157,158,159,160,145,146,147,148,149,150,151,152,153,154,155,156,157,158,159,160,145,146,147,148,149,150,151,152,153,154,155,156,157,158,159,160,145,146,147,148,149,150,151,152,153,154,155,156,157,158,159,160,145,146,147,148,149,150,151,152,153,154,155,156,157,158,159,160,145,146,147,148,149,150,151,152,153,154,155,156,157,158,159,160,145,146,147,148,149,150,151,152,153,154,155,156,157,158,159,160,145,146,147,148,149,150,151,152,153,154,155,156,157,158,159,160,145,146,147,148,149,150,151,152,153,154,155,156,157,158,159,160,145,146,147,148,149,150,151,152,153,154,155,156,157,158,159,160,145,146,147,148,149,150,151,152,153,154,155,156,157,158,159,160,161,162,163,164,165,166,167,168,169,170,171,172,173,174,175,176,161,162,163,164,165,166,167,168,169,170,171,172,173,174,175,176,161,162,163,164,165,166,167,168,169,170,171,172,173,174,175,176,161,162,163,164,165,166,167,168,169,170,171,172,173,174,175,176,161,162,163,164,165,166,167,168,169,170,171,172,173,174,175,176,161,162,163,164,165,166,167,168,169,170,171,172,173,174,175,176,161,162,163,164,165,166,167,168,169,170,171,172,173,174,175,176,161,162,163,164,165,166,167,168,169,170,171,172,173,174,175,176,161,162,163,164,165,166,167,168,169,170,171,172,173,174,175,176,161,162,163,164,165,166,167,168,169,170,171,172,173,174,175,176,161,162,163,164,165,166,167,168,169,170,171,172,173,174,175,176,161,162,163,164,165,166,167,168,169,170,171,172,173,174,175,176,161,162,163,164,165,166,167,168,169,170,171,172,173,174,175,176,161,162,163,164,165,166,167,168,169,170,171,172,173,174,175,176,161,162,163,164,165,166,167,168,169,170,171,172,173,174,175,176,161,162,163,164,165,166,167,168,169,170,171,172,173,174,175,176,177,178,179,180,181,182,183,184,185,186,187,188,189,190,191,192,177,178,179,180,181,182,183,184,185,186,187,188,189,190,191,192,177,178,179,180,181,182,183,184,185,186,187,188,189,190,191,192,177,178,179,180,181,182,183,184,185,186,187,188,189,190,191,192,177,178,179,180,181,182,183,184,185,186,187,188,189,190,191,192,177,178,179,180,181,182,183,184,185,186,187,188,189,190,191,192,177,178,179,180,181,182,183,184,185,186,187,188,189,190,191,192,177,178,179,180,181,182,183,184,185,186,187,188,189,190,191,192,177,178,179,180,181,182,183,184,185,186,187,188,189,190,191,192,177,178,179,180,181,182,183,184,185,186,187,188,189,190,191,192,177,178,179,180,181,182,183,184,185,186,187,188,189,190,191,192,177,178,179,180,181,182,183,184,185,186,187,188,189,190,191,192,177,178,179,180,181,182,183,184,185,186,187,188,189,190,191,192,177,178,179,180,181,182,183,184,185,186,187,188,189,190,191,192,177,178,179,180,181,182,183,184,185,186,187,188,189,190,191,192,177,178,179,180,181,182,183,184,185,186,187,188,189,190,191,192,193,194,195,196,197,198,199,200,201,202,203,204,205,206,207,208,193,194,195,196,197,198,199,200,201,202,203,204,205,206,207,208,193,194,195,196,197,198,199,200,201,202,203,204,205,206,207,208,193,194,195,196,197,198,199,200,201,202,203,204,205,206,207,208,193,194,195,196,197,198,199,200,201,202,203,204,205,206,207,208,193,194,195,196,197,198,199,200,201,202,203,204,205,206,207,208,193,194,195,196,197,198,199,200,201,202,203,204,205,206,207,208,193,194,195,196,197,198,199,200,201,202,203,204,205,206,207,208,193,194,195,196,197,198,199,200,201,202,203,204,205,206,207,208,193,194,195,196,197,198,199,200,201,202,203,204,205,206,207,208,193,194,195,196,197,198,199,200,201,202,203,204,205,206,207,208,193,194,195,196,197,198,199,200,201,202,203,204,205,206,207,208,193,194,195,196,197,198,199,200,201,202,203,204,205,206,207,208,193,194,195,196,197,198,199,200,201,202,203,204,205,206,207,208,193,194,195,196,197,198,199,200,201,202,203,204,205,206,207,208,193,194,195,196,197,198,199,200,201,202,203,204,205,206,207,208,209,210,211,212,213,214,215,216,217,218,219,220,221,222,223,224,209,210,211,212,213,214,215,216,217,218,219,220,221,222,223,224,209,210,211,212,213,214,215,216,217,218,219,220,221,222,223,224,209,210,211,212,213,214,215,216,217,218,219,220,221,222,223,224,209,210,211,212,213,214,215,216,217,218,219,220,221,222,223,224,209,210,211,212,213,214,215,216,217,218,219,220,221,222,223,224,209,210,211,212,213,214,215,216,217,218,219,220,221,222,223,224,209,210,211,212,213,214,215,216,217,218,219,220,221,222,223,224,209,210,211,212,213,214,215,216,217,218,219,220,221,222,223,224,209,210,211,212,213,214,215,216,217,218,219,220,221,222,223,224,209,210,211,212,213,214,215,216,217,218,219,220,221,222,223,224,209,210,211,212,213,214,215,216,217,218,219,220,221,222,223,224,209,210,211,212,213,214,215,216,217,218,219,220,221,222,223,224,209,210,211,212,213,214,215,216,217,218,219,220,221,222,223,224,209,210,211,212,213,214,215,216,217,218,219,220,221,222,223,224,209,210,211,212,213,214,215,216,217,218,219,220,221,222,223,224,225,226,227,228,229,230,231,232,233,234,235,236,237,238,239,240,225,226,227,228,229,230,231,232,233,234,235,236,237,238,239,240,225,226,227,228,229,230,231,232,233,234,235,236,237,238,239,240,225,226,227,228,229,230,231,232,233,234,235,236,237,238,239,240,225,226,227,228,229,230,231,232,233,234,235,236,237,238,239,240,225,226,227,228,229,230,231,232,233,234,235,236,237,238,239,240,225,226,227,228,229,230,231,232,233,234,235,236,237,238,239,240,225,226,227,228,229,230,231,232,233,234,235,236,237,238,239,240,225,226,227,228,229,230,231,232,233,234,235,236,237,238,239,240,225,226,227,228,229,230,231,232,233,234,235,236,237,238,239,240,225,226,227,228,229,230,231,232,233,234,235,236,237,238,239,240,225,226,227,228,229,230,231,232,233,234,235,236,237,238,239,240,225,226,227,228,229,230,231,232,233,234,235,236,237,238,239,240,225,226,227,228,229,230,231,232,233,234,235,236,237,238,239,240,225,226,227,228,229,230,231,232,233,234,235,236,237,238,239,240,225,226,227,228,229,230,231,232,233,234,235,236,237,238,239,240,241,242,243,244,245,246,247,248,249,250,251,252,253,254,255,256,241,242,243,244,245,246,247,248,249,250,251,252,253,254,255,256,241,242,243,244,245,246,247,248,249,250,251,252,253,254,255,256,241,242,243,244,245,246,247,248,249,250,251,252,253,254,255,256,241,242,243,244,245,246,247,248,249,250,251,252,253,254,255,256,241,242,243,244,245,246,247,248,249,250,251,252,253,254,255,256,241,242,243,244,245,246,247,248,249,250,251,252,253,254,255,256,241,242,243,244,245,246,247,248,249,250,251,252,253,254,255,256,241,242,243,244,245,246,247,248,249,250,251,252,253,254,255,256,241,242,243,244,245,246,247,248,249,250,251,252,253,254,255,256,241,242,243,244,245,246,247,248,249,250,251,252,253,254,255,256,241,242,243,244,245,246,247,248,249,250,251,252,253,254,255,256,241,242,243,244,245,246,247,248,249,250,251,252,253,254,255,256,241,242,243,244,245,246,247,248,249,250,251,252,253,254,255,256,241,242,243,244,245,246,247,248,249,250,251,252,253,254,255,256,241,242,243,244,245,246,247,248,249,250,251,252,253,254,255,256,1,2,3,4,5,6,7,8,9,10,11,12,13,14,15,16,1,2,3,4,5,6,7,8,9,10,11,12,13,14,15,16,1,2,3,4,5,6,7,8,9,10,11,12,13,14,15,16,1,2,3,4,5,6,7,8,9,10,11,12,13,14,15,16,1,2,3,4,5,6,7,8,9,10,11,12,13,14,15,16,1,2,3,4,5,6,7,8,9,10,11,12,13,14,15,16,1,2,3,4,5,6,7,8,9,10,11,12,13,14,15,16,1,2,3,4,5,6,7,8,9,10,11,12,13,14,15,16,1,2,3,4,5,6,7,8,9,10,11,12,13,14,15,16,1,2,3,4,5,6,7,8,9,10,11,12,13,14,15,16,1,2,3,4,5,6,7,8,9,10,11,12,13,14,15,16,1,2,3,4,5,6,7,8,9,10,11,12,13,14,15,16,1,2,3,4,5,6,7,8,9,10,11,12,13,14,15,16,1,2,3,4,5,6,7,8,9,10,11,12,13,14,15,16,1,2,3,4,5,6,7,8,9,10,11,12,13,14,15,16,1,2,3,4,5,6,7,8,9,10,11,12,13,14,15,16,17,18,19,20,21,22,23,24,25,26,27,28,29,30,31,32,17,18,19,20,21,22,23,24,25,26,27,28,29,30,31,32,17,18,19,20,21,22,23,24,25,26,27,28,29,30,31,32,17,18,19,20,21,22,23,24,25,26,27,28,29,30,31,32,17,18,19,20,21,22,23,24,25,26,27,28,29,30,31,32,17,18,19,20,21,22,23,24,25,26,27,28,29,30,31,32,17,18,19,20,21,22,23,24,25,26,27,28,29,30,31,32,17,18,19,20,21,22,23,24,25,26,27,28,29,30,31,32,17,18,19,20,21,22,23,24,25,26,27,28,29,30,31,32,17,18,19,20,21,22,23,24,25,26,27,28,29,30,31,32,17,18,19,20,21,22,23,24,25,26,27,28,29,30,31,32,17,18,19,20,21,22,23,24,25,26,27,28,29,30,31,32,17,18,19,20,21,22,23,24,25,26,27,28,29,30,31,32,17,18,19,20,21,22,23,24,25,26,27,28,29,30,31,32,17,18,19,20,21,22,23,24,25,26,27,28,29,30,31,32,17,18,19,20,21,22,23,24,25,26,27,28,29,30,31,32,33,34,35,36,37,38,39,40,41,42,43,44,45,46,47,48,33,34,35,36,37,38,39,40,41,42,43,44,45,46,47,48,33,34,35,36,37,38,39,40,41,42,43,44,45,46,47,48,33,34,35,36,37,38,39,40,41,42,43,44,45,46,47,48,33,34,35,36,37,38,39,40,41,42,43,44,45,46,47,48,33,34,35,36,37,38,39,40,41,42,43,44,45,46,47,48,33,34,35,36,37,38,39,40,41,42,43,44,45,46,47,48,33,34,35,36,37,38,39,40,41,42,43,44,45,46,47,48,33,34,35,36,37,38,39,40,41,42,43,44,45,46,47,48,33,34,35,36,37,38,39,40,41,42,43,44,45,46,47,48,33,34,35,36,37,38,39,40,41,42,43,44,45,46,47,48,33,34,35,36,37,38,39,40,41,42,43,44,45,46,47,48,33,34,35,36,37,38,39,40,41,42,43,44,45,46,47,48,33,34,35,36,37,38,39,40,41,42,43,44,45,46,47,48,33,34,35,36,37,38,39,40,41,42,43,44,45,46,47,48,33,34,35,36,37,38,39,40,41,42,43,44,45,46,47,48,49,50,51,52,53,54,55,56,57,58,59,60,61,62,63,64,49,50,51,52,53,54,55,56,57,58,59,60,61,62,63,64,49,50,51,52,53,54,55,56,57,58,59,60,61,62,63,64,49,50,51,52,53,54,55,56,57,58,59,60,61,62,63,64,49,50,51,52,53,54,55,56,57,58,59,60,61,62,63,64,49,50,51,52,53,54,55,56,57,58,59,60,61,62,63,64,49,50,51,52,53,54,55,56,57,58,59,60,61,62,63,64,49,50,51,52,53,54,55,56,57,58,59,60,61,62,63,64,49,50,51,52,53,54,55,56,57,58,59,60,61,62,63,64,49,50,51,52,53,54,55,56,57,58,59,60,61,62,63,64,49,50,51,52,53,54,55,56,57,58,59,60,61,62,63,64,49,50,51,52,53,54,55,56,57,58,59,60,61,62,63,64,49,50,51,52,53,54,55,56,57,58,59,60,61,62,63,64,49,50,51,52,53,54,55,56,57,58,59,60,61,62,63,64,49,50,51,52,53,54,55,56,57,58,59,60,61,62,63,64,49,50,51,52,53,54,55,56,57,58,59,60,61,62,63,64,65,66,67,68,69,70,71,72,73,74,75,76,77,78,79,80,65,66,67,68,69,70,71,72,73,74,75,76,77,78,79,80,65,66,67,68,69,70,71,72,73,74,75,76,77,78,79,80,65,66,67,68,69,70,71,72,73,74,75,76,77,78,79,80,65,66,67,68,69,70,71,72,73,74,75,76,77,78,79,80,65,66,67,68,69,70,71,72,73,74,75,76,77,78,79,80,65,66,67,68,69,70,71,72,73,74,75,76,77,78,79,80,65,66,67,68,69,70,71,72,73,74,75,76,77,78,79,80,65,66,67,68,69,70,71,72,73,74,75,76,77,78,79,80,65,66,67,68,69,70,71,72,73,74,75,76,77,78,79,80,65,66,67,68,69,70,71,72,73,74,75,76,77,78,79,80,65,66,67,68,69,70,71,72,73,74,75,76,77,78,79,80,65,66,67,68,69,70,71,72,73,74,75,76,77,78,79,80,65,66,67,68,69,70,71,72,73,74,75,76,77,78,79,80,65,66,67,68,69,70,71,72,73,74,75,76,77,78,79,80,65,66,67,68,69,70,71,72,73,74,75,76,77,78,79,80,81,82,83,84,85,86,87,88,89,90,91,92,93,94,95,96,81,82,83,84,85,86,87,88,89,90,91,92,93,94,95,96,81,82,83,84,85,86,87,88,89,90,91,92,93,94,95,96,81,82,83,84,85,86,87,88,89,90,91,92,93,94,95,96,81,82,83,84,85,86,87,88,89,90,91,92,93,94,95,96,81,82,83,84,85,86,87,88,89,90,91,92,93,94,95,96,81,82,83,84,85,86,87,88,89,90,91,92,93,94,95,96,81,82,83,84,85,86,87,88,89,90,91,92,93,94,95,96,81,82,83,84,85,86,87,88,89,90,91,92,93,94,95,96,81,82,83,84,85,86,87,88,89,90,91,92,93,94,95,96,81,82,83,84,85,86,87,88,89,90,91,92,93,94,95,96,81,82,83,84,85,86,87,88,89,90,91,92,93,94,95,96,81,82,83,84,85,86,87,88,89,90,91,92,93,94,95,96,81,82,83,84,85,86,87,88,89,90,91,92,93,94,95,96,81,82,83,84,85,86,87,88,89,90,91,92,93,94,95,96,81,82,83,84,85,86,87,88,89,90,91,92,93,94,95,96,97,98,99,100,101,102,103,104,105,106,107,108,109,110,111,112,97,98,99,100,101,102,103,104,105,106,107,108,109,110,111,112,97,98,99,100,101,102,103,104,105,106,107,108,109,110,111,112,97,98,99,100,101,102,103,104,105,106,107,108,109,110,111,112,97,98,99,100,101,102,103,104,105,106,107,108,109,110,111,112,97,98,99,100,101,102,103,104,105,106,107,108,109,110,111,112,97,98,99,100,101,102,103,104,105,106,107,108,109,110,111,112,97,98,99,100,101,102,103,104,105,106,107,108,109,110,111,112,97,98,99,100,101,102,103,104,105,106,107,108,109,110,111,112,97,98,99,100,101,102,103,104,105,106,107,108,109,110,111,112,97,98,99,100,101,102,103,104,105,106,107,108,109,110,111,112,97,98,99,100,101,102,103,104,105,106,107,108,109,110,111,112,97,98,99,100,101,102,103,104,105,106,107,108,109,110,111,112,97,98,99,100,101,102,103,104,105,106,107,108,109,110,111,112,97,98,99,100,101,102,103,104,105,106,107,108,109,110,111,112,97,98,99,100,101,102,103,104,105,106,107,108,109,110,111,112,113,114,115,116,117,118,119,120,121,122,123,124,125,126,127,128,113,114,115,116,117,118,119,120,121,122,123,124,125,126,127,128,113,114,115,116,117,118,119,120,121,122,123,124,125,126,127,128,113,114,115,116,117,118,119,120,121,122,123,124,125,126,127,128,113,114,115,116,117,118,119,120,121,122,123,124,125,126,127,128,113,114,115,116,117,118,119,120,121,122,123,124,125,126,127,128,113,114,115,116,117,118,119,120,121,122,123,124,125,126,127,128,113,114,115,116,117,118,119,120,121,122,123,124,125,126,127,128,113,114,115,116,117,118,119,120,121,122,123,124,125,126,127,128,113,114,115,116,117,118,119,120,121,122,123,124,125,126,127,128,113,114,115,116,117,118,119,120,121,122,123,124,125,126,127,128,113,114,115,116,117,118,119,120,121,122,123,124,125,126,127,128,113,114,115,116,117,118,119,120,121,122,123,124,125,126,127,128,113,114,115,116,117,118,119,120,121,122,123,124,125,126,127,128,113,114,115,116,117,118,119,120,121,122,123,124,125,126,127,128,113,114,115,116,117,118,119,120,121,122,123,124,125,126,127,128,129,130,131,132,133,134,135,136,137,138,139,140,141,142,143,144,129,130,131,132,133,134,135,136,137,138,139,140,141,142,143,144,129,130,131,132,133,134,135,136,137,138,139,140,141,142,143,144,129,130,131,132,133,134,135,136,137,138,139,140,141,142,143,144,129,130,131,132,133,134,135,136,137,138,139,140,141,142,143,144,129,130,131,132,133,134,135,136,137,138,139,140,141,142,143,144,129,130,131,132,133,134,135,136,137,138,139,140,141,142,143,144,129,130,131,132,133,134,135,136,137,138,139,140,141,142,143,144,129,130,131,132,133,134,135,136,137,138,139,140,141,142,143,144,129,130,131,132,133,134,135,136,137,138,139,140,141,142,143,144,129,130,131,132,133,134,135,136,137,138,139,140,141,142,143,144,129,130,131,132,133,134,135,136,137,138,139,140,141,142,143,144,129,130,131,132,133,134,135,136,137,138,139,140,141,142,143,144,129,130,131,132,133,134,135,136,137,138,139,140,141,142,143,144,129,130,131,132,133,134,135,136,137,138,139,140,141,142,143,144,129,130,131,132,133,134,135,136,137,138,139,140,141,142,143,144,145,146,147,148,149,150,151,152,153,154,155,156,157,158,159,160,145,146,147,148,149,150,151,152,153,154,155,156,157,158,159,160,145,146,147,148,149,150,151,152,153,154,155,156,157,158,159,160,145,146,147,148,149,150,151,152,153,154,155,156,157,158,159,160,145,146,147,148,149,150,151,152,153,154,155,156,157,158,159,160,145,146,147,148,149,150,151,152,153,154,155,156,157,158,159,160,145,146,147,148,149,150,151,152,153,154,155,156,157,158,159,160,145,146,147,148,149,150,151,152,153,154,155,156,157,158,159,160,145,146,147,148,149,150,151,152,153,154,155,156,157,158,159,160,145,146,147,148,149,150,151,152,153,154,155,156,157,158,159,160,145,146,147,148,149,150,151,152,153,154,155,156,157,158,159,160,145,146,147,148,149,150,151,152,153,154,155,156,157,158,159,160,145,146,147,148,149,150,151,152,153,154,155,156,157,158,159,160,145,146,147,148,149,150,151,152,153,154,155,156,157,158,159,160,145,146,147,148,149,150,151,152,153,154,155,156,157,158,159,160,145,146,147,148,149,150,151,152,153,154,155,156,157,158,159,160,161,162,163,164,165,166,167,168,169,170,171,172,173,174,175,176,161,162,163,164,165,166,167,168,169,170,171,172,173,174,175,176,161,162,163,164,165,166,167,168,169,170,171,172,173,174,175,176,161,162,163,164,165,166,167,168,169,170,171,172,173,174,175,176,161,162,163,164,165,166,167,168,169,170,171,172,173,174,175,176,161,162,163,164,165,166,167,168,169,170,171,172,173,174,175,176,161,162,163,164,165,166,167,168,169,170,171,172,173,174,175,176,161,162,163,164,165,166,167,168,169,170,171,172,173,174,175,176,161,162,163,164,165,166,167,168,169,170,171,172,173,174,175,176,161,162,163,164,165,166,167,168,169,170,171,172,173,174,175,176,161,162,163,164,165,166,167,168,169,170,171,172,173,174,175,176,161,162,163,164,165,166,167,168,169,170,171,172,173,174,175,176,161,162,163,164,165,166,167,168,169,170,171,172,173,174,175,176,161,162,163,164,165,166,167,168,169,170,171,172,173,174,175,176,161,162,163,164,165,166,167,168,169,170,171,172,173,174,175,176,161,162,163,164,165,166,167,168,169,170,171,172,173,174,175,176,177,178,179,180,181,182,183,184,185,186,187,188,189,190,191,192,177,178,179,180,181,182,183,184,185,186,187,188,189,190,191,192,177,178,179,180,181,182,183,184,185,186,187,188,189,190,191,192,177,178,179,180,181,182,183,184,185,186,187,188,189,190,191,192,177,178,179,180,181,182,183,184,185,186,187,188,189,190,191,192,177,178,179,180,181,182,183,184,185,186,187,188,189,190,191,192,177,178,179,180,181,182,183,184,185,186,187,188,189,190,191,192,177,178,179,180,181,182,183,184,185,186,187,188,189,190,191,192,177,178,179,180,181,182,183,184,185,186,187,188,189,190,191,192,177,178,179,180,181,182,183,184,185,186,187,188,189,190,191,192,177,178,179,180,181,182,183,184,185,186,187,188,189,190,191,192,177,178,179,180,181,182,183,184,185,186,187,188,189,190,191,192,177,178,179,180,181,182,183,184,185,186,187,188,189,190,191,192,177,178,179,180,181,182,183,184,185,186,187,188,189,190,191,192,177,178,179,180,181,182,183,184,185,186,187,188,189,190,191,192,177,178,179,180,181,182,183,184,185,186,187,188,189,190,191,192,193,194,195,196,197,198,199,200,201,202,203,204,205,206,207,208,193,194,195,196,197,198,199,200,201,202,203,204,205,206,207,208,193,194,195,196,197,198,199,200,201,202,203,204,205,206,207,208,193,194,195,196,197,198,199,200,201,202,203,204,205,206,207,208,193,194,195,196,197,198,199,200,201,202,203,204,205,206,207,208,193,194,195,196,197,198,199,200,201,202,203,204,205,206,207,208,193,194,195,196,197,198,199,200,201,202,203,204,205,206,207,208,193,194,195,196,197,198,199,200,201,202,203,204,205,206,207,208,193,194,195,196,197,198,199,200,201,202,203,204,205,206,207,208,193,194,195,196,197,198,199,200,201,202,203,204,205,206,207,208,193,194,195,196,197,198,199,200,201,202,203,204,205,206,207,208,193,194,195,196,197,198,199,200,201,202,203,204,205,206,207,208,193,194,195,196,197,198,199,200,201,202,203,204,205,206,207,208,193,194,195,196,197,198,199,200,201,202,203,204,205,206,207,208,193,194,195,196,197,198,199,200,201,202,203,204,205,206,207,208,193,194,195,196,197,198,199,200,201,202,203,204,205,206,207,208,209,210,211,212,213,214,215,216,217,218,219,220,221,222,223,224,209,210,211,212,213,214,215,216,217,218,219,220,221,222,223,224,209,210,211,212,213,214,215,216,217,218,219,220,221,222,223,224,209,210,211,212,213,214,215,216,217,218,219,220,221,222,223,224,209,210,211,212,213,214,215,216,217,218,219,220,221,222,223,224,209,210,211,212,213,214,215,216,217,218,219,220,221,222,223,224,209,210,211,212,213,214,215,216,217,218,219,220,221,222,223,224,209,210,211,212,213,214,215,216,217,218,219,220,221,222,223,224,209,210,211,212,213,214,215,216,217,218,219,220,221,222,223,224,209,210,211,212,213,214,215,216,217,218,219,220,221,222,223,224,209,210,211,212,213,214,215,216,217,218,219,220,221,222,223,224,209,210,211,212,213,214,215,216,217,218,219,220,221,222,223,224,209,210,211,212,213,214,215,216,217,218,219,220,221,222,223,224,209,210,211,212,213,214,215,216,217,218,219,220,221,222,223,224,209,210,211,212,213,214,215,216,217,218,219,220,221,222,223,224,209,210,211,212,213,214,215,216,217,218,219,220,221,222,223,224,225,226,227,228,229,230,231,232,233,234,235,236,237,238,239,240,225,226,227,228,229,230,231,232,233,234,235,236,237,238,239,240,225,226,227,228,229,230,231,232,233,234,235,236,237,238,239,240,225,226,227,228,229,230,231,232,233,234,235,236,237,238,239,240,225,226,227,228,229,230,231,232,233,234,235,236,237,238,239,240,225,226,227,228,229,230,231,232,233,234,235,236,237,238,239,240,225,226,227,228,229,230,231,232,233,234,235,236,237,238,239,240,225,226,227,228,229,230,231,232,233,234,235,236,237,238,239,240,225,226,227,228,229,230,231,232,233,234,235,236,237,238,239,240,225,226,227,228,229,230,231,232,233,234,235,236,237,238,239,240,225,226,227,228,229,230,231,232,233,234,235,236,237,238,239,240,225,226,227,228,229,230,231,232,233,234,235,236,237,238,239,240,225,226,227,228,229,230,231,232,233,234,235,236,237,238,239,240,225,226,227,228,229,230,231,232,233,234,235,236,237,238,239,240,225,226,227,228,229,230,231,232,233,234,235,236,237,238,239,240,225,226,227,228,229,230,231,232,233,234,235,236,237,238,239,240,241,242,243,244,245,246,247,248,249,250,251,252,253,254,255,256,241,242,243,244,245,246,247,248,249,250,251,252,253,254,255,256,241,242,243,244,245,246,247,248,249,250,251,252,253,254,255,256,241,242,243,244,245,246,247,248,249,250,251,252,253,254,255,256,241,242,243,244,245,246,247,248,249,250,251,252,253,254,255,256,241,242,243,244,245,246,247,248,249,250,251,252,253,254,255,256,241,242,243,244,245,246,247,248,249,250,251,252,253,254,255,256,241,242,243,244,245,246,247,248,249,250,251,252,253,254,255,256,241,242,243,244,245,246,247,248,249,250,251,252,253,254,255,256,241,242,243,244,245,246,247,248,249,250,251,252,253,254,255,256,241,242,243,244,245,246,247,248,249,250,251,252,253,254,255,256,241,242,243,244,245,246,247,248,249,250,251,252,253,254,255,256,241,242,243,244,245,246,247,248,249,250,251,252,253,254,255,256,241,242,243,244,245,246,247,248,249,250,251,252,253,254,255,256,241,242,243,244,245,246,247,248,249,250,251,252,253,254,255,256,241,242,243,244,245,246,247,248,249,250,251,252,253,254,255,256,1,2,3,4,5,6,7,8,9,10,11,12,13,14,15,16,1,2,3,4,5,6,7,8,9,10,11,12,13,14,15,16,1,2,3,4,5,6,7,8,9,10,11,12,13,14,15,16,1,2,3,4,5,6,7,8,9,10,11,12,13,14,15,16,1,2,3,4,5,6,7,8,9,10,11,12,13,14,15,16,1,2,3,4,5,6,7,8,9,10,11,12,13,14,15,16,1,2,3,4,5,6,7,8,9,10,11,12,13,14,15,16,1,2,3,4,5,6,7,8,9,10,11,12,13,14,15,16,1,2,3,4,5,6,7,8,9,10,11,12,13,14,15,16,1,2,3,4,5,6,7,8,9,10,11,12,13,14,15,16,1,2,3,4,5,6,7,8,9,10,11,12,13,14,15,16,1,2,3,4,5,6,7,8,9,10,11,12,13,14,15,16,1,2,3,4,5,6,7,8,9,10,11,12,13,14,15,16,1,2,3,4,5,6,7,8,9,10,11,12,13,14,15,16,1,2,3,4,5,6,7,8,9,10,11,12,13,14,15,16,1,2,3,4,5,6,7,8,9,10,11,12,13,14,15,16,17,18,19,20,21,22,23,24,25,26,27,28,29,30,31,32,17,18,19,20,21,22,23,24,25,26,27,28,29,30,31,32,17,18,19,20,21,22,23,24,25,26,27,28,29,30,31,32,17,18,19,20,21,22,23,24,25,26,27,28,29,30,31,32,17,18,19,20,21,22,23,24,25,26,27,28,29,30,31,32,17,18,19,20,21,22,23,24,25,26,27,28,29,30,31,32,17,18,19,20,21,22,23,24,25,26,27,28,29,30,31,32,17,18,19,20,21,22,23,24,25,26,27,28,29,30,31,32,17,18,19,20,21,22,23,24,25,26,27,28,29,30,31,32,17,18,19,20,21,22,23,24,25,26,27,28,29,30,31,32,17,18,19,20,21,22,23,24,25,26,27,28,29,30,31,32,17,18,19,20,21,22,23,24,25,26,27,28,29,30,31,32,17,18,19,20,21,22,23,24,25,26,27,28,29,30,31,32,17,18,19,20,21,22,23,24,25,26,27,28,29,30,31,32,17,18,19,20,21,22,23,24,25,26,27,28,29,30,31,32,17,18,19,20,21,22,23,24,25,26,27,28,29,30,31,32,33,34,35,36,37,38,39,40,41,42,43,44,45,46,47,48,33,34,35,36,37,38,39,40,41,42,43,44,45,46,47,48,33,34,35,36,37,38,39,40,41,42,43,44,45,46,47,48,33,34,35,36,37,38,39,40,41,42,43,44,45,46,47,48,33,34,35,36,37,38,39,40,41,42,43,44,45,46,47,48,33,34,35,36,37,38,39,40,41,42,43,44,45,46,47,48,33,34,35,36,37,38,39,40,41,42,43,44,45,46,47,48,33,34,35,36,37,38,39,40,41,42,43,44,45,46,47,48,33,34,35,36,37,38,39,40,41,42,43,44,45,46,47,48,33,34,35,36,37,38,39,40,41,42,43,44,45,46,47,48,33,34,35,36,37,38,39,40,41,42,43,44,45,46,47,48,33,34,35,36,37,38,39,40,41,42,43,44,45,46,47,48,33,34,35,36,37,38,39,40,41,42,43,44,45,46,47,48,33,34,35,36,37,38,39,40,41,42,43,44,45,46,47,48,33,34,35,36,37,38,39,40,41,42,43,44,45,46,47,48,33,34,35,36,37,38,39,40,41,42,43,44,45,46,47,48,49,50,51,52,53,54,55,56,57,58,59,60,61,62,63,64,49,50,51,52,53,54,55,56,57,58,59,60,61,62,63,64,49,50,51,52,53,54,55,56,57,58,59,60,61,62,63,64,49,50,51,52,53,54,55,56,57,58,59,60,61,62,63,64,49,50,51,52,53,54,55,56,57,58,59,60,61,62,63,64,49,50,51,52,53,54,55,56,57,58,59,60,61,62,63,64,49,50,51,52,53,54,55,56,57,58,59,60,61,62,63,64,49,50,51,52,53,54,55,56,57,58,59,60,61,62,63,64,49,50,51,52,53,54,55,56,57,58,59,60,61,62,63,64,49,50,51,52,53,54,55,56,57,58,59,60,61,62,63,64,49,50,51,52,53,54,55,56,57,58,59,60,61,62,63,64,49,50,51,52,53,54,55,56,57,58,59,60,61,62,63,64,49,50,51,52,53,54,55,56,57,58,59,60,61,62,63,64,49,50,51,52,53,54,55,56,57,58,59,60,61,62,63,64,49,50,51,52,53,54,55,56,57,58,59,60,61,62,63,64,49,50,51,52,53,54,55,56,57,58,59,60,61,62,63,64,65,66,67,68,69,70,71,72,73,74,75,76,77,78,79,80,65,66,67,68,69,70,71,72,73,74,75,76,77,78,79,80,65,66,67,68,69,70,71,72,73,74,75,76,77,78,79,80,65,66,67,68,69,70,71,72,73,74,75,76,77,78,79,80,65,66,67,68,69,70,71,72,73,74,75,76,77,78,79,80,65,66,67,68,69,70,71,72,73,74,75,76,77,78,79,80,65,66,67,68,69,70,71,72,73,74,75,76,77,78,79,80,65,66,67,68,69,70,71,72,73,74,75,76,77,78,79,80,65,66,67,68,69,70,71,72,73,74,75,76,77,78,79,80,65,66,67,68,69,70,71,72,73,74,75,76,77,78,79,80,65,66,67,68,69,70,71,72,73,74,75,76,77,78,79,80,65,66,67,68,69,70,71,72,73,74,75,76,77,78,79,80,65,66,67,68,69,70,71,72,73,74,75,76,77,78,79,80,65,66,67,68,69,70,71,72,73,74,75,76,77,78,79,80,65,66,67,68,69,70,71,72,73,74,75,76,77,78,79,80,65,66,67,68,69,70,71,72,73,74,75,76,77,78,79,80,81,82,83,84,85,86,87,88,89,90,91,92,93,94,95,96,81,82,83,84,85,86,87,88,89,90,91,92,93,94,95,96,81,82,83,84,85,86,87,88,89,90,91,92,93,94,95,96,81,82,83,84,85,86,87,88,89,90,91,92,93,94,95,96,81,82,83,84,85,86,87,88,89,90,91,92,93,94,95,96,81,82,83,84,85,86,87,88,89,90,91,92,93,94,95,96,81,82,83,84,85,86,87,88,89,90,91,92,93,94,95,96,81,82,83,84,85,86,87,88,89,90,91,92,93,94,95,96,81,82,83,84,85,86,87,88,89,90,91,92,93,94,95,96,81,82,83,84,85,86,87,88,89,90,91,92,93,94,95,96,81,82,83,84,85,86,87,88,89,90,91,92,93,94,95,96,81,82,83,84,85,86,87,88,89,90,91,92,93,94,95,96,81,82,83,84,85,86,87,88,89,90,91,92,93,94,95,96,81,82,83,84,85,86,87,88,89,90,91,92,93,94,95,96,81,82,83,84,85,86,87,88,89,90,91,92,93,94,95,96,81,82,83,84,85,86,87,88,89,90,91,92,93,94,95,96,97,98,99,100,101,102,103,104,105,106,107,108,109,110,111,112,97,98,99,100,101,102,103,104,105,106,107,108,109,110,111,112,97,98,99,100,101,102,103,104,105,106,107,108,109,110,111,112,97,98,99,100,101,102,103,104,105,106,107,108,109,110,111,112,97,98,99,100,101,102,103,104,105,106,107,108,109,110,111,112,97,98,99,100,101,102,103,104,105,106,107,108,109,110,111,112,97,98,99,100,101,102,103,104,105,106,107,108,109,110,111,112,97,98,99,100,101,102,103,104,105,106,107,108,109,110,111,112,97,98,99,100,101,102,103,104,105,106,107,108,109,110,111,112,97,98,99,100,101,102,103,104,105,106,107,108,109,110,111,112,97,98,99,100,101,102,103,104,105,106,107,108,109,110,111,112,97,98,99,100,101,102,103,104,105,106,107,108,109,110,111,112,97,98,99,100,101,102,103,104,105,106,107,108,109,110,111,112,97,98,99,100,101,102,103,104,105,106,107,108,109,110,111,112,97,98,99,100,101,102,103,104,105,106,107,108,109,110,111,112,97,98,99,100,101,102,103,104,105,106,107,108,109,110,111,112,113,114,115,116,117,118,119,120,121,122,123,124,125,126,127,128,113,114,115,116,117,118,119,120,121,122,123,124,125,126,127,128,113,114,115,116,117,118,119,120,121,122,123,124,125,126,127,128,113,114,115,116,117,118,119,120,121,122,123,124,125,126,127,128,113,114,115,116,117,118,119,120,121,122,123,124,125,126,127,128,113,114,115,116,117,118,119,120,121,122,123,124,125,126,127,128,113,114,115,116,117,118,119,120,121,122,123,124,125,126,127,128,113,114,115,116,117,118,119,120,121,122,123,124,125,126,127,128,113,114,115,116,117,118,119,120,121,122,123,124,125,126,127,128,113,114,115,116,117,118,119,120,121,122,123,124,125,126,127,128,113,114,115,116,117,118,119,120,121,122,123,124,125,126,127,128,113,114,115,116,117,118,119,120,121,122,123,124,125,126,127,128,113,114,115,116,117,118,119,120,121,122,123,124,125,126,127,128,113,114,115,116,117,118,119,120,121,122,123,124,125,126,127,128,113,114,115,116,117,118,119,120,121,122,123,124,125,126,127,128,113,114,115,116,117,118,119,120,121,122,123,124,125,126,127,128,129,130,131,132,133,134,135,136,137,138,139,140,141,142,143,144,129,130,131,132,133,134,135,136,137,138,139,140,141,142,143,144,129,130,131,132,133,134,135,136,137,138,139,140,141,142,143,144,129,130,131,132,133,134,135,136,137,138,139,140,141,142,143,144,129,130,131,132,133,134,135,136,137,138,139,140,141,142,143,144,129,130,131,132,133,134,135,136,137,138,139,140,141,142,143,144,129,130,131,132,133,134,135,136,137,138,139,140,141,142,143,144,129,130,131,132,133,134,135,136,137,138,139,140,141,142,143,144,129,130,131,132,133,134,135,136,137,138,139,140,141,142,143,144,129,130,131,132,133,134,135,136,137,138,139,140,141,142,143,144,129,130,131,132,133,134,135,136,137,138,139,140,141,142,143,144,129,130,131,132,133,134,135,136,137,138,139,140,141,142,143,144,129,130,131,132,133,134,135,136,137,138,139,140,141,142,143,144,129,130,131,132,133,134,135,136,137,138,139,140,141,142,143,144,129,130,131,132,133,134,135,136,137,138,139,140,141,142,143,144,129,130,131,132,133,134,135,136,137,138,139,140,141,142,143,144,145,146,147,148,149,150,151,152,153,154,155,156,157,158,159,160,145,146,147,148,149,150,151,152,153,154,155,156,157,158,159,160,145,146,147,148,149,150,151,152,153,154,155,156,157,158,159,160,145,146,147,148,149,150,151,152,153,154,155,156,157,158,159,160,145,146,147,148,149,150,151,152,153,154,155,156,157,158,159,160,145,146,147,148,149,150,151,152,153,154,155,156,157,158,159,160,145,146,147,148,149,150,151,152,153,154,155,156,157,158,159,160,145,146,147,148,149,150,151,152,153,154,155,156,157,158,159,160,145,146,147,148,149,150,151,152,153,154,155,156,157,158,159,160,145,146,147,148,149,150,151,152,153,154,155,156,157,158,159,160,145,146,147,148,149,150,151,152,153,154,155,156,157,158,159,160,145,146,147,148,149,150,151,152,153,154,155,156,157,158,159,160,145,146,147,148,149,150,151,152,153,154,155,156,157,158,159,160,145,146,147,148,149,150,151,152,153,154,155,156,157,158,159,160,145,146,147,148,149,150,151,152,153,154,155,156,157,158,159,160,145,146,147,148,149,150,151,152,153,154,155,156,157,158,159,160,161,162,163,164,165,166,167,168,169,170,171,172,173,174,175,176,161,162,163,164,165,166,167,168,169,170,171,172,173,174,175,176,161,162,163,164,165,166,167,168,169,170,171,172,173,174,175,176,161,162,163,164,165,166,167,168,169,170,171,172,173,174,175,176,161,162,163,164,165,166,167,168,169,170,171,172,173,174,175,176,161,162,163,164,165,166,167,168,169,170,171,172,173,174,175,176,161,162,163,164,165,166,167,168,169,170,171,172,173,174,175,176,161,162,163,164,165,166,167,168,169,170,171,172,173,174,175,176,161,162,163,164,165,166,167,168,169,170,171,172,173,174,175,176,161,162,163,164,165,166,167,168,169,170,171,172,173,174,175,176,161,162,163,164,165,166,167,168,169,170,171,172,173,174,175,176,161,162,163,164,165,166,167,168,169,170,171,172,173,174,175,176,161,162,163,164,165,166,167,168,169,170,171,172,173,174,175,176,161,162,163,164,165,166,167,168,169,170,171,172,173,174,175,176,161,162,163,164,165,166,167,168,169,170,171,172,173,174,175,176,161,162,163,164,165,166,167,168,169,170,171,172,173,174,175,176,177,178,179,180,181,182,183,184,185,186,187,188,189,190,191,192,177,178,179,180,181,182,183,184,185,186,187,188,189,190,191,192,177,178,179,180,181,182,183,184,185,186,187,188,189,190,191,192,177,178,179,180,181,182,183,184,185,186,187,188,189,190,191,192,177,178,179,180,181,182,183,184,185,186,187,188,189,190,191,192,177,178,179,180,181,182,183,184,185,186,187,188,189,190,191,192,177,178,179,180,181,182,183,184,185,186,187,188,189,190,191,192,177,178,179,180,181,182,183,184,185,186,187,188,189,190,191,192,177,178,179,180,181,182,183,184,185,186,187,188,189,190,191,192,177,178,179,180,181,182,183,184,185,186,187,188,189,190,191,192,177,178,179,180,181,182,183,184,185,186,187,188,189,190,191,192,177,178,179,180,181,182,183,184,185,186,187,188,189,190,191,192,177,178,179,180,181,182,183,184,185,186,187,188,189,190,191,192,177,178,179,180,181,182,183,184,185,186,187,188,189,190,191,192,177,178,179,180,181,182,183,184,185,186,187,188,189,190,191,192,177,178,179,180,181,182,183,184,185,186,187,188,189,190,191,192,193,194,195,196,197,198,199,200,201,202,203,204,205,206,207,208,193,194,195,196,197,198,199,200,201,202,203,204,205,206,207,208,193,194,195,196,197,198,199,200,201,202,203,204,205,206,207,208,193,194,195,196,197,198,199,200,201,202,203,204,205,206,207,208,193,194,195,196,197,198,199,200,201,202,203,204,205,206,207,208,193,194,195,196,197,198,199,200,201,202,203,204,205,206,207,208,193,194,195,196,197,198,199,200,201,202,203,204,205,206,207,208,193,194,195,196,197,198,199,200,201,202,203,204,205,206,207,208,193,194,195,196,197,198,199,200,201,202,203,204,205,206,207,208,193,194,195,196,197,198,199,200,201,202,203,204,205,206,207,208,193,194,195,196,197,198,199,200,201,202,203,204,205,206,207,208,193,194,195,196,197,198,199,200,201,202,203,204,205,206,207,208,193,194,195,196,197,198,199,200,201,202,203,204,205,206,207,208,193,194,195,196,197,198,199,200,201,202,203,204,205,206,207,208,193,194,195,196,197,198,199,200,201,202,203,204,205,206,207,208,193,194,195,196,197,198,199,200,201,202,203,204,205,206,207,208,209,210,211,212,213,214,215,216,217,218,219,220,221,222,223,224,209,210,211,212,213,214,215,216,217,218,219,220,221,222,223,224,209,210,211,212,213,214,215,216,217,218,219,220,221,222,223,224,209,210,211,212,213,214,215,216,217,218,219,220,221,222,223,224,209,210,211,212,213,214,215,216,217,218,219,220,221,222,223,224,209,210,211,212,213,214,215,216,217,218,219,220,221,222,223,224,209,210,211,212,213,214,215,216,217,218,219,220,221,222,223,224,209,210,211,212,213,214,215,216,217,218,219,220,221,222,223,224,209,210,211,212,213,214,215,216,217,218,219,220,221,222,223,224,209,210,211,212,213,214,215,216,217,218,219,220,221,222,223,224,209,210,211,212,213,214,215,216,217,218,219,220,221,222,223,224,209,210,211,212,213,214,215,216,217,218,219,220,221,222,223,224,209,210,211,212,213,214,215,216,217,218,219,220,221,222,223,224,209,210,211,212,213,214,215,216,217,218,219,220,221,222,223,224,209,210,211,212,213,214,215,216,217,218,219,220,221,222,223,224,209,210,211,212,213,214,215,216,217,218,219,220,221,222,223,224,225,226,227,228,229,230,231,232,233,234,235,236,237,238,239,240,225,226,227,228,229,230,231,232,233,234,235,236,237,238,239,240,225,226,227,228,229,230,231,232,233,234,235,236,237,238,239,240,225,226,227,228,229,230,231,232,233,234,235,236,237,238,239,240,225,226,227,228,229,230,231,232,233,234,235,236,237,238,239,240,225,226,227,228,229,230,231,232,233,234,235,236,237,238,239,240,225,226,227,228,229,230,231,232,233,234,235,236,237,238,239,240,225,226,227,228,229,230,231,232,233,234,235,236,237,238,239,240,225,226,227,228,229,230,231,232,233,234,235,236,237,238,239,240,225,226,227,228,229,230,231,232,233,234,235,236,237,238,239,240,225,226,227,228,229,230,231,232,233,234,235,236,237,238,239,240,225,226,227,228,229,230,231,232,233,234,235,236,237,238,239,240,225,226,227,228,229,230,231,232,233,234,235,236,237,238,239,240,225,226,227,228,229,230,231,232,233,234,235,236,237,238,239,240,225,226,227,228,229,230,231,232,233,234,235,236,237,238,239,240,225,226,227,228,229,230,231,232,233,234,235,236,237,238,239,240,241,242,243,244,245,246,247,248,249,250,251,252,253,254,255,256,241,242,243,244,245,246,247,248,249,250,251,252,253,254,255,256,241,242,243,244,245,246,247,248,249,250,251,252,253,254,255,256,241,242,243,244,245,246,247,248,249,250,251,252,253,254,255,256,241,242,243,244,245,246,247,248,249,250,251,252,253,254,255,256,241,242,243,244,245,246,247,248,249,250,251,252,253,254,255,256,241,242,243,244,245,246,247,248,249,250,251,252,253,254,255,256,241,242,243,244,245,246,247,248,249,250,251,252,253,254,255,256,241,242,243,244,245,246,247,248,249,250,251,252,253,254,255,256,241,242,243,244,245,246,247,248,249,250,251,252,253,254,255,256,241,242,243,244,245,246,247,248,249,250,251,252,253,254,255,256,241,242,243,244,245,246,247,248,249,250,251,252,253,254,255,256,241,242,243,244,245,246,247,248,249,250,251,252,253,254,255,256,241,242,243,244,245,246,247,248,249,250,251,252,253,254,255,256,241,242,243,244,245,246,247,248,249,250,251,252,253,254,255,256,241,242,243,244,245,246,247,248,249,250,251,252,253,254,255,256]},{"id":2,"name":"falaises_bordures","type":"tilelayer","x":0,"y":0,"width":256,"height":192,"opacity":1,"visible":true,"data":[0,0,0,0,0,0,0,0,0,0,0,0,0,0,0,0,0,0,0,0,0,0,0,0,0,0,0,0,0,0,0,0,0,0,0,0,0,0,0,0,0,0,0,0,0,0,0,0,0,0,0,0,0,0,0,0,0,0,0,0,0,0,0,0,0,0,0,0,0,0,0,0,0,0,0,0,0,0,0,0,0,0,0,0,0,0,0,0,0,0,0,0,0,0,0,0,0,0,0,0,0,0,0,0,0,0,0,0,0,0,0,0,0,0,0,0,0,0,0,0,0,0,0,0,0,0,0,0,0,0,0,0,0,0,0,0,0,0,0,0,0,0,0,0,0,0,0,0,0,0,0,0,0,0,0,0,0,0,0,0,0,0,0,0,0,0,0,0,0,0,0,0,0,0,0,0,0,0,0,0,0,0,0,0,0,0,0,0,0,0,0,0,0,0,0,0,0,0,0,0,0,0,0,0,0,0,0,0,0,0,0,0,0,0,0,0,0,0,0,0,0,0,0,0,0,0,0,0,0,0,0,0,0,0,0,0,0,0,0,0,0,0,0,0,0,0,0,0,0,0,0,0,0,0,0,0,0,0,0,0,0,0,0,0,0,0,0,0,0,0,0,0,0,0,0,0,0,0,0,0,0,0,0,0,0,0,0,0,0,0,0,0,0,0,0,0,0,0,0,0,0,0,0,0,0,0,0,0,0,0,0,0,0,0,0,0,0,0,0,0,0,0,0,0,0,0,0,0,0,0,0,0,0,0,0,0,0,0,0,0,0,0,0,0,0,0,0,0,0,0,0,0,0,0,0,0,0,0,0,0,0,0,0,0,0,0,0,0,0,0,0,0,0,0,0,0,0,0,0,0,0,0,0,0,0,0,0,0,0,0,0,0,0,0,0,0,0,0,0,0,0,0,0,0,0,0,0,0,0,0,0,0,0,0,0,0,0,0,0,0,0,0,0,0,0,0,0,0,0,0,0,0,0,0,0,0,0,0,0,0,0,0,0,0,0,0,0,0,0,0,0,0,0,0,0,0,0,0,0,0,0,0,0,0,0,0,0,0,0,0,0,0,0,0,0,0,0,0,0,0,0,0,0,0,0,0,0,0,0,0,0,0,0,0,0,0,0,0,0,0,0,0,0,0,0,0,0,0,0,0,0,0,0,0,0,0,0,0,0,0,0,0,0,0,0,0,0,0,0,0,0,0,0,0,0,0,0,0,0,0,0,0,0,0,0,0,0,0,0,0,0,0,0,0,0,0,0,0,0,0,0,0,0,0,0,0,0,0,0,0,0,0,0,0,0,0,0,0,0,0,0,0,0,0,0,0,0,0,0,0,0,0,0,0,0,0,0,0,0,0,0,0,0,0,0,0,0,0,0,0,0,0,0,0,0,0,0,0,0,0,0,0,0,0,0,0,0,0,0,0,0,0,0,0,0,0,0,0,0,0,0,0,0,0,0,0,0,0,0,0,0,0,0,0,0,0,0,0,0,0,0,0,0,0,0,0,0,0,0,0,0,0,0,0,0,0,0,0,0,0,0,0,0,0,0,0,0,0,0,0,0,0,0,0,0,0,0,0,0,0,0,0,0,0,0,0,0,0,0,0,0,0,0,0,0,0,0,0,0,0,0,0,0,0,0,0,0,0,0,0,0,0,0,0,0,0,0,0,0,0,0,0,0,0,0,0,0,0,0,0,0,0,0,0,0,0,0,0,0,0,0,0,0,0,0,0,0,0,0,0,0,0,0,0,0,0,0,0,0,0,0,0,0,0,0,0,0,0,0,0,0,0,0,0,0,0,0,0,0,0,0,0,0,0,0,0,0,0,0,0,0,0,0,0,0,0,0,0,0,0,0,0,0,0,0,0,0,0,0,0,0,0,0,0,0,0,0,0,0,0,0,0,0,0,0,0,0,0,0,0,0,0,0,0,0,0,0,0,0,0,0,0,0,0,0,0,0,0,0,0,0,0,0,0,0,0,0,0,0,0,0,0,0,0,0,0,0,0,0,0,0,0,0,0,0,0,0,0,0,0,0,0,0,0,0,0,0,0,0,0,0,0,0,0,0,0,0,0,0,0,0,0,0,0,0,0,0,0,0,0,0,0,0,0,0,0,0,0,0,0,0,0,0,0,0,0,0,0,0,0,0,0,0,0,0,0,0,0,0,0,0,0,0,0,0,0,0,0,0,0,0,0,0,0,0,0,0,0,0,0,0,0,0,0,0,0,0,0,0,0,0,0,0,0,0,0,0,0,0,0,0,0,0,0,0,0,0,0,0,0,0,0,0,0,0,0,0,0,0,0,0,0,0,0,0,0,0,0,0,0,0,0,0,0,0,0,0,0,0,0,0,0,0,0,0,0,0,0,0,0,0,0,0,0,0,0,0,0,0,0,0,0,0,0,0,0,0,0,0,0,0,0,0,0,0,0,0,0,0,0,0,0,0,0,0,0,0,0,0,0,0,0,0,0,0,0,0,0,0,0,0,0,0,0,0,0,0,0,0,0,0,0,0,0,0,0,0,0,0,0,0,0,0,0,0,0,0,0,0,0,0,0,0,0,0,0,0,0,0,0,0,0,0,0,0,0,0,0,0,0,0,0,0,0,0,0,0,0,0,0,0,0,0,0,0,0,0,0,0,0,0,0,0,0,0,0,0,0,0,0,0,0,0,0,0,0,0,0,0,0,0,0,0,0,0,0,0,0,0,0,0,0,0,0,0,0,0,0,0,0,0,0,0,0,0,0,0,0,0,0,0,0,0,0,0,0,0,0,0,0,0,0,0,0,0,0,0,0,0,0,0,0,0,0,0,0,0,0,0,0,0,0,0,0,0,0,0,0,0,0,0,0,0,0,0,0,0,0,0,0,0,0,0,0,0,0,0,0,0,0,0,0,0,0,0,0,0,0,0,0,0,0,0,0,0,0,0,0,0,0,0,0,0,0,0,0,0,0,0,0,0,0,0,0,0,0,0,0,0,0,0,0,0,0,0,0,0,0,0,0,0,0,0,0,0,0,0,0,0,0,0,0,0,0,0,0,0,0,0,0,0,0,0,0,0,0,0,0,0,0,0,0,0,0,0,0,0,0,0,0,0,0,0,0,0,0,0,0,0,0,0,0,0,0,0,0,0,0,0,0,0,0,0,0,0,0,0,0,0,0,0,0,0,0,0,0,0,0,0,0,0,0,0,0,0,0,0,0,0,0,0,0,0,0,0,0,0,0,0,0,0,0,0,0,0,0,0,0,0,0,0,0,0,0,0,0,0,0,0,0,0,0,0,0,0,0,0,0,0,0,0,0,0,0,0,0,0,0,0,0,0,0,0,0,0,0,0,0,0,0,0,0,0,0,0,0,0,0,0,0,0,0,0,0,0,0,0,0,0,0,0,0,0,0,0,0,0,0,0,0,0,0,0,0,0,0,0,0,0,0,0,0,0,0,0,0,0,0,0,0,0,0,0,0,0,0,0,0,0,0,0,0,0,0,0,0,0,0,0,0,0,0,0,0,0,0,0,0,0,0,0,0,0,0,0,0,0,0,0,0,0,0,0,0,0,0,0,0,0,0,0,0,0,0,0,0,0,0,0,0,0,0,0,0,0,0,0,0,0,0,0,0,0,0,0,0,0,0,0,0,0,0,0,0,0,0,0,0,0,0,0,0,0,0,0,0,0,0,0,0,0,0,0,0,0,0,0,0,0,0,0,0,0,0,0,0,0,0,0,0,0,0,0,0,0,0,0,0,0,0,0,0,0,0,0,0,0,0,0,0,0,0,0,0,0,0,0,0,0,0,0,0,0,0,0,0,0,0,0,0,0,0,0,0,0,0,0,0,0,0,0,0,0,0,0,0,0,0,0,0,0,0,0,0,0,0,0,0,0,0,0,0,0,0,0,0,0,0,0,0,0,0,0,0,0,0,0,0,0,0,0,0,0,0,0,0,0,0,0,0,0,0,0,0,0,0,0,0,0,0,0,0,0,0,0,0,0,0,0,0,0,0,0,0,0,0,0,0,0,0,0,0,0,0,0,0,0,0,0,0,0,0,0,0,0,0,0,0,0,0,0,0,0,0,0,0,0,0,0,0,0,0,0,0,0,0,0,0,0,0,0,0,0,0,0,0,0,0,0,0,0,0,0,0,0,0,0,0,0,0,0,0,0,0,0,0,0,0,0,0,0,0,0,0,0,0,0,0,0,0,0,0,0,0,0,0,0,0,0,0,0,0,0,0,0,0,0,0,0,0,0,0,0,0,0,0,0,0,0,0,0,0,0,0,0,0,0,0,0,0,0,0,0,0,0,0,0,0,0,0,0,0,0,0,0,0,0,0,0,0,0,0,0,0,0,0,0,0,0,0,0,0,0,0,0,0,0,0,0,0,0,0,0,0,0,0,0,0,0,0,0,0,0,0,0,0,0,0,0,0,0,0,0,0,0,0,0,0,0,0,0,0,0,0,0,0,0,0,0,0,0,0,0,0,0,0,0,0,0,0,0,0,0,0,0,0,0,0,0,0,0,0,0,0,0,0,0,0,0,0,0,0,0,0,0,0,0,0,0,0,0,0,0,0,0,0,0,0,0,0,0,0,0,0,0,0,0,0,0,0,0,0,0,0,0,0,0,0,0,0,0,0,0,0,0,0,0,0,0,0,0,0,0,0,0,0,0,0,0,0,0,0,0,0,0,0,0,0,0,0,0,0,0,0,0,0,0,0,0,0,0,0,0,0,0,0,0,0,0,0,0,0,0,0,0,0,0,0,0,0,0,0,0,0,0,0,0,0,0,0,0,0,0,0,0,0,0,0,0,0,0,0,0,0,0,0,0,0,0,0,0,0,0,0,0,0,0,0,0,0,0,0,0,0,0,0,0,0,0,0,0,0,0,0,0,0,0,0,0,0,0,0,0,0,0,0,0,0,0,0,0,0,0,0,0,0,0,0,0,0,0,0,0,0,0,0,0,0,0,0,0,0,0,0,0,0,0,0,0,0,0,0,0,0,0,0,0,0,0,0,0,0,0,0,0,0,0,0,0,0,0,0,0,0,0,0,0,0,0,0,0,0,0,0,0,0,0,0,0,0,0,0,0,0,0,0,0,0,0,0,0,0,0,0,0,0,0,0,0,0,0,0,0,0,0,0,0,0,0,0,0,0,0,0,0,0,0,0,0,0,0,0,0,0,0,0,0,0,0,0,0,0,0,0,0,0,0,0,0,0,0,0,0,0,0,0,0,0,0,0,0,0,0,0,0,0,0,0,0,0,0,0,0,0,0,0,0,0,0,0,0,0,0,0,0,0,0,0,0,0,0,0,0,0,0,0,0,0,0,0,0,0,0,0,0,0,0,0,0,0,0,0,0,0,0,0,0,0,0,0,0,0,0,0,0,0,0,0,0,0,0,0,0,0,0,0,0,0,0,0,0,0,0,0,0,0,0,0,0,0,0,0,0,0,0,0,0,0,0,0,0,0,0,0,0,0,0,0,0,0,0,0,0,0,0,0,0,0,0,0,0,0,0,0,0,0,0,0,0,0,0,0,0,0,0,0,0,0,0,0,0,0,0,0,0,0,0,0,0,0,0,0,0,0,0,0,0,0,0,0,0,0,0,0,0,0,0,0,0,0,0,0,0,0,0,0,0,0,0,0,0,0,0,0,0,0,0,0,0,0,0,0,0,0,0,0,0,0,0,0,0,0,0,0,0,0,0,0,0,0,0,0,0,0,0,0,0,0,0,0,0,0,0,0,0,0,0,0,0,0,0,0,0,0,0,0,0,0,0,0,0,0,0,0,0,0,0,0,0,0,0,0,0,0,0,0,0,0,0,0,0,0,0,0,0,0,0,0,0,0,0,0,0,0,0,0,0,0,0,0,0,0,0,0,0,0,0,0,0,0,0,0,0,0,0,0,0,0,0,0,0,0,0,0,0,0,0,0,0,0,0,0,0,0,0,0,0,0,0,0,0,0,0,0,0,0,0,0,0,0,0,0,0,0,0,0,0,0,0,0,0,0,0,0,0,0,0,0,0,0,0,0,0,0,0,0,0,0,0,0,0,0,0,0,0,0,0,0,0,0,0,0,0,0,0,0,0,0,0,0,0,0,0,0,0,0,0,0,0,0,0,0,0,0,0,0,0,0,0,0,0,0,0,0,0,0,0,0,0,0,0,0,0,0,0,0,0,0,0,0,0,0,0,0,0,0,0,0,0,0,0,0,0,0,0,0,0,0,0,0,0,0,0,0,0,0,0,0,0,0,0,0,0,0,0,0,0,0,0,0,0,0,0,0,0,0,0,0,0,0,0,0,0,0,0,0,0,0,0,0,0,0,0,0,0,0,0,0,0,0,0,0,0,0,0,0,0,0,0,0,0,0,0,0,0,0,0,0,0,0,0,0,0,0,0,0,0,0,0,0,0,0,0,0,0,0,0,0,0,0,0,0,0,0,0,0,0,0,0,0,0,0,0,0,0,0,0,0,0,0,0,0,0,0,0,0,0,0,0,0,0,0,0,0,0,0,0,0,0,0,0,0,0,0,0,0,0,0,0,0,0,0,0,0,0,0,0,0,0,0,0,0,0,0,0,0,0,0,0,0,0,0,0,0,0,0,0,0,0,0,0,0,0,0,0,0,0,0,0,0,0,0,0,0,0,0,0,0,0,0,0,0,0,0,0,0,0,0,0,0,0,0,0,0,0,0,0,0,0,0,0,0,0,0,0,0,0,0,0,0,0,0,0,0,0,0,0,0,0,0,0,0,0,0,0,0,0,0,0,0,0,0,0,0,0,0,0,0,0,0,0,0,0,0,0,0,0,0,0,0,0,0,0,0,0,0,0,0,0,0,0,0,0,0,0,0,0,0,0,0,0,0,0,0,0,0,0,0,0,0,0,0,0,0,0,0,0,0,0,0,0,0,0,0,0,0,0,0,0,0,0,0,0,0,0,0,0,0,0,0,0,0,0,0,0,0,0,0,0,0,0,0,0,0,0,0,0,0,0,0,0,0,0,0,0,0,0,0,0,0,0,0,0,0,0,0,0,0,0,0,0,0,0,0,0,0,0,0,0,0,0,0,0,0,0,0,0,0,0,0,0,0,0,0,0,0,0,0,0,0,0,0,0,0,0,0,0,0,0,0,0,0,0,0,0,0,0,0,0,0,0,0,0,0,0,0,0,0,0,0,0,0,0,0,0,0,0,0,0,0,0,0,0,0,0,0,0,0,0,0,0,0,0,0,0,0,0,0,0,0,0,0,0,0,0,0,0,0,0,0,0,0,0,0,0,0,0,0,0,0,0,0,0,0,0,0,0,0,0,0,0,0,0,0,0,0,0,0,0,0,0,0,0,0,0,0,0,0,0,0,0,0,0,0,0,0,0,0,0,0,0,0,0,0,0,0,0,0,0,0,0,0,0,0,0,0,0,0,0,0,0,0,0,0,0,0,0,0,0,0,0,0,0,0,0,0,0,0,0,0,0,0,0,0,0,0,0,0,0,0,0,0,0,0,0,0,0,0,0,0,0,0,0,0,0,0,0,0,0,0,0,0,0,0,0,0,0,0,0,0,0,0,0,0,0,0,0,0,0,0,0,0,0,0,0,0,0,0,0,0,0,0,0,0,0,0,0,0,0,0,0,0,0,0,0,0,0,0,0,0,0,0,0,0,0,0,0,0,0,0,0,0,0,0,0,0,0,0,0,0,0,0,0,0,0,0,0,0,0,0,0,0,0,0,0,0,0,0,0,0,0,0,0,0,0,0,0,0,0,0,0,0,0,0,0,0,0,0,0,0,0,0,0,0,0,0,0,0,0,0,0,0,0,0,0,0,0,0,0,0,0,0,0,0,0,0,0,0,0,0,0,0,0,0,0,0,0,0,0,0,0,0,0,0,0,0,0,0,0,0,0,0,0,0,0,0,0,0,0,0,0,0,0,0,0,0,0,0,0,0,0,0,0,0,0,0,0,0,0,0,0,0,0,0,0,0,0,0,0,0,0,0,0,0,0,0,0,0,0,0,0,0,0,0,0,0,0,0,0,0,0,0,0,0,0,0,0,0,0,0,0,0,0,0,0,0,0,0,0,0,0,0,0,0,0,0,0,0,0,0,0,0,0,0,0,0,0,0,0,0,0,0,0,0,0,0,0,0,0,0,0,0,0,0,0,0,0,0,0,0,0,0,0,0,0,0,0,0,0,0,0,0,0,0,0,0,0,0,0,0,0,0,0,0,0,0,0,0,0,0,0,0,0,0,0,0,0,0,0,0,0,0,0,0,0,0,0,0,0,0,0,0,0,0,0,0,0,0,0,0,0,0,0,0,0,0,0,0,0,0,0,0,0,0,0,0,0,0,0,0,0,0,0,0,0,0,0,0,0,0,0,0,0,0,0,0,0,0,0,0,0,0,0,0,0,0,0,0,0,0,0,0,0,0,0,0,0,0,0,0,0,0,0,0,0,0,0,0,0,0,0,0,0,0,0,0,0,0,0,0,0,0,0,0,0,0,0,0,0,0,0,0,0,0,0,0,0,0,0,0,0,0,0,0,0,0,0,0,0,0,0,0,0,0,0,0,0,0,0,0,0,0,0,0,0,0,0,0,0,0,0,0,0,0,0,0,0,0,0,0,0,0,0,0,0,0,0,0,0,0,0,0,0,0,0,0,0,0,0,0,0,0,0,0,0,0,0,0,0,0,0,0,0,0,0,0,0,0,0,0,0,0,0,0,0,0,0,0,0,0,0,0,0,0,0,0,0,0,0,0,0,0,0,0,0,0,0,0,0,0,0,0,0,0,0,0,0,0,0,0,0,0,0,0,0,0,0,0,0,0,0,0,0,0,0,0,0,0,0,0,0,0,0,0,0,0,0,0,0,0,0,0,0,0,0,0,0,0,0,0,0,0,0,0,0,0,0,0,0,0,0,0,0,0,0,0,0,0,0,0,0,0,0,0,0,0,0,0,0,0,0,0,0,0,0,0,0,0,0,0,0,0,0,0,0,0,0,0,0,0,0,0,0,0,0,0,0,0,0,0,0,0,0,0,0,0,0,0,0,0,0,0,0,0,0,0,0,0,0,0,0,0,0,0,0,0,0,0,0,0,0,0,0,0,0,0,0,0,0,0,0,0,0,0,0,0,0,0,0,0,0,0,0,0,0,0,0,0,0,0,0,0,0,0,0,0,0,0,0,0,0,0,0,0,0,0,0,0,0,0,0,0,0,0,0,0,0,0,0,0,0,0,0,0,0,0,0,0,0,0,0,0,0,0,0,0,0,0,0,0,0,0,0,0,0,0,0,0,0,0,0,0,0,0,0,0,0,0,0,0,0,0,0,0,0,0,0,0,0,0,0,0,0,0,0,0,0,0,0,0,0,0,0,0,0,0,0,0,0,0,0,0,0,0,0,0,0,0,0,0,0,0,0,0,0,0,0,0,0,0,0,0,0,0,0,0,0,0,0,0,0,0,0,0,0,0,0,0,0,0,0,0,0,0,0,0,0,0,0,0,0,0,0,0,0,0,0,0,0,0,0,0,0,0,0,0,0,0,0,0,0,0,0,0,0,0,0,0,0,0,0,0,0,0,0,0,0,0,0,0,0,0,0,0,0,0,0,0,0,0,0,0,0,0,0,0,0,0,0,0,0,0,0,0,0,0,0,0,0,0,0,0,0,0,0,0,0,0,0,0,0,0,0,0,0,0,0,0,0,0,0,0,0,0,0,0,0,0,0,0,0,0,0,0,0,0,0,0,0,0,0,0,0,0,0,0,0,0,0,0,0,0,0,0,0,0,0,0,0,0,0,0,0,0,0,0,0,0,0,0,0,0,0,0,0,0,0,0,0,0,0,0,0,0,0,0,0,0,0,0,0,0,0,0,0,0,0,0,0,0,0,0,0,0,0,0,0,0,0,0,0,0,0,0,0,0,0,0,0,0,0,0,0,0,0,0,0,0,0,0,0,0,0,0,0,0,0,0,0,0,0,0,0,0,0,0,0,0,0,0,0,0,0,0,0,0,0,0,0,0,0,0,0,0,0,0,0,0,0,0,0,0,0,0,0,0,0,0,0,0,0,0,0,0,0,0,0,0,0,0,0,0,0,0,0,0,0,0,0,0,0,0,0,0,0,0,0,0,0,0,0,0,0,0,0,0,0,0,0,0,0,0,0,0,0,0,0,0,0,0,0,0,0,0,0,0,0,0,0,0,0,0,0,0,0,0,0,0,0,0,0,0,0,0,0,0,0,0,0,0,0,0,0,0,0,0,0,0,0,0,0,0,0,0,0,0,0,0,0,0,0,0,0,0,0,0,0,0,0,0,0,0,0,0,0,0,0,0,0,0,0,0,0,0,0,0,0,0,0,0,0,0,0,0,0,0,0,0,0,0,0,0,0,0,0,0,0,0,0,0,0,0,0,0,0,0,0,0,0,0,0,0,0,0,0,0,0,0,0,0,0,0,0,0,0,0,0,0,0,0,0,0,0,0,0,0,0,0,0,0,0,0,0,0,0,0,0,0,0,0,0,0,0,0,0,0,0,0,0,0,0,0,0,0,0,0,0,0,0,0,0,0,0,0,0,0,0,0,0,0,0,0,0,0,0,0,0,0,0,0,0,0,0,0,0,0,0,0,0,0,0,0,0,0,0,0,0,0,0,0,0,0,0,0,0,0,0,0,0,0,0,0,0,0,0,0,0,0,0,0,0,0,0,0,0,0,0,0,0,0,0,0,0,0,0,0,0,0,0,0,0,0,0,0,0,0,0,0,0,0,0,0,0,0,0,0,0,0,0,0,0,0,0,0,0,0,0,0,0,0,0,0,0,0,0,0,0,0,0,0,0,0,0,0,0,0,0,0,0,0,0,0,0,0,0,0,0,0,0,0,0,0,0,0,0,0,0,0,0,0,0,0,0,0,0,0,0,0,0,0,0,0,0,0,0,0,0,0,0,0,0,0,0,0,0,0,0,0,0,0,0,0,0,0,0,0,0,0,0,0,0,0,0,0,0,0,0,0,0,0,0,0,0,0,0,0,0,0,0,0,0,0,0,0,0,0,0,0,0,0,0,0,0,0,0,0,0,0,0,0,0,0,0,0,0,0,0,0,0,0,0,0,0,0,0,0,0,0,0,0,0,0,0,0,0,0,0,0,0,0,0,0,0,0,0,0,0,0,0,0,0,0,0,0,0,0,0,0,0,0,0,0,0,0,0,0,0,0,0,0,0,0,0,0,0,0,0,0,0,0,0,0,0,0,0,0,0,0,0,0,0,0,0,0,0,0,0,0,0,0,0,0,0,0,0,0,0,0,0,0,0,0,0,0,0,0,0,0,0,0,0,0,0,0,0,0,0,0,0,0,0,0,0,0,0,0,0,0,0,0,0,0,0,0,0,0,0,0,0,0,0,0,0,0,0,0,0,0,0,0,0,0,0,0,0,0,0,0,0,0,0,0,0,0,0,0,0,0,0,0,0,0,0,0,0,0,0,0,0,0,0,0,0,0,0,0,0,0,0,0,0,0,0,0,0,0,0,0,0,0,0,0,0,0,0,0,0,0,0,0,0,0,0,0,0,0,0,0,0,0,0,0,0,0,0,0,0,0,0,0,0,0,0,0,0,0,0,0,0,0,0,0,0,0,0,0,0,0,0,0,0,0,0,0,0,0,0,0,0,0,0,0,0,0,0,0,0,0,0,0,0,0,0,0,0,0,0,0,0,0,0,0,0,0,0,0,0,0,0,0,0,0,0,0,0,0,0,0,0,0,0,0,0,0,0,0,0,0,0,0,0,0,0,0,0,0,0,0,0,0,0,0,0,0,0,0,0,0,0,0,0,0,0,0,0,0,0,0,0,0,0,0,0,0,0,0,0,0,0,0,0,0,0,0,0,0,0,0,0,0,0,0,0,0,0,0,0,0,0,0,0,0,0,0,0,0,0,0,0,0,0,0,0,0,0,0,0,0,0,0,0,0,0,0,0,0,0,0,0,0,0,0,0,0,0,0,0,0,0,0,0,0,0,0,0,0,0,0,0,0,0,0,0,0,0,0,0,0,0,0,0,0,0,0,0,0,0,0,0,0,0,0,0,0,0,0,0,0,0,0,0,0,0,0,0,0,0,0,0,0,0,0,0,0,0,0,0,0,0,0,0,0,0,0,0,0,0,0,0,0,0,0,0,0,0,0,0,0,0,0,0,0,0,0,0,0,0,0,0,0,0,0,0,0,0,0,0,0,0,0,0,0,0,0,0,0,0,0,0,0,0,0,0,0,0,0,0,0,0,0,0,0,0,0,0,0,0,0,0,0,0,0,0,0,0,0,0,0,0,0,0,0,0,0,0,0,0,0,0,0,0,0,0,0,0,0,0,0,0,0,0,0,0,0,0,0,0,0,0,0,0,0,0,0,0,0,0,0,0,0,0,0,0,0,0,0,0,0,0,0,0,0,0,0,0,0,0,0,0,0,0,0,0,0,0,0,0,0,0,0,0,0,0,0,0,0,0,0,0,0,0,0,0,0,0,0,0,0,0,0,0,0,0,0,0,0,0,0,0,0,0,0,0,0,0,0,0,0,0,0,0,0,0,0,0,0,0,0,0,0,0,0,0,0,0,0,0,0,0,0,0,0,0,0,0,0,0,0,0,0,0,0,0,0,0,0,0,0,0,0,0,0,0,0,0,0,0,0,0,0,0,0,0,0,0,0,0,0,0,0,0,0,0,0,0,0,0,0,0,0,0,0,0,0,0,0,0,0,0,0,0,0,0,0,0,0,0,0,0,0,0,0,0,0,0,0,0,0,0,0,0,0,0,0,0,0,0,0,0,0,0,0,0,0,0,0,0,0,0,0,0,0,0,0,0,0,0,0,0,0,0,0,0,0,0,0,0,0,0,0,0,0,0,0,0,0,0,0,0,0,0,0,0,0,0,0,0,0,0,0,0,0,0,0,0,0,0,0,0,0,0,0,0,0,0,0,0,0,0,0,0,0,0,0,0,0,0,0,0,0,0,0,0,0,0,0,0,0,0,0,0,0,0,0,0,0,0,0,0,0,0,0,0,0,0,0,0,0,0,0,0,0,0,0,0,0,0,0,0,0,0,0,0,0,0,0,0,0,0,0,0,0,0,0,0,0,0,0,0,0,0,0,0,0,0,0,0,0,0,0,0,0,0,0,0,0,0,0,0,0,0,0,0,0,0,0,0,0,0,0,0,0,0,0,0,0,0,0,0,0,0,0,0,0,0,0,0,0,0,0,0,0,0,0,0,0,0,0,0,0,0,0,0,0,0,0,0,0,0,0,0,0,0,0,0,0,0,0,0,0,0,0,0,0,0,0,0,0,0,0,0,0,0,0,0,0,0,0,0,0,0,0,0,0,0,0,0,0,0,0,0,0,0,0,0,0,0,0,0,0,0,0,0,0,0,0,0,0,0,0,0,0,0,0,0,0,0,0,0,0,0,0,0,0,0,0,0,0,0,0,0,0,0,0,0,0,0,0,0,0,0,0,0,0,0,0,0,0,0,0,0,0,0,0,0,0,0,0,0,0,0,0,0,0,0,0,0,0,0,0,0,0,0,0,0,0,0,0,0,0,0,0,0,0,0,0,0,0,0,0,0,0,0,0,0,0,0,0,0,0,0,0,0,0,0,0,0,0,0,0,0,0,0,0,0,0,0,0,0,0,0,0,0,0,0,0,0,0,0,0,0,0,0,0,0,0,0,0,0,0,0,0,0,0,0,0,0,0,0,0,0,0,0,0,0,0,0,0,0,0,0,0,0,0,0,0,0,0,0,0,0,0,0,0,0,0,0,0,0,0,0,0,0,0,0,0,0,0,0,0,0,0,0,0,0,0,0,0,0,0,0,0,0,0,0,0,0,0,0,0,0,0,0,0,0,0,0,0,0,0,0,0,0,0,0,0,0,0,0,0,0,0,0,0,0,0,0,0,0,0,0,0,0,0,0,0,0,0,0,0,0,0,0,0,0,0,0,0,0,0,0,0,0,0,0,0,0,0,0,0,0,0,0,0,0,0,0,0,0,0,0,0,0,0,0,0,0,0,0,0,0,0,0,0,0,0,0,0,0,0,0,0,0,0,0,0,0,0,0,0,0,0,0,0,0,0,0,0,0,0,0,0,0,0,0,0,0,0,0,0,0,0,0,0,0,0,0,0,0,0,0,0,0,0,0,0,0,0,0,0,0,0,0,0,0,0,0,0,0,0,0,0,0,0,0,0,0,0,0,0,0,0,0,0,0,0,0,0,0,0,0,0,0,0,0,0,0,0,0,0,0,0,0,0,0,0,0,0,0,0,0,0,0,0,0,0,0,0,0,0,0,0,0,0,0,0,0,0,0,0,0,0,0,0,0,0,0,0,0,0,0,0,0,0,0,0,0,0,0,0,0,0,0,0,0,0,0,0,0,0,0,0,0,0,0,0,0,0,0,0,0,0,0,0,0,0,0,0,0,0,0,0,0,0,0,0,0,0,0,0,0,0,0,0,0,0,0,0,0,0,0,0,0,0,0,0,0,0,0,0,0,0,0,0,0,0,0,0,0,0,0,0,0,0,0,0,0,0,0,0,0,0,0,0,0,0,0,0,0,0,0,0,0,0,0,0,0,0,0,0,0,0,0,0,0,0,0,0,0,0,0,0,0,0,0,0,0,0,0,0,0,0,0,0,0,0,0,0,0,0,0,0,0,0,0,0,0,0,0,0,0,0,0,0,0,0,0,0,0,0,0,0,0,0,0,0,0,0,0,0,0,0,0,0,0,0,0,0,0,0,0,0,0,0,0,0,0,0,0,0,0,0,0,0,0,0,0,0,0,0,0,0,0,0,0,0,0,0,0,0,0,0,0,0,0,0,0,0,0,0,0,0,0,0,0,0,0,0,0,0,0,0,0,0,0,0,0,0,0,0,0,0,0,0,0,0,0,0,0,0,0,0,0,0,0,0,0,0,0,0,0,0,0,0,0,0,0,0,0,0,0,0,0,0,0,0,0,0,0,0,0,0,0,0,0,0,0,0,0,0,0,0,0,0,0,0,0,0,0,0,0,0,0,0,0,0,0,0,0,0,0,0,0,0,0,0,0,0,0,0,0,0,0,0,0,0,0,0,0,0,0,0,0,0,0,0,0,0,0,0,0,0,0,0,0,0,0,0,0,0,0,0,0,0,0,0,0,0,0,0,0,0,0,0,0,0,0,0,0,0,0,0,0,0,0,0,0,0,0,0,0,0,0,0,0,0,0,0,0,0,0,0,0,0,0,0,0,0,0,0,0,0,0,0,0,0,0,0,0,0,0,0,0,0,0,0,0,0,0,0,0,0,0,0,0,0,0,0,0,0,0,0,0,0,0,0,0,0,0,0,0,0,0,0,0,0,0,0,0,0,0,0,0,0,0,0,0,0,0,0,0,0,0,0,0,0,0,0,0,0,0,0,0,0,0,0,0,0,0,0,0,0,0,0,0,0,0,0,0,0,0,0,0,0,0,0,0,0,0,0,0,0,0,0,0,0,0,0,0,0,0,0,0,0,0,0,0,0,0,0,0,0,0,0,0,0,0,0,0,0,0,0,0,0,0,0,0,0,0,0,0,0,0,0,0,0,0,0,0,0,0,0,0,0,0,0,0,0,0,0,0,0,0,0,0,0,0,0,0,0,0,0,0,0,0,0,0,0,0,0,0,0,0,0,0,0,0,0,0,0,0,0,0,0,0,0,0,0,0,0,0,0,0,0,0,0,0,0,0,0,0,0,0,0,0,0,0,0,0,0,0,0,0,0,0,0,0,0,0,0,0,0,0,0,0,0,0,0,0,0,0,0,0,0,0,0,0,0,0,0,0,0,0,0,0,0,0,0,0,0,0,0,0,0,0,0,0,0,0,0,0,0,0,0,0,0,0,0,0,0,0,0,0,0,0,0,0,0,0,0,0,0,0,0,0,0,0,0,0,0,0,0,0,0,0,0,0,0,0,0,0,0,0,0,0,0,0,0,0,0,0,0,0,0,0,0,0,0,0,0,0,0,0,0,0,0,0,0,0,0,0,0,0,0,0,0,0,0,0,0,0,0,0,0,0,0,0,0,0,0,0,0,0,0,0,0,0,0,0,0,0,0,0,0,0,0,0,0,0,0,0,0,0,0,0,0,0,0,0,0,0,0,0,0,0,0,0,0,0,0,0,0,0,0,0,0,0,0,0,0,0,0,0,0,0,0,0,0,0,0,0,0,0,0,0,0,0,0,0,0,0,0,0,0,0,0,0,0,0,0,0,0,0,0,0,0,0,0,0,0,0,0,0,0,0,0,0,0,0,0,0,0,0,0,0,0,0,0,0,0,0,0,0,0,0,0,0,0,0,0,0,0,0,0,0,0,0,0,0,0,0,0,0,0,0,0,0,0,0,0,0,0,0,0,0,0,0,0,0,0,0,0,0,0,0,0,0,0,0,0,0,0,0,0,0,0,0,0,0,0,0,0,0,0,0,0,0,0,0,0,0,0,0,0,0,0,0,0,0,0,0,0,0,0,0,0,0,0,0,0,0,0,0,0,0,0,0,0,0,0,0,0,0,0,0,0,0,0,0,0,0,0,0,0,0,0,0,0,0,0,0,0,0,0,0,0,0,0,0,0,0,0,0,0,0,0,0,0,0,0,0,0,0,0,0,0,0,0,0,0,0,0,0,0,0,0,0,0,0,0,0,0,0,0,0,0,0,0,0,0,0,0,0,0,0,0,0,0,0,0,0,0,0,0,0,0,0,0,0,0,0,0,0,0,0,0,0,0,0,0,0,0,0,0,0,0,0,0,0,0,0,0,0,0,0,0,0,0,0,0,0,0,0,0,0,0,0,0,0,0,0,0,0,0,0,0,0,0,0,0,0,0,0,0,0,0,0,0,0,0,0,0,0,0,0,0,0,0,0,0,0,0,0,0,0,0,0,0,0,0,0,0,0,0,0,0,0,0,0,0,0,0,0,0,0,0,0,0,0,0,0,0,0,0,0,0,0,0,0,0,0,0,0,0,0,0,0,0,0,0,0,0,0,0,0,0,0,0,0,0,0,0,0,0,0,0,0,0,0,0,0,0,0,0,0,0,0,0,0,0,0,0,0,0,0,0,0,0,0,0,0,0,0,0,0,0,0,0,0,0,0,0,0,0,0,0,0,0,0,0,0,0,0,0,0,0,0,0,0,0,0,0,0,0,0,0,0,0,0,0,0,0,0,0,0,0,0,0,0,0,0,0,0,0,0,0,0,0,0,0,0,0,0,0,0,0,0,0,0,0,0,0,0,0,0,0,0,0,0,0,0,0,0,0,0,0,0,0,0,0,0,0,0,0,0,0,0,0,0,0,0,0,0,0,0,0,0,0,0,0,0,0,0,0,0,0,0,0,0,0,0,0,0,0,0,0,0,0,0,0,0,0,0,0,0,0,0,0,0,0,0,0,0,0,0,0,0,0,0,0,0,0,0,0,0,0,0,0,0,0,0,0,0,0,0,0,0,0,0,0,0,0,0,0,0,0,0,0,0,0,0,0,0,0,0,0,0,0,0,0,0,0,0,0,0,0,0,0,0,0,0,0,0,0,0,0,0,0,0,0,0,0,0,0,0,0,0,0,0,0,0,0,0,0,0,0,0,0,0,0,0,0,0,0,0,0,0,0,0,0,0,0,0,0,0,0,0,0,0,0,0,0,0,0,0,0,0,0,0,0,0,0,0,0,0,0,0,0,0,0,0,0,0,0,0,0,0,0,0,0,0,0,0,0,0,0,0,0,0,0,0,0,0,0,0,0,0,0,0,0,0,0,0,0,0,0,0,0,0,0,0,0,0,0,0,0,0,0,0,0,0,0,0,0,0,0,0,0,0,0,0,0,0,0,0,0,0,0,0,0,0,0,0,0,0,0,0,0,0,0,0,0,0,0,0,0,0,0,0,0,0,0,0,0,0,0,0,0,0,0,0,0,0,0,0,0,0,0,0,0,0,0,0,0,0,0,0,0,0,0,0,0,0,0,0,0,0,0,0,0,0,0,0,0,0,0,0,0,0,0,0,0,0,0,0,0,0,0,0,0,0,0,0,0,0,0,0,0,0,0,0,0,0,0,0,0,0,0,0,0,0,0,0,0,0,0,0,0,0,0,0,0,0,0,0,0,0,0,0,0,0,0,0,0,0,0,0,0,0,0,0,0,0,0,0,0,0,0,0,0,0,0,0,0,0,0,0,0,0,0,0,0,0,0,0,0,0,0,0,0,0,0,0,0,0,0,0,0,0,0,0,0,0,0,0,0,0,0,0,0,0,0,0,0,0,0,0,0,0,0,0,0,0,0,0,0,0,0,0,0,0,0,0,0,0,0,0,0,0,0,0,0,0,0,0,0,0,0,0,0,0,0,0,0,0,0,0,0,0,0,0,0,0,0,0,0,0,0,0,0,0,0,0,0,0,0,0,0,0,0,0,0,0,0,0,0,0,0,0,0,0,0,0,0,0,0,0,0,0,0,0,0,0,0,0,0,0,0,0,0,0,0,0,0,0,0,0,0,0,0,0,0,0,0,0,0,0,0,0,0,0,0,0,0,0,0,0,0,0,0,0,0,0,0,0,0,0,0,0,0,0,0,0,0,0,0,0,0,0,0,0,0,0,0,0,0,0,0,0,0,0,0,0,0,0,0,0,0,0,0,0,0,0,0,0,0,0,0,0,0,0,0,0,0,0,0,0,0,0,0,0,0,0,0,0,0,0,0,0,0,0,0,0,0,0,0,0,0,0,0,0,0,0,0,0,0,0,0,0,0,0,0,0,0,0,0,0,0,0,0,0,0,0,0,0,0,0,0,0,0,0,0,0,0,0,0,0,0,0,0,0,0,0,0,0,0,0,0,0,0,0,0,0,0,0,0,0,0,0,0,0,0,0,0,0,0,0,0,0,0,0,0,0,0,0,0,0,0,0,0,0,0,0,0,0,0,0,0,0,0,0,0,0,0,0,0,0,0,0,0,0,0,0,0,0,0,0,0,0,0,0,0,0,0,0,0,0,0,0,0,0,0,0,0,0,0,0,0,0,0,0,0,0,0,0,0,0,0,0,0,0,0,0,0,0,0,0,0,0,0,0,0,0,0,0,0,0,0,0,0,0,0,0,0,0,0,0,0,0,0,0,0,0,0,0,0,0,0,0,0,0,0,0,0,0,0,0,0,0,0,0,0,0,0,0,0,0,0,0,0,0,0,0,0,0,0,0,0,0,0,0,0,0,0,0,0,0,0,0,0,0,0,0,0,0,0,0,0,0,0,0,0,0,0,0,0,0,0,0,0,0,0,0,0,0,0,0,0,0,0,0,0,0,0,0,0,0,0,0,0,0,0,0,0,0,0,0,0,0,0,0,0,0,0,0,0,0,0,0,0,0,0,0,0,0,0,0,0,0,0,0,0,0,0,0,0,0,0,0,0,0,0,0,0,0,0,0,0,0,0,0,0,0,0,0,0,0,0,0,0,0,0,0,0,0,0,0,0,0,0,0,0,0,0,0,0,0,0,0,0,0,0,0,0,0,0,0,0,0,0,0,0,0,0,0,0,0,0,0,0,0,0,0,0,0,0,0,0,0,0,0,0,0,0,0,0,0,0,0,0,0,0,0,0,0,0,0,0,0,0,0,0,0,0,0,0,0,0,0,0,0,0,0,0,0,0,0,0,0,0,0,0,0,0,0,0,0,0,0,0,0,0,0,0,0,0,0,0,0,0,0,0,0,0,0,0,0,0,0,0,0,0,0,0,0,0,0,0,0,0,0,0,0,0,0,0,0,0,0,0,0,0,0,0,0,0,0,0,0,0,0,0,0,0,0,0,0,0,0,0,0,0,0,0,0,0,0,0,0,0,0,0,0,0,0,0,0,0,0,0,0,0,0,0,0,0,0,0,0,0,0,0,0,0,0,0,0,0,0,0,0,0,0,0,0,0,0,0,0,0,0,0,0,0,0,0,0,0,0,0,0,0,0,0,0,0,0,0,0,0,0,0,0,0,0,0,0,0,0,0,0,0,0,0,0,0,0,0,0,0,0,0,0,0,0,0,0,0,0,0,0,0,0,0,0,0,0,0,0,0,0,0,0,0,0,0,0,0,0,0,0,0,0,0,0,0,0,0,0,0,0,0,0,0,0,0,0,0,0,0,0,0,0,0,0,0,0,0,0,0,0,0,0,0,0,0,0,0,0,0,0,0,0,0,0,0,0,0,0,0,0,0,0,0,0,0,0,0,0,0,0,0,0,0,0,0,0,0,0,0,0,0,0,0,0,0,0,0,0,0,0,0,0,0,0,0,0,0,0,0,0,0,0,0,0,0,0,0,0,0,0,0,0,0,0,0,0,0,0,0,0,0,0,0,0,0,0,0,0,0,0,0,0,0,0,0,0,0,0,0,0,0,0,0,0,0,0,0,0,0,0,0,0,0,0,0,0,0,0,0,0,0,0,0,0,0,0,0,0,0,0,0,0,0,0,0,0,0,0,0,0,0,0,0,0,0,0,0,0,0,0,0,0,0,0,0,0,0,0,0,0,0,0,0,0,0,0,0,0,0,0,0,0,0,0,0,0,0,0,0,0,0,0,0,0,0,0,0,0,0,0,0,0,0,0,0,0,0,0,0,0,0,0,0,0,0,0,0,0,0,0,0,0,0,0,0,0,0,0,0,0,0,0,0,0,0,0,0,0,0,0,0,0,0,0,0,0,0,0,0,0,0,0,0,0,0,0,0,0,0,0,0,0,0,0,0,0,0,0,0,0,0,0,0,0,0,0,0,0,0,0,0,0,0,0,0,0,0,0,0,0,0,0,0,0,0,0,0,0,0,0,0,0,0,0,0,0,0,0,0,0,0,0,0,0,0,0,0,0,0,0,0,0,0,0,0,0,0,0,0,0,0,0,0,0,0,0,0,0,0,0,0,0,0,0,0,0,0,0,0,0,0,0,0,0,0,0,0,0,0,0,0,0,0,0,0,0,0,0,0,0,0,0,0,0,0,0,0,0,0,0,0,0,0,0,0,0,0,0,0,0,0,0,0,0,0,0,0,0,0,0,0,0,0,0,0,0,0,0,0,0,0,0,0,0,0,0,0,0,0,0,0,0,0,0,0,0,0,0,0,0,0,0,0,0,0,0,0,0,0,0,0,0,0,0,0,0,0,0,0,0,0,0,0,0,0,0,0,0,0,0,0,0,0,0,0,0,0,0,0,0,0,0,0,0,0,0,0,0,0,0,0,0,0,0,0,0,0,0,0,0,0,0,0,0,0,0,0,0,0,0,0,0,0,0,0,0,0,0,0,0,0,0,0,0,0,0,0,0,0,0,0,0,0,0,0,0,0,0,0,0,0,0,0,0,0,0,0,0,0,0,0,0,0,0,0,0,0,0,0,0,0,0,0,0,0,0,0,0,0,0,0,0,0,0,0,0,0,0,0,0,0,0,0,0,0,0,0,0,0,0,0,0,0,0,0,0,0,0,0,0,0,0,0,0,0,0,0,0,0,0,0,0,0,0,0,0,0,0,0,0,0,0,0,0,0,0,0,0,0,0,0,0,0,0,0,0,0,0,0,0,0,0,0,0,0,0,0,0,0,0,0,0,0,0,0,0,0,0,0,0,0,0,0,0,0,0,0,0,0,0,0,0,0,0,0,0,0,0,0,0,0,0,0,0,0,0,0,0,0,0,0,0,0,0,0,0,0,0,0,0,0,0,0,0,0,0,0,0,0,0,0,0,0,0,0,0,0,0,0,0,0,0,0,0,0,0,0,0,0,0,0,0,0,0,0,0,0,0,0,0,0,0,0,0,0,0,0,0,0,0,0,0,0,0,0,0,0,0,0,0,0,0,0,0,0,0,0,0,0,0,0,0,0,0,0,0,0,0,0,0,0,0,0,0,0,0,0,0,0,0,0,0,0,0,0,0,0,0,0,0,0,0,0,0,0,0,0,0,0,0,0,0,0,0,0,0,0,0,0,0,0,0,0,0,0,0,0,0,0,0,0,0,0,0,0,0,0,0,0,0,0,0,0,0,0,0,0,0,0,0,0,0,0,0,0,0,0,0,0,0,0,0,0,0,0,0,0,0,0,0,0,0,0,0,0,0,0,0,0,0,0,0,0,0,0,0,0,0,0,0,0,0,0,0,0,0,0,0,0,0,0,0,0,0,0,0,0,0,0,0,0,0,0,0,0,0,0,0,0,0,0,0,0,0,0,0,0,0,0,0,0,0,0,0,0,0,0,0,0,0,0,0,0,0,0,0,0,0,0,0,0,0,0,0,0,0,0,0,0,0,0,0,0,0,0,0,0,0,0,0,0,0,0,0,0,0,0,0,0,0,0,0,0,0,0,0,0,0,0,0,0,0,0,0,0,0,0,0,0,0,0,0,0,0,0,0,0,0,0,0,0,0,0,0,0,0,0,0,0,0,0,0,0,0,0,0,0,0,0,0,0,0,0,0,0,0,0,0,0,0,0,0,0,0,0,0,0,0,0,0,0,0,0,0,0,0,0,0,0,0,0,0,0,0,0,0,0,0,0,0,0,0,0,0,0,0,0,0,0,0,0,0,0,0,0,0,0,0,0,0,0,0,0,0,0,0,0,0,0,0,0,0,0,0,0,0,0,0,0,0,0,0,0,0,0,0,0,0,0,0,0,0,0,0,0,0,0,0,0,0,0,0,0,0,0,0,0,0,0,0,0,0,0,0,0,0,0,0,0,0,0,0,0,0,0,0,0,0,0,0,0,0,0,0,0,0,0,0,0,0,0,0,0,0,0,0,0,0,0,0,0,0,0,0,0,0,0,0,0,0,0,0,0,0,0,0,0,0,0,0,0,0,0,0,0,0,0,0,0,0,0,0,0,0,0,0,0,0,0,0,0,0,0,0,0,0,0,0,0,0,0,0,0,0,0,0,0,0,0,0,0,0,0,0,0,0,0,0,0,0,0,0,0,0,0,0,0,0,0,0,0,0,0,0,0,0,0,0,0,0,0,0,0,0,0,0,0,0,0,0,0,0,0,0,0,0,0,0,0,0,0,0,0,0,0,0,0,0,0,0,0,0,0,0,0,0,0,0,0,497,515,533,551,0,0,0,0,0,0,0,0,0,0,0,0,0,0,0,0,0,0,0,0,0,0,0,0,0,0,0,0,0,0,0,0,0,0,0,0,0,0,0,0,0,0,0,0,0,0,0,0,0,0,0,0,0,0,0,0,0,0,0,0,0,0,0,0,0,0,0,0,0,0,0,0,0,0,0,0,0,0,0,0,0,0,0,0,0,0,0,0,0,0,0,0,0,0,0,0,0,0,0,0,0,0,0,0,0,0,0,0,0,0,0,0,0,0,0,0,0,0,0,0,0,0,0,0,0,0,0,0,0,0,0,0,0,0,0,0,0,0,0,0,0,0,0,0,0,0,0,0,0,0,0,0,0,0,0,0,0,0,0,0,0,0,0,0,0,0,0,0,0,0,0,0,0,0,0,0,0,0,0,0,0,0,0,0,0,0,0,0,0,0,0,0,0,0,0,0,0,0,0,0,0,0,0,0,0,0,0,0,0,0,0,0,0,0,0,0,0,0,0,0,0,0,0,0,0,0,0,0,0,0,0,0,0,0,0,0,0,0,0,0,0,0,0,0,0,0,0,0,0,0,0,0,498,516,534,552,0,0,0,0,0,0,0,0,0,0,0,0,0,0,0,0,0,0,0,0,0,0,0,0,0,0,0,0,0,0,0,0,0,0,0,0,0,0,0,0,0,0,0,0,0,0,0,0,0,0,0,0,0,0,0,0,0,0,0,0,0,0,0,0,0,0,0,0,0,0,0,0,0,0,0,0,0,0,0,0,0,0,0,0,0,0,0,0,0,0,0,0,0,0,0,0,0,0,0,0,0,0,0,0,0,0,0,0,0,0,0,0,0,0,0,0,0,0,0,0,0,0,0,0,0,0,0,0,0,0,0,0,0,0,0,0,0,0,0,0,0,0,0,0,0,0,0,0,0,0,0,0,0,0,0,0,0,0,0,0,0,0,0,0,0,0,0,0,0,0,0,0,0,0,0,0,0,0,0,0,0,0,0,0,0,0,0,0,0,0,0,0,0,0,0,0,0,0,0,0,0,0,0,0,0,0,0,0,0,0,0,0,0,0,0,0,0,0,0,0,0,0,0,0,0,0,0,0,0,0,0,0,0,0,0,0,0,0,0,0,0,0,0,0,0,0,0,0,0,0,0,0,499,517,535,553,0,0,0,0,0,0,0,0,0,0,0,0,0,0,0,0,0,0,0,0,0,0,0,0,0,0,0,0,0,0,0,0,0,0,0,0,0,0,0,0,0,0,0,0,0,0,0,0,0,0,0,0,0,0,0,0,0,0,0,0,0,0,0,0,0,0,0,0,0,0,0,0,0,0,0,0,0,0,0,0,0,0,0,0,0,0,0,0,0,0,0,0,0,0,0,0,0,0,0,0,0,0,0,0,0,0,0,0,0,0,0,0,0,0,0,0,0,0,0,0,0,0,0,0,0,0,0,0,0,0,0,0,0,0,0,0,0,0,0,0,0,0,0,0,0,0,0,0,0,0,0,0,0,0,0,0,0,0,0,0,0,0,0,0,0,0,0,0,0,0,0,0,0,0,0,0,0,0,0,0,0,0,0,0,0,0,0,0,0,0,0,0,0,0,0,0,0,0,0,0,0,0,0,0,0,0,0,0,0,0,0,0,0,0,0,0,0,0,0,0,0,0,0,0,0,0,0,0,0,0,0,0,0,0,0,0,0,0,0,0,0,0,0,0,0,0,0,0,0,0,0,0,500,518,536,554,0,0,0,0,0,0,0,0,0,0,0,0,0,0,0,0,0,0,0,0,0,0,0,0,0,0,0,0,0,0,0,0,0,0,0,0,0,0,0,0,0,0,0,0,0,0,0,0,0,0,0,0,0,0,0,0,0,0,0,0,0,0,0,0,0,0,0,0,0,0,0,0,0,0,0,0,0,0,0,0,0,0,0,0,0,0,0,0,0,0,0,0,0,0,0,0,0,0,0,0,0,0,0,0,0,0,0,0,0,0,0,0,0,0,0,0,0,0,0,0,0,0,0,0,0,0,0,0,0,0,0,0,0,0,0,0,0,0,0,0,0,0,0,0,0,0,0,0,0,0,0,0,0,0,0,0,0,0,0,0,0,0,0,0,0,0,0,0,0,0,0,0,0,0,0,0,0,0,0,0,0,0,0,0,0,0,0,0,0,0,0,0,0,0,0,0,0,0,0,0,0,0,0,0,0,0,0,0,0,0,0,0,0,0,0,0,0,0,0,0,0,0,0,0,0,0,0,0,0,0,0,0,0,0,0,0,0,0,0,0,0,0,0,0,0,0,0,0,0,0,0,0,501,519,537,555,569,587,605,623,0,0,0,0,0,0,0,0,0,0,0,0,0,0,0,0,0,0,0,0,0,0,0,0,0,0,0,0,0,0,0,0,0,0,0,0,0,0,0,0,0,0,0,0,0,0,0,0,0,0,0,0,0,0,0,0,0,0,0,0,0,0,0,0,0,0,0,0,0,0,0,0,0,0,0,0,0,0,0,0,0,0,0,0,0,0,0,0,0,0,0,0,0,0,0,0,0,0,0,0,0,0,0,0,0,0,0,0,0,0,0,0,0,0,0,0,0,0,0,0,0,0,0,0,0,0,0,0,0,0,0,0,0,0,0,0,0,0,0,0,0,0,0,0,0,0,0,0,0,0,0,0,0,0,0,0,0,0,0,0,0,0,0,0,0,0,0,0,0,0,0,0,0,0,0,0,0,0,0,0,0,0,0,0,0,0,0,0,0,0,0,0,0,0,0,0,0,0,0,0,0,0,0,0,0,0,0,0,0,0,0,0,0,0,0,0,0,0,0,0,0,0,0,0,0,0,0,0,0,0,0,0,0,0,0,0,0,0,0,0,0,0,0,0,0,0,0,0,502,520,538,556,570,588,606,624,0,0,0,0,0,0,0,0,0,0,0,0,0,0,0,0,0,0,0,0,0,0,0,0,0,0,0,0,0,0,0,0,0,0,0,0,0,0,0,0,0,0,0,0,0,0,0,0,0,0,0,0,0,0,0,0,0,0,0,0,0,0,0,0,0,0,0,0,0,0,0,0,0,0,0,0,0,0,0,0,0,0,0,0,0,0,0,0,0,0,0,0,0,0,0,0,0,0,0,0,0,0,0,0,0,0,0,0,0,0,0,0,0,0,0,0,0,0,0,0,0,0,0,0,0,0,0,0,0,0,0,0,0,0,0,0,0,0,0,0,0,0,0,0,0,0,0,0,0,0,0,0,0,0,0,0,0,0,0,0,0,0,0,0,0,0,0,0,0,0,0,0,0,0,0,0,0,0,0,0,0,0,0,0,0,0,0,0,0,0,0,0,0,0,0,0,0,0,0,0,0,0,0,0,0,0,0,0,0,0,0,0,0,0,0,0,0,0,0,0,0,0,0,0,0,0,0,0,0,0,0,0,0,0,0,0,0,0,0,0,0,0,0,0,0,0,0,0,503,521,539,557,571,589,607,625,0,0,0,0,0,0,0,0,0,0,0,0,0,0,0,0,0,0,0,0,0,0,0,0,0,0,0,0,0,0,0,0,0,0,0,0,0,0,0,0,0,0,0,0,0,0,0,0,0,0,0,0,0,0,0,0,0,0,0,0,0,0,0,0,0,0,0,0,0,0,0,0,0,0,0,0,0,0,0,0,0,0,0,0,0,0,0,0,0,0,0,0,0,0,0,0,0,0,0,0,0,0,0,0,0,0,0,0,0,0,0,0,0,0,0,0,0,0,0,0,0,0,0,0,0,0,0,0,0,0,0,0,0,0,0,0,0,0,0,0,0,0,0,0,0,0,0,0,0,0,0,0,0,0,0,0,0,0,0,0,0,0,0,0,0,0,0,0,0,0,0,0,0,0,0,0,0,0,0,0,0,0,0,0,0,0,0,0,0,0,0,0,0,0,0,0,0,0,0,0,0,0,0,0,0,0,0,0,0,0,0,0,0,0,0,0,0,0,0,0,0,0,0,0,0,0,0,0,0,0,0,0,0,0,0,0,0,0,0,0,0,0,0,0,0,0,0,0,504,522,540,558,572,590,608,626,0,0,0,0,0,0,0,0,0,0,0,0,0,0,0,0,0,0,0,0,0,0,0,0,0,0,0,0,0,0,0,0,0,0,0,0,0,0,0,0,0,0,0,0,0,0,0,0,0,0,0,0,0,0,0,0,0,0,0,0,0,0,0,0,0,0,0,0,0,0,0,0,0,0,0,0,0,0,0,0,0,0,0,0,0,0,0,0,0,0,0,0,0,0,0,0,0,0,0,0,0,0,0,0,0,0,0,0,0,0,0,0,0,0,0,0,0,0,0,0,0,0,0,0,0,0,0,0,0,0,0,0,0,0,0,0,0,0,0,0,0,0,0,0,0,0,0,0,0,0,0,0,0,0,0,0,0,0,0,0,0,0,0,0,0,0,0,0,0,0,0,0,0,0,0,0,0,0,0,0,0,0,0,0,0,0,0,0,0,0,0,0,0,0,0,0,0,0,0,0,0,0,0,0,0,0,0,0,0,0,0,0,0,0,0,0,0,0,0,0,0,0,0,0,0,0,0,0,0,0,0,0,0,0,0,0,0,0,0,0,0,0,0,0,0,0,0,0,505,523,541,559,573,591,609,627,641,663,685,707,0,0,0,0,0,0,0,0,0,0,0,0,0,0,0,0,0,0,0,0,0,0,0,0,0,0,0,0,0,0,0,0,0,0,0,0,0,0,0,0,0,0,0,0,0,0,0,0,0,0,0,0,0,0,0,0,0,0,0,0,0,0,0,0,0,0,0,0,0,0,0,0,0,0,0,0,0,0,0,0,0,0,0,0,0,0,0,0,0,0,0,0,0,0,0,0,0,0,0,0,0,0,0,0,0,0,0,0,0,0,0,0,0,0,0,0,0,0,0,0,0,0,0,0,0,0,0,0,0,0,0,0,0,0,0,0,0,0,0,0,0,0,0,0,0,0,0,0,0,0,0,0,0,0,0,0,0,0,0,0,0,0,0,0,0,0,0,0,0,0,0,0,0,0,0,0,0,0,0,0,0,0,0,0,0,0,0,0,0,0,0,0,0,0,0,0,0,0,0,0,0,0,0,0,0,0,0,0,0,0,0,0,0,0,0,0,0,0,0,0,0,0,0,0,0,0,0,0,0,0,0,0,0,0,0,0,0,0,0,1344,1358,1372,1386,1386,506,524,542,560,574,592,610,628,642,664,686,708,0,0,0,0,0,0,0,0,0,0,0,0,0,0,0,0,0,0,0,0,0,0,0,0,0,0,0,0,0,0,0,0,0,0,0,0,0,0,0,0,0,0,0,0,0,0,0,0,0,0,0,0,0,0,0,0,0,0,0,0,0,0,0,0,0,0,0,0,0,0,0,0,0,0,0,0,0,0,0,0,0,0,0,0,0,0,0,0,0,0,0,0,0,0,0,0,0,0,0,0,0,0,0,0,0,0,0,0,0,0,0,0,0,0,0,0,0,0,0,0,0,0,0,0,0,0,0,0,0,0,0,0,0,0,0,0,0,0,0,0,0,0,0,0,0,0,0,0,0,0,0,0,0,0,0,0,0,0,0,0,0,0,0,0,0,0,0,0,0,0,0,0,0,0,0,0,0,0,0,0,0,0,0,0,0,0,0,0,0,0,0,0,0,0,0,0,0,0,0,0,0,0,0,0,0,0,0,0,0,0,0,0,0,0,0,0,0,0,0,0,0,0,0,0,0,0,0,0,0,0,0,0,0,0,0,0,0,0,0,1345,1359,1373,1387,1387,507,525,543,561,575,593,611,629,643,665,687,709,0,0,0,0,0,0,0,0,0,0,0,0,0,0,0,0,0,0,0,0,0,0,0,0,0,0,0,0,0,0,0,0,0,0,0,0,0,0,0,0,0,0,0,0,0,0,0,0,0,0,0,0,0,0,0,0,0,0,0,0,0,0,0,0,0,0,0,0,0,0,0,0,0,0,0,0,0,0,0,0,0,0,0,0,0,0,0,0,0,0,0,0,0,0,0,0,0,0,0,0,0,0,0,0,0,0,0,0,0,0,0,0,0,0,0,0,0,0,0,0,0,0,0,0,0,0,0,0,0,0,0,0,0,0,0,0,0,0,0,0,0,0,0,0,0,0,0,0,0,0,0,0,0,0,0,0,0,0,0,0,0,0,0,0,0,0,0,0,0,0,0,0,0,0,0,0,0,0,0,0,0,0,0,0,0,0,0,0,0,0,0,0,0,0,0,0,0,0,0,0,0,0,0,0,0,0,0,0,0,0,0,0,0,0,0,0,0,0,0,0,0,0,0,0,0,0,0,0,0,0,0,0,0,0,0,0,0,1312,1328,1346,1360,1374,1388,1388,508,526,544,562,576,594,612,630,644,666,688,710,0,0,0,0,0,0,0,0,0,0,0,0,0,0,0,0,0,0,0,0,0,0,0,0,0,0,0,0,0,0,0,0,0,0,0,0,0,0,0,0,0,0,0,0,0,0,0,0,0,0,0,0,0,0,0,0,0,0,0,0,0,0,0,0,0,0,0,0,0,0,0,0,0,0,0,0,0,0,0,0,0,0,0,0,0,0,0,0,0,0,0,0,0,0,0,0,0,0,0,0,0,0,0,0,0,0,0,0,0,0,0,0,0,0,0,0,0,0,0,0,0,0,0,0,0,0,0,0,0,0,0,0,0,0,0,0,0,0,0,0,0,0,0,0,0,0,0,0,0,0,0,0,0,0,0,0,0,0,0,0,0,0,0,0,0,0,0,0,0,0,0,0,0,0,0,0,0,0,0,0,0,0,0,0,0,0,0,0,0,0,0,0,0,0,0,0,0,0,0,0,0,0,0,0,0,0,0,0,0,0,0,0,0,0,0,0,0,0,0,0,0,0,0,0,0,0,0,0,0,0,0,0,0,0,0,0,0,1313,1329,1347,1361,1375,1389,1389,509,527,545,563,577,595,613,631,645,667,689,711,0,0,0,0,0,0,0,0,0,0,0,0,0,0,0,0,0,0,0,0,0,0,0,0,0,0,0,0,0,0,0,0,0,0,0,0,0,0,0,0,0,0,0,0,0,0,0,0,0,0,0,0,0,0,0,0,0,0,0,0,0,0,0,0,0,0,0,0,0,0,0,0,0,0,0,0,0,0,0,0,0,0,0,0,0,0,0,0,0,0,0,0,0,0,0,0,0,0,0,0,0,0,0,0,0,0,0,0,0,0,0,0,0,0,0,0,0,0,0,0,0,0,0,0,0,0,0,0,0,0,0,0,0,0,0,0,0,0,0,0,0,0,0,0,0,0,0,0,0,0,0,0,0,0,0,0,0,0,0,0,0,0,0,0,0,0,0,0,0,0,0,0,0,0,0,0,0,0,0,0,0,0,0,0,0,0,0,0,0,0,0,0,0,0,0,0,0,0,0,0,0,0,0,0,0,0,0,0,0,0,0,0,0,0,0,0,0,0,0,0,0,0,0,0,0,0,0,1172,1186,1200,1214,1228,1242,1256,1270,1284,1298,1314,1330,1348,1362,1376,1390,1390,506,524,542,560,578,596,614,632,646,668,690,712,0,0,0,0,0,0,0,0,0,0,0,0,0,0,0,0,0,0,0,0,0,0,0,0,0,0,0,0,0,0,0,0,0,0,0,0,0,0,0,0,0,0,0,0,0,0,0,0,0,0,0,0,0,0,0,0,0,0,0,0,0,0,0,0,0,0,0,0,0,0,0,0,0,0,0,0,0,0,0,0,0,0,0,0,0,0,0,0,0,0,0,0,0,0,0,0,0,0,0,0,0,0,0,0,0,0,0,0,0,0,0,0,0,0,0,0,0,0,0,0,0,0,0,0,0,0,0,0,0,0,0,0,0,0,0,0,0,0,0,0,0,0,0,0,0,0,0,0,0,0,0,0,0,0,0,0,0,0,0,0,0,0,0,0,0,0,0,0,0,0,0,0,0,0,0,0,0,0,0,0,0,0,0,0,0,0,0,0,0,0,0,0,0,0,0,0,0,0,0,0,0,0,0,0,0,0,0,0,0,0,0,0,0,0,0,0,0,0,0,0,0,0,0,0,0,0,0,1173,1187,1201,1215,1229,1243,1257,1271,1285,1299,1315,1331,1349,1363,1377,1391,1391,507,525,543,561,579,597,615,633,647,669,691,713,0,0,0,0,0,0,0,0,0,0,0,0,0,0,0,0,0,0,0,0,0,0,0,0,0,0,0,0,0,0,0,0,0,0,0,0,0,0,0,0,0,0,0,0,0,0,0,0,0,0,0,0,0,0,0,0,0,0,0,0,0,0,0,0,0,0,0,0,0,0,0,0,0,0,0,0,0,0,0,0,0,0,0,0,0,0,0,0,0,0,0,0,0,0,0,0,0,0,0,0,0,0,0,0,0,0,0,0,0,0,0,0,0,0,0,0,0,0,0,0,0,0,0,0,0,0,0,0,0,0,0,0,0,0,0,0,0,0,0,0,0,0,0,0,0,0,0,0,0,0,0,0,0,0,0,0,0,0,0,0,0,0,0,0,0,0,0,0,0,0,0,0,0,0,0,0,0,0,0,0,0,0,0,0,0,0,0,0,0,0,0,0,0,0,0,0,0,0,0,0,0,0,0,0,0,0,0,0,0,0,0,0,0,0,0,0,0,0,0,0,0,0,0,0,0,1140,1156,1174,1188,1202,1216,1230,1244,1258,1272,1286,1300,1316,1332,1350,1364,1378,1392,1392,508,526,544,562,580,598,616,634,648,670,692,714,0,0,0,0,0,0,0,0,0,0,0,0,0,0,0,0,0,0,0,0,0,0,0,0,0,0,0,0,0,0,0,0,0,0,0,0,0,0,0,0,0,0,0,0,0,0,0,0,0,0,0,0,0,0,0,0,0,0,0,0,0,0,0,0,0,0,0,0,0,0,0,0,0,0,0,0,0,0,0,0,0,0,0,0,0,0,0,0,0,0,0,0,0,0,0,0,0,0,0,0,0,0,0,0,0,0,0,0,0,0,0,0,0,0,0,0,0,0,0,0,0,0,0,0,0,0,0,0,0,0,0,0,0,0,0,0,0,0,0,0,0,0,0,0,0,0,0,0,0,0,0,0,0,0,0,0,0,0,0,0,0,0,0,0,0,0,0,0,0,0,0,0,0,0,0,0,0,0,0,0,0,0,0,0,0,0,0,0,0,0,0,0,0,0,0,0,0,0,0,0,0,0,0,0,0,0,0,0,0,0,0,0,0,0,0,0,0,0,0,0,0,0,0,0,0,1141,1157,1175,1189,1203,1217,1231,1245,1259,1273,1287,1301,1317,1333,1351,1365,1379,1393,1393,509,527,545,563,581,599,617,635,649,671,693,715,729,751,773,795,0,0,0,0,0,0,0,0,0,0,0,0,0,0,0,0,0,0,0,0,0,0,0,0,0,0,0,0,0,0,0,0,0,0,0,0,0,0,0,0,0,0,0,0,0,0,0,0,0,0,0,0,0,0,0,0,0,0,0,0,0,0,0,0,0,0,0,0,0,0,0,0,0,0,0,0,0,0,0,0,0,0,0,0,0,0,0,0,0,0,0,0,0,0,0,0,0,0,0,0,0,0,0,0,0,0,0,0,0,0,0,0,0,0,0,0,0,0,0,0,0,0,0,0,0,0,0,0,0,0,0,0,0,0,0,0,0,0,0,0,0,0,0,0,0,0,0,0,0,0,0,0,0,0,0,0,0,0,0,0,0,0,0,0,0,0,0,0,0,0,0,0,0,0,0,0,0,0,0,0,0,0,0,0,0,0,0,0,0,0,0,0,0,0,0,0,0,0,0,0,0,0,0,0,0,0,0,0,0,0,0,0,0,0,0,0,0,1068,1090,1112,1126,1142,1158,1176,1190,1204,1218,1232,1246,1260,1274,1288,1302,1318,1334,1352,1366,1380,1394,1394,506,524,542,560,578,596,614,632,650,672,694,716,730,752,774,796,0,0,0,0,0,0,0,0,0,0,0,0,0,0,0,0,0,0,0,0,0,0,0,0,0,0,0,0,0,0,0,0,0,0,0,0,0,0,0,0,0,0,0,0,0,0,0,0,0,0,0,0,0,0,0,0,0,0,0,0,0,0,0,0,0,0,0,0,0,0,0,0,0,0,0,0,0,0,0,0,0,0,0,0,0,0,0,0,0,0,0,0,0,0,0,0,0,0,0,0,0,0,0,0,0,0,0,0,0,0,0,0,0,0,0,0,0,0,0,0,0,0,0,0,0,0,0,0,0,0,0,0,0,0,0,0,0,0,0,0,0,0,0,0,0,0,0,0,0,0,0,0,0,0,0,0,0,0,0,0,0,0,0,0,0,0,0,0,0,0,0,0,0,0,0,0,0,0,0,0,0,0,0,0,0,0,0,0,0,0,0,0,0,0,0,0,0,0,0,0,0,0,0,0,0,0,0,0,0,0,0,0,0,0,0,0,0,1069,1091,1113,1127,1143,1159,1177,1191,1205,1219,1233,1247,1261,1275,1289,1303,1319,1335,1349,1363,1377,1391,1391,507,525,543,561,579,597,615,633,651,673,695,717,731,753,775,797,0,0,0,0,0,0,0,0,0,0,0,0,0,0,0,0,0,0,0,0,0,0,0,0,0,0,0,0,0,0,0,0,0,0,0,0,0,0,0,0,0,0,0,0,0,0,0,0,0,0,0,0,0,0,0,0,0,0,0,0,0,0,0,0,0,0,0,0,0,0,0,0,0,0,0,0,0,0,0,0,0,0,0,0,0,0,0,0,0,0,0,0,0,0,0,0,0,0,0,0,0,0,0,0,0,0,0,0,0,0,0,0,0,0,0,0,0,0,0,0,0,0,0,0,0,0,0,0,0,0,0,0,0,0,0,0,0,0,0,0,0,0,0,0,0,0,0,0,0,0,0,0,0,0,0,0,0,0,0,0,0,0,0,0,0,0,0,0,0,0,0,0,0,0,0,0,0,0,0,0,0,0,0,0,0,0,0,0,0,0,0,0,0,0,0,0,0,0,0,0,0,0,0,0,0,0,0,0,0,0,0,0,0,0,0,1028,1048,1070,1092,1114,1128,1144,1160,1178,1192,1206,1220,1234,1248,1262,1276,1290,1304,1320,1336,1350,1364,1378,1392,1392,508,526,544,562,580,598,616,634,652,674,696,718,732,754,776,798,0,0,0,0,0,0,0,0,0,0,0,0,0,0,0,0,0,0,0,0,0,0,0,0,0,0,0,0,0,0,0,0,0,0,0,0,0,0,0,0,0,0,0,0,0,0,0,0,0,0,0,0,0,0,0,0,0,0,0,0,0,0,0,0,0,0,0,0,0,0,0,0,0,0,0,0,0,0,0,0,0,0,0,0,0,0,0,0,0,0,0,0,0,0,0,0,0,0,0,0,0,0,0,0,0,0,0,0,0,0,0,0,0,0,0,0,0,0,0,0,0,0,0,0,0,0,0,0,0,0,0,0,0,0,0,0,0,0,0,0,0,0,0,0,0,0,0,0,0,0,0,0,0,0,0,0,0,0,0,0,0,0,0,0,0,0,0,0,0,0,0,0,0,0,0,0,0,0,0,0,0,0,0,0,0,0,0,0,0,0,0,0,0,0,0,0,0,0,0,0,0,0,0,0,0,0,0,0,0,0,0,0,0,0,0,1029,1049,1071,1093,1115,1129,1145,1161,1179,1193,1207,1221,1235,1249,1263,1277,1291,1305,1321,1337,1351,1365,1379,1393,1393,509,527,545,563,581,599,617,635,653,675,697,719,733,755,777,799,0,0,0,0,0,0,0,0,0,0,0,0,0,0,0,0,0,0,0,0,0,0,0,0,0,0,0,0,0,0,0,0,0,0,0,0,0,0,0,0,0,0,0,0,0,0,0,0,0,0,0,0,0,0,0,0,0,0,0,0,0,0,0,0,0,0,0,0,0,0,0,0,0,0,0,0,0,0,0,0,0,0,0,0,0,0,0,0,0,0,0,0,0,0,0,0,0,0,0,0,0,0,0,0,0,0,0,0,0,0,0,0,0,0,0,0,0,0,0,0,0,0,0,0,0,0,0,0,0,0,0,0,0,0,0,0,0,0,0,0,0,0,0,0,0,0,0,0,0,0,0,0,0,0,0,0,0,0,0,0,0,0,0,0,0,0,0,0,0,0,0,0,0,0,0,0,0,0,0,0,0,0,0,0,0,0,0,0,0,0,0,0,0,0,0,0,0,0,0,0,0,0,0,0,0,0,0,0,0,0,0,0,0,0,0,1030,1050,1072,1094,1116,1130,1146,1162,1180,1194,1208,1222,1236,1250,1264,1278,1292,1306,1322,1338,1352,1366,1380,1394,1394,506,524,542,560,578,596,614,632,654,676,698,720,734,756,778,800,0,0,0,0,0,0,0,0,0,0,0,0,0,0,0,0,0,0,0,0,0,0,0,0,0,0,0,0,0,0,0,0,0,0,0,0,0,0,0,0,0,0,0,0,0,0,0,0,0,0,0,0,0,0,0,0,0,0,0,0,0,0,0,0,0,0,0,0,0,0,0,0,0,0,0,0,0,0,0,0,0,0,0,0,0,0,0,0,0,0,0,0,0,0,0,0,0,0,0,0,0,0,0,0,0,0,0,0,0,0,0,0,0,0,0,0,0,0,0,0,0,0,0,0,0,0,0,0,0,0,0,0,0,0,0,0,0,0,0,0,0,0,0,0,0,0,0,0,0,0,0,0,0,0,0,0,0,0,0,0,0,0,0,0,0,0,0,0,0,0,0,0,0,0,0,0,0,0,0,0,0,0,0,0,0,0,0,0,0,0,0,0,0,0,0,0,0,0,0,0,0,0,0,0,0,0,0,0,0,0,0,0,0,0,0,1031,1051,1073,1095,1117,1131,1147,1163,1177,1191,1205,1219,1233,1247,1261,1275,1289,1303,1319,1335,1349,1363,1377,1391,1391,507,525,543,561,579,597,615,633,655,677,699,721,735,757,779,801,0,0,0,0,0,0,0,0,0,0,0,0,0,0,0,0,0,0,0,0,0,0,0,0,0,0,0,0,0,0,0,0,0,0,0,0,0,0,0,0,0,0,0,0,0,0,0,0,0,0,0,0,0,0,0,0,0,0,0,0,0,0,0,0,0,0,0,0,0,0,0,0,0,0,0,0,0,0,0,0,0,0,0,0,0,0,0,0,0,0,0,0,0,0,0,0,0,0,0,0,0,0,0,0,0,0,0,0,0,0,0,0,0,0,0,0,0,0,0,0,0,0,0,0,0,0,0,0,0,0,0,0,0,0,0,0,0,0,0,0,0,0,0,0,0,0,0,0,0,0,0,0,0,0,0,0,0,0,0,0,0,0,0,0,0,0,0,0,0,0,0,0,0,0,0,0,0,0,0,0,0,0,0,0,0,0,0,0,0,0,0,0,0,0,0,0,0,0,0,0,0,0,0,0,0,0,0,0,0,0,0,0,0,0,0,1032,1052,1074,1096,1118,1132,1148,1164,1178,1192,1206,1220,1234,1248,1262,1276,1290,1304,1320,1336,1350,1364,1378,1392,1392,508,526,544,562,580,598,616,634,656,678,700,722,736,758,780,802,0,0,0,859,0,0,0,0,0,0,0,0,0,0,0,0,0,0,0,0,0,0,0,0,0,0,0,0,0,0,0,0,0,0,0,0,0,0,0,0,0,0,0,0,0,0,0,0,0,0,0,0,0,0,0,0,0,0,0,0,0,0,0,0,0,0,0,0,0,0,0,0,0,0,0,0,0,0,0,0,0,0,0,0,0,0,0,0,0,0,0,0,0,0,0,0,0,0,0,0,0,0,0,0,0,0,0,0,0,0,0,0,0,0,0,0,0,0,0,0,0,0,0,0,0,0,0,0,0,0,0,0,0,0,0,0,0,0,0,0,0,0,0,0,0,0,0,0,0,0,0,0,0,0,0,0,0,0,0,0,0,0,0,0,0,0,0,0,0,0,0,0,0,0,0,0,0,0,0,0,0,0,0,0,0,0,0,0,0,0,0,0,0,0,0,0,0,0,0,0,0,0,0,0,0,0,0,0,0,0,0,0,0,0,0,1033,1053,1075,1097,1119,1133,1149,1165,1179,1193,1207,1221,1235,1249,1263,1277,1291,1305,1321,1337,1351,1365,1379,1393,1393,509,527,545,563,581,599,617,635,657,679,701,723,737,759,781,803,817,831,845,860,874,888,902,916,930,944,958,972,874,888,902,916,930,944,958,972,874,888,902,916,930,944,958,972,874,888,902,916,930,944,958,972,874,888,902,916,930,944,958,972,0,0,0,0,0,0,0,0,874,888,902,916,930,944,958,972,874,888,902,916,930,944,958,972,874,888,902,916,930,944,958,972,0,0,0,0,0,0,0,0,874,888,902,916,930,944,958,972,874,888,902,916,930,944,958,972,874,888,902,916,930,944,958,972,874,888,902,916,930,944,958,972,874,888,902,916,930,944,958,972,874,888,902,916,930,944,958,972,0,0,0,0,0,0,0,0,874,888,902,916,930,944,958,972,874,888,902,916,930,944,958,972,874,888,902,916,930,944,958,972,874,888,902,916,930,944,958,972,0,0,0,0,0,0,0,0,874,888,902,916,930,944,958,972,874,888,902,916,930,944,958,972,874,888,902,916,930,944,958,972,874,888,902,916,930,944,958,972,986,1000,1014,1034,1054,1076,1098,1120,1134,1150,1166,1180,1194,1208,1222,1236,1250,1264,1278,1292,1306,1322,1338,1352,1366,1380,1394,1394,506,524,542,560,578,596,614,632,654,676,698,720,738,760,782,804,818,832,846,861,875,889,903,917,931,945,959,973,875,889,903,917,931,945,959,973,875,889,903,917,931,945,959,973,875,889,903,917,931,945,959,973,875,889,903,917,931,945,959,973,0,0,0,0,0,0,0,0,875,889,903,917,931,945,959,973,875,889,903,917,931,945,959,973,875,889,903,917,931,945,959,973,0,0,0,0,0,0,0,0,875,889,903,917,931,945,959,973,875,889,903,917,931,945,959,973,875,889,903,917,931,945,959,973,875,889,903,917,931,945,959,973,875,889,903,917,931,945,959,973,875,889,903,917,931,945,959,973,0,0,0,0,0,0,0,0,875,889,903,917,931,945,959,973,875,889,903,917,931,945,959,973,875,889,903,917,931,945,959,973,875,889,903,917,931,945,959,973,0,0,0,0,0,0,0,0,875,889,903,917,931,945,959,973,875,889,903,917,931,945,959,973,875,889,903,917,931,945,959,973,875,889,903,917,931,945,959,973,987,1001,1015,1035,1055,1077,1099,1117,1131,1147,1163,1177,1191,1205,1219,1233,1247,1261,1275,1289,1303,1319,1335,1349,1363,1377,1391,1391,507,525,543,561,579,597,615,633,655,677,699,721,739,761,783,805,819,833,847,862,876,890,904,918,932,946,960,974,876,890,904,918,932,946,960,974,876,890,904,918,932,946,960,974,876,890,904,918,932,946,960,974,876,890,904,918,932,946,960,974,739,761,783,805,819,833,847,862,876,890,904,918,932,946,960,974,876,890,904,918,932,946,960,974,876,890,904,918,932,946,960,974,739,761,783,805,819,833,847,862,876,890,904,918,932,946,960,974,876,890,904,918,932,946,960,974,876,890,904,918,932,946,960,974,876,890,904,918,932,946,960,974,876,890,904,918,932,946,960,974,876,890,904,918,932,946,960,974,739,761,783,805,819,833,847,862,876,890,904,918,932,946,960,974,876,890,904,918,932,946,960,974,876,890,904,918,932,946,960,974,876,890,904,918,932,946,960,974,739,761,783,805,819,833,847,862,876,890,904,918,932,946,960,974,876,890,904,918,932,946,960,974,876,890,904,918,932,946,960,974,876,890,904,918,932,946,960,974,988,1002,1016,1036,1056,1078,1100,1118,1132,1148,1164,1178,1192,1206,1220,1234,1248,1262,1276,1290,1304,1320,1336,1350,1364,1378,1392,1392,508,526,544,562,580,598,616,634,656,678,700,722,740,762,784,806,820,834,848,863,877,891,905,919,933,947,961,975,877,891,905,919,933,947,961,975,877,891,905,919,933,947,961,975,877,891,905,919,933,947,961,975,877,891,905,919,933,947,961,975,740,762,784,806,820,834,848,863,877,891,905,919,933,947,961,975,877,891,905,919,933,947,961,975,877,891,905,919,933,947,961,975,740,762,784,806,820,834,848,863,877,891,905,919,933,947,961,975,877,891,905,919,933,947,961,975,877,891,905,919,933,947,961,975,877,891,905,919,933,947,961,975,877,891,905,919,933,947,961,975,877,891,905,919,933,947,961,975,740,762,784,806,820,834,848,863,877,891,905,919,933,947,961,975,877,891,905,919,933,947,961,975,877,891,905,919,933,947,961,975,877,891,905,919,933,947,961,975,740,762,784,806,820,834,848,863,877,891,905,919,933,947,961,975,877,891,905,919,933,947,961,975,877,891,905,919,933,947,961,975,877,891,905,919,933,947,961,975,989,1003,1017,1037,1057,1079,1101,1119,1133,1149,1165,1179,1193,1207,1221,1235,1249,1263,1277,1291,1305,1321,1337,1351,1365,1379,1393,1393,509,527,545,563,581,599,617,635,657,679,701,723,741,763,785,807,821,835,849,864,878,892,906,920,934,948,962,976,878,892,906,920,934,948,962,976,878,892,906,920,934,948,962,976,878,892,906,920,934,948,962,976,878,892,906,920,934,948,962,976,741,763,785,807,821,835,849,864,878,892,906,920,934,948,962,976,878,892,906,920,934,948,962,976,878,892,906,920,934,948,962,976,741,763,785,807,821,835,849,864,878,892,906,920,934,948,962,976,878,892,906,920,934,948,962,976,878,892,906,920,934,948,962,976,878,892,906,920,934,948,962,976,878,892,906,920,934,948,962,976,878,892,906,920,934,948,962,976,741,763,785,807,821,835,849,864,878,892,906,920,934,948,962,976,878,892,906,920,934,948,962,976,878,892,906,920,934,948,962,976,878,892,906,920,934,948,962,976,741,763,785,807,821,835,849,864,878,892,906,920,934,948,962,976,878,892,906,920,934,948,962,976,878,892,906,920,934,948,962,976,878,892,906,920,934,948,962,976,990,1004,1018,1038,1058,1080,1102,1120,1134,1150,1166,1180,1194,1208,1222,1236,1250,1264,1278,1292,1306,1322,1338,1352,1366,1380,1394,1394,510,528,546,564,578,596,614,632,654,676,698,720,742,764,786,808,822,836,850,865,879,893,907,921,935,949,963,977,879,893,907,921,935,949,963,977,879,893,907,921,935,949,963,977,879,893,907,921,935,949,963,977,879,893,907,921,935,949,963,977,742,764,786,808,822,836,850,865,879,893,907,921,935,949,963,977,879,893,907,921,935,949,963,977,879,893,907,921,935,949,963,977,742,764,786,808,822,836,850,865,879,893,907,921,935,949,963,977,879,893,907,921,935,949,963,977,879,893,907,921,935,949,963,977,879,893,907,921,935,949,963,977,879,893,907,921,935,949,963,977,879,893,907,921,935,949,963,977,742,764,786,808,822,836,850,865,879,893,907,921,935,949,963,977,879,893,907,921,935,949,963,977,879,893,907,921,935,949,963,977,879,893,907,921,935,949,963,977,742,764,786,808,822,836,850,865,879,893,907,921,935,949,963,977,879,893,907,921,935,949,963,977,879,893,907,921,935,949,963,977,879,893,907,921,935,949,963,977,991,1005,1019,1039,1059,1081,1103,1117,1131,1147,1163,1177,1191,1205,1219,1233,1247,1261,1275,1289,1303,1319,1335,1349,1363,1377,1391,1391,511,529,547,565,579,597,615,633,655,677,699,721,743,765,787,809,823,837,851,866,880,894,908,922,936,950,964,978,880,894,908,922,936,950,964,978,880,894,908,922,936,950,964,978,880,894,908,922,936,950,964,978,880,894,908,922,936,950,964,978,743,765,787,809,823,837,851,866,880,894,908,922,936,950,964,978,880,894,908,922,936,950,964,978,880,894,908,922,936,950,964,978,743,765,787,809,823,837,851,866,880,894,908,922,936,950,964,978,880,894,908,922,936,950,964,978,880,894,908,922,936,950,964,978,880,894,908,922,936,950,964,978,880,894,908,922,936,950,964,978,880,894,908,922,936,950,964,978,743,765,787,809,823,837,851,866,880,894,908,922,936,950,964,978,880,894,908,922,936,950,964,978,880,894,908,922,936,950,964,978,880,894,908,922,936,950,964,978,743,765,787,809,823,837,851,866,880,894,908,922,936,950,964,978,880,894,908,922,936,950,964,978,880,894,908,922,936,950,964,978,880,894,908,922,936,950,964,978,992,1006,1020,1040,1060,1082,1104,1118,1132,1148,1164,1178,1192,1206,1220,1234,1248,1262,1276,1290,1304,1320,1336,1350,1364,1378,1392,1392,512,530,548,566,580,598,616,634,656,678,700,722,744,766,788,810,824,838,852,867,881,895,909,923,937,951,965,979,881,895,909,923,937,951,965,979,881,895,909,923,937,951,965,979,881,895,909,923,937,951,965,979,881,895,909,923,937,951,965,979,744,766,788,810,824,838,852,867,881,895,909,923,937,951,965,979,881,895,909,923,937,951,965,979,881,895,909,923,937,951,965,979,744,766,788,810,824,838,852,867,881,895,909,923,937,951,965,979,881,895,909,923,937,951,965,979,881,895,909,923,937,951,965,979,881,895,909,923,937,951,965,979,881,895,909,923,937,951,965,979,881,895,909,923,937,951,965,979,744,766,788,810,824,838,852,867,881,895,909,923,937,951,965,979,881,895,909,923,937,951,965,979,881,895,909,923,937,951,965,979,881,895,909,923,937,951,965,979,744,766,788,810,824,838,852,867,881,895,909,923,937,951,965,979,881,895,909,923,937,951,965,979,881,895,909,923,937,951,965,979,881,895,909,923,937,951,965,979,993,1007,1021,1041,1061,1083,1105,1119,1133,1149,1165,1179,1193,1207,1221,1235,1249,1263,1277,1291,1305,1321,1337,1351,1365,1379,1393,1393,513,531,549,567,581,599,617,635,657,679,701,723,745,767,789,811,825,839,853,868,882,896,910,924,938,952,966,980,882,896,910,924,938,952,966,980,882,896,910,924,938,952,966,980,882,896,910,924,938,952,966,980,882,896,910,924,938,952,966,980,745,767,789,811,825,839,853,868,882,896,910,924,938,952,966,980,882,896,910,924,938,952,966,980,882,896,910,924,938,952,966,980,745,767,789,811,825,839,853,868,882,896,910,924,938,952,966,980,882,896,910,924,938,952,966,980,882,896,910,924,938,952,966,980,882,896,910,924,938,952,966,980,882,896,910,924,938,952,966,980,882,896,910,924,938,952,966,980,745,767,789,811,825,839,853,868,882,896,910,924,938,952,966,980,882,896,910,924,938,952,966,980,882,896,910,924,938,952,966,980,882,896,910,924,938,952,966,980,745,767,789,811,825,839,853,868,882,896,910,924,938,952,966,980,882,896,910,924,938,952,966,980,882,896,910,924,938,952,966,980,882,896,910,924,938,952,966,980,994,1008,1022,1042,1062,1084,1106,1120,1134,1150,1166,1180,1194,1208,1222,1236,1250,1264,1278,1292,1306,1322,1338,1352,1366,1380,1394,1394,514,532,550,568,582,600,618,636,654,676,698,720,742,764,786,808,822,836,850,865,879,893,907,921,935,949,963,977,879,893,907,921,935,949,963,977,879,893,907,921,935,949,963,977,879,893,907,921,935,949,963,977,879,893,907,921,935,949,963,977,742,764,786,808,822,836,850,865,879,893,907,921,935,949,963,977,879,893,907,921,935,949,963,977,879,893,907,921,935,949,963,977,742,764,786,808,822,836,850,865,879,893,907,921,935,949,963,977,879,893,907,921,935,949,963,977,879,893,907,921,935,949,963,977,879,893,907,921,935,949,963,977,879,893,907,921,935,949,963,977,879,893,907,921,935,949,963,977,742,764,786,808,822,836,850,865,879,893,907,921,935,949,963,977,879,893,907,921,935,949,963,977,879,893,907,921,935,949,963,977,879,893,907,921,935,949,963,977,742,764,786,808,822,836,850,865,879,893,907,921,935,949,963,977,879,893,907,921,935,949,963,977,879,893,907,921,935,949,963,977,879,893,907,921,935,949,963,977,991,1005,1019,1039,1059,1081,1103,1117,1131,1147,1163,1177,1191,1205,1219,1233,1247,1261,1275,1289,1303,1319,1335,1353,1367,1381,1395,1395,0,0,0,0,583,601,619,637,655,677,699,721,743,765,787,809,823,837,851,866,880,894,908,922,936,950,964,978,880,894,908,922,936,950,964,978,880,894,908,922,936,950,964,978,880,894,908,922,936,950,964,978,880,894,908,922,936,950,964,978,743,765,787,809,823,837,851,866,880,894,908,922,936,950,964,978,880,894,908,922,936,950,964,978,880,894,908,922,936,950,964,978,743,765,787,809,823,837,851,866,880,894,908,922,936,950,964,978,880,894,908,922,936,950,964,978,880,894,908,922,936,950,964,978,880,894,908,922,936,950,964,978,880,894,908,922,936,950,964,978,880,894,908,922,936,950,964,978,743,765,787,809,823,837,851,866,880,894,908,922,936,950,964,978,880,894,908,922,936,950,964,978,880,894,908,922,936,950,964,978,880,894,908,922,936,950,964,978,743,765,787,809,823,837,851,866,880,894,908,922,936,950,964,978,880,894,908,922,936,950,964,978,880,894,908,922,936,950,964,978,880,894,908,922,936,950,964,978,992,1006,1020,1040,1060,1082,1104,1118,1132,1148,1164,1178,1192,1206,1220,1234,1248,1262,1276,1290,1304,1320,1336,1354,1368,1382,1396,1396,0,0,0,0,584,602,620,638,656,678,700,722,744,766,788,810,824,838,852,867,881,895,909,923,937,951,965,979,881,895,909,923,937,951,965,979,881,895,909,923,937,951,965,979,881,895,909,923,937,951,965,979,881,895,909,923,937,951,965,979,744,766,788,810,824,838,852,867,881,895,909,923,937,951,965,979,881,895,909,923,937,951,965,979,881,895,909,923,937,951,965,979,744,766,788,810,824,838,852,867,881,895,909,923,937,951,965,979,881,895,909,923,937,951,965,979,881,895,909,923,937,951,965,979,881,895,909,923,937,951,965,979,881,895,909,923,937,951,965,979,881,895,909,923,937,951,965,979,744,766,788,810,824,838,852,867,881,895,909,923,937,951,965,979,881,895,909,923,937,951,965,979,881,895,909,923,937,951,965,979,881,895,909,923,937,951,965,979,744,766,788,810,824,838,852,867,881,895,909,923,937,951,965,979,881,895,909,923,937,951,965,979,881,895,909,923,937,951,965,979,881,895,909,923,937,951,965,979,993,1007,1021,1041,1061,1083,1105,1119,1133,1149,1165,1179,1193,1207,1221,1235,1249,1263,1277,1291,1305,1321,1337,1355,1369,1383,1397,1397,0,0,0,0,585,603,621,639,657,679,701,723,745,767,789,811,825,839,853,868,882,896,910,924,938,952,966,980,882,896,910,924,938,952,966,980,882,896,910,924,938,952,966,980,882,896,910,924,938,952,966,980,882,896,910,924,938,952,966,980,745,767,789,811,825,839,853,868,882,896,910,924,938,952,966,980,882,896,910,924,938,952,966,980,882,896,910,924,938,952,966,980,745,767,789,811,825,839,853,868,882,896,910,924,938,952,966,980,882,896,910,924,938,952,966,980,882,896,910,924,938,952,966,980,882,896,910,924,938,952,966,980,882,896,910,924,938,952,966,980,882,896,910,924,938,952,966,980,745,767,789,811,825,839,853,868,882,896,910,924,938,952,966,980,882,896,910,924,938,952,966,980,882,896,910,924,938,952,966,980,882,896,910,924,938,952,966,980,745,767,789,811,825,839,853,868,882,896,910,924,938,952,966,980,882,896,910,924,938,952,966,980,882,896,910,924,938,952,966,980,882,896,910,924,938,952,966,980,994,1008,1022,1042,1062,1084,1106,1120,1134,1150,1166,1180,1194,1208,1222,1236,1250,1264,1278,1292,1306,1322,1338,1356,1370,1384,1398,1398,0,0,0,0,586,604,622,640,654,676,698,720,742,764,786,808,822,836,850,865,879,893,907,921,935,949,963,977,879,893,907,921,935,949,963,977,879,893,907,921,935,949,963,977,879,893,907,921,935,949,963,977,879,893,907,921,935,949,963,977,742,764,786,808,822,836,850,865,879,893,907,921,935,949,963,977,879,893,907,921,935,949,963,977,879,893,907,921,935,949,963,977,742,764,786,808,822,836,850,865,879,893,907,921,935,949,963,977,879,893,907,921,935,949,963,977,879,893,907,921,935,949,963,977,879,893,907,921,935,949,963,977,879,893,907,921,935,949,963,977,879,893,907,921,935,949,963,977,742,764,786,808,822,836,850,865,879,893,907,921,935,949,963,977,879,893,907,921,935,949,963,977,879,893,907,921,935,949,963,977,879,893,907,921,935,949,963,977,742,764,786,808,822,836,850,865,879,893,907,921,935,949,963,977,879,893,907,921,935,949,963,977,879,893,907,921,935,949,963,977,879,893,907,921,935,949,963,977,991,1005,1019,1039,1059,1081,1103,1117,1131,1147,1163,1181,1195,1209,1223,1237,1251,1265,1279,1293,1307,1323,1339,1357,1371,1385,1399,1399,0,0,0,0,0,0,0,0,655,677,699,721,743,765,787,809,823,837,851,866,880,894,908,922,936,950,964,978,880,894,908,922,936,950,964,978,880,894,908,922,936,950,964,978,880,894,908,922,936,950,964,978,880,894,908,922,936,950,964,978,743,765,787,809,823,837,851,866,880,894,908,922,936,950,964,978,880,894,908,922,936,950,964,978,880,894,908,922,936,950,964,978,743,765,787,809,823,837,851,866,880,894,908,922,936,950,964,978,880,894,908,922,936,950,964,978,880,894,908,922,936,950,964,978,880,894,908,922,936,950,964,978,880,894,908,922,936,950,964,978,880,894,908,922,936,950,964,978,743,765,787,809,823,837,851,866,880,894,908,922,936,950,964,978,880,894,908,922,936,950,964,978,880,894,908,922,936,950,964,978,880,894,908,922,936,950,964,978,743,765,787,809,823,837,851,866,880,894,908,922,936,950,964,978,880,894,908,922,936,950,964,978,880,894,908,922,936,950,964,978,880,894,908,922,936,950,964,978,992,1006,1020,1040,1060,1082,1104,1118,1132,1148,1164,1182,1196,1210,1224,1238,1252,1266,1280,1294,1308,1324,1340,0,0,0,0,0,0,0,0,0,0,0,0,0,656,678,700,722,744,766,788,810,824,838,852,867,881,895,909,923,937,951,965,979,881,895,909,923,937,951,965,979,881,895,909,923,937,951,965,979,881,895,909,923,937,951,965,979,881,895,909,923,937,951,965,979,744,766,788,810,824,838,852,867,881,895,909,923,937,951,965,979,881,895,909,923,937,951,965,979,881,895,909,923,937,951,965,979,744,766,788,810,824,838,852,867,881,895,909,923,937,951,965,979,881,895,909,923,937,951,965,979,881,895,909,923,937,951,965,979,881,895,909,923,937,951,965,979,881,895,909,923,937,951,965,979,881,895,909,923,937,951,965,979,744,766,788,810,824,838,852,867,881,895,909,923,937,951,965,979,881,895,909,923,937,951,965,979,881,895,909,923,937,951,965,979,881,895,909,923,937,951,965,979,744,766,788,810,824,838,852,867,881,895,909,923,937,951,965,979,881,895,909,923,937,951,965,979,881,895,909,923,937,951,965,979,881,895,909,923,937,951,965,979,993,1007,1021,1041,1061,1083,1105,1119,1133,1149,1165,1183,1197,1211,1225,1239,1253,1267,1281,1295,1309,1325,1341,0,0,0,0,0,0,0,0,0,0,0,0,0,657,679,701,723,745,767,789,811,825,839,853,868,882,896,910,924,938,952,966,980,882,896,910,924,938,952,966,980,882,896,910,924,938,952,966,980,882,896,910,924,938,952,966,980,882,896,910,924,938,952,966,980,745,767,789,811,825,839,853,868,882,896,910,924,938,952,966,980,882,896,910,924,938,952,966,980,882,896,910,924,938,952,966,980,745,767,789,811,825,839,853,868,882,896,910,924,938,952,966,980,882,896,910,924,938,952,966,980,882,896,910,924,938,952,966,980,882,896,910,924,938,952,966,980,882,896,910,924,938,952,966,980,882,896,910,924,938,952,966,980,745,767,789,811,825,839,853,868,882,896,910,924,938,952,966,980,882,896,910,924,938,952,966,980,882,896,910,924,938,952,966,980,882,896,910,924,938,952,966,980,745,767,789,811,825,839,853,868,882,896,910,924,938,952,966,980,882,896,910,924,938,952,966,980,882,896,910,924,938,952,966,980,882,896,910,924,938,952,966,980,994,1008,1022,1042,1062,1084,1106,1120,1134,1150,1166,1184,1198,1212,1226,1240,1254,1268,1282,1296,1310,1326,1342,0,0,0,0,0,0,0,0,0,0,0,0,0,658,680,702,724,742,764,786,808,822,836,850,865,879,893,907,921,935,949,963,977,879,893,907,921,935,949,963,977,879,893,907,921,935,949,963,977,879,893,907,921,935,949,963,977,879,893,907,921,935,949,963,977,742,764,786,808,822,836,850,865,879,893,907,921,935,949,963,977,879,893,907,921,935,949,963,977,879,893,907,921,935,949,963,977,742,764,786,808,822,836,850,865,879,893,907,921,935,949,963,977,879,893,907,921,935,949,963,977,879,893,907,921,935,949,963,977,879,893,907,921,935,949,963,977,879,893,907,921,935,949,963,977,879,893,907,921,935,949,963,977,742,764,786,808,822,836,850,865,879,893,907,921,935,949,963,977,879,893,907,921,935,949,963,977,879,893,907,921,935,949,963,977,879,893,907,921,935,949,963,977,742,764,786,808,822,836,850,865,879,893,907,921,935,949,963,977,879,893,907,921,935,949,963,977,879,893,907,921,935,949,963,977,879,893,907,921,935,949,963,977,991,1005,1019,1039,1059,1081,1103,1121,1135,1151,1167,1185,1199,1213,1227,1241,1255,1269,1283,1297,1311,1327,1343,0,0,0,0,0,0,0,0,0,0,0,0,0,659,681,703,725,743,765,787,809,823,837,851,866,880,894,908,922,936,950,964,978,880,894,908,922,936,950,964,978,880,894,908,922,936,950,964,978,880,894,908,922,936,950,964,978,880,894,908,922,936,950,964,978,743,765,787,809,823,837,851,866,880,894,908,922,936,950,964,978,880,894,908,922,936,950,964,978,880,894,908,922,936,950,964,978,743,765,787,809,823,837,851,866,880,894,908,922,936,950,964,978,880,894,908,922,936,950,964,978,880,894,908,922,936,950,964,978,880,894,908,922,936,950,964,978,880,894,908,922,936,950,964,978,880,894,908,922,936,950,964,978,743,765,787,809,823,837,851,866,880,894,908,922,936,950,964,978,880,894,908,922,936,950,964,978,880,894,908,922,936,950,964,978,880,894,908,922,936,950,964,978,743,765,787,809,823,837,851,866,880,894,908,922,936,950,964,978,880,894,908,922,936,950,964,978,880,894,908,922,936,950,964,978,880,894,908,922,936,950,964,978,992,1006,1020,1040,1060,1082,1104,1122,1136,1152,1168,0,0,0,0,0,0,0,0,0,0,0,0,0,0,0,0,0,0,0,0,0,0,0,0,0,660,682,704,726,744,766,788,810,824,838,852,867,881,895,909,923,937,951,965,979,881,895,909,923,937,951,965,979,881,895,909,923,937,951,965,979,881,895,909,923,937,951,965,979,881,895,909,923,937,951,965,979,744,766,788,810,824,838,852,867,881,895,909,923,937,951,965,979,881,895,909,923,937,951,965,979,881,895,909,923,937,951,965,979,744,766,788,810,824,838,852,867,881,895,909,923,937,951,965,979,881,895,909,923,937,951,965,979,881,895,909,923,937,951,965,979,881,895,909,923,937,951,965,979,881,895,909,923,937,951,965,979,881,895,909,923,937,951,965,979,744,766,788,810,824,838,852,867,881,895,909,923,937,951,965,979,881,895,909,923,937,951,965,979,881,895,909,923,937,951,965,979,881,895,909,923,937,951,965,979,744,766,788,810,824,838,852,867,881,895,909,923,937,951,965,979,881,895,909,923,937,951,965,979,881,895,909,923,937,951,965,979,881,895,909,923,937,951,965,979,993,1007,1021,1041,1061,1083,1105,1123,1137,1153,1169,0,0,0,0,0,0,0,0,0,0,0,0,0,0,0,0,0,0,0,0,0,0,0,0,0,661,683,705,727,745,767,789,811,825,839,853,868,882,896,910,924,938,952,966,980,882,896,910,924,938,952,966,980,882,896,910,924,938,952,966,980,882,896,910,924,938,952,966,980,882,896,910,924,938,952,966,980,745,767,789,811,825,839,853,868,882,896,910,924,938,952,966,980,882,896,910,924,938,952,966,980,882,896,910,924,938,952,966,980,745,767,789,811,825,839,853,868,882,896,910,924,938,952,966,980,882,896,910,924,938,952,966,980,882,896,910,924,938,952,966,980,882,896,910,924,938,952,966,980,882,896,910,924,938,952,966,980,882,896,910,924,938,952,966,980,745,767,789,811,825,839,853,868,882,896,910,924,938,952,966,980,882,896,910,924,938,952,966,980,882,896,910,924,938,952,966,980,882,896,910,924,938,952,966,980,745,767,789,811,825,839,853,868,882,896,910,924,938,952,966,980,882,896,910,924,938,952,966,980,882,896,910,924,938,952,966,980,882,896,910,924,938,952,966,980,994,1008,1022,1042,1062,1084,1106,1124,1138,1154,1170,0,0,0,0,0,0,0,0,0,0,0,0,0,0,0,0,0,0,0,0,0,0,0,0,0,662,684,706,728,742,764,786,808,822,836,850,865,879,893,907,921,935,949,963,977,879,893,907,921,935,949,963,977,879,893,907,921,935,949,963,977,879,893,907,921,935,949,963,977,879,893,907,921,935,949,963,977,742,764,786,808,822,836,850,865,879,893,907,921,935,949,963,977,879,893,907,921,935,949,963,977,879,893,907,921,935,949,963,977,742,764,786,808,822,836,850,865,879,893,907,921,935,949,963,977,879,893,907,921,935,949,963,977,879,893,907,921,935,949,963,977,879,893,907,921,935,949,963,977,879,893,907,921,935,949,963,977,879,893,907,921,935,949,963,977,742,764,786,808,822,836,850,865,879,893,907,921,935,949,963,977,879,893,907,921,935,949,963,977,879,893,907,921,935,949,963,977,879,893,907,921,935,949,963,977,742,764,786,808,822,836,850,865,879,893,907,921,935,949,963,977,879,893,907,921,935,949,963,977,879,893,907,921,935,949,963,977,879,893,907,921,935,949,963,977,991,1005,1019,1039,1059,1081,1103,1125,1139,1155,1171,0,0,0,0,0,0,0,0,0,0,0,0,0,0,0,0,0,0,0,0,0,0,0,0,0,0,0,0,0,743,765,787,809,823,837,851,866,880,894,908,922,936,950,964,978,880,894,908,922,936,950,964,978,880,894,908,922,936,950,964,978,880,894,908,922,936,950,964,978,880,894,908,922,936,950,964,978,743,765,787,809,823,837,851,866,880,894,908,922,936,950,964,978,880,894,908,922,936,950,964,978,880,894,908,922,936,950,964,978,743,765,787,809,823,837,851,866,880,894,908,922,936,950,964,978,880,894,908,922,936,950,964,978,880,894,908,922,936,950,964,978,880,894,908,922,936,950,964,978,880,894,908,922,936,950,964,978,880,894,908,922,936,950,964,978,743,765,787,809,823,837,851,866,880,894,908,922,936,950,964,978,880,894,908,922,936,950,964,978,880,894,908,922,936,950,964,978,880,894,908,922,936,950,964,978,743,765,787,809,823,837,851,866,880,894,908,922,936,950,964,978,880,894,908,922,936,950,964,978,880,894,908,922,936,950,964,978,880,894,908,922,936,950,964,978,992,1006,1020,1040,1060,1082,1104,0,0,0,0,0,0,0,0,0,0,0,0,0,0,0,0,0,0,0,0,0,0,0,0,0,0,0,0,0,0,0,0,0,744,766,788,810,824,838,852,867,881,895,909,923,937,951,965,979,881,895,909,923,937,951,965,979,881,895,909,923,937,951,965,979,881,895,909,923,937,951,965,979,881,895,909,923,937,951,965,979,744,766,788,810,824,838,852,867,881,895,909,923,937,951,965,979,881,895,909,923,937,951,965,979,881,895,909,923,937,951,965,979,744,766,788,810,824,838,852,867,881,895,909,923,937,951,965,979,881,895,909,923,937,951,965,979,881,895,909,923,937,951,965,979,881,895,909,923,937,951,965,979,881,895,909,923,937,951,965,979,881,895,909,923,937,951,965,979,744,766,788,810,824,838,852,867,881,895,909,923,937,951,965,979,881,895,909,923,937,951,965,979,881,895,909,923,937,951,965,979,881,895,909,923,937,951,965,979,744,766,788,810,824,838,852,867,881,895,909,923,937,951,965,979,881,895,909,923,937,951,965,979,881,895,909,923,937,951,965,979,881,895,909,923,937,951,965,979,993,1007,1021,1041,1061,1083,1105,0,0,0,0,0,0,0,0,0,0,0,0,0,0,0,0,0,0,0,0,0,0,0,0,0,0,0,0,0,0,0,0,0,745,767,789,811,825,839,853,868,882,896,910,924,938,952,966,980,882,896,910,924,938,952,966,980,882,896,910,924,938,952,966,980,882,896,910,924,938,952,966,980,882,896,910,924,938,952,966,980,745,767,789,811,825,839,853,868,882,896,910,924,938,952,966,980,882,896,910,924,938,952,966,980,882,896,910,924,938,952,966,980,745,767,789,811,825,839,853,868,882,896,910,924,938,952,966,980,882,896,910,924,938,952,966,980,882,896,910,924,938,952,966,980,882,896,910,924,938,952,966,980,882,896,910,924,938,952,966,980,882,896,910,924,938,952,966,980,745,767,789,811,825,839,853,868,882,896,910,924,938,952,966,980,882,896,910,924,938,952,966,980,882,896,910,924,938,952,966,980,882,896,910,924,938,952,966,980,745,767,789,811,825,839,853,868,882,896,910,924,938,952,966,980,882,896,910,924,938,952,966,980,882,896,910,924,938,952,966,980,882,896,910,924,938,952,966,980,994,1008,1022,1042,1062,1084,1106,0,0,0,0,0,0,0,0,0,0,0,0,0,0,0,0,0,0,0,0,0,0,0,0,0,0,0,0,0,0,0,0,0,746,768,790,812,826,840,854,869,883,897,911,925,939,953,967,981,883,897,911,925,939,953,967,981,883,897,911,925,939,953,967,981,883,897,911,925,939,953,967,981,883,897,911,925,939,953,967,981,746,768,790,812,826,840,854,869,883,897,911,925,939,953,967,981,883,897,911,925,939,953,967,981,883,897,911,925,939,953,967,981,746,768,790,812,826,840,854,869,883,897,911,925,939,953,967,981,883,897,911,925,939,953,967,981,883,897,911,925,939,953,967,981,883,897,911,925,939,953,967,981,883,897,911,925,939,953,967,981,883,897,911,925,939,953,967,981,746,768,790,812,826,840,854,869,883,897,911,925,939,953,967,981,883,897,911,925,939,953,967,981,883,897,911,925,939,953,967,981,883,897,911,925,939,953,967,981,746,768,790,812,826,840,854,869,883,897,911,925,939,953,967,981,883,897,911,925,939,953,967,981,883,897,911,925,939,953,967,981,883,897,911,925,939,953,967,981,995,1009,1023,1043,1063,1085,1107,0,0,0,0,0,0,0,0,0,0,0,0,0,0,0,0,0,0,0,0,0,0,0,0,0,0,0,0,0,0,0,0,0,747,769,791,813,827,841,855,870,884,898,912,926,940,954,968,982,884,898,912,926,940,954,968,982,884,898,912,926,940,954,968,982,884,898,912,926,940,954,968,982,884,898,912,926,940,954,968,982,747,769,791,813,827,841,855,870,884,898,912,926,940,954,968,982,884,898,912,926,940,954,968,982,884,898,912,926,940,954,968,982,747,769,791,813,827,841,855,870,884,898,912,926,940,954,968,982,884,898,912,926,940,954,968,982,884,898,912,926,940,954,968,982,884,898,912,926,940,954,968,982,884,898,912,926,940,954,968,982,884,898,912,926,940,954,968,982,747,769,791,813,827,841,855,870,884,898,912,926,940,954,968,982,884,898,912,926,940,954,968,982,884,898,912,926,940,954,968,982,884,898,912,926,940,954,968,982,747,769,791,813,827,841,855,870,884,898,912,926,940,954,968,982,884,898,912,926,940,954,968,982,884,898,912,926,940,954,968,982,884,898,912,926,940,954,968,982,996,1010,1024,1044,1064,1086,1108,0,0,0,0,0,0,0,0,0,0,0,0,0,0,0,0,0,0,0,0,0,0,0,0,0,0,0,0,0,0,0,0,0,748,770,792,814,828,842,856,871,885,899,913,927,941,955,969,983,885,899,913,927,941,955,969,983,885,899,913,927,941,955,969,983,885,899,913,927,941,955,969,983,885,899,913,927,941,955,969,983,748,770,792,814,828,842,856,871,885,899,913,927,941,955,969,983,885,899,913,927,941,955,969,983,885,899,913,927,941,955,969,983,748,770,792,814,828,842,856,871,885,899,913,927,941,955,969,983,885,899,913,927,941,955,969,983,885,899,913,927,941,955,969,983,885,899,913,927,941,955,969,983,885,899,913,927,941,955,969,983,885,899,913,927,941,955,969,983,748,770,792,814,828,842,856,871,885,899,913,927,941,955,969,983,885,899,913,927,941,955,969,983,885,899,913,927,941,955,969,983,885,899,913,927,941,955,969,983,748,770,792,814,828,842,856,871,885,899,913,927,941,955,969,983,885,899,913,927,941,955,969,983,885,899,913,927,941,955,969,983,885,899,913,927,941,955,969,983,997,1011,1025,1045,1065,1087,1109,0,0,0,0,0,0,0,0,0,0,0,0,0,0,0,0,0,0,0,0,0,0,0,0,0,0,0,0,0,0,0,0,0,749,771,793,815,829,843,857,872,886,900,914,928,942,956,970,984,886,900,914,928,942,956,970,984,886,900,914,928,942,956,970,984,886,900,914,928,942,956,970,984,886,900,914,928,942,956,970,984,749,771,793,815,829,843,857,872,886,900,914,928,942,956,970,984,886,900,914,928,942,956,970,984,886,900,914,928,942,956,970,984,749,771,793,815,829,843,857,872,886,900,914,928,942,956,970,984,886,900,914,928,942,956,970,984,886,900,914,928,942,956,970,984,886,900,914,928,942,956,970,984,886,900,914,928,942,956,970,984,886,900,914,928,942,956,970,984,749,771,793,815,829,843,857,872,886,900,914,928,942,956,970,984,886,900,914,928,942,956,970,984,886,900,914,928,942,956,970,984,886,900,914,928,942,956,970,984,749,771,793,815,829,843,857,872,886,900,914,928,942,956,970,984,886,900,914,928,942,956,970,984,886,900,914,928,942,956,970,984,886,900,914,928,942,956,970,984,998,1012,1026,1046,1066,1088,1110,0,0,0,0,0,0,0,0,0,0,0,0,0,0,0,0,0,0,0,0,0,0,0,0,0,0,0,0,0,0,0,0,0,750,772,794,816,830,844,858,873,887,901,915,929,943,957,971,985,887,901,915,929,943,957,971,985,887,901,915,929,943,957,971,985,887,901,915,929,943,957,971,985,887,901,915,929,943,957,971,985,750,772,794,816,830,844,858,873,887,901,915,929,943,957,971,985,887,901,915,929,943,957,971,985,887,901,915,929,943,957,971,985,750,772,794,816,830,844,858,873,887,901,915,929,943,957,971,985,887,901,915,929,943,957,971,985,887,901,915,929,943,957,971,985,887,901,915,929,943,957,971,985,887,901,915,929,943,957,971,985,887,901,915,929,943,957,971,985,750,772,794,816,830,844,858,873,887,901,915,929,943,957,971,985,887,901,915,929,943,957,971,985,887,901,915,929,943,957,971,985,887,901,915,929,943,957,971,985,750,772,794,816,830,844,858,873,887,901,915,929,943,957,971,985,887,901,915,929,943,957,971,985,887,901,915,929,943,957,971,985,887,901,915,929,943,957,971,985,999,1013,1027,1047,1067,1089,1111,0,0,0,0,0,0,0,0,0,0,0,0,0,0,0,0,0,0,0,0,0,257,271,285,299,313,331,349,367,0,0,0,0,0,0,0,0,0,0,0,0,0,0,0,0,0,0,0,0,0,0,0,0,0,0,0,0,0,0,0,0,0,0,0,0,0,0,0,0,0,0,0,0,0,0,0,0,0,0,0,0,0,0,0,0,0,0,0,0,0,0,0,0,0,0,0,0,0,0,0,0,0,0,0,0,0,0,0,0,0,0,0,0,0,0,0,0,0,0,0,0,0,0,0,0,0,0,0,0,0,0,0,0,0,0,0,0,0,0,0,0,0,0,0,0,0,0,0,0,0,0,0,0,0,0,0,0,0,0,0,0,0,0,0,0,0,0,0,0,0,0,0,0,0,0,0,0,0,0,0,0,0,0,0,0,0,0,0,0,0,0,0,0,0,0,0,0,0,0,0,0,0,0,0,0,0,0,0,0,0,0,0,0,0,0,0,0,0,0,0,0,0,0,0,0,0,0,0,0,0,0,0,0,0,0,0,0,0,0,0,0,0,0,0,0,0,0,0,0,0,0,0,0,0,0,0,0,0,0,0,0,0,0,0,0,0,0,0,0,0,0,0,0,0,0,0,0,258,272,286,300,314,332,350,368,0,0,0,0,0,0,0,0,0,0,0,0,0,0,0,0,0,0,0,0,0,0,0,0,0,0,0,0,0,0,0,0,0,0,0,0,0,0,0,0,0,0,0,0,0,0,0,0,0,0,0,0,0,0,0,0,0,0,0,0,0,0,0,0,0,0,0,0,0,0,0,0,0,0,0,0,0,0,0,0,0,0,0,0,0,0,0,0,0,0,0,0,0,0,0,0,0,0,0,0,0,0,0,0,0,0,0,0,0,0,0,0,0,0,0,0,0,0,0,0,0,0,0,0,0,0,0,0,0,0,0,0,0,0,0,0,0,0,0,0,0,0,0,0,0,0,0,0,0,0,0,0,0,0,0,0,0,0,0,0,0,0,0,0,0,0,0,0,0,0,0,0,0,0,0,0,0,0,0,0,0,0,0,0,0,0,0,0,0,0,0,0,0,0,0,0,0,0,0,0,0,0,0,0,0,0,0,0,0,0,0,0,0,0,0,0,0,0,0,0,0,0,0,0,0,0,0,0,0,0,0,0,0,0,0,0,0,0,0,0,0,0,0,0,0,0,0,0,259,273,287,301,315,333,351,369,0,0,0,0,0,0,0,0,0,0,0,0,0,0,0,0,0,0,0,0,0,0,0,0,0,0,0,0,0,0,0,0,0,0,0,0,0,0,0,0,0,0,0,0,0,0,0,0,0,0,0,0,0,0,0,0,0,0,0,0,0,0,0,0,0,0,0,0,0,0,0,0,0,0,0,0,0,0,0,0,0,0,0,0,0,0,0,0,0,0,0,0,0,0,0,0,0,0,0,0,0,0,0,0,0,0,0,0,0,0,0,0,0,0,0,0,0,0,0,0,0,0,0,0,0,0,0,0,0,0,0,0,0,0,0,0,0,0,0,0,0,0,0,0,0,0,0,0,0,0,0,0,0,0,0,0,0,0,0,0,0,0,0,0,0,0,0,0,0,0,0,0,0,0,0,0,0,0,0,0,0,0,0,0,0,0,0,0,0,0,0,0,0,0,0,0,0,0,0,0,0,0,0,0,0,0,0,0,0,0,0,0,0,0,0,0,0,0,0,0,0,0,0,0,0,0,0,0,0,0,0,0,0,0,0,0,0,0,0,0,0,0,0,0,0,0,0,0,260,274,288,302,316,334,352,370,0,0,0,0,0,0,0,0,0,0,0,0,0,0,0,0,0,0,0,0,0,0,0,0,0,0,0,0,0,0,0,0,0,0,0,0,0,0,0,0,0,0,0,0,0,0,0,0,0,0,0,0,0,0,0,0,0,0,0,0,0,0,0,0,0,0,0,0,0,0,0,0,0,0,0,0,0,0,0,0,0,0,0,0,0,0,0,0,0,0,0,0,0,0,0,0,0,0,0,0,0,0,0,0,0,0,0,0,0,0,0,0,0,0,0,0,0,0,0,0,0,0,0,0,0,0,0,0,0,0,0,0,0,0,0,0,0,0,0,0,0,0,0,0,0,0,0,0,0,0,0,0,0,0,0,0,0,0,0,0,0,0,0,0,0,0,0,0,0,0,0,0,0,0,0,0,0,0,0,0,0,0,0,0,0,0,0,0,0,0,0,0,0,0,0,0,0,0,0,0,0,0,0,0,0,0,0,0,0,0,0,0,0,0,0,0,0,0,0,0,0,0,0,0,0,0,0,0,0,0,0,0,0,0,0,0,0,0,0,0,0,0,0,0,0,0,0,0,261,275,289,303,317,335,353,371,385,399,413,427,441,455,469,483,497,515,533,551,0,0,0,0,0,0,0,0,0,0,0,0,0,0,0,0,0,0,0,0,0,0,0,0,0,0,0,0,0,0,0,0,0,0,0,0,0,0,0,0,0,0,0,0,0,0,0,0,0,0,0,0,0,0,0,0,0,0,0,0,0,0,0,0,0,0,0,0,0,0,0,0,0,0,0,0,0,0,0,0,0,0,0,0,0,0,0,0,0,0,0,0,0,0,0,0,0,0,0,0,0,0,0,0,0,0,0,0,0,0,0,0,0,0,0,0,0,0,0,0,0,0,0,0,0,0,0,0,0,0,0,0,0,0,0,0,0,0,0,0,0,0,0,0,0,0,0,0,0,0,0,0,0,0,0,0,0,0,0,0,0,0,0,0,0,0,0,0,0,0,0,0,0,0,0,0,0,0,0,0,0,0,0,0,0,0,0,0,0,0,0,0,0,0,0,0,0,0,0,0,0,0,0,0,0,0,0,0,0,0,0,0,0,0,0,0,0,0,0,0,0,0,0,0,0,0,0,0,0,0,0,0,0,0,0,0,262,276,290,304,318,336,354,372,386,400,414,428,442,456,470,484,498,516,534,552,0,0,0,0,0,0,0,0,0,0,0,0,0,0,0,0,0,0,0,0,0,0,0,0,0,0,0,0,0,0,0,0,0,0,0,0,0,0,0,0,0,0,0,0,0,0,0,0,0,0,0,0,0,0,0,0,0,0,0,0,0,0,0,0,0,0,0,0,0,0,0,0,0,0,0,0,0,0,0,0,0,0,0,0,0,0,0,0,0,0,0,0,0,0,0,0,0,0,0,0,0,0,0,0,0,0,0,0,0,0,0,0,0,0,0,0,0,0,0,0,0,0,0,0,0,0,0,0,0,0,0,0,0,0,0,0,0,0,0,0,0,0,0,0,0,0,0,0,0,0,0,0,0,0,0,0,0,0,0,0,0,0,0,0,0,0,0,0,0,0,0,0,0,0,0,0,0,0,0,0,0,0,0,0,0,0,0,0,0,0,0,0,0,0,0,0,0,0,0,0,0,0,0,0,0,0,0,0,0,0,0,0,0,0,0,0,0,0,0,0,0,0,0,0,0,0,0,0,0,0,0,0,0,0,0,0,263,277,291,305,319,337,355,373,387,401,415,429,443,457,471,485,499,517,535,553,0,0,0,0,0,0,0,0,0,0,0,0,0,0,0,0,0,0,0,0,0,0,0,0,0,0,0,0,0,0,0,0,0,0,0,0,0,0,0,0,0,0,0,0,0,0,0,0,0,0,0,0,0,0,0,0,0,0,0,0,0,0,0,0,0,0,0,0,0,0,0,0,0,0,0,0,0,0,0,0,0,0,0,0,0,0,0,0,0,0,0,0,0,0,0,0,0,0,0,0,0,0,0,0,0,0,0,0,0,0,0,0,0,0,0,0,0,0,0,0,0,0,0,0,0,0,0,0,0,0,0,0,0,0,0,0,0,0,0,0,0,0,0,0,0,0,0,0,0,0,0,0,0,0,0,0,0,0,0,0,0,0,0,0,0,0,0,0,0,0,0,0,0,0,0,0,0,0,0,0,0,0,0,0,0,0,0,0,0,0,0,0,0,0,0,0,0,0,0,0,0,0,0,0,0,0,0,0,0,0,0,0,0,0,0,0,0,0,0,0,0,0,0,0,0,0,0,0,0,0,0,0,0,0,0,0,264,278,292,306,320,338,356,374,388,402,416,430,444,458,472,486,500,518,536,554,0,0,0,0,0,0,0,0,0,0,0,0,0,0,0,0,0,0,0,0,0,0,0,0,0,0,0,0,0,0,0,0,0,0,0,0,0,0,0,0,0,0,0,0,0,0,0,0,0,0,0,0,0,0,0,0,0,0,0,0,0,0,0,0,0,0,0,0,0,0,0,0,0,0,0,0,0,0,0,0,0,0,0,0,0,0,0,0,0,0,0,0,0,0,0,0,0,0,0,0,0,0,0,0,0,0,0,0,0,0,0,0,0,0,0,0,0,0,0,0,0,0,0,0,0,0,0,0,0,0,0,0,0,0,0,0,0,0,0,0,0,0,0,0,0,0,0,0,0,0,0,0,0,0,0,0,0,0,0,0,0,0,0,0,0,0,0,0,0,0,0,0,0,0,0,0,0,0,0,0,0,0,0,0,0,0,0,0,0,0,0,0,0,0,0,0,0,0,0,0,0,0,0,0,0,0,0,0,0,0,0,0,0,0,0,0,0,0,0,0,0,0,0,0,0,0,0,0,0,0,0,0,0,0,0,0,265,279,293,307,321,339,357,375,389,403,417,431,445,459,473,487,501,519,537,555,569,587,605,623,0,0,0,0,0,0,0,0,0,0,0,0,0,0,0,0,0,0,0,0,0,0,0,0,0,0,0,0,0,0,0,0,0,0,0,0,0,0,0,0,0,0,0,0,0,0,0,0,0,0,0,0,0,0,0,0,0,0,0,0,0,0,0,0,0,0,0,0,0,0,0,0,0,0,0,0,0,0,0,0,0,0,0,0,0,0,0,0,0,0,0,0,0,0,0,0,0,0,0,0,0,0,0,0,0,0,0,0,0,0,0,0,0,0,0,0,0,0,0,0,0,0,0,0,0,0,0,0,0,0,0,0,0,0,0,0,0,0,0,0,0,0,0,0,0,0,0,0,0,0,0,0,0,0,0,0,0,0,0,0,0,0,0,0,0,0,0,0,0,0,0,0,0,0,0,0,0,0,0,0,0,0,0,0,0,0,0,0,0,0,0,0,0,0,0,0,0,0,0,0,0,0,0,0,0,0,0,0,0,0,0,0,0,0,0,0,0,0,0,0,0,0,0,0,0,0,0,0,0,0,0,0,262,276,290,304,322,340,358,376,390,404,418,432,446,460,474,488,502,520,538,556,570,588,606,624,0,0,0,0,0,0,0,0,0,0,0,0,0,0,0,0,0,0,0,0,0,0,0,0,0,0,0,0,0,0,0,0,0,0,0,0,0,0,0,0,0,0,0,0,0,0,0,0,0,0,0,0,0,0,0,0,0,0,0,0,0,0,0,0,0,0,0,0,0,0,0,0,0,0,0,0,0,0,0,0,0,0,0,0,0,0,0,0,0,0,0,0,0,0,0,0,0,0,0,0,0,0,0,0,0,0,0,0,0,0,0,0,0,0,0,0,0,0,0,0,0,0,0,0,0,0,0,0,0,0,0,0,0,0,0,0,0,0,0,0,0,0,0,0,0,0,0,0,0,0,0,0,0,0,0,0,0,0,0,0,0,0,0,0,0,0,0,0,0,0,0,0,0,0,0,0,0,0,0,0,0,0,0,0,0,0,0,0,0,0,0,0,0,0,0,0,0,0,0,0,0,0,0,0,0,0,0,0,0,0,0,0,0,0,0,0,0,0,0,0,0,0,0,0,0,0,0,0,0,0,0,0,263,277,291,305,323,341,359,377,391,405,419,433,447,461,475,489,503,521,539,557,571,589,607,625,0,0,0,0,0,0,0,0,0,0,0,0,0,0,0,0,0,0,0,0,0,0,0,0,0,0,0,0,0,0,0,0,0,0,0,0,0,0,0,0,0,0,0,0,0,0,0,0,0,0,0,0,0,0,0,0,0,0,0,0,0,0,0,0,0,0,0,0,0,0,0,0,0,0,0,0,0,0,0,0,0,0,0,0,0,0,0,0,0,0,0,0,0,0,0,0,0,0,0,0,0,0,0,0,0,0,0,0,0,0,0,0,0,0,0,0,0,0,0,0,0,0,0,0,0,0,0,0,0,0,0,0,0,0,0,0,0,0,0,0,0,0,0,0,0,0,0,0,0,0,0,0,0,0,0,0,0,0,0,0,0,0,0,0,0,0,0,0,0,0,0,0,0,0,0,0,0,0,0,0,0,0,0,0,0,0,0,0,0,0,0,0,0,0,0,0,0,0,0,0,0,0,0,0,0,0,0,0,0,0,0,0,0,0,0,0,0,0,0,0,0,0,0,0,0,0,0,0,0,0,0,0,264,278,292,306,324,342,360,378,392,406,420,434,448,462,476,490,504,522,540,558,572,590,608,626,0,0,0,0,0,0,0,0,0,0,0,0,0,0,0,0,0,0,0,0,0,0,0,0,0,0,0,0,0,0,0,0,0,0,0,0,0,0,0,0,0,0,0,0,0,0,0,0,0,0,0,0,0,0,0,0,0,0,0,0,0,0,0,0,0,0,0,0,0,0,0,0,0,0,0,0,0,0,0,0,0,0,0,0,0,0,0,0,0,0,0,0,0,0,0,0,0,0,0,0,0,0,0,0,0,0,0,0,0,0,0,0,0,0,0,0,0,0,0,0,0,0,0,0,0,0,0,0,0,0,0,0,0,0,0,0,0,0,0,0,0,0,0,0,0,0,0,0,0,0,0,0,0,0,0,0,0,0,0,0,0,0,0,0,0,0,0,0,0,0,0,0,0,0,0,0,0,0,0,0,0,0,0,0,0,0,0,0,0,0,0,0,0,0,0,0,0,0,0,0,0,0,0,0,0,0,0,0,0,0,0,0,0,0,0,0,0,0,0,0,0,0,0,0,0,0,0,0,0,0,0,0,265,279,293,307,325,343,361,379,393,407,421,435,449,463,477,491,505,523,541,559,573,591,609,627,641,663,685,707,0,0,0,0,0,0,0,0,0,0,0,0,0,0,0,0,0,0,0,0,0,0,0,0,0,0,0,0,0,0,0,0,0,0,0,0,0,0,0,0,0,0,0,0,0,0,0,0,0,0,0,0,0,0,0,0,0,0,0,0,0,0,0,0,0,0,0,0,0,0,0,0,0,0,0,0,0,0,0,0,0,0,0,0,0,0,0,0,0,0,0,0,0,0,0,0,0,0,0,0,0,0,0,0,0,0,0,0,0,0,0,0,0,0,0,0,0,0,0,0,0,0,0,0,0,0,0,0,0,0,0,0,0,0,0,0,0,0,0,0,0,0,0,0,0,0,0,0,0,0,0,0,0,0,0,0,0,0,0,0,0,0,0,0,0,0,0,0,0,0,0,0,0,0,0,0,0,0,0,0,0,0,0,0,0,0,0,0,0,0,0,0,0,0,0,0,0,0,0,0,0,0,0,0,0,0,0,0,0,0,0,0,0,0,0,0,0,0,0,0,0,0,0,1344,1358,1372,1386,1386,262,276,290,304,322,340,358,376,390,404,418,432,446,460,474,488,506,524,542,560,574,592,610,628,642,664,686,708,0,0,0,0,0,0,0,0,0,0,0,0,0,0,0,0,0,0,0,0,0,0,0,0,0,0,0,0,0,0,0,0,0,0,0,0,0,0,0,0,0,0,0,0,0,0,0,0,0,0,0,0,0,0,0,0,0,0,0,0,0,0,0,0,0,0,0,0,0,0,0,0,0,0,0,0,0,0,0,0,0,0,0,0,0,0,0,0,0,0,0,0,0,0,0,0,0,0,0,0,0,0,0,0,0,0,0,0,0,0,0,0,0,0,0,0,0,0,0,0,0,0,0,0,0,0,0,0,0,0,0,0,0,0,0,0,0,0,0,0,0,0,0,0,0,0,0,0,0,0,0,0,0,0,0,0,0,0,0,0,0,0,0,0,0,0,0,0,0,0,0,0,0,0,0,0,0,0,0,0,0,0,0,0,0,0,0,0,0,0,0,0,0,0,0,0,0,0,0,0,0,0,0,0,0,0,0,0,0,0,0,0,0,0,0,0,0,0,0,0,0,0,0,1345,1359,1373,1387,1387,263,277,291,305,323,341,359,377,391,405,419,433,447,461,475,489,507,525,543,561,575,593,611,629,643,665,687,709,0,0,0,0,0,0,0,0,0,0,0,0,0,0,0,0,0,0,0,0,0,0,0,0,0,0,0,0,0,0,0,0,0,0,0,0,0,0,0,0,0,0,0,0,0,0,0,0,0,0,0,0,0,0,0,0,0,0,0,0,0,0,0,0,0,0,0,0,0,0,0,0,0,0,0,0,0,0,0,0,0,0,0,0,0,0,0,0,0,0,0,0,0,0,0,0,0,0,0,0,0,0,0,0,0,0,0,0,0,0,0,0,0,0,0,0,0,0,0,0,0,0,0,0,0,0,0,0,0,0,0,0,0,0,0,0,0,0,0,0,0,0,0,0,0,0,0,0,0,0,0,0,0,0,0,0,0,0,0,0,0,0,0,0,0,0,0,0,0,0,0,0,0,0,0,0,0,0,0,0,0,0,0,0,0,0,0,0,0,0,0,0,0,0,0,0,0,0,0,0,0,0,0,0,0,0,0,0,0,0,0,0,0,0,0,0,0,0,0,0,0,1312,1328,1346,1360,1374,1388,1388,264,278,292,306,324,342,360,378,392,406,420,434,448,462,476,490,508,526,544,562,576,594,612,630,644,666,688,710,0,0,0,0,0,0,0,0,0,0,0,0,0,0,0,0,0,0,0,0,0,0,0,0,0,0,0,0,0,0,0,0,0,0,0,0,0,0,0,0,0,0,0,0,0,0,0,0,0,0,0,0,0,0,0,0,0,0,0,0,0,0,0,0,0,0,0,0,0,0,0,0,0,0,0,0,0,0,0,0,0,0,0,0,0,0,0,0,0,0,0,0,0,0,0,0,0,0,0,0,0,0,0,0,0,0,0,0,0,0,0,0,0,0,0,0,0,0,0,0,0,0,0,0,0,0,0,0,0,0,0,0,0,0,0,0,0,0,0,0,0,0,0,0,0,0,0,0,0,0,0,0,0,0,0,0,0,0,0,0,0,0,0,0,0,0,0,0,0,0,0,0,0,0,0,0,0,0,0,0,0,0,0,0,0,0,0,0,0,0,0,0,0,0,0,0,0,0,0,0,0,0,0,0,0,0,0,0,0,0,0,0,0,0,0,0,0,0,0,0,0,1313,1329,1347,1361,1375,1389,1389,265,279,293,307,325,343,361,379,393,407,421,435,449,463,477,491,509,527,545,563,577,595,613,631,645,667,689,711,0,0,0,0,0,0,0,0,0,0,0,0,0,0,0,0,0,0,0,0,0,0,0,0,0,0,0,0,0,0,0,0,0,0,0,0,0,0,0,0,0,0,0,0,0,0,0,0,0,0,0,0,0,0,0,0,0,0,0,0,0,0,0,0,0,0,0,0,0,0,0,0,0,0,0,0,0,0,0,0,0,0,0,0,0,0,0,0,0,0,0,0,0,0,0,0,0,0,0,0,0,0,0,0,0,0,0,0,0,0,0,0,0,0,0,0,0,0,0,0,0,0,0,0,0,0,0,0,0,0,0,0,0,0,0,0,0,0,0,0,0,0,0,0,0,0,0,0,0,0,0,0,0,0,0,0,0,0,0,0,0,0,0,0,0,0,0,0,0,0,0,0,0,0,0,0,0,0,0,0,0,0,0,0,0,0,0,0,0,0,0,0,0,0,0,0,0,0,0,0,0,0,0,0,0,0,0,0,0,0,0,1172,1186,1200,1214,1228,1242,1256,1270,1284,1298,1314,1330,1348,1362,1376,1390,1390,262,276,290,304,322,340,358,376,390,404,418,432,446,460,474,488,506,524,542,560,578,596,614,632,646,668,690,712,0,0,0,0,0,0,0,0,0,0,0,0,0,0,0,0,0,0,0,0,0,0,0,0,0,0,0,0,0,0,0,0,0,0,0,0,0,0,0,0,0,0,0,0,0,0,0,0,0,0,0,0,0,0,0,0,0,0,0,0,0,0,0,0,0,0,0,0,0,0,0,0,0,0,0,0,0,0,0,0,0,0,0,0,0,0,0,0,0,0,0,0,0,0,0,0,0,0,0,0,0,0,0,0,0,0,0,0,0,0,0,0,0,0,0,0,0,0,0,0,0,0,0,0,0,0,0,0,0,0,0,0,0,0,0,0,0,0,0,0,0,0,0,0,0,0,0,0,0,0,0,0,0,0,0,0,0,0,0,0,0,0,0,0,0,0,0,0,0,0,0,0,0,0,0,0,0,0,0,0,0,0,0,0,0,0,0,0,0,0,0,0,0,0,0,0,0,0,0,0,0,0,0,0,0,0,0,0,0,0,0,1173,1187,1201,1215,1229,1243,1257,1271,1285,1299,1315,1331,1349,1363,1377,1391,1391,263,277,291,305,323,341,359,377,391,405,419,433,447,461,475,489,507,525,543,561,579,597,615,633,647,669,691,713,0,0,0,0,0,0,0,0,0,0,0,0,0,0,0,0,0,0,0,0,0,0,0,0,0,0,0,0,0,0,0,0,0,0,0,0,0,0,0,0,0,0,0,0,0,0,0,0,0,0,0,0,0,0,0,0,0,0,0,0,0,0,0,0,0,0,0,0,0,0,0,0,0,0,0,0,0,0,0,0,0,0,0,0,0,0,0,0,0,0,0,0,0,0,0,0,0,0,0,0,0,0,0,0,0,0,0,0,0,0,0,0,0,0,0,0,0,0,0,0,0,0,0,0,0,0,0,0,0,0,0,0,0,0,0,0,0,0,0,0,0,0,0,0,0,0,0,0,0,0,0,0,0,0,0,0,0,0,0,0,0,0,0,0,0,0,0,0,0,0,0,0,0,0,0,0,0,0,0,0,0,0,0,0,0,0,0,0,0,0,0,0,0,0,0,0,0,0,0,0,0,0,0,0,0,0,0,0,0,1140,1156,1174,1188,1202,1216,1230,1244,1258,1272,1286,1300,1316,1332,1350,1364,1378,1392,1392,264,278,292,306,324,342,360,378,392,406,420,434,448,462,476,490,508,526,544,562,580,598,616,634,648,670,692,714,0,0,0,0,0,0,0,0,0,0,0,0,0,0,0,0,0,0,0,0,0,0,0,0,0,0,0,0,0,0,0,0,0,0,0,0,0,0,0,0,0,0,0,0,0,0,0,0,0,0,0,0,0,0,0,0,0,0,0,0,0,0,0,0,0,0,0,0,0,0,0,0,0,0,0,0,0,0,0,0,0,0,0,0,0,0,0,0,0,0,0,0,0,0,0,0,0,0,0,0,0,0,0,0,0,0,0,0,0,0,0,0,0,0,0,0,0,0,0,0,0,0,0,0,0,0,0,0,0,0,0,0,0,0,0,0,0,0,0,0,0,0,0,0,0,0,0,0,0,0,0,0,0,0,0,0,0,0,0,0,0,0,0,0,0,0,0,0,0,0,0,0,0,0,0,0,0,0,0,0,0,0,0,0,0,0,0,0,0,0,0,0,0,0,0,0,0,0,0,0,0,0,0,0,0,0,0,0,0,1141,1157,1175,1189,1203,1217,1231,1245,1259,1273,1287,1301,1317,1333,1351,1365,1379,1393,1393,265,279,293,307,325,343,361,379,393,407,421,435,449,463,477,491,509,527,545,563,581,599,617,635,649,671,693,715,729,751,773,795,0,0,0,0,0,0,0,0,0,0,0,0,0,0,0,0,0,0,0,0,0,0,0,0,0,0,0,0,0,0,0,0,0,0,0,0,0,0,0,0,0,0,0,0,0,0,0,0,0,0,0,0,0,0,0,0,0,0,0,0,0,0,0,0,0,0,0,0,0,0,0,0,0,0,0,0,0,0,0,0,0,0,0,0,0,0,0,0,0,0,0,0,0,0,0,0,0,0,0,0,0,0,0,0,0,0,0,0,0,0,0,0,0,0,0,0,0,0,0,0,0,0,0,0,0,0,0,0,0,0,0,0,0,0,0,0,0,0,0,0,0,0,0,0,0,0,0,0,0,0,0,0,0,0,0,0,0,0,0,0,0,0,0,0,0,0,0,0,0,0,0,0,0,0,0,0,0,0,0,0,0,0,0,0,0,0,0,0,0,0,0,0,0,0,0,0,0,0,0,0,0,1068,1090,1112,1126,1142,1158,1176,1190,1204,1218,1232,1246,1260,1274,1288,1302,1318,1334,1352,1366,1380,1394,1394,262,276,290,304,322,340,358,376,390,404,418,432,446,460,474,488,506,524,542,560,578,596,614,632,650,672,694,716,730,752,774,796,0,0,0,0,0,0,0,0,0,0,0,0,0,0,0,0,0,0,0,0,0,0,0,0,0,0,0,0,0,0,0,0,0,0,0,0,0,0,0,0,0,0,0,0,0,0,0,0,0,0,0,0,0,0,0,0,0,0,0,0,0,0,0,0,0,0,0,0,0,0,0,0,0,0,0,0,0,0,0,0,0,0,0,0,0,0,0,0,0,0,0,0,0,0,0,0,0,0,0,0,0,0,0,0,0,0,0,0,0,0,0,0,0,0,0,0,0,0,0,0,0,0,0,0,0,0,0,0,0,0,0,0,0,0,0,0,0,0,0,0,0,0,0,0,0,0,0,0,0,0,0,0,0,0,0,0,0,0,0,0,0,0,0,0,0,0,0,0,0,0,0,0,0,0,0,0,0,0,0,0,0,0,0,0,0,0,0,0,0,0,0,0,0,0,0,0,0,0,0,0,0,1069,1091,1113,1127,1143,1159,1177,1191,1205,1219,1233,1247,1261,1275,1289,1303,1319,1335,1349,1363,1377,1391,1391,263,277,291,305,323,341,359,377,391,405,419,433,447,461,475,489,507,525,543,561,579,597,615,633,651,673,695,717,731,753,775,797,0,0,0,0,0,0,0,0,0,0,0,0,0,0,0,0,0,0,0,0,0,0,0,0,0,0,0,0,0,0,0,0,0,0,0,0,0,0,0,0,0,0,0,0,0,0,0,0,0,0,0,0,0,0,0,0,0,0,0,0,0,0,0,0,0,0,0,0,0,0,0,0,0,0,0,0,0,0,0,0,0,0,0,0,0,0,0,0,0,0,0,0,0,0,0,0,0,0,0,0,0,0,0,0,0,0,0,0,0,0,0,0,0,0,0,0,0,0,0,0,0,0,0,0,0,0,0,0,0,0,0,0,0,0,0,0,0,0,0,0,0,0,0,0,0,0,0,0,0,0,0,0,0,0,0,0,0,0,0,0,0,0,0,0,0,0,0,0,0,0,0,0,0,0,0,0,0,0,0,0,0,0,0,0,0,0,0,0,0,0,0,0,0,0,0,0,0,0,0,1028,1048,1070,1092,1114,1128,1144,1160,1178,1192,1206,1220,1234,1248,1262,1276,1290,1304,1320,1336,1350,1364,1378,1392,1392,264,278,292,306,324,342,360,378,392,406,420,434,448,462,476,490,508,526,544,562,580,598,616,634,652,674,696,718,732,754,776,798,0,0,0,0,0,0,0,0,0,0,0,0,0,0,0,0,0,0,0,0,0,0,0,0,0,0,0,0,0,0,0,0,0,0,0,0,0,0,0,0,0,0,0,0,0,0,0,0,0,0,0,0,0,0,0,0,0,0,0,0,0,0,0,0,0,0,0,0,0,0,0,0,0,0,0,0,0,0,0,0,0,0,0,0,0,0,0,0,0,0,0,0,0,0,0,0,0,0,0,0,0,0,0,0,0,0,0,0,0,0,0,0,0,0,0,0,0,0,0,0,0,0,0,0,0,0,0,0,0,0,0,0,0,0,0,0,0,0,0,0,0,0,0,0,0,0,0,0,0,0,0,0,0,0,0,0,0,0,0,0,0,0,0,0,0,0,0,0,0,0,0,0,0,0,0,0,0,0,0,0,0,0,0,0,0,0,0,0,0,0,0,0,0,0,0,0,0,0,0,1029,1049,1071,1093,1115,1129,1145,1161,1179,1193,1207,1221,1235,1249,1263,1277,1291,1305,1321,1337,1351,1365,1379,1393,1393,265,279,293,307,325,343,361,379,393,407,421,435,449,463,477,491,509,527,545,563,581,599,617,635,653,675,697,719,733,755,777,799,0,0,0,0,0,0,0,0,0,0,0,0,0,0,0,0,0,0,0,0,0,0,0,0,0,0,0,0,0,0,0,0,0,0,0,0,0,0,0,0,0,0,0,0,0,0,0,0,0,0,0,0,0,0,0,0,0,0,0,0,0,0,0,0,0,0,0,0,0,0,0,0,0,0,0,0,0,0,0,0,0,0,0,0,0,0,0,0,0,0,0,0,0,0,0,0,0,0,0,0,0,0,0,0,0,0,0,0,0,0,0,0,0,0,0,0,0,0,0,0,0,0,0,0,0,0,0,0,0,0,0,0,0,0,0,0,0,0,0,0,0,0,0,0,0,0,0,0,0,0,0,0,0,0,0,0,0,0,0,0,0,0,0,0,0,0,0,0,0,0,0,0,0,0,0,0,0,0,0,0,0,0,0,0,0,0,0,0,0,0,0,0,0,0,0,0,0,0,0,1030,1050,1072,1094,1116,1130,1146,1162,1180,1194,1208,1222,1236,1250,1264,1278,1292,1306,1322,1338,1352,1366,1380,1394,1394,266,280,294,308,322,340,358,376,390,404,418,432,446,460,474,488,506,524,542,560,578,596,614,632,654,676,698,720,734,756,778,800,0,0,0,0,0,0,0,0,0,0,0,0,0,0,0,0,0,0,0,0,0,0,0,0,0,0,0,0,0,0,0,0,0,0,0,0,0,0,0,0,0,0,0,0,0,0,0,0,0,0,0,0,0,0,0,0,0,0,0,0,0,0,0,0,0,0,0,0,0,0,0,0,0,0,0,0,0,0,0,0,0,0,0,0,0,0,0,0,0,0,0,0,0,0,0,0,0,0,0,0,0,0,0,0,0,0,0,0,0,0,0,0,0,0,0,0,0,0,0,0,0,0,0,0,0,0,0,0,0,0,0,0,0,0,0,0,0,0,0,0,0,0,0,0,0,0,0,0,0,0,0,0,0,0,0,0,0,0,0,0,0,0,0,0,0,0,0,0,0,0,0,0,0,0,0,0,0,0,0,0,0,0,0,0,0,0,0,0,0,0,0,0,0,0,0,0,0,0,0,1031,1051,1073,1095,1117,1131,1147,1163,1177,1191,1205,1219,1233,1247,1261,1275,1289,1303,1319,1335,1349,1363,1377,1391,1391,267,281,295,309,323,341,359,377,391,405,419,433,447,461,475,489,507,525,543,561,579,597,615,633,655,677,699,721,735,757,779,801,0,0,0,0,0,0,0,0,0,0,0,0,0,0,0,0,0,0,0,0,0,0,0,0,0,0,0,0,0,0,0,0,0,0,0,0,0,0,0,0,0,0,0,0,0,0,0,0,0,0,0,0,0,0,0,0,0,0,0,0,0,0,0,0,0,0,0,0,0,0,0,0,0,0,0,0,0,0,0,0,0,0,0,0,0,0,0,0,0,0,0,0,0,0,0,0,0,0,0,0,0,0,0,0,0,0,0,0,0,0,0,0,0,0,0,0,0,0,0,0,0,0,0,0,0,0,0,0,0,0,0,0,0,0,0,0,0,0,0,0,0,0,0,0,0,0,0,0,0,0,0,0,0,0,0,0,0,0,0,0,0,0,0,0,0,0,0,0,0,0,0,0,0,0,0,0,0,0,0,0,0,0,0,0,0,0,0,0,0,0,0,0,0,0,0,0,0,0,0,1032,1052,1074,1096,1118,1132,1148,1164,1178,1192,1206,1220,1234,1248,1262,1276,1290,1304,1320,1336,1350,1364,1378,1392,1392,268,282,296,310,324,342,360,378,392,406,420,434,448,462,476,490,508,526,544,562,580,598,616,634,656,678,700,722,736,758,780,802,0,0,0,859,0,0,0,0,0,0,0,0,0,0,0,0,0,0,0,0,0,0,0,0,0,0,0,0,0,0,0,0,0,0,0,0,0,0,0,0,0,0,0,0,0,0,0,0,0,0,0,0,0,0,0,0,0,0,0,0,0,0,0,0,0,0,0,0,0,0,0,0,0,0,0,0,0,0,0,0,0,0,0,0,0,0,0,0,0,0,0,0,0,0,0,0,0,0,0,0,0,0,0,0,0,0,0,0,0,0,0,0,0,0,0,0,0,0,0,0,0,0,0,0,0,0,0,0,0,0,0,0,0,0,0,0,0,0,0,0,0,0,0,0,0,0,0,0,0,0,0,0,0,0,0,0,0,0,0,0,0,0,0,0,0,0,0,0,0,0,0,0,0,0,0,0,0,0,0,0,0,0,0,0,0,0,0,0,0,0,0,0,0,0,0,0,0,0,0,1033,1053,1075,1097,1119,1133,1149,1165,1179,1193,1207,1221,1235,1249,1263,1277,1291,1305,1321,1337,1351,1365,1379,1393,1393,269,283,297,311,325,343,361,379,393,407,421,435,449,463,477,491,509,527,545,563,581,599,617,635,657,679,701,723,737,759,781,803,817,831,845,860,874,888,902,916,930,944,958,972,874,888,902,916,930,944,958,972,874,888,902,916,930,944,958,972,874,888,902,916,930,944,958,972,874,888,902,916,930,944,958,972,0,0,0,0,0,0,0,0,874,888,902,916,930,944,958,972,874,888,902,916,930,944,958,972,874,888,902,916,930,944,958,972,0,0,0,0,0,0,0,0,874,888,902,916,930,944,958,972,874,888,902,916,930,944,958,972,874,888,902,916,930,944,958,972,874,888,902,916,930,944,958,972,874,888,902,916,930,944,958,972,874,888,902,916,930,944,958,972,0,0,0,0,0,0,0,0,874,888,902,916,930,944,958,972,874,888,902,916,930,944,958,972,874,888,902,916,930,944,958,972,874,888,902,916,930,944,958,972,0,0,0,0,0,0,0,0,874,888,902,916,930,944,958,972,874,888,902,916,930,944,958,972,986,1000,1014,1034,1054,1076,1098,1120,1134,1150,1166,1180,1194,1208,1222,1236,1250,1264,1278,1292,1306,1322,1338,1352,1366,1380,1394,1394,270,284,298,312,326,344,362,380,394,408,422,436,450,464,478,492,506,524,542,560,578,596,614,632,654,676,698,720,738,760,782,804,818,832,846,861,875,889,903,917,931,945,959,973,875,889,903,917,931,945,959,973,875,889,903,917,931,945,959,973,875,889,903,917,931,945,959,973,875,889,903,917,931,945,959,973,0,0,0,0,0,0,0,0,875,889,903,917,931,945,959,973,875,889,903,917,931,945,959,973,875,889,903,917,931,945,959,973,0,0,0,0,0,0,0,0,875,889,903,917,931,945,959,973,875,889,903,917,931,945,959,973,875,889,903,917,931,945,959,973,875,889,903,917,931,945,959,973,875,889,903,917,931,945,959,973,875,889,903,917,931,945,959,973,0,0,0,0,0,0,0,0,875,889,903,917,931,945,959,973,875,889,903,917,931,945,959,973,875,889,903,917,931,945,959,973,875,889,903,917,931,945,959,973,0,0,0,0,0,0,0,0,875,889,903,917,931,945,959,973,875,889,903,917,931,945,959,973,987,1001,1015,1035,1055,1077,1099,1117,1131,1147,1163,1177,1191,1205,1219,1233,1247,1261,1275,1289,1303,1319,1335,1349,1363,1377,1391,1391,0,0,0,0,327,345,363,381,395,409,423,437,451,465,479,493,507,525,543,561,579,597,615,633,655,677,699,721,739,761,783,805,819,833,847,862,876,890,904,918,932,946,960,974,876,890,904,918,932,946,960,974,876,890,904,918,932,946,960,974,876,890,904,918,932,946,960,974,876,890,904,918,932,946,960,974,739,761,783,805,819,833,847,862,876,890,904,918,932,946,960,974,876,890,904,918,932,946,960,974,876,890,904,918,932,946,960,974,739,761,783,805,819,833,847,862,876,890,904,918,932,946,960,974,876,890,904,918,932,946,960,974,876,890,904,918,932,946,960,974,876,890,904,918,932,946,960,974,876,890,904,918,932,946,960,974,876,890,904,918,932,946,960,974,739,761,783,805,819,833,847,862,876,890,904,918,932,946,960,974,876,890,904,918,932,946,960,974,876,890,904,918,932,946,960,974,876,890,904,918,932,946,960,974,739,761,783,805,819,833,847,862,876,890,904,918,932,946,960,974,876,890,904,918,932,946,960,974,988,1002,1016,1036,1056,1078,1100,1118,1132,1148,1164,1178,1192,1206,1220,1234,1248,1262,1276,1290,1304,1320,1336,1350,1364,1378,1392,1392,0,0,0,0,328,346,364,382,396,410,424,438,452,466,480,494,508,526,544,562,580,598,616,634,656,678,700,722,740,762,784,806,820,834,848,863,877,891,905,919,933,947,961,975,877,891,905,919,933,947,961,975,877,891,905,919,933,947,961,975,877,891,905,919,933,947,961,975,877,891,905,919,933,947,961,975,740,762,784,806,820,834,848,863,877,891,905,919,933,947,961,975,877,891,905,919,933,947,961,975,877,891,905,919,933,947,961,975,740,762,784,806,820,834,848,863,877,891,905,919,933,947,961,975,877,891,905,919,933,947,961,975,877,891,905,919,933,947,961,975,877,891,905,919,933,947,961,975,877,891,905,919,933,947,961,975,877,891,905,919,933,947,961,975,740,762,784,806,820,834,848,863,877,891,905,919,933,947,961,975,877,891,905,919,933,947,961,975,877,891,905,919,933,947,961,975,877,891,905,919,933,947,961,975,740,762,784,806,820,834,848,863,877,891,905,919,933,947,961,975,877,891,905,919,933,947,961,975,989,1003,1017,1037,1057,1079,1101,1119,1133,1149,1165,1179,1193,1207,1221,1235,1249,1263,1277,1291,1305,1321,1337,1351,1365,1379,1393,1393,0,0,0,0,329,347,365,383,397,411,425,439,453,467,481,495,509,527,545,563,581,599,617,635,657,679,701,723,741,763,785,807,821,835,849,864,878,892,906,920,934,948,962,976,878,892,906,920,934,948,962,976,878,892,906,920,934,948,962,976,878,892,906,920,934,948,962,976,878,892,906,920,934,948,962,976,741,763,785,807,821,835,849,864,878,892,906,920,934,948,962,976,878,892,906,920,934,948,962,976,878,892,906,920,934,948,962,976,741,763,785,807,821,835,849,864,878,892,906,920,934,948,962,976,878,892,906,920,934,948,962,976,878,892,906,920,934,948,962,976,878,892,906,920,934,948,962,976,878,892,906,920,934,948,962,976,878,892,906,920,934,948,962,976,741,763,785,807,821,835,849,864,878,892,906,920,934,948,962,976,878,892,906,920,934,948,962,976,878,892,906,920,934,948,962,976,878,892,906,920,934,948,962,976,741,763,785,807,821,835,849,864,878,892,906,920,934,948,962,976,878,892,906,920,934,948,962,976,990,1004,1018,1038,1058,1080,1102,1120,1134,1150,1166,1180,1194,1208,1222,1236,1250,1264,1278,1292,1306,1322,1338,1352,1366,1380,1394,1394,0,0,0,0,330,348,366,384,398,412,426,440,454,468,482,496,510,528,546,564,578,596,614,632,654,676,698,720,742,764,786,808,822,836,850,865,879,893,907,921,935,949,963,977,879,893,907,921,935,949,963,977,879,893,907,921,935,949,963,977,879,893,907,921,935,949,963,977,879,893,907,921,935,949,963,977,742,764,786,808,822,836,850,865,879,893,907,921,935,949,963,977,879,893,907,921,935,949,963,977,879,893,907,921,935,949,963,977,742,764,786,808,822,836,850,865,879,893,907,921,935,949,963,977,879,893,907,921,935,949,963,977,879,893,907,921,935,949,963,977,879,893,907,921,935,949,963,977,879,893,907,921,935,949,963,977,879,893,907,921,935,949,963,977,742,764,786,808,822,836,850,865,879,893,907,921,935,949,963,977,879,893,907,921,935,949,963,977,879,893,907,921,935,949,963,977,879,893,907,921,935,949,963,977,742,764,786,808,822,836,850,865,879,893,907,921,935,949,963,977,879,893,907,921,935,949,963,977,991,1005,1019,1039,1059,1081,1103,1117,1131,1147,1163,1177,1191,1205,1219,1233,1247,1261,1275,1289,1303,1319,1335,1349,1363,1377,1391,1391,0,0,0,0,0,0,0,0,0,0,0,0,0,0,0,0,511,529,547,565,579,597,615,633,655,677,699,721,743,765,787,809,823,837,851,866,880,894,908,922,936,950,964,978,880,894,908,922,936,950,964,978,880,894,908,922,936,950,964,978,880,894,908,922,936,950,964,978,880,894,908,922,936,950,964,978,743,765,787,809,823,837,851,866,880,894,908,922,936,950,964,978,880,894,908,922,936,950,964,978,880,894,908,922,936,950,964,978,743,765,787,809,823,837,851,866,880,894,908,922,936,950,964,978,880,894,908,922,936,950,964,978,880,894,908,922,936,950,964,978,880,894,908,922,936,950,964,978,880,894,908,922,936,950,964,978,880,894,908,922,936,950,964,978,743,765,787,809,823,837,851,866,880,894,908,922,936,950,964,978,880,894,908,922,936,950,964,978,880,894,908,922,936,950,964,978,880,894,908,922,936,950,964,978,743,765,787,809,823,837,851,866,880,894,908,922,936,950,964,978,880,894,908,922,936,950,964,978,992,1006,1020,1040,1060,1082,1104,1118,1132,1148,1164,1178,1192,1206,1220,1234,1248,1262,1276,1290,1304,1320,1336,1350,1364,1378,1392,1392,0,0,0,0,0,0,0,0,0,0,0,0,0,0,0,0,512,530,548,566,580,598,616,634,656,678,700,722,744,766,788,810,824,838,852,867,881,895,909,923,937,951,965,979,881,895,909,923,937,951,965,979,881,895,909,923,937,951,965,979,881,895,909,923,937,951,965,979,881,895,909,923,937,951,965,979,744,766,788,810,824,838,852,867,881,895,909,923,937,951,965,979,881,895,909,923,937,951,965,979,881,895,909,923,937,951,965,979,744,766,788,810,824,838,852,867,881,895,909,923,937,951,965,979,881,895,909,923,937,951,965,979,881,895,909,923,937,951,965,979,881,895,909,923,937,951,965,979,881,895,909,923,937,951,965,979,881,895,909,923,937,951,965,979,744,766,788,810,824,838,852,867,881,895,909,923,937,951,965,979,881,895,909,923,937,951,965,979,881,895,909,923,937,951,965,979,881,895,909,923,937,951,965,979,744,766,788,810,824,838,852,867,881,895,909,923,937,951,965,979,881,895,909,923,937,951,965,979,993,1007,1021,1041,1061,1083,1105,1119,1133,1149,1165,1179,1193,1207,1221,1235,1249,1263,1277,1291,1305,1321,1337,1351,1365,1379,1393,1393,0,0,0,0,0,0,0,0,0,0,0,0,0,0,0,0,513,531,549,567,581,599,617,635,657,679,701,723,745,767,789,811,825,839,853,868,882,896,910,924,938,952,966,980,882,896,910,924,938,952,966,980,882,896,910,924,938,952,966,980,882,896,910,924,938,952,966,980,882,896,910,924,938,952,966,980,745,767,789,811,825,839,853,868,882,896,910,924,938,952,966,980,882,896,910,924,938,952,966,980,882,896,910,924,938,952,966,980,745,767,789,811,825,839,853,868,882,896,910,924,938,952,966,980,882,896,910,924,938,952,966,980,882,896,910,924,938,952,966,980,882,896,910,924,938,952,966,980,882,896,910,924,938,952,966,980,882,896,910,924,938,952,966,980,745,767,789,811,825,839,853,868,882,896,910,924,938,952,966,980,882,896,910,924,938,952,966,980,882,896,910,924,938,952,966,980,882,896,910,924,938,952,966,980,745,767,789,811,825,839,853,868,882,896,910,924,938,952,966,980,882,896,910,924,938,952,966,980,994,1008,1022,1042,1062,1084,1106,1120,1134,1150,1166,1180,1194,1208,1222,1236,1250,1264,1278,1292,1306,1322,1338,1352,1366,1380,1394,1394,0,0,0,0,0,0,0,0,0,0,0,0,0,0,0,0,514,532,550,568,582,600,618,636,654,676,698,720,742,764,786,808,822,836,850,865,879,893,907,921,935,949,963,977,879,893,907,921,935,949,963,977,879,893,907,921,935,949,963,977,879,893,907,921,935,949,963,977,879,893,907,921,935,949,963,977,742,764,786,808,822,836,850,865,879,893,907,921,935,949,963,977,879,893,907,921,935,949,963,977,879,893,907,921,935,949,963,977,742,764,786,808,822,836,850,865,879,893,907,921,935,949,963,977,879,893,907,921,935,949,963,977,879,893,907,921,935,949,963,977,879,893,907,921,935,949,963,977,879,893,907,921,935,949,963,977,879,893,907,921,935,949,963,977,742,764,786,808,822,836,850,865,879,893,907,921,935,949,963,977,879,893,907,921,935,949,963,977,879,893,907,921,935,949,963,977,879,893,907,921,935,949,963,977,742,764,786,808,822,836,850,865,879,893,907,921,935,949,963,977,879,893,907,921,935,949,963,977,991,1005,1019,1039,1059,1081,1103,1117,1131,1147,1163,1177,1191,1205,1219,1233,1247,1261,1275,1289,1303,1319,1335,1353,1367,1381,1395,1395,0,0,0,0,0,0,0,0,0,0,0,0,0,0,0,0,0,0,0,0,583,601,619,637,655,677,699,721,743,765,787,809,823,837,851,866,880,894,908,922,936,950,964,978,880,894,908,922,936,950,964,978,880,894,908,922,936,950,964,978,880,894,908,922,936,950,964,978,880,894,908,922,936,950,964,978,743,765,787,809,823,837,851,866,880,894,908,922,936,950,964,978,880,894,908,922,936,950,964,978,880,894,908,922,936,950,964,978,743,765,787,809,823,837,851,866,880,894,908,922,936,950,964,978,880,894,908,922,936,950,964,978,880,894,908,922,936,950,964,978,880,894,908,922,936,950,964,978,880,894,908,922,936,950,964,978,880,894,908,922,936,950,964,978,743,765,787,809,823,837,851,866,880,894,908,922,936,950,964,978,880,894,908,922,936,950,964,978,880,894,908,922,936,950,964,978,880,894,908,922,936,950,964,978,743,765,787,809,823,837,851,866,880,894,908,922,936,950,964,978,880,894,908,922,936,950,964,978,992,1006,1020,1040,1060,1082,1104,1118,1132,1148,1164,1178,1192,1206,1220,1234,1248,1262,1276,1290,1304,1320,1336,1354,1368,1382,1396,1396,0,0,0,0,0,0,0,0,0,0,0,0,0,0,0,0,0,0,0,0,584,602,620,638,656,678,700,722,744,766,788,810,824,838,852,867,881,895,909,923,937,951,965,979,881,895,909,923,937,951,965,979,881,895,909,923,937,951,965,979,881,895,909,923,937,951,965,979,881,895,909,923,937,951,965,979,744,766,788,810,824,838,852,867,881,895,909,923,937,951,965,979,881,895,909,923,937,951,965,979,881,895,909,923,937,951,965,979,744,766,788,810,824,838,852,867,881,895,909,923,937,951,965,979,881,895,909,923,937,951,965,979,881,895,909,923,937,951,965,979,881,895,909,923,937,951,965,979,881,895,909,923,937,951,965,979,881,895,909,923,937,951,965,979,744,766,788,810,824,838,852,867,881,895,909,923,937,951,965,979,881,895,909,923,937,951,965,979,881,895,909,923,937,951,965,979,881,895,909,923,937,951,965,979,744,766,788,810,824,838,852,867,881,895,909,923,937,951,965,979,881,895,909,923,937,951,965,979,993,1007,1021,1041,1061,1083,1105,1119,1133,1149,1165,1179,1193,1207,1221,1235,1249,1263,1277,1291,1305,1321,1337,1355,1369,1383,1397,1397,0,0,0,0,0,0,0,0,0,0,0,0,0,0,0,0,0,0,0,0,585,603,621,639,657,679,701,723,745,767,789,811,825,839,853,868,882,896,910,924,938,952,966,980,882,896,910,924,938,952,966,980,882,896,910,924,938,952,966,980,882,896,910,924,938,952,966,980,882,896,910,924,938,952,966,980,745,767,789,811,825,839,853,868,882,896,910,924,938,952,966,980,882,896,910,924,938,952,966,980,882,896,910,924,938,952,966,980,745,767,789,811,825,839,853,868,882,896,910,924,938,952,966,980,882,896,910,924,938,952,966,980,882,896,910,924,938,952,966,980,882,896,910,924,938,952,966,980,882,896,910,924,938,952,966,980,882,896,910,924,938,952,966,980,745,767,789,811,825,839,853,868,882,896,910,924,938,952,966,980,882,896,910,924,938,952,966,980,882,896,910,924,938,952,966,980,882,896,910,924,938,952,966,980,745,767,789,811,825,839,853,868,882,896,910,924,938,952,966,980,882,896,910,924,938,952,966,980,994,1008,1022,1042,1062,1084,1106,1120,1134,1150,1166,1180,1194,1208,1222,1236,1250,1264,1278,1292,1306,1322,1338,1356,1370,1384,1398,1398,0,0,0,0,0,0,0,0,0,0,0,0,0,0,0,0,0,0,0,0,586,604,622,640,654,676,698,720,742,764,786,808,822,836,850,865,879,893,907,921,935,949,963,977,879,893,907,921,935,949,963,977,879,893,907,921,935,949,963,977,879,893,907,921,935,949,963,977,879,893,907,921,935,949,963,977,742,764,786,808,822,836,850,865,879,893,907,921,935,949,963,977,879,893,907,921,935,949,963,977,879,893,907,921,935,949,963,977,742,764,786,808,822,836,850,865,879,893,907,921,935,949,963,977,879,893,907,921,935,949,963,977,879,893,907,921,935,949,963,977,879,893,907,921,935,949,963,977,879,893,907,921,935,949,963,977,879,893,907,921,935,949,963,977,742,764,786,808,822,836,850,865,879,893,907,921,935,949,963,977,879,893,907,921,935,949,963,977,879,893,907,921,935,949,963,977,879,893,907,921,935,949,963,977,742,764,786,808,822,836,850,865,879,893,907,921,935,949,963,977,879,893,907,921,935,949,963,977,991,1005,1019,1039,1059,1081,1103,1117,1131,1147,1163,1181,1195,1209,1223,1237,1251,1265,1279,1293,1307,1323,1339,1357,1371,1385,1399,1399,0,0,0,0,0,0,0,0,0,0,0,0,0,0,0,0,0,0,0,0,0,0,0,0,655,677,699,721,743,765,787,809,823,837,851,866,880,894,908,922,936,950,964,978,880,894,908,922,936,950,964,978,880,894,908,922,936,950,964,978,880,894,908,922,936,950,964,978,880,894,908,922,936,950,964,978,743,765,787,809,823,837,851,866,880,894,908,922,936,950,964,978,880,894,908,922,936,950,964,978,880,894,908,922,936,950,964,978,743,765,787,809,823,837,851,866,880,894,908,922,936,950,964,978,880,894,908,922,936,950,964,978,880,894,908,922,936,950,964,978,880,894,908,922,936,950,964,978,880,894,908,922,936,950,964,978,880,894,908,922,936,950,964,978,743,765,787,809,823,837,851,866,880,894,908,922,936,950,964,978,880,894,908,922,936,950,964,978,880,894,908,922,936,950,964,978,880,894,908,922,936,950,964,978,743,765,787,809,823,837,851,866,880,894,908,922,936,950,964,978,880,894,908,922,936,950,964,978,992,1006,1020,1040,1060,1082,1104,1118,1132,1148,1164,1182,1196,1210,1224,1238,1252,1266,1280,1294,1308,1324,1340,0,0,0,0,0,0,0,0,0,0,0,0,0,0,0,0,0,0,0,0,0,0,0,0,0,0,0,0,0,656,678,700,722,744,766,788,810,824,838,852,867,881,895,909,923,937,951,965,979,881,895,909,923,937,951,965,979,881,895,909,923,937,951,965,979,881,895,909,923,937,951,965,979,881,895,909,923,937,951,965,979,744,766,788,810,824,838,852,867,881,895,909,923,937,951,965,979,881,895,909,923,937,951,965,979,881,895,909,923,937,951,965,979,744,766,788,810,824,838,852,867,881,895,909,923,937,951,965,979,881,895,909,923,937,951,965,979,881,895,909,923,937,951,965,979,881,895,909,923,937,951,965,979,881,895,909,923,937,951,965,979,881,895,909,923,937,951,965,979,744,766,788,810,824,838,852,867,881,895,909,923,937,951,965,979,881,895,909,923,937,951,965,979,881,895,909,923,937,951,965,979,881,895,909,923,937,951,965,979,744,766,788,810,824,838,852,867,881,895,909,923,937,951,965,979,881,895,909,923,937,951,965,979,993,1007,1021,1041,1061,1083,1105,1119,1133,1149,1165,1183,1197,1211,1225,1239,1253,1267,1281,1295,1309,1325,1341,0,0,0,0,0,0,0,0,0,0,0,0,0,0,0,0,0,0,0,0,0,0,0,0,0,0,0,0,0,657,679,701,723,745,767,789,811,825,839,853,868,882,896,910,924,938,952,966,980,882,896,910,924,938,952,966,980,882,896,910,924,938,952,966,980,882,896,910,924,938,952,966,980,882,896,910,924,938,952,966,980,745,767,789,811,825,839,853,868,882,896,910,924,938,952,966,980,882,896,910,924,938,952,966,980,882,896,910,924,938,952,966,980,745,767,789,811,825,839,853,868,882,896,910,924,938,952,966,980,882,896,910,924,938,952,966,980,882,896,910,924,938,952,966,980,882,896,910,924,938,952,966,980,882,896,910,924,938,952,966,980,882,896,910,924,938,952,966,980,745,767,789,811,825,839,853,868,882,896,910,924,938,952,966,980,882,896,910,924,938,952,966,980,882,896,910,924,938,952,966,980,882,896,910,924,938,952,966,980,745,767,789,811,825,839,853,868,882,896,910,924,938,952,966,980,882,896,910,924,938,952,966,980,994,1008,1022,1042,1062,1084,1106,1120,1134,1150,1166,1184,1198,1212,1226,1240,1254,1268,1282,1296,1310,1326,1342,0,0,0,0,0,0,0,0,0,0,0,0,0,0,0,0,0,0,0,0,0,0,0,0,0,0,0,0,0,658,680,702,724,742,764,786,808,822,836,850,865,879,893,907,921,935,949,963,977,879,893,907,921,935,949,963,977,879,893,907,921,935,949,963,977,879,893,907,921,935,949,963,977,879,893,907,921,935,949,963,977,742,764,786,808,822,836,850,865,879,893,907,921,935,949,963,977,879,893,907,921,935,949,963,977,879,893,907,921,935,949,963,977,742,764,786,808,822,836,850,865,879,893,907,921,935,949,963,977,879,893,907,921,935,949,963,977,879,893,907,921,935,949,963,977,879,893,907,921,935,949,963,977,879,893,907,921,935,949,963,977,879,893,907,921,935,949,963,977,742,764,786,808,822,836,850,865,879,893,907,921,935,949,963,977,879,893,907,921,935,949,963,977,879,893,907,921,935,949,963,977,879,893,907,921,935,949,963,977,742,764,786,808,822,836,850,865,879,893,907,921,935,949,963,977,879,893,907,921,935,949,963,977,991,1005,1019,1039,1059,1081,1103,1121,1135,1151,1167,1185,1199,1213,1227,1241,1255,1269,1283,1297,1311,1327,1343,0,0,0,0,0,0,0,0,0,0,0,0,0,0,0,0,0,0,0,0,0,0,0,0,0,0,0,0,0,659,681,703,725,743,765,787,809,823,837,851,866,880,894,908,922,936,950,964,978,880,894,908,922,936,950,964,978,880,894,908,922,936,950,964,978,880,894,908,922,936,950,964,978,880,894,908,922,936,950,964,978,743,765,787,809,823,837,851,866,880,894,908,922,936,950,964,978,880,894,908,922,936,950,964,978,880,894,908,922,936,950,964,978,743,765,787,809,823,837,851,866,880,894,908,922,936,950,964,978,880,894,908,922,936,950,964,978,880,894,908,922,936,950,964,978,880,894,908,922,936,950,964,978,880,894,908,922,936,950,964,978,880,894,908,922,936,950,964,978,743,765,787,809,823,837,851,866,880,894,908,922,936,950,964,978,880,894,908,922,936,950,964,978,880,894,908,922,936,950,964,978,880,894,908,922,936,950,964,978,743,765,787,809,823,837,851,866,880,894,908,922,936,950,964,978,880,894,908,922,936,950,964,978,992,1006,1020,1040,1060,1082,1104,1122,1136,1152,1168,0,0,0,0,0,0,0,0,0,0,0,0,0,0,0,0,0,0,0,0,0,0,0,0,0,0,0,0,0,0,0,0,0,0,0,0,0,0,0,0,0,660,682,704,726,744,766,788,810,824,838,852,867,881,895,909,923,937,951,965,979,881,895,909,923,937,951,965,979,881,895,909,923,937,951,965,979,881,895,909,923,937,951,965,979,881,895,909,923,937,951,965,979,744,766,788,810,824,838,852,867,881,895,909,923,937,951,965,979,881,895,909,923,937,951,965,979,881,895,909,923,937,951,965,979,744,766,788,810,824,838,852,867,881,895,909,923,937,951,965,979,881,895,909,923,937,951,965,979,881,895,909,923,937,951,965,979,881,895,909,923,937,951,965,979,881,895,909,923,937,951,965,979,881,895,909,923,937,951,965,979,744,766,788,810,824,838,852,867,881,895,909,923,937,951,965,979,881,895,909,923,937,951,965,979,881,895,909,923,937,951,965,979,881,895,909,923,937,951,965,979,744,766,788,810,824,838,852,867,881,895,909,923,937,951,965,979,881,895,909,923,937,951,965,979,993,1007,1021,1041,1061,1083,1105,1123,1137,1153,1169,0,0,0,0,0,0,0,0,0,0,0,0,0,0,0,0,0,0,0,0,0,0,0,0,0,0,0,0,0,0,0,0,0,0,0,0,0,0,0,0,0,661,683,705,727,745,767,789,811,825,839,853,868,882,896,910,924,938,952,966,980,882,896,910,924,938,952,966,980,882,896,910,924,938,952,966,980,882,896,910,924,938,952,966,980,882,896,910,924,938,952,966,980,745,767,789,811,825,839,853,868,882,896,910,924,938,952,966,980,882,896,910,924,938,952,966,980,882,896,910,924,938,952,966,980,745,767,789,811,825,839,853,868,882,896,910,924,938,952,966,980,882,896,910,924,938,952,966,980,882,896,910,924,938,952,966,980,882,896,910,924,938,952,966,980,882,896,910,924,938,952,966,980,882,896,910,924,938,952,966,980,745,767,789,811,825,839,853,868,882,896,910,924,938,952,966,980,882,896,910,924,938,952,966,980,882,896,910,924,938,952,966,980,882,896,910,924,938,952,966,980,745,767,789,811,825,839,853,868,882,896,910,924,938,952,966,980,882,896,910,924,938,952,966,980,994,1008,1022,1042,1062,1084,1106,1124,1138,1154,1170,0,0,0,0,0,0,0,0,0,0,0,0,0,0,0,0,0,0,0,0,0,0,0,0,0,0,0,0,0,0,0,0,0,0,0,0,0,0,0,0,0,662,684,706,728,742,764,786,808,822,836,850,865,879,893,907,921,935,949,963,977,879,893,907,921,935,949,963,977,879,893,907,921,935,949,963,977,879,893,907,921,935,949,963,977,879,893,907,921,935,949,963,977,742,764,786,808,822,836,850,865,879,893,907,921,935,949,963,977,879,893,907,921,935,949,963,977,879,893,907,921,935,949,963,977,742,764,786,808,822,836,850,865,879,893,907,921,935,949,963,977,879,893,907,921,935,949,963,977,879,893,907,921,935,949,963,977,879,893,907,921,935,949,963,977,879,893,907,921,935,949,963,977,879,893,907,921,935,949,963,977,742,764,786,808,822,836,850,865,879,893,907,921,935,949,963,977,879,893,907,921,935,949,963,977,879,893,907,921,935,949,963,977,879,893,907,921,935,949,963,977,742,764,786,808,822,836,850,865,879,893,907,921,935,949,963,977,879,893,907,921,935,949,963,977,991,1005,1019,1039,1059,1081,1103,1125,1139,1155,1171,0,0,0,0,0,0,0,0,0,0,0,0,0,0,0,0,0,0,0,0,0,0,0,0,0,0,0,0,0,0,0,0,0,0,0,0,0,0,0,0,0,0,0,0,0,743,765,787,809,823,837,851,866,880,894,908,922,936,950,964,978,880,894,908,922,936,950,964,978,880,894,908,922,936,950,964,978,880,894,908,922,936,950,964,978,880,894,908,922,936,950,964,978,743,765,787,809,823,837,851,866,880,894,908,922,936,950,964,978,880,894,908,922,936,950,964,978,880,894,908,922,936,950,964,978,743,765,787,809,823,837,851,866,880,894,908,922,936,950,964,978,880,894,908,922,936,950,964,978,880,894,908,922,936,950,964,978,880,894,908,922,936,950,964,978,880,894,908,922,936,950,964,978,880,894,908,922,936,950,964,978,743,765,787,809,823,837,851,866,880,894,908,922,936,950,964,978,880,894,908,922,936,950,964,978,880,894,908,922,936,950,964,978,880,894,908,922,936,950,964,978,743,765,787,809,823,837,851,866,880,894,908,922,936,950,964,978,880,894,908,922,936,950,964,978,992,1006,1020,1040,1060,1082,1104,0,0,0,0,0,0,0,0,0,0,0,0,0,0,0,0,0,0,0,0,0,0,0,0,0,0,0,0,0,0,0,0,0,0,0,0,0,0,0,0,0,0,0,0,0,0,0,0,0,744,766,788,810,824,838,852,867,881,895,909,923,937,951,965,979,881,895,909,923,937,951,965,979,881,895,909,923,937,951,965,979,881,895,909,923,937,951,965,979,881,895,909,923,937,951,965,979,744,766,788,810,824,838,852,867,881,895,909,923,937,951,965,979,881,895,909,923,937,951,965,979,881,895,909,923,937,951,965,979,744,766,788,810,824,838,852,867,881,895,909,923,937,951,965,979,881,895,909,923,937,951,965,979,881,895,909,923,937,951,965,979,881,895,909,923,937,951,965,979,881,895,909,923,937,951,965,979,881,895,909,923,937,951,965,979,744,766,788,810,824,838,852,867,881,895,909,923,937,951,965,979,881,895,909,923,937,951,965,979,881,895,909,923,937,951,965,979,881,895,909,923,937,951,965,979,744,766,788,810,824,838,852,867,881,895,909,923,937,951,965,979,881,895,909,923,937,951,965,979,993,1007,1021,1041,1061,1083,1105,0,0,0,0,0,0,0,0,0,0,0,0,0,0,0,0,0,0,0,0,0,0,0,0,0,0,0,0,0,0,0,0,0,0,0,0,0,0,0,0,0,0,0,0,0,0,0,0,0,745,767,789,811,825,839,853,868,882,896,910,924,938,952,966,980,882,896,910,924,938,952,966,980,882,896,910,924,938,952,966,980,882,896,910,924,938,952,966,980,882,896,910,924,938,952,966,980,745,767,789,811,825,839,853,868,882,896,910,924,938,952,966,980,882,896,910,924,938,952,966,980,882,896,910,924,938,952,966,980,745,767,789,811,825,839,853,868,882,896,910,924,938,952,966,980,882,896,910,924,938,952,966,980,882,896,910,924,938,952,966,980,882,896,910,924,938,952,966,980,882,896,910,924,938,952,966,980,882,896,910,924,938,952,966,980,745,767,789,811,825,839,853,868,882,896,910,924,938,952,966,980,882,896,910,924,938,952,966,980,882,896,910,924,938,952,966,980,882,896,910,924,938,952,966,980,745,767,789,811,825,839,853,868,882,896,910,924,938,952,966,980,882,896,910,924,938,952,966,980,994,1008,1022,1042,1062,1084,1106,0,0,0,0,0,0,0,0,0,0,0,0,0,0,0,0,0,0,0,0,0,0,0,0,0,0,0,0,0,0,0,0,0,0,0,0,0,0,0,0,0,0,0,0,0,0,0,0,0,746,768,790,812,826,840,854,869,883,897,911,925,939,953,967,981,883,897,911,925,939,953,967,981,883,897,911,925,939,953,967,981,883,897,911,925,939,953,967,981,883,897,911,925,939,953,967,981,746,768,790,812,826,840,854,869,883,897,911,925,939,953,967,981,883,897,911,925,939,953,967,981,883,897,911,925,939,953,967,981,746,768,790,812,826,840,854,869,883,897,911,925,939,953,967,981,883,897,911,925,939,953,967,981,883,897,911,925,939,953,967,981,883,897,911,925,939,953,967,981,883,897,911,925,939,953,967,981,883,897,911,925,939,953,967,981,746,768,790,812,826,840,854,869,883,897,911,925,939,953,967,981,883,897,911,925,939,953,967,981,883,897,911,925,939,953,967,981,883,897,911,925,939,953,967,981,746,768,790,812,826,840,854,869,883,897,911,925,939,953,967,981,883,897,911,925,939,953,967,981,995,1009,1023,1043,1063,1085,1107,0,0,0,0,0,0,0,0,0,0,0,0,0,0,0,0,0,0,0,0,0,0,0,0,0,0,0,0,0,0,0,0,0,0,0,0,0,0,0,0,0,0,0,0,0,0,0,0,0,747,769,791,813,827,841,855,870,884,898,912,926,940,954,968,982,884,898,912,926,940,954,968,982,884,898,912,926,940,954,968,982,884,898,912,926,940,954,968,982,884,898,912,926,940,954,968,982,747,769,791,813,827,841,855,870,884,898,912,926,940,954,968,982,884,898,912,926,940,954,968,982,884,898,912,926,940,954,968,982,747,769,791,813,827,841,855,870,884,898,912,926,940,954,968,982,884,898,912,926,940,954,968,982,884,898,912,926,940,954,968,982,884,898,912,926,940,954,968,982,884,898,912,926,940,954,968,982,884,898,912,926,940,954,968,982,747,769,791,813,827,841,855,870,884,898,912,926,940,954,968,982,884,898,912,926,940,954,968,982,884,898,912,926,940,954,968,982,884,898,912,926,940,954,968,982,747,769,791,813,827,841,855,870,884,898,912,926,940,954,968,982,884,898,912,926,940,954,968,982,996,1010,1024,1044,1064,1086,1108,0,0,0,0,0,0,0,0,0,0,0,0,0,0,0,0,0,0,0,0,0,0,0,0,0,0,0,0,0,0,0,0,0,0,0,0,0,0,0,0,0,0,0,0,0,0,0,0,0,748,770,792,814,828,842,856,871,885,899,913,927,941,955,969,983,885,899,913,927,941,955,969,983,885,899,913,927,941,955,969,983,885,899,913,927,941,955,969,983,885,899,913,927,941,955,969,983,748,770,792,814,828,842,856,871,885,899,913,927,941,955,969,983,885,899,913,927,941,955,969,983,885,899,913,927,941,955,969,983,748,770,792,814,828,842,856,871,885,899,913,927,941,955,969,983,885,899,913,927,941,955,969,983,885,899,913,927,941,955,969,983,885,899,913,927,941,955,969,983,885,899,913,927,941,955,969,983,885,899,913,927,941,955,969,983,748,770,792,814,828,842,856,871,885,899,913,927,941,955,969,983,885,899,913,927,941,955,969,983,885,899,913,927,941,955,969,983,885,899,913,927,941,955,969,983,748,770,792,814,828,842,856,871,885,899,913,927,941,955,969,983,885,899,913,927,941,955,969,983,997,1011,1025,1045,1065,1087,1109,0,0,0,0,0,0,0,0,0,0,0,0,0,0,0,0,0,0,0,0,0,0,0,0,0,0,0,0,0,0,0,0,0,0,0,0,0,0,0,0,0,0,0,0,0,0,0,0,0,749,771,793,815,829,843,857,872,886,900,914,928,942,956,970,984,886,900,914,928,942,956,970,984,886,900,914,928,942,956,970,984,886,900,914,928,942,956,970,984,886,900,914,928,942,956,970,984,749,771,793,815,829,843,857,872,886,900,914,928,942,956,970,984,886,900,914,928,942,956,970,984,886,900,914,928,942,956,970,984,749,771,793,815,829,843,857,872,886,900,914,928,942,956,970,984,886,900,914,928,942,956,970,984,886,900,914,928,942,956,970,984,886,900,914,928,942,956,970,984,886,900,914,928,942,956,970,984,886,900,914,928,942,956,970,984,749,771,793,815,829,843,857,872,886,900,914,928,942,956,970,984,886,900,914,928,942,956,970,984,886,900,914,928,942,956,970,984,886,900,914,928,942,956,970,984,749,771,793,815,829,843,857,872,886,900,914,928,942,956,970,984,886,900,914,928,942,956,970,984,998,1012,1026,1046,1066,1088,1110,0,0,0,0,0,0,0,0,0,0,0,0,0,0,0,0,0,0,0,0,0,0,0,0,0,0,0,0,0,0,0,0,0,0,0,0,0,0,0,0,0,0,0,0,0,0,0,0,0,750,772,794,816,830,844,858,873,887,901,915,929,943,957,971,985,887,901,915,929,943,957,971,985,887,901,915,929,943,957,971,985,887,901,915,929,943,957,971,985,887,901,915,929,943,957,971,985,750,772,794,816,830,844,858,873,887,901,915,929,943,957,971,985,887,901,915,929,943,957,971,985,887,901,915,929,943,957,971,985,750,772,794,816,830,844,858,873,887,901,915,929,943,957,971,985,887,901,915,929,943,957,971,985,887,901,915,929,943,957,971,985,887,901,915,929,943,957,971,985,887,901,915,929,943,957,971,985,887,901,915,929,943,957,971,985,750,772,794,816,830,844,858,873,887,901,915,929,943,957,971,985,887,901,915,929,943,957,971,985,887,901,915,929,943,957,971,985,887,901,915,929,943,957,971,985,750,772,794,816,830,844,858,873,887,901,915,929,943,957,971,985,887,901,915,929,943,957,971,985,999,1013,1027,1047,1067,1089,1111,0,0,0,0,0,0,0,0,0,0,0,0,0,0,0,0,0,0,0,0,0,0,0,0,0,0,0,0,0,0,0,0,0,0,0,0,0,0,0,0,0,0,0,0,0,0,0,0,0,0,0,0,0,0,0,0,0,0,0,0,0,0,0,0,0,0,0,0,0,0,0,0,0,0,0,0,0,0,0,0,0,0,0,0,0,0,0,0,0,0,0,0,0,0,0,0,0,0,0,0,0,0,0,0,0,0,0,0,0,0,0,0,0,0,0,0,0,0,0,0,0,0,0,0,0,0,0,0,0,0,0,0,0,0,0,0,0,0,0,0,0,0,0,0,0,0,0,0,0,0,0,0,0,0,0,0,0,0,0,0,0,0,0,0,0,0,0,0,0,0,0,0,0,0,0,0,0,0,0,0,0,0,0,0,0,0,0,0,0,0,0,0,0,0,0,0,0,0,0,0,0,0,0,0,0,0,0,0,0,0,0,0,0,0,0,0,0,0,0,0,0,0,0,0,0,0,0,0,0,0,0,0,0,0,0,0,0,0,0,0,0,0,0,0,0,0,0,0,0,0,0,0,0,0,0,0,0,0,0,0,0,0,0,0,0,0,0,0,0,0,0,0,0,0,0,0,0,0,0,0,0,0,0,0,0,0,0,0,0,0,0,0,0,0,0,0,0,0,0,0,0,0,0,0,0,0,0,0,0,0,0,0,0,0,0,0,0,0,0,0,0,0,0,0,0,0,0,0,0,0,0,0,0,0,0,0,0,0,0,0,0,0,0,0,0,0,0,0,0,0,0,0,0,0,0,0,0,0,0,0,0,0,0,0,0,0,0,0,0,0,0,0,0,0,0,0,0,0,0,0,0,0,0,0,0,0,0,0,0,0,0,0,0,0,0,0,0,0,0,0,0,0,0,0,0,0,0,0,0,0,0,0,0,0,0,0,0,0,0,0,0,0,0,0,0,0,0,0,0,0,0,0,0,0,0,0,0,0,0,0,0,0,0,0,0,0,0,0,0,0,0,0,0,0,0,0,0,0,0,0,0,0,0,0,0,0,0,0,0,0,0,0,0,0,0,0,0,0,0,0,0,0,0,0,0,0,0,0,0,0,0,0,0,0,0,0,0,0,0,0,0,0,0,0,0,0,0,0,0,0,0,0,0,0,0,0,0,0,0,0,0,0,0,0,0,0,0,0,0,0,0,0,0,0,0,0,0,0,0,0,0,0,0,0,0,0,0,0,0,0,0,0,0,0,0,0,0,0,0,0,0,0,0,0,0,0,0,0,0,0,0,0,0,0,0,0,0,0,0,0,0,0,0,0,0,0,0,0,0,0,0,0,0,0,0,0,0,0,0,0,0,0,0,0,0,0,0,0,0,0,0,0,0,0,0,0,0,0,0,0,0,0,0,0,0,0,0,0,0,0,0,0,0,0,0,0,0,0,0,0,0,0,0,0,0,0,0,0,0,0,0,0,0,0,0,0,0,0,0,0,0,0,0,0,0,0,0,0,0,0,0,0,0,0,0,0,0,0,0,0,0,0,0,0,0,0,0,0,0,0,0,0,0,0,0,0,0,0,0,0,0,0,0,0,0,0,0,0,0,0,0,0,0,0,0,0,0,0,0,0,0,0,0,0,0,0,0,0,0,0,0,0,0,0,0,0,0,0,0,0,0,0,0,0,0,0,0,0,0,0,0,0,0,0,0,0,0,0,0,0,0,0,0,0,0,0,0,0,0,0,0,0,0,0,0,0,0,0,0,0,0,0,0,0,0,0,0,0,0,0,0,0,0,0,0,0,0,0,0,0,0,0,0,0,0,0,0,0,0,0,0,0,0,0,0,0,0,0,0,0,0,0,0,0,0,0,0,0,0,0,0,0,0,0,0,0,0,0,0,0,0,0,0,0,0,0,0,0,0,0,0,0,0,0,0,0,0,0,0,0,0,0,0,0,0,0,0,0,0,0,0,0,0,0,0,0,0,0,0,0,0,0,0,0,0,0,0,0,0,0,0,0,0,0,0,0,0,0,0,0,0,0,0,0,0,0,0,0,0,0,0,0,0,0,0,0,0,0,0,0,0,0,0,0,0,0,0,0,0,0,0,0,0,0,0,0,0,0,0,0,0,0,0,0,0,0,0,0,0,0,0,0,0,0,0,0,0,0,0,0,0,0,0,0,0,0,0,0,0,0,0,0,0,0,0,0,0,0,0,0,0,0,0,0,0,0,0,0,0,0,0,0,0,0,0,0,0,0,0,0,0,0,0,0,0,0,0,0,0,0,0,0,0,0,0,0,0,0,0,0,0,0,0,0,0,0,0,0,0,0,0,0,0,0,0,0,0,0,0,0,0,0,0,0,0,0,0,0,0,0,0,0,0,0,0,0,0,0,0,0,0,0,0,0,0,0,0,0,0,0,0,0,0,0,0,0,0,0,0,0,0,0,0,0,0,0,0,0,0,0,0,0,0,0,0,0,0,0,0,0,0,0,0,0,0,0,0,0,0,0,0,0,0,0,0,0,0,0,0,0,0,0,0,0,0,0,0,0,0,0,0,0,0,0,0,0,0,0,0,0,0,0,0,0,0,0,0,0,0,0,0,0,0,0,0,0,0,0,0,0,0,0,0,0,0,0,0,0,0,0,0,0,0,0,0,0,0,0,0,0,0,0,0,0,0,0,0,0,0,0,0,0,0,0,0,0,0,0,0,0,0,0,0,0,0,0,0,0,0,0,0,0,0,0,0,0,0,0,0,0,0,0,0,0,0,0,0,0,0,0,0,0,0,0,0,0,0,0,0,0,0,0,0,0,0,0,0,0,0,0,0,0,0,0,0,0,0,0,0,0,0,0,0,0,0,0,0,0,0,0,0,0,0,0,0,0,0,0,0,0,0,0,0,0,0,0,0,0,0,0,0,0,0,0,0,0,0,0,0,0,0,0,0,0,0,0,0,0,0,0,0,0,0,0,0,0,0,0,0,0,0,0,0,0,0,0,0,0,0,0,0,0,0,0,0,0,0,0,0,0,0,0,0,0,0,0,0,0,0,0,0,0,0,0,0,0,0,0,0,0,0,0,0,0,0,0,0,0,0,0,0,0,0,0,0,0,0,0,0,0,0,0,0,0,0,0,0,0,0,0,0,0,0,0,0,0,0,0,0,0,0,0,0,0,0,0,0,0,0,0,0,0,0,0,0,0,0,0,0,0,0,0,0,0,0,0,0,0,0,0,0,0,0,0,0,0,0,0,0,0,0,0,0,0,0,0,0,0,0,0,0,0,0,0,0,0,0,0,0,0,0,0,0,0,0,0,0,0,0,0,0,0,0,0,0,0,0,0,0,0,0,0,0,0,0,0,0,0,0,0,0,0,0,0,0,0,0,0,0,0,0,0,0,0,0,0,0,0,0,0,0,0,0,0,0,0,0,0,0,0,0,0,0,0,0,0,0,0,0,0,0,0,0,0,0,0,0,0,0,0,0,0,0,0,0,0,0,0,0,0,0,0,0,0,0,0,0,0,0,0,0,0,0,0,0,0,0,0,0,0,0,0,0,0,0,0,0,0,0,0,0,0,0,0,0,0,0,0,0,0,0,0,0,0,0,0,0,0,0,0,0,0,0,0,0,0,0,0,0,0,0,0,0,0,0,0,0,0,0,0,0,0,0,0,0,0,0,0,0,0,0,0,0,0,0,0,0,0,0,0,0,0,0,0,0,0,0,0,0,0,0,0,0,0,0,0,0,0,0,0,0,0,0,0,0,0,0,0,0,0,0,0,0,0,0,0,0,0,0,0,0,0,0,0,0,0,0,0,0,0,0,0,0,0,0,0,0,0,0,0,0,0,0,0,0,0,0,0,0,0,0,0,0,0,0,0,0,0,0,0,0,0,0,0,0,0,0,0,0,0,0,0,0,0,0,0,0,0,0,0,0,0,0,0,0,0,0,0,0,0,0,0,0,0,0,0,0,0,0,0,0,0,0,0,0,0,0,0,0,0,0,0,0,0,0,0,0,0,0,0,0,0,0,0,0,0,0,0,0,0,0,0,0,0,0,0,0,0,0,0,0,0,0,0,0,0,0,0,0,0,0,0,0,0,0,0,0,0,0,0,0,0,0,0,0,0,0,0,0,0,0,0,0,0,0,0,0,0,0,0,0,0,0,0,0,0,0,0,0,0,0,0,0,0,0,0,0,0,0,0,0,0,0,0,0,0,0,0,0,0,0,0,0,0,0,0,0,0,0,0,0,0,0,0,0,0,0,0,0,0,0,0,0,0,0,0,0,0,0,0,0,0,0,0,0,0,0,0,0,0,0,0,0,0,0,0,0,0,0,0,0,0,0,0,0,0,0,0,0,0,0,0,0,0,0,0,0,0,0,0,0,0,0,0,0,0,0,0,0,0,0,0,0,0,0,0,0,0,0,0,0,0,0,0,0,0,0,0,0,0,0,0,0,0,0,0,0,0,0,0,0,0,0,0,0,0,0,0,0,0,0,0,0,0,0,0,0,0,0,0,0,0,0,0,0,0,0,0,0,0,0,0,0,0,0,0,0,0,0,0,0,0,0,0,0,0,0,0,0,0,0,0,0,0,0,0,0,0,0,0,0,0,0,0,0,0,0,0,0,0,0,0,0,0,0,0,0,0,0,0,0,0,0,0,0,0,0,0,0,0,0,0,0,0,0,0,0,0,0,0,0,0,0,0,0,0,0,0,0,0,0,0,0,0,0,0,0,0,0,0,0,0,0,0,0,0,0,0,0,0,0,0,0,0,0,0,0,0,0,0,0,0,0,0,0,0,0,0,0,0,0,0,0,0,0,0,0,0,0,0,0,0,0,0,0,0,0,0,0,0,0,0,0,0,0,0,0,0,0,0,0,0,0,0,0,0,0,0,0,0,0,0,0,0,0,0,0,0,0,0,0,0,0,0,0,0,0,0,0,0,0,0,0,0,0,0,0,0,0,0,0,0,0,0,0,0,0,0,0,0,0,0,0,0,0,0,0,0,0,0,0,0,0,0,0,0,0,0,0,0,0,0,0,0,0,0,0,0,0,0,0,0,0,0,0,0,0,0,0,0,0,0,0,0,0,0,0,0,0,0,0,0,0,0,0,0,0,0,0,0,0,0,0,0,0,0,0,0,0,0,0,0,0,0,0,0,0,0,0,0,0,0,0,0,0,0,0,0,0,0,0,0,0,0,0,0,0,0,0,0,0,0,0,0,0,0,0,0,0,0,0,0,0,0,0,0,0,0,0,0,0,0,0,0,0,0,0,0,0,0,0,0,0,0,0,0,0,0,0,0,0,0,0,0,0,0,0,0,0,0,0,0,0,0,0,0,0,0,0,0,0,0,0,0,0,0,0,0,0,0,0,0,0,0,0,0,0,0,0,0,0,0,0,0,0,0,0,0,0,0,0,0,0,0,0,0,0,0,0,0,0,0,0,0,0,0,0,0,0,0,0,0,0,0,0,0,0,0,0,0,0,0,0,0,0,0,0,0,0,0,0,0,0,0,0,0,0,0,0,0,0,0,0,0,0,0,0,0,0,0,0,0,0,0,0,0,0,0,0,0,0,0,0,0,0,0,0,0,0,0,0,0,0,0,0,0,0,0,0,0,0,0,0,0,0,0,0,0,0,0,0,0,0,0,0,0,0,0,0,0,0,0,0,0,0,0,0,0,0,0,0,0,0,0,0,0,0,0,0,0,0,0,0,0,0,0,0,0,0,0,0,0,0,0,0,0,0,0,0,0,0,0,0,0,0,0,0,0,0,0,0,0,0,0,0,0,0,0,0,0,0,0,0,0,0,0,0,0,0,0,0,0,0,0,0,0,0,0,0,0,0,0,0,0,0,0,0,0,0,0,0,0,0,0,0,0,0,0,0,0,0,0,0,0,0,0,0,0,0,0,0,0,0,0,0,0,0,0,0,0,0,0,0,0,0,0,0,0,0,0,0,0,0,0,0,0,0,0,0,0,0,0,0,0,0,0,0,0,0,0,0,0,0,0,0,0,0,0,0,0,0,0,0,0,0,0,0,0,0,0,0,0,0,0,0,0,0,0,0,0,0,0,0,0,0,0,0,0,0,0,0,0,0,0,0,0,0,0,0,0,0,0,0,0,0,0,0,0,0,0,0,0,0,0,0,0,0,0,0,0,0,0,0,0,0,0,0,0,0,0,0,0,0,0,0,0,0,0,0,0,0,0,0,0,0,0,0,0,0,0,0,0,0,0,0,0,0,0,0,0,0,0,0,0,0,0,0,0,0,0,0,0,0,0,0,0,0,0,0,0,0,0,0,0,0,0,0,0,0,0,0,0,0,0,0,0,0,0,0,0,0,0,0,0,0,0,0,0,0,0,0,0,0,0,0,0,0,0,0,0,0,0,0,0,0,0,0,0,0,0,0,0,0,0,0,0,0,0,0,0,0,0,0,0,0,0,0,0,0,0,0,0,0,0,0,0,0,0,0,0,0,0,0,0,0,0,0,0,0,0,0,0,0,0,0,0,0,0,0,0,0,0,0,0,0,0,0,0,0,0,0,0,0,0,0,0,0,0,0,0,0,0,0,0,0,0,0,0,0,0,0,0,0,0,0,0,0,0,0,0,0,0,0,0,0,0,0,0,0,0,0,0,0,0,0,0,0,0,0,0,0,0,0,0,0,0,0,0,0,0,0,0,0,0,0,0,0,0,0,0,0,0,0,0,0,0,0,0,0,0,0,0,0,0,0,0,0,0,0,0,0,0,0,0,0,0,0,0,0,0,0,0,0,0,0,0,0,0,0,0,0,0,0,0,0,0,0,0,0,0,0,0,0,0,0,0,0,0,0,0,0,0,0,0,0,0,0,0,0,0,0,0,0,0,0,0,0,0,0,0,0,0,0,0,0,0,0,0,0,0,0,0,0,0,0,0,0,0,0,0,0,0,0,0,0,0,0,0,0,0,0,0,0,0,0,0,0,0,0,0,0,0,0,0,0,0,0,0,0,0,0,0,0,0,0,0,0,0,0,0,0,0,0,0,0,0,0,0,0,0,0,0,0,0,0,0,0,0,0,0,0,0,0,0,0,0,0,0,0,0,0,0,0,0,0,0,0,0,0,0,0,0,0,0,0,0,0,0,0,0,0,0,0,0,0,0,0,0,0,0,0,0,0,0,0,0,0,0,0,0,0,0,0,0,0,0,0,0,0,0,0,0,0,0,0,0,0,0,0,0,0,0,0,0,0,0,0,0,0,0,0,0,0,0,0,0,0,0,0,0,0,0,0,0,0,0,0,0,0,0,0,0,0,0,0,0,0,0,0,0,0,0,0,0,0,0,0,0,0,0,0,0,0,0,0,0,0,0,0,0,0,0,0,0,0,0,0,0,0,0,0,0,0,0,0,0,0,0,0,0,0,0,0,0,0,0,0,0,0,0,0,0,0,0,0,0,0,0,0,0,0,0,0,0,0,0,0,0,0,0,0,0,0,0,0,0,0,0,0,0,0,0,0,0,0,0,0,0,0,0,0,0,0,0,0,0,0,0,0,0,0,0,0,0,0,0,0,0,0,0,0,0,0,0,0,0,0,0,0,0,0,0,0,0,0,0,0,0,0,0,0,0,0,0,0,0,0,0,0,0,0,0,0,0,0,0,0,0,0,0,0,0,0,0,0,0,0,0,0,0,0,0,0,0,0,0,0,0,0,0,0,0,0,0,0,0,0,0,0,0,0,0,0,0,0,0,0,0,0,0,0,0,0,0,0,0,0,0,0,0,0,0,0,0,0,0,0,0,0,0,0,0,0,0,0,0,0,0,0,0,0,0,0,0,0,0,0,0,0,0,0,0,0,0,0,0,0,0,0,0,0,0,0,0,0,0,0,0,0,0,0,0,0,0,0,0,0,0,0,0,0,0,0,0,0,0,0,0,0,0,0,0,0,0,0,0,0,0,0,0,0,0,0,0,0,0,0,0,0,0,0,0,0,0,0,0,0,0,0,0,0,0,0,0,0,0,0,0,0,0,0,0,0,0,0,0,0,0,0,0,0,0,0,0,0,0,0,0,0,0,0,0,0,0,0,0,0,0,0,0,0,0,0,0,0,0,0,0,0,0,0,0,0,0,0,0,0,0,0,0,0,0,0,0,0,0,0,0,0,0,0,0,0,0,0,0,0,0,0,0,0,0,0,0,0,0,0,0,0,0,0,0,0,0,0,0,0,0,0,0,0,0,0,0,0,0,0,0,0,0,0,0,0,0,0,0,0,0,0,0,0,0,0,0,0,0,0,0,0,0,0,0,0,0,0,0,0,0,0,0,0,0,0,0,0,0,0,0,0,0,0,0,0,0,0,0,0,0,0,0,0,0,0,0,0,0,0,0,0,0,0,0,0,0,0,0,0,0,0,0,0,0,0,0,0,0,0,0,0,0,0,0,0,0,0,0,0,0,0,0,0,0,0,0,0,0,0,0,0,0,0,0,0,0,0,0,0,0,0,0,0,0,0,0,0,0,0,0,0,0,0,0,0,0,0,0,0,0,0,0,0,0,0,0,0,0,0,0,0,0,0,0,0,0,0,0,0,0,0,0,0,0,0,0,0,0,0,0,0,0,0,0,0,0,0,0,0,0,0,0,0,0,0,0,0,0,0,0,0,0,0,0,0,0,0,0,0,0,0,0,0,0,0,0,0,0,0,0,0,0,0,0,0,0,0,0,0,0,0,0,0,0,0,0,0,0,0,0,0,0,0,0,0,0,0,0,0,0,0,0,0,0,0,0,0,0,0,0,0,0,0,0,0,0,0,0,0,0,0,0,0,0,0,0,0,0,0,0,0,0,0,0,0,0,0,0,0,0,0,0,0,0,0,0,0,0,0,0,0,0,0,0,0,0,0,0,0,0,0,0,0,0,0,0,0,0,0,0,0,0,0,0,0,0,0,0,0,0,0,0,0,0,0,0,0,0,0,0,0,0,0,0,0,0,0,0,0,0,0,0,0,0,0,0,0,0,0,0,0,0,0,0,0,0,0,0,0,0,0,0,0,0,0,0,0,0,0,0,0,0,0,0,0,0,0,0,0,0,0,0,0,0,0,0,0,0,0,0,0,0,0,0,0,0,0,0,0,0,0,0,0,0,0,0,0,0,0,0,0,0,0,0,0,0,0,0,0,0,0,0,0,0,0,0,0,0,0,0,0,0,0,0,0,0,0,0,0,0,0,0,0,0,0,0,0,0,0,0,0,0,0,0,0,0,0,0,0,0,0,0,0,0,0,0,0,0,0,0,0,0,0,0,0,0,0,0,0,0,0,0,0,0,0,0,0,0,0,0,0,0,0,0,0,0,0,0,0,0,0,0,0,0,0,0,0,0,0,0,0,0,0,0,0,0,0,0,0,0,0,0,0,0,0,0,0,0,0,0,0,0,0,0,0,0,0,0,0,0,0,0,0,0,0,0,0,0,0,0,0,0,0,0,0,0,0,0,0,0,0,0,0,0,0,0,0,0,0,0,0,0,0,0,0,0,0,0,0,0,0,0,0,0,0,0,0,0,0,0,0,0,0,0,0,0,0,0,0,0,0,0,0,0,0,0,0,0,0,0,0,0,0,0,0,0,0,0,0,0,0,0,0,0,0,0,0,0,0,0,0,0,0,0,0,0,0,0,0,0,0,0,0,0,0,0,0,0,0,0,0,0,0,0,0,0,0,0,0,0,0,0,0,0,0,0,0,0,0,0,0,0,0,0,0,0,0,0,0,0,0,0,0,0,0,0,0,0,0,0,0,0,0,0,0,0,0,0,0,0,0,0,0,0,0,0,0,0,0,0,0,0,0,0,0,0,0,0,0,0,0,0,0,0,0,0,0,0,0,0,0,0,0,0,0,0,0,0,0,0,0,0,0,0,0,0,0,0,0,0,0,0,0,0,0,0,0,0,0,0,0,0,0,0,0,0,0,0,0,0,0,0,0,0,0,0,0,0,0,0,0,0,0,0,0,0,0,0,0,0,0,0,0,0,0,0,0,0,0,0,0,0,0,0,0,0,0,0,0,0,0,0,0,0,0,0,0,0,0,0,0,0,0,0,0,0,0,0,0,0,0,0,0,0,0,0,0,0,0,0,0,0,0,0,0,0,0,0,0,0,0,0,0,0,0,0,0,0,0,0,0,0,0,0,0,0,0,0,0,0,0,0,0,0,0,0,0,0,0,0,0,0,0,0,0,0,0,0,0,0,0,0,0,0,0,0,0,0,0,0,0,0,0,0,0,0,0,0,0,0,0,0,0,0,0,0,0,0,0,0,0,0,0,0,0,0,0,0,0,0,0,0,0,0,0,0,0,0,0,0,0,0,0,0,0,0,0,0,0,0,0,0,0,0,0,0,0,0,0,0,0,0,0,0,0,0,0,0,0,0,0,0,0,0,0,0,0,0,0,0,0,0,0,0,0,0,0,0,0,0,0,0,0,0,0,0,0,0,0,0,0,0,0,0,0,0,0,0,0,0,0,0,0,0,0,0,0,0,0,0,0,0,0,0,0,0,0,0,0,0,0,0,0,0,0,0,0,0,0,0,0,0,0,0,0,0,0,0,0,0,0,0,0,0,0,0,0,0,0,0,0,0,0,0,0,0,0,0,0,0,0,0,0,0,0,0,0,0,0,0,0,0,0,0,0,0,0,0,0,0,0,0,0,0,0,0,0,0,0,0,0,0,0,0,0,0,0,0,0,0,0,0,0,0,0,0,0,0,0,0,0,0,0,0,0,0,0,0,0,0,0,0,0,0,0,0,0,0,0,0,0,0,0,0,0,0,0,0,0,0,0,0,0,0,0,0,0,0,0,0,0,0,0,0,0,0,0,0,0,0,0,0,0,0,0,0,0,0,0,0,0,0,0,0,0,0,0,0,0,0,0,0,0,0,0,0,0,0,0,0,0,0,0,0,0,0,0,0,0,0,0,0,0,0,0,0,0,0,0,0,0,0,0,0,0,0,0,0,0,0,0,0,0,0,0,0,0,0,0,0,0,0,0,0,0,0,0,0,0,0,0,0,0,0,0,0,0,0,0,0,0,0,0,0,0,0,0,0,0,0,0,0,0,0,0,0,0,0,0,0,0,0,0,0,0,0,0,0,0,0,0,0,0,0,0,0,0,0,0,0,0,0,0,0,0,0,0,0,0,0,0,0,0,0,0,0,0,0,0,0,0,0,0,0,0,0,0,0,0,0,0,0,0,0,0,0,0,0,0,0,0,0,0,0,0,0,0,0,0,0,0,0,0,0,0,0,0,0,0,0,0,0,0,0,0,0,0,0,0,0,0,0,0,0,0,0,0,0,0,0,0,0,0,0,0,0,0,0,0,0,0,0,0,0,0,0,0,0,0,0,0,0,0,0,0,0,0,0,0,0,0,0,0,0,0,0,0,0,0,0,0,0,0,0,0,0,0,0,0,0,0,0,0,0,0,0,0,0,0,0,0,0,0,0,0,0,0,0,0,0,0,0,0,0,0,0,0,0,0,0,0,0,0,0,0,0,0,0,0,0,0,0,0,0,0,0,0,0,0,0,0,0,0,0,0,0,0,0,0,0,0,0,0,0,0,0,0,0,0,0,0,0,0,0,0,0,0,0,0,0,0,0,0,0,0,0,0,0,0,0,0,0,0,0,0,0,0,0,0,0,0,0,0,0,0,0,0,0,0,0,0,0,0,0,0,0,0,0,0,0,0,0,0,0,0,0,0,0,0,0,0,0,0,0,0,0,0,0,0,0,0,0,0,0,0,0,0,0,0,0,0,0,0,0,0,0,0,0,0,0,0,0,0,0,0,0,0,0,0,0,0,0,0,0,0,0,0,0,0,0,0,0,0,0,0,0,0,0,0,0,0,0,0,0,0,0,0,0,0,0,0,0,0,0,0,0,0,0,0,0,0,0,0,0,0,0,0,0,0,0,0,0,0,0,0,0,0,0,0,0,0,0,0,0,0,0,0,0,0,0,0,0,0,0,0,0,0,0,0,0,0,0,0,0,0,0,0,0,0,0,0,0,0,0,0,0,0,0,0,0,0,0,0,0,0,0,0,0,0,0,0,0,0,0,0,0,0,0,0,0,0,0,0,0,0,0,0,0,0,0,0,0,0,0,0,0,0,0,0,0,0,0,0,0,0,0,0,0,0,0,0,0,0,0,0,0,0,0,0,0,0,0,0,0,0,0,0,0,0,0,0,0,0,0,0,0,0,0,0,0,0,0,0,0,0,0,0,0,0,0,0,0,0,0,0,0,0,0,0,0,0,0,0,0,0,0,0,0,0,0,0,0,0,0,0,0,0,0,0,0,0,0,0,0,0,0,0,0,0,0,0,0,0,0,0,0,0,0,0,0,0,0,0,0,0,0,0,0,0,0,0,0,0,0,0,0,0,0,0,0,0,0,0,0,0,0,0,0,0,0,0,0,0,0,0,0,0,0,0,0,0,0,0,0,0,0,0,0,0,0,0,0,0,0,0,0,0,0,0,0,0,0,0,0,0,0,0,0,0,0,0,0,0,0,0,0,0,0,0,0,0,0,0,0,0,0,0,0,0,0,0,0,0,0,0,0,0,0,0,0,0,0,0,0,0,0,0,0,0,0,0,0,0,0,0,0,0,0,0,0,0,0,0,0,0,0,0,0,0,0,0,0,0,0,0,0,0,0,0,0,0,0,0,0,0,0,0,0,0,0,0,0,0,0,0,0,0,0,0,0,0,0,0,0,0,0,0,0,0,0,0,0,0,0,0,0,0,0,0,0,0,0,0,0,0,0,0,0,0,0,0,0,0,0,0,0,0,0,0,0,0,0,0,0,0,0,0,0,0,0,0,0,0,0,0,0,0,0,0,0,0,0,0,0,0,0,0,0,0,0,0,0,0,0,0,0,0,0,0,0,0,0,0,0,0,0,0,0,0,0,0,0,0,0,0,0,0,0,0,0,0,0,0,0,0,0,0,0,0,0,0,0,0,0,0,0,0,0,0,0,0,0,0,0,0,0,0,0,0,0,0,0,0,0,0,0,0,0,0,0,0,0,0,0,0,0,0,0,0,0,0,0,0,0,0,0,0,0,0,0,0,0,0,0,0,0,0,0,0,0,0,0,0,0,0,0,0,0,0,0,0,0,0,0,0,0,0,0,0,0,0,0,0,0,0,0,0,0,0,0,0,0,0,0,0,0,0,0,0,0,0,0,0,0,0,0,0,0,0,0,0,0,0,0,0,0,0,0,0,0,0,0,0,0,0,0,0,0,0,0,0,0,0,0,0,0,0,0,0,0,0,0,0,0,0,0,0,0,0,0,0,0,0,0,0,0,0,0,0,0,0,0,0,0,0,0,0,0,0,0,0,0,0,0,0,0,0,0,0,0,0,0,0,0,0,0,0,0,0,0,0,0,0,0,0,0,0,0,0,0,0,0,0,0,0,0,0,0,0,0,0,0,0,0,0,0,0,0,0,0,0,0,0,0,0,0,0,0,0,0,0,0,0,0,0,0,0,0,0,0,0,0,0,0,0,0,0,0,0,0,0,0,0,0,0,0,0,0,0,0,0,0,0,0,0,0,0,0,0,0,0,0,0,0,0,0,0,0,0,0,0,0,0,0,0,0,0,0,0,0,0,0,0,0,0,0,0,0,0,0,0,0,0,0,0,0,0,0,0,0,0,0,0,0,0,0,0,0,0,0,0,0,0,0,0,0,0,0,0,0,0,0,0,0,0,0,0,0,0,0,0,0,0,0,0,0,0,0,0,0,0,0,0,0,0,0,0,0,0,0,0,0,0,0,0,0,0,0,0,0,0,0,0,0,0,0,0,0,0,0,0,0,0,0,0,0,0,0,0,0,0,0,0,0,0,0,0,0,0,0,0,0,0,0,0,0,0,0,0,0,0,0,0,0,0,0,0,0,0,0,0,0,0,0,0,0,0,0,0,0,0,0,0,0,0,0,0,0,0,0,0,0,0,0,0,0,0,0,0,0,0,0,0,0,0,0,0,0,0,0,0,0,0,0,0,0,0,0,0,0,0,0,0,0,0,0,0,0,0,0,0,0,0,0,0,0,0,0,0,0,0,0,0,0,0,0,0,0,0,0,0,0,0,0,0,0,0,0,0,0,0,0,0,0,0,0,0,0,0,0,0,0,0,0,0,0,0,0,0,0,0,0,0,0,0,0,0,0,0,0,0,0,0,0,0,0,0,0,0,0,0,0,0,0,0,0,0,0,0,0,0,0,0,0,0,0,0,0,0,0,0,0,0,0,0,0,0,0,0,0,0,0,0,0,0,0,0,0,0,0,0,0,0,0,0,0,0,0,0,0,0,0,0,0,0,0,0,0,0,0,0,0,0,0,0,0,0,0,0,0,0,0,0,0,0,0,0,0,0,0,0,0,0,0,0,0,0,0,0,0,0,0,0,0,0,0,0,0,0,0,0,0,0,0,0,0,0,0,0,0,0,0,0,0,0,0,0,0,0,0,0,0,0,0,0,0,0,0,0,0,0,0,0,0,0,0,0,0,0,0,0,0,0,0,0,0,0,0,0,0,0,0,0,0,0,0,0,0,0,0,0,0,0,0,0,0,0,0,0,0,0,0,0,0,0,0,0,0,0,0,0,0,0,0,0,0,0,0,0,0,0,0,0,0,0,0,0,0,0,0,0,0,0,0,0,0,0,0,0,0,0,0,0,0,0,0,0,0,0,0,0,0,0,0,0,0,0,0,0,0,0,0,0,0,0,0,0,0,0,0,0,0,0,0,0,0,0,0,0,0,0,0,0,0,0,0,0,0,0,0,0,0,0,0,0,0,0,0,0,0,0,0,0,0,0,0,0,0,0,0,0,0,0,0,0,0,0,0,0,0,0,0,0,0,0,0,0,0,0,0,0,0,0,0,0,0,0,0,0,0,0,0,0,0,0,0,0,0,0,0,0,0,0,0,0,0,0,0,0,0,0,0,0,0,0,0,0,0,0,0,0,0,0,0,0,0,0,0,0,0,0,0,0,0,0,0,0,0,0,0,0,0,0,0,0,0,0,0,0,0,0,0,0,0,0,0,0,0,0,0,0,0,0,0,0,0,0,0,0,0,0,0,0,0,0,0,0,0,0,0,0,0,0,0,0,0,0,0,0,0,0,0,0,0,0,0,0,0,0,0,0,0,0,0,0,0,0,0,0,0,0,0,0,0,0,0,0,0,0,0,0,0,0,0,0,0,0,0,0,0,0,0,0,0,0,0,0,0,0,0,0,0,0,0,0,0,0,0,0,0,0,0,0,0,0,0,0,0,0,0,0,0,0,0,0,0,0,0,0,0,0,0,0,0,0,0,0,0,0,0,0,0,0,0,0,0,0,0,0,0,0,0,0,0,0,0,0,0,0,0,0,0,0,0,0,0,0,0,0,0,0,0,0,0,0,0,0,0,0,0,0,0,0,0,0,0,0,0,0,0,0,0,0,0,0,0,0,0,0,0,0,0,0,0,0,0,0,0,0,0,0,0,0,0,0,0,0,0,0,0,0,0,0,0,0,0,0,0,0,0,0,0,0,0,0,0,0,0,0,0,0,0,0,0,0,0,0,0,0,0,0,0,0,0,0,0,0,0,0,0,0,0,0,0,0,0,0,0,0,0,0,0,0,0,0,0,0,0,0,0,0,0,0,0,0,0,0,0,0,0,0,0,0,0,0,0,0,0,0,0,0,0,0,0,0,0,0,0,0,0,0,0,0,0,0,0,0,0,0,0,0,0,0,0,0,0,0,0,0,0,0,0,0,0,0,0,0,0,0,0,0,0,0,0,0,0,0,0,0,0,0,0,0,0,0,0,0,0,0,0,0,0,0,0,0,0,0,0,0,0,0,0,0,0,0,0,0,0,0,0,0,0,0,0,0,0,0,0,0,0,0,0,0,0,0,0,0,0,0,0,0,0,0,0,0,0,0,0,0,0,0,0,0,0,0,0,0,0,0,0,0,0,0,0,0,0,0,0,0,0,0,0,0,0,0,0,0,0,0,0,0,0,0,0,0,0,0,0,0,0,0,0,0,0,0,0,0,0,0,0,0,0,0,0,0,0,0,0,0,0,0,0,0,0,0,0,0,0,0,0,0,0,0,0,0,0,0,0,0,0,0,0,0,0,0,0,0,0,0,0,0,0,0,0,0,0,0,0,0,0,0,0,0,0,0,0,0,0,0,0,0,0,0,0,0,0,0,0,0,0,0,0,0,0,0,0,0,0,0,0,0,0,0,0,0,0,0,0,0,0,0,0,0,0,0,0,0,0,0,0,0,0,0,0,0,0,0,0,0,0,0,0,0,0,0,0,0,0,0,0,0,0,0,0,0,0,0,0,0,0,0,0,0,0,0,0,0,0,0,0,0,0,0,0,0,0,0,0,0,0,0,0,0,0,0,0,0,0,0,0,0,0,0,0,0,0,0,0,0,0,0,0,0,0,0,0,0,0,0,0,0,0,0,0,0,0,0,0,0,0,0,0,0,0,0,0,0,0,0,0,0,0,0,0,0,0,0,0,0,0,0,0,0,0,0,0,0,0,0,0,0,0,0,0,0,0,0,0,0,0,0,0,0,0,0,0,0,0,0,0,0,0,0,0,0,0,0,0,0,0,0,0,0,0,0,0,0,0,0,0,0,0,0,0,0,0,0,0,0,0,0,0,0,0,0,0,0,0,0,0,0,0,0,0,0,0,0,0,0,0,0,0,0,0,0,0,0,0,0,0,0,0,0,0,0,0,0,0,0,0,0,0,0,0,0,0,0,0,0,0,0,0,0,0,0,0,0,0,0,0,0,0,0,0,0,0,0,0,0,0,0,0,0,0,0,0,0,0,0,0,0,0,0,0,0,0,0,0,0,0,0,0,0,0,0,0,0,0,0,0,0,0,0,0,0,0,0,0,0,0,0,0,0,0,0,0,0,0,0,0,0,0,0,0,0,0,0,0,0,0,0,0,0,0,0,0,0,0,0,0,0,0,0,0,0,0,0,0,0,0,0,0,0,0,0,0,0,0,0,0,0,0,0,0,0,0,0,0,0,0,0,0,0,0,0,0,0,0,0,0,0,0,0,0,0,0,0,0,0,0,0,0,0,0,0,0,0,0,0,0,0,0,0,0,0,0,0,0,0,0,0,0,0,0,0,0,0,0,0,0,0,0,0,0,0,0,0,0,0,0,0,0,0,0,0,0,0,0,0,0,0,0,0,0,0,0,0,0,0,0,0,0,0,0,0,0,0,0,0,0,0,0,0,0,0,0,0,0,0,0,0,0,0,0,0,0,0,0,0,0,0,0,0,0,0,0,0,0,0,0,0,0,0,0,0,0,0,0,0,0,0,0,0,0,0,0,0,0,0,0,0,0,0,0,0,0,0,0,0,0,0,0,0,0,0,0,0,0,0,0,0,0,0,0,0,0,0,0,0,0,0,0,0,0,0,0,0,0,0,0,0,0,0,0,0,0,0,0,0,0,0,0,0,0,0,0,0,0,0,0,0,0,0,0,0,0,0,0,0,0,0,0,0,0,0,0,0,0,0,0,0,0,0,0,0,0,0,0,0,0,0,0,0,0,0,0,0,0,0,0,0,0,0,0,0,0,0,0,0,0,0,0,0,0,0,0,0,0,0,0,0,0,0,0,0,0,0,0,0,0,0,0,0,0,0,0,0,0,0,0,0,0,0,0,0,0,0,0,0,0,0,0,0,0,0,0,0,0,0,0,0,0,0,0,0,0,0,0,0,0,0,0,0,0,0,0,0,0,0,0,0,0,0,0,0,0,0,0,0,0,0,0,0,0,0,0,0,0,0,0,0,0,0,0,0,0,0,0,0,0,0,0,0,0,0,0,0,0,0,0,0,0,0,0,0,0,0,0,0,0,0,0,0,0,0,0,0,0,0,0,0,0,0,0,0,0,0,0,0,0,0,0,0,0,0,0,0,0,0,0,0,0,0,0,0,0,0,0,0,0,0,0,0,0,0,0,0,0,0,0,0,0,0,0,0,0,0,0,0,0,0,0,0,0,0,0,0,0,0,0,0,0,0,0,0,0,0,0,0,0,0,0,0,0,0,0,0,0,0,0,0,0,0,0,0,0,0,0,0,0,0,0,0,0,0,0,0,0,0,0,0,0,0,0,0,0,0,0,0,0,0,0,0,0,0,0,0,0,0,0,0,0,0,0,0,0,0,0,0,0,0,0,0,0,0,0,0,0,0,0,0,0,0,0,0,0,0,0,0,0,0,0,0,0,0,0,0,0,0,0,0,0,0,0,0,0,0,0,0,0,0,0,0,0,0,0,0,0,0,0,0,0,0,0,0,0,0,0,0,0,0,0,0,0,0,0,0,0,0,0,0,0,0,0,0,0,0,0,0,0,0,0,0,0,0,0,0,0,0,0,0,0,0,0,0,0,0,0,0,0,0,0,0,0,0,0,0,0,0,0,0,0,0,0,0,0,0,0,0,0,0,0,0,0,0,0,0,0,0,0,0,0,0,0,0,0,0,0,0,0,0,0,0,0,0,0,0,0,0,0,0,0,0,0,0,0,0,0,0,0,0,0,0,0,0,0,0,0,0,0,0,0,0,0,0,0,0,0,0,0,0,0,0,0,0,0,0,0,0,0,0,0,0,0,0,0,0,0,0,0,0,0,0,0,0,0,0,0,0,0,0,0,0,0,0,0,0,0,0,0,0,0,0,0,0,0,0,0,0,0,0,0,0,0,0,0,0,0,0,0,0,0,0,0,0,0,0,0,0,0,0,0,0,0,0,0,0,0,0,0,0,0,0,0,0,0,0,0,0,0,0,0,0,0,0,0,0,0,0,0,0,0,0,0,0,0,0,0,0,0,0,0,0,0,0,0,0,0,0,0,0,0,0,0,0,0,0,0,0,0,0,0,0,0,0,0,0,0,0,0,0,0,0,0,0,0,0,0,0,0,0,0,0,0,0,0,0,0,0,0,0,0,0,0,0,0,0,0,0,0,0,0,0,0,0,0,0,0,0,0,0,0,0,0,0,0,0,0,0,0,0,0,0,0,0,0,0,0,0,0,0,0,0,0,0,0,0,0,0,0,0,0,0,0,0,0,0,0,0,0,0,0,0,0,0,0,0,0,0,0,0,0,0,0,0,0,0,0,0,0,0,0,0,0,0,0,0,0,0,0,0,0,0,0,0,0,0,0,0,0,0,0,0,0,0,0,0,0,0,0,0,0,0,0,0,0,0,0,0,0,0,0,0,0,0,0,0,0,0,0,0,0,0,0,0,0,0,0,0,0,0,0,0,0,0,0,0,0,0,0,0,0,0,0,0,0,0,0,0,0,0,0,0,0,0,0,0,0,0,0,0,0,0,0,0,0,0,0,0,0,0,0,0,0,0,0,0,0,0,0,0,0,0,0,0,0,0,0,0,0,0,0,0,0,0,0,0,0,0,0,0,0,0,0,0,0,0,0,0,0,0,0,0,0,0,0,0,0,0,0,0,0,0,0,0,0,0,0,0,0,0,0,0,0,0,0,0,0,0,0,0,0,0,0,0,0,0,0,0,0,0,0,0,0,0,0,0,0,0,0,0,0,0,0,0,0,0,0,0,0,0,0,0,0,0,0,0,0,0,0,0,0,0,0,0,0,0,0,0,0,0,0,0,0,0,0,0,0,0,0,0,0,0,0,0,0,0,0,0,0,0,0,0,0,0,0,0,0,0,0,0,0,0,0,0,0,0,0,0,0,0,0,0,0,0,0,0,0,0,0,0,0,0,0,0,0,0,0,0,0,0,0,0,0,0,0,0,0,0,0,0,0,0,0,0,0,0,0,0,0,0,0,0,0,0,0,0,0,0,0,0,0,0,0,0,0,0,0,0,0,0,0,0,0,0,0,0,0,0,0,0,0,0,0,0,0,0,0,0,0,0,0,0,0,0,0,0,0,0,0,0,0,0,0,0,0,0,0,0,0,0,0,0,0,0,0,0,0,0,0,0,0,0,0,0,0,0,0,0,0,0,0,0,0,0,0,0,0,0,0,0,0,0,0,0,0,0,0,0,0,0,0,0,0,0,0,0,0,0,0,0,0,0,0,0,0,0,0,0,0,0,0,0,0,0,0,0,0,0,0,0,0,0,0,0,0,0,0,0,0,0,0,0,0,0,0,0,0,0,0,0,0,0,0,0,0,0,0,0,0,0,0,0,0,0,0,0,0,0,0,0,0,0,0,0,0,0,0,0,0,0,0,0,0,0,0,0,0,0,0,0,0,0,0,0,0,0,0,0,0,0,0,0,0,0,0,0,0,0,0,0,0,0,0,0,0,0,0,0,0,0,0,0,0,0,0,0,0,0,0,0,0,0,0,0,0,0,0,0,0,0,0,0,0,0,0,0,0,0,0,0,0,0,0,0,0,0,0,0,0,0,0,0,0,0,0,0,0,0,0,0,0,0,0,0,0,0,0,0,0,0,0,0,0,0,0,0,0,0,0,0,0,0,0,0,0,0,0,0,0,0,0,0,0,0,0,0,0,0,0,0,0,0,0,0,0,0,0,0,0,0,0,0,0,0,0,0,0,0,0,0,0,0,0,0,0,0,0,0,0,0,0,0,0,0,0,0,0,0,0,0,0,0,0,0,0,0,0,0,0,0,0,0,0,0,0,0,0,0,0,0,0,0,0,0,0,0,0,0,0,0,0,0,0,0,0,0,0,0,0,0,0,0,0,0,0,0,0,0,0,0,0,0,0,0,0,0,0,0,0,0,0,0,0,0,0,0,0,0,0,0,0,0,0,0,0,0,0,0,0,0,0,0,0,0,0,0,0,0,0,0,0,0,0,0,0,0,0,0,0,0,0,0,0,0,0,0,0,0,0,0,0,0,0,0,0,0,0,0,0,0,0,0,0,0,0,0,0,0,0,0,0,0,0,0,0,0,0,0,0,0,0,0,0,0,0,0,0,0,0,0,0,0,0,0,0,0,0,0,0,0,0,0,0,0,0,0,0,0,0,0,0,0,0,0,0,0,0,0,0,0,0,0,0,0,0,0,0,0,0,0,0,0,0,0,0,0,0,0,0,0,0,0,0,0,0,0,0,0,0,0,0,0,0,0,0,0,0,0,0,0,0,0,0,0,0,0,0,0,0,0,0,0,0,0,0,0,0,0,0,0,0,0,0,0,0,0,0,0,0,0,0,0,0,0,0,0,0,0,0,0,0,0,0,0,0,0,0,0,0,0,0,0,0,0,0,0,0,0,0,0,0,0,0,0,0,0,0,0,0,0,0,0,0,0,0,0,0,0,0,0,0,0,0,0,0,0,0,0,0,0,0,0,0,0,0,0,0,0,0,0,0,0,0,0,0,0,0,0,0,0,0,0,0,0,0,0,0,0,0,0,0,0,0,0,0,0,0,0,0,0,0,0,0,0,0,0,0,0,0,0,0,0,0,0,0,0,0,0,0,0,0,0,0,0,0,0,0,0,0,0,0,0,0,0,0,0,0,0,0,0,0,0,0,0,0,0,0,0,0,0,0,0,0,0,0,0,0,0,0,0,0,0,0,0,0,0,0,0,0,0,0,0,0,0,0,0,0,0,0,0,0,0,0,0,0,0,0,0,0,0,0,0,0,0,0,0,0,0,0,0,0,0,0,0,0,0,0,0,0,0,0,0,0,0,0,0,0,0,0,0,0,0,0,0,0,0,0,0,0,0,0,0,0,0,0,0,0,0,0,0,0,0,0,0,0,0,0,0,0,0,0,0,0,0,0,0,0,0,0,0,0,0,0,0,0,0,0,0,0,0,0,0,0,0,0,0,0,0,0,0,0,0,0,0,0,0,0,0,0,0,0,0,0,0,0,0,0,0,0,0,0,0,0,0,0,0,0,0,0,0,0,0,0,0,0,0,0,0,0,0,0,0,0,0,0,0,0,0,0,0,0,0,0,0,0,0,0,0,0,0,0,0,0,0,0,0,0,0,0,0,0,0,0,0,0,0,0,0,0,0,0,0,0,0,0,0,0,0,0,0,0,0,0,0,0,0,0,0,0,0,0,0,0,0,0,0,0,0,0,0,0,0,0,0,0,0,0,0,0,0,0,0,0,0,0,0,0,0,0,0,0,0,0,0,0,0,0,0,0,0,0,0,0,0,0,0,0,0,0,0,0,0,0,0,0,0,0,0,0,0,0,0,0,0,0,0,0,0,0,0,0,0,0,0,0,0,0,0,0,0,0,0,0,0,0,0,0,0,0,0,0,0,0,0,0,0,0,0,0,0,0,0,0,0,0,0,0,0,0,0,0,0,0,0,0,0,0,0,0,0,0,0,0,0,0,0,0,0,0,0,0,0,0,0,0,0,0,0,0,0,0,0,0,0,0,0,0,0,0,0,0,0,0,0,0,0,0,0,0,0,0,0,0,0,0,0,0,0,0,0,0,0,0,0,0,0,0,0,0,0,0,0,0,0,0,0,0,0,0,0,0,0,0,0,0,0,0,0,0,0,0,0,0,0,0,0,0,0,0,0,0,0,0,0,0,0,0,0,0,0,0,0,0,0,0,0,0,0,0,0,0,0,0,0,0,0,0,0,0,0,0,0,0,0,0,0,0,0,0,0,0,0,0,0,0,0,0,0,0,0,0,0,0,0,0,0,0,0,0,0,0,0,0,0,0,0,0,0,0,0,0,0,0,0,0,0,0,0,0,0,0,0,0,0,0,0,0,0,0,0,0,0,0,0,0,0,0,0,0,0,0,0,0,0,0,0,0,0,0,0,0,0,0,0,0,0,0,0,0,0,0,0,0,0,0,0,0,0,0,0,0,0,0,0,0,0,0,0,0,0,0,0,0,0,0,0,0,0,0,0,0,0,0,0,0,0,0,0,0,0,0,0,0,0,0,0,0,0,0,0,0,0,0,0,0,0,0,0,0,0,0,0,0,0,0,0,0,0,0,0,0,0,0,0,0,0,0,0,0,0,0,0,0,0,0,0,0,0,0,0,0,0,0,0,0,0,0,0,0,0,0,0,0,0,0,0,0,0,0,0,0,0,0,0,0,0,0,0,0,0,0,0,0,0,0,0,0,0,0,0,0,0,0,0,0,0,0,0,0,0,0,0,0,0,0,0,0,0,0,0,0,0,0,0,0,0,0,0,0,0,0,0]}],"tilesets":[{"firstgid":1,"source":"../Metano_Canonique_8px.tsj"}]}